; *************************************************
; *************************************************
; ******* File generated by Extruder Turtle *******
; ******* written by Leah Buechley and  ***********
; ******* and Franklin Pezutti-Dyer ***************
; **** Hand and Machine Lab, UNM, 2021-present ****
; *************************************************
; *************************************************
; *************** Lutum initialization **************
; 400 x 460 x 800 build volume
; T0 extruder 0
; T1 extruder 1

G28            ; Home
G21	           ; Metric units
G90            ; Absolute positioning
M82            ; Absolute extrusion
M302           ; Allow cold extrusion

G1 Z15.0 F1500 ; Move up 15mm to extrude
G92 E0         ; Zero extruder
; G1 F2000 E5    ; Prime Extruder: Extrude some clay
G92 E0         ; Zero extruder

G0 F2000 X200.0 Y200.0 Z1.0 ; Move to starting position
M83 					  ; Relative extrustion
G91                       ; Relative coordinates for X,Y,Z axes
T0				; Use extruder 0

G1 F1200
; ********** End printer initialization ***********
; *************************************************

; ***************** Print parameters **************
; Nozzle size: 3.0
; Extrude width: 3.4
; Layer height: 2.2
; Extrude rate: 0.6
; Speed: 1200
; Mix Factor: 0.9
; *************************************************

G1 E9.0
; starting solid layer
G1 E2
; travel
G0 X3.4 Y0.0
G1 F1200 
; starting polygon
G1 X-0.038 Y-0.5072 E0.3052
G1 X-0.1132 Y-0.4959 E0.3052
G1 X-0.1858 Y-0.4735 E0.3052
G1 X-0.2543 Y-0.4405 E0.3052
G1 X-0.3171 Y-0.3977 E0.3052
G1 X-0.3729 Y-0.346 E0.3052
G1 X-0.4203 Y-0.2865 E0.3052
G1 X-0.4583 Y-0.2207 E0.3052
G1 X-0.486 Y-0.1499 E0.3052
G1 X-0.503 Y-0.0758 E0.3052
G1 X-0.5086 Y-0.0 E0.3052
G1 X-0.503 Y0.0758 E0.3052
G1 X-0.486 Y0.1499 E0.3052
G1 X-0.4583 Y0.2207 E0.3052
G1 X-0.4203 Y0.2865 E0.3052
G1 X-0.3729 Y0.346 E0.3052
G1 X-0.3171 Y0.3977 E0.3052
G1 X-0.2543 Y0.4405 E0.3052
G1 X-0.1858 Y0.4735 E0.3052
G1 X-0.1132 Y0.4959 E0.3052
G1 X-0.038 Y0.5072 E0.3052
G1 X0.038 Y0.5072 E0.3052
G1 X0.1132 Y0.4959 E0.3052
G1 X0.1858 Y0.4735 E0.3052
G1 X0.2543 Y0.4405 E0.3052
G1 X0.3171 Y0.3977 E0.3052
G1 X0.3729 Y0.346 E0.3052
G1 X0.4203 Y0.2865 E0.3052
G1 X0.4583 Y0.2207 E0.3052
G1 X0.486 Y0.1499 E0.3052
G1 X0.503 Y0.0758 E0.3052
G1 X0.5086 Y0.0 E0.3052
G1 X0.503 Y-0.0758 E0.3052
G1 X0.486 Y-0.1499 E0.3052
G1 X0.4583 Y-0.2207 E0.3052
G1 X0.4203 Y-0.2865 E0.3052
G1 X0.3729 Y-0.346 E0.3052
G1 X0.3171 Y-0.3977 E0.3052
G1 X0.2543 Y-0.4405 E0.3052
G1 X0.1858 Y-0.4735 E0.3052
G1 X0.1132 Y-0.4959 E0.3052
G1 X0.038 Y-0.5072 E0.3052
G1 X3.4 Y0.0 E2.04
G1 F1200 
; starting polygon
G1 X-0.0186 Y-0.5023 E0.3016
G1 X-0.0556 Y-0.4996 E0.3016
G1 X-0.0924 Y-0.4941 E0.3016
G1 X-0.1286 Y-0.4859 E0.3016
G1 X-0.1641 Y-0.4751 E0.3016
G1 X-0.1988 Y-0.4617 E0.3016
G1 X-0.2323 Y-0.4457 E0.3016
G1 X-0.2646 Y-0.4274 E0.3016
G1 X-0.2955 Y-0.4067 E0.3016
G1 X-0.3247 Y-0.3837 E0.3016
G1 X-0.3521 Y-0.3587 E0.3016
G1 X-0.3777 Y-0.3317 E0.3016
G1 X-0.4011 Y-0.3029 E0.3016
G1 X-0.4224 Y-0.2725 E0.3016
G1 X-0.4414 Y-0.2405 E0.3016
G1 X-0.4579 Y-0.2073 E0.3016
G1 X-0.472 Y-0.1729 E0.3016
G1 X-0.4835 Y-0.1376 E0.3016
G1 X-0.4923 Y-0.1015 E0.3016
G1 X-0.4985 Y-0.0648 E0.3016
G1 X-0.5019 Y-0.0279 E0.3016
G1 X-0.5026 Y0.0093 E0.3016
G1 X-0.5005 Y0.0464 E0.3016
G1 X-0.4957 Y0.0832 E0.3016
G1 X-0.4882 Y0.1196 E0.3016
G1 X-0.4781 Y0.1553 E0.3016
G1 X-0.4653 Y0.1902 E0.3016
G1 X-0.45 Y0.2241 E0.3016
G1 X-0.4322 Y0.2567 E0.3016
G1 X-0.412 Y0.2879 E0.3016
G1 X-0.3897 Y0.3175 E0.3016
G1 X-0.3651 Y0.3454 E0.3016
G1 X-0.3386 Y0.3715 E0.3016
G1 X-0.3103 Y0.3955 E0.3016
G1 X-0.2802 Y0.4173 E0.3016
G1 X-0.2486 Y0.4369 E0.3016
G1 X-0.2157 Y0.454 E0.3016
G1 X-0.1816 Y0.4687 E0.3016
G1 X-0.1465 Y0.4808 E0.3016
G1 X-0.1106 Y0.4903 E0.3016
G1 X-0.074 Y0.4972 E0.3016
G1 X-0.0371 Y0.5013 E0.3016
G1 X-0.0 Y0.5027 E0.3016
G1 X0.0371 Y0.5013 E0.3016
G1 X0.074 Y0.4972 E0.3016
G1 X0.1106 Y0.4903 E0.3016
G1 X0.1465 Y0.4808 E0.3016
G1 X0.1816 Y0.4687 E0.3016
G1 X0.2157 Y0.454 E0.3016
G1 X0.2486 Y0.4369 E0.3016
G1 X0.2802 Y0.4173 E0.3016
G1 X0.3103 Y0.3955 E0.3016
G1 X0.3386 Y0.3715 E0.3016
G1 X0.3651 Y0.3454 E0.3016
G1 X0.3897 Y0.3175 E0.3016
G1 X0.412 Y0.2879 E0.3016
G1 X0.4322 Y0.2567 E0.3016
G1 X0.45 Y0.2241 E0.3016
G1 X0.4653 Y0.1902 E0.3016
G1 X0.4781 Y0.1553 E0.3016
G1 X0.4882 Y0.1196 E0.3016
G1 X0.4957 Y0.0832 E0.3016
G1 X0.5005 Y0.0464 E0.3016
G1 X0.5026 Y0.0093 E0.3016
G1 X0.5019 Y-0.0279 E0.3016
G1 X0.4985 Y-0.0648 E0.3016
G1 X0.4923 Y-0.1015 E0.3016
G1 X0.4835 Y-0.1376 E0.3016
G1 X0.472 Y-0.1729 E0.3016
G1 X0.4579 Y-0.2073 E0.3016
G1 X0.4414 Y-0.2405 E0.3016
G1 X0.4224 Y-0.2725 E0.3016
G1 X0.4011 Y-0.3029 E0.3016
G1 X0.3777 Y-0.3317 E0.3016
G1 X0.3521 Y-0.3587 E0.3016
G1 X0.3247 Y-0.3837 E0.3016
G1 X0.2955 Y-0.4067 E0.3016
G1 X0.2646 Y-0.4274 E0.3016
G1 X0.2323 Y-0.4457 E0.3016
G1 X0.1988 Y-0.4617 E0.3016
G1 X0.1641 Y-0.4751 E0.3016
G1 X0.1286 Y-0.4859 E0.3016
G1 X0.0924 Y-0.4941 E0.3016
G1 X0.0556 Y-0.4996 E0.3016
G1 X0.0186 Y-0.5023 E0.3016
G1 X3.4 Y0.0 E2.04
G1 F1200 
; starting polygon
G1 X-0.0201 Y-0.6406 E0.3845
G1 X-0.0603 Y-0.638 E0.3845
G1 X-0.1003 Y-0.633 E0.3845
G1 X-0.1398 Y-0.6255 E0.3845
G1 X-0.1788 Y-0.6154 E0.3845
G1 X-0.2171 Y-0.603 E0.3845
G1 X-0.2545 Y-0.5882 E0.3845
G1 X-0.291 Y-0.571 E0.3845
G1 X-0.3262 Y-0.5516 E0.3845
G1 X-0.3602 Y-0.5301 E0.3845
G1 X-0.3928 Y-0.5064 E0.3845
G1 X-0.4238 Y-0.4807 E0.3845
G1 X-0.4532 Y-0.4532 E0.3845
G1 X-0.4807 Y-0.4238 E0.3845
G1 X-0.5064 Y-0.3928 E0.3845
G1 X-0.5301 Y-0.3602 E0.3845
G1 X-0.5516 Y-0.3262 E0.3845
G1 X-0.571 Y-0.291 E0.3845
G1 X-0.5882 Y-0.2545 E0.3845
G1 X-0.603 Y-0.2171 E0.3845
G1 X-0.6154 Y-0.1788 E0.3845
G1 X-0.6255 Y-0.1398 E0.3845
G1 X-0.633 Y-0.1003 E0.3845
G1 X-0.638 Y-0.0603 E0.3845
G1 X-0.6406 Y-0.0201 E0.3845
G1 X-0.6406 Y0.0201 E0.3845
G1 X-0.638 Y0.0603 E0.3845
G1 X-0.633 Y0.1003 E0.3845
G1 X-0.6255 Y0.1398 E0.3845
G1 X-0.6154 Y0.1788 E0.3845
G1 X-0.603 Y0.2171 E0.3845
G1 X-0.5882 Y0.2545 E0.3845
G1 X-0.571 Y0.291 E0.3845
G1 X-0.5516 Y0.3262 E0.3845
G1 X-0.5301 Y0.3602 E0.3845
G1 X-0.5064 Y0.3928 E0.3845
G1 X-0.4807 Y0.4238 E0.3845
G1 X-0.4532 Y0.4532 E0.3845
G1 X-0.4238 Y0.4807 E0.3845
G1 X-0.3928 Y0.5064 E0.3845
G1 X-0.3602 Y0.5301 E0.3845
G1 X-0.3262 Y0.5516 E0.3845
G1 X-0.291 Y0.571 E0.3845
G1 X-0.2545 Y0.5882 E0.3845
G1 X-0.2171 Y0.603 E0.3845
G1 X-0.1788 Y0.6154 E0.3845
G1 X-0.1398 Y0.6255 E0.3845
G1 X-0.1003 Y0.633 E0.3845
G1 X-0.0603 Y0.638 E0.3845
G1 X-0.0201 Y0.6406 E0.3845
G1 X0.0201 Y0.6406 E0.3845
G1 X0.0603 Y0.638 E0.3845
G1 X0.1003 Y0.633 E0.3845
G1 X0.1398 Y0.6255 E0.3845
G1 X0.1788 Y0.6154 E0.3845
G1 X0.2171 Y0.603 E0.3845
G1 X0.2545 Y0.5882 E0.3845
G1 X0.291 Y0.571 E0.3845
G1 X0.3262 Y0.5516 E0.3845
G1 X0.3602 Y0.5301 E0.3845
G1 X0.3928 Y0.5064 E0.3845
G1 X0.4238 Y0.4807 E0.3845
G1 X0.4532 Y0.4532 E0.3845
G1 X0.4807 Y0.4238 E0.3845
G1 X0.5064 Y0.3928 E0.3845
G1 X0.5301 Y0.3602 E0.3845
G1 X0.5516 Y0.3262 E0.3845
G1 X0.571 Y0.291 E0.3845
G1 X0.5882 Y0.2545 E0.3845
G1 X0.603 Y0.2171 E0.3845
G1 X0.6154 Y0.1788 E0.3845
G1 X0.6255 Y0.1398 E0.3845
G1 X0.633 Y0.1003 E0.3845
G1 X0.638 Y0.0603 E0.3845
G1 X0.6406 Y0.0201 E0.3845
G1 X0.6406 Y-0.0201 E0.3845
G1 X0.638 Y-0.0603 E0.3845
G1 X0.633 Y-0.1003 E0.3845
G1 X0.6255 Y-0.1398 E0.3845
G1 X0.6154 Y-0.1788 E0.3845
G1 X0.603 Y-0.2171 E0.3845
G1 X0.5882 Y-0.2545 E0.3845
G1 X0.571 Y-0.291 E0.3845
G1 X0.5516 Y-0.3262 E0.3845
G1 X0.5301 Y-0.3602 E0.3845
G1 X0.5064 Y-0.3928 E0.3845
G1 X0.4807 Y-0.4238 E0.3845
G1 X0.4532 Y-0.4532 E0.3845
G1 X0.4238 Y-0.4807 E0.3845
G1 X0.3928 Y-0.5064 E0.3845
G1 X0.3602 Y-0.5301 E0.3845
G1 X0.3262 Y-0.5516 E0.3845
G1 X0.291 Y-0.571 E0.3845
G1 X0.2545 Y-0.5882 E0.3845
G1 X0.2171 Y-0.603 E0.3845
G1 X0.1788 Y-0.6154 E0.3845
G1 X0.1398 Y-0.6255 E0.3845
G1 X0.1003 Y-0.633 E0.3845
G1 X0.0603 Y-0.638 E0.3845
G1 X0.0201 Y-0.6406 E0.3845
G1 X3.4 Y0.0 E2.04
G1 F1200 
; starting polygon
G1 X-0.0268 Y-0.8541 E0.5127
G1 X-0.0804 Y-0.8507 E0.5127
G1 X-0.1337 Y-0.844 E0.5127
G1 X-0.1864 Y-0.8339 E0.5127
G1 X-0.2384 Y-0.8206 E0.5127
G1 X-0.2895 Y-0.804 E0.5127
G1 X-0.3394 Y-0.7842 E0.5127
G1 X-0.3879 Y-0.7614 E0.5127
G1 X-0.435 Y-0.7355 E0.5127
G1 X-0.4803 Y-0.7068 E0.5127
G1 X-0.5237 Y-0.6752 E0.5127
G1 X-0.5651 Y-0.641 E0.5127
G1 X-0.6042 Y-0.6042 E0.5127
G1 X-0.641 Y-0.5651 E0.5127
G1 X-0.6752 Y-0.5237 E0.5127
G1 X-0.7068 Y-0.4803 E0.5127
G1 X-0.7355 Y-0.435 E0.5127
G1 X-0.7614 Y-0.3879 E0.5127
G1 X-0.7842 Y-0.3394 E0.5127
G1 X-0.804 Y-0.2895 E0.5127
G1 X-0.8206 Y-0.2384 E0.5127
G1 X-0.8339 Y-0.1864 E0.5127
G1 X-0.844 Y-0.1337 E0.5127
G1 X-0.8507 Y-0.0804 E0.5127
G1 X-0.8541 Y-0.0268 E0.5127
G1 X-0.8541 Y0.0268 E0.5127
G1 X-0.8507 Y0.0804 E0.5127
G1 X-0.844 Y0.1337 E0.5127
G1 X-0.8339 Y0.1864 E0.5127
G1 X-0.8206 Y0.2384 E0.5127
G1 X-0.804 Y0.2895 E0.5127
G1 X-0.7842 Y0.3394 E0.5127
G1 X-0.7614 Y0.3879 E0.5127
G1 X-0.7355 Y0.435 E0.5127
G1 X-0.7068 Y0.4803 E0.5127
G1 X-0.6752 Y0.5237 E0.5127
G1 X-0.641 Y0.5651 E0.5127
G1 X-0.6042 Y0.6042 E0.5127
G1 X-0.5651 Y0.641 E0.5127
G1 X-0.5237 Y0.6752 E0.5127
G1 X-0.4803 Y0.7068 E0.5127
G1 X-0.435 Y0.7355 E0.5127
G1 X-0.3879 Y0.7614 E0.5127
G1 X-0.3394 Y0.7842 E0.5127
G1 X-0.2895 Y0.804 E0.5127
G1 X-0.2384 Y0.8206 E0.5127
G1 X-0.1864 Y0.8339 E0.5127
G1 X-0.1337 Y0.844 E0.5127
G1 X-0.0804 Y0.8507 E0.5127
G1 X-0.0268 Y0.8541 E0.5127
G1 X0.0268 Y0.8541 E0.5127
G1 X0.0804 Y0.8507 E0.5127
G1 X0.1337 Y0.844 E0.5127
G1 X0.1864 Y0.8339 E0.5127
G1 X0.2384 Y0.8206 E0.5127
G1 X0.2895 Y0.804 E0.5127
G1 X0.3394 Y0.7842 E0.5127
G1 X0.3879 Y0.7614 E0.5127
G1 X0.435 Y0.7355 E0.5127
G1 X0.4803 Y0.7068 E0.5127
G1 X0.5237 Y0.6752 E0.5127
G1 X0.5651 Y0.641 E0.5127
G1 X0.6042 Y0.6042 E0.5127
G1 X0.641 Y0.5651 E0.5127
G1 X0.6752 Y0.5237 E0.5127
G1 X0.7068 Y0.4803 E0.5127
G1 X0.7355 Y0.435 E0.5127
G1 X0.7614 Y0.3879 E0.5127
G1 X0.7842 Y0.3394 E0.5127
G1 X0.804 Y0.2895 E0.5127
G1 X0.8206 Y0.2384 E0.5127
G1 X0.8339 Y0.1864 E0.5127
G1 X0.844 Y0.1337 E0.5127
G1 X0.8507 Y0.0804 E0.5127
G1 X0.8541 Y0.0268 E0.5127
G1 X0.8541 Y-0.0268 E0.5127
G1 X0.8507 Y-0.0804 E0.5127
G1 X0.844 Y-0.1337 E0.5127
G1 X0.8339 Y-0.1864 E0.5127
G1 X0.8206 Y-0.2384 E0.5127
G1 X0.804 Y-0.2895 E0.5127
G1 X0.7842 Y-0.3394 E0.5127
G1 X0.7614 Y-0.3879 E0.5127
G1 X0.7355 Y-0.435 E0.5127
G1 X0.7068 Y-0.4803 E0.5127
G1 X0.6752 Y-0.5237 E0.5127
G1 X0.641 Y-0.5651 E0.5127
G1 X0.6042 Y-0.6042 E0.5127
G1 X0.5651 Y-0.641 E0.5127
G1 X0.5237 Y-0.6752 E0.5127
G1 X0.4803 Y-0.7068 E0.5127
G1 X0.435 Y-0.7355 E0.5127
G1 X0.3879 Y-0.7614 E0.5127
G1 X0.3394 Y-0.7842 E0.5127
G1 X0.2895 Y-0.804 E0.5127
G1 X0.2384 Y-0.8206 E0.5127
G1 X0.1864 Y-0.8339 E0.5127
G1 X0.1337 Y-0.844 E0.5127
G1 X0.0804 Y-0.8507 E0.5127
G1 X0.0268 Y-0.8541 E0.5127
G1 X3.4 Y0.0 E2.04
G1 F1200 
; starting polygon
G1 X-0.0336 Y-1.0676 E0.6409
G1 X-0.1005 Y-1.0634 E0.6409
G1 X-0.1671 Y-1.055 E0.6409
G1 X-0.233 Y-1.0424 E0.6409
G1 X-0.298 Y-1.0257 E0.6409
G1 X-0.3618 Y-1.005 E0.6409
G1 X-0.4242 Y-0.9803 E0.6409
G1 X-0.4849 Y-0.9517 E0.6409
G1 X-0.5437 Y-0.9194 E0.6409
G1 X-0.6004 Y-0.8834 E0.6409
G1 X-0.6547 Y-0.844 E0.6409
G1 X-0.7064 Y-0.8012 E0.6409
G1 X-0.7553 Y-0.7553 E0.6409
G1 X-0.8012 Y-0.7064 E0.6409
G1 X-0.844 Y-0.6547 E0.6409
G1 X-0.8834 Y-0.6004 E0.6409
G1 X-0.9194 Y-0.5437 E0.6409
G1 X-0.9517 Y-0.4849 E0.6409
G1 X-0.9803 Y-0.4242 E0.6409
G1 X-1.005 Y-0.3618 E0.6409
G1 X-1.0257 Y-0.298 E0.6409
G1 X-1.0424 Y-0.233 E0.6409
G1 X-1.055 Y-0.1671 E0.6409
G1 X-1.0634 Y-0.1005 E0.6409
G1 X-1.0676 Y-0.0336 E0.6409
G1 X-1.0676 Y0.0336 E0.6409
G1 X-1.0634 Y0.1005 E0.6409
G1 X-1.055 Y0.1671 E0.6409
G1 X-1.0424 Y0.233 E0.6409
G1 X-1.0257 Y0.298 E0.6409
G1 X-1.005 Y0.3618 E0.6409
G1 X-0.9803 Y0.4242 E0.6409
G1 X-0.9517 Y0.4849 E0.6409
G1 X-0.9194 Y0.5437 E0.6409
G1 X-0.8834 Y0.6004 E0.6409
G1 X-0.844 Y0.6547 E0.6409
G1 X-0.8012 Y0.7064 E0.6409
G1 X-0.7553 Y0.7553 E0.6409
G1 X-0.7064 Y0.8012 E0.6409
G1 X-0.6547 Y0.844 E0.6409
G1 X-0.6004 Y0.8834 E0.6409
G1 X-0.5437 Y0.9194 E0.6409
G1 X-0.4849 Y0.9517 E0.6409
G1 X-0.4242 Y0.9803 E0.6409
G1 X-0.3618 Y1.005 E0.6409
G1 X-0.298 Y1.0257 E0.6409
G1 X-0.233 Y1.0424 E0.6409
G1 X-0.1671 Y1.055 E0.6409
G1 X-0.1005 Y1.0634 E0.6409
G1 X-0.0336 Y1.0676 E0.6409
G1 X0.0336 Y1.0676 E0.6409
G1 X0.1005 Y1.0634 E0.6409
G1 X0.1671 Y1.055 E0.6409
G1 X0.233 Y1.0424 E0.6409
G1 X0.298 Y1.0257 E0.6409
G1 X0.3618 Y1.005 E0.6409
G1 X0.4242 Y0.9803 E0.6409
G1 X0.4849 Y0.9517 E0.6409
G1 X0.5437 Y0.9194 E0.6409
G1 X0.6004 Y0.8834 E0.6409
G1 X0.6547 Y0.844 E0.6409
G1 X0.7064 Y0.8012 E0.6409
G1 X0.7553 Y0.7553 E0.6409
G1 X0.8012 Y0.7064 E0.6409
G1 X0.844 Y0.6547 E0.6409
G1 X0.8834 Y0.6004 E0.6409
G1 X0.9194 Y0.5437 E0.6409
G1 X0.9517 Y0.4849 E0.6409
G1 X0.9803 Y0.4242 E0.6409
G1 X1.005 Y0.3618 E0.6409
G1 X1.0257 Y0.298 E0.6409
G1 X1.0424 Y0.233 E0.6409
G1 X1.055 Y0.1671 E0.6409
G1 X1.0634 Y0.1005 E0.6409
G1 X1.0676 Y0.0336 E0.6409
G1 X1.0676 Y-0.0336 E0.6409
G1 X1.0634 Y-0.1005 E0.6409
G1 X1.055 Y-0.1671 E0.6409
G1 X1.0424 Y-0.233 E0.6409
G1 X1.0257 Y-0.298 E0.6409
G1 X1.005 Y-0.3618 E0.6409
G1 X0.9803 Y-0.4242 E0.6409
G1 X0.9517 Y-0.4849 E0.6409
G1 X0.9194 Y-0.5437 E0.6409
G1 X0.8834 Y-0.6004 E0.6409
G1 X0.844 Y-0.6547 E0.6409
G1 X0.8012 Y-0.7064 E0.6409
G1 X0.7553 Y-0.7553 E0.6409
G1 X0.7064 Y-0.8012 E0.6409
G1 X0.6547 Y-0.844 E0.6409
G1 X0.6004 Y-0.8834 E0.6409
G1 X0.5437 Y-0.9194 E0.6409
G1 X0.4849 Y-0.9517 E0.6409
G1 X0.4242 Y-0.9803 E0.6409
G1 X0.3618 Y-1.005 E0.6409
G1 X0.298 Y-1.0257 E0.6409
G1 X0.233 Y-1.0424 E0.6409
G1 X0.1671 Y-1.055 E0.6409
G1 X0.1005 Y-1.0634 E0.6409
G1 X0.0336 Y-1.0676 E0.6409
G1 X3.4 Y0.0 E2.04
G1 F1200 
; starting polygon
G1 X-0.0403 Y-1.2811 E0.7691
G1 X-0.1206 Y-1.2761 E0.7691
G1 X-0.2005 Y-1.266 E0.7691
G1 X-0.2796 Y-1.2509 E0.7691
G1 X-0.3576 Y-1.2309 E0.7691
G1 X-0.4342 Y-1.206 E0.7691
G1 X-0.5091 Y-1.1764 E0.7691
G1 X-0.5819 Y-1.1421 E0.7691
G1 X-0.6525 Y-1.1033 E0.7691
G1 X-0.7205 Y-1.0601 E0.7691
G1 X-0.7856 Y-1.0128 E0.7691
G1 X-0.8476 Y-0.9615 E0.7691
G1 X-0.9063 Y-0.9063 E0.7691
G1 X-0.9615 Y-0.8476 E0.7691
G1 X-1.0128 Y-0.7856 E0.7691
G1 X-1.0601 Y-0.7205 E0.7691
G1 X-1.1033 Y-0.6525 E0.7691
G1 X-1.1421 Y-0.5819 E0.7691
G1 X-1.1764 Y-0.5091 E0.7691
G1 X-1.206 Y-0.4342 E0.7691
G1 X-1.2309 Y-0.3576 E0.7691
G1 X-1.2509 Y-0.2796 E0.7691
G1 X-1.266 Y-0.2005 E0.7691
G1 X-1.2761 Y-0.1206 E0.7691
G1 X-1.2811 Y-0.0403 E0.7691
G1 X-1.2811 Y0.0403 E0.7691
G1 X-1.2761 Y0.1206 E0.7691
G1 X-1.266 Y0.2005 E0.7691
G1 X-1.2509 Y0.2796 E0.7691
G1 X-1.2309 Y0.3576 E0.7691
G1 X-1.206 Y0.4342 E0.7691
G1 X-1.1764 Y0.5091 E0.7691
G1 X-1.1421 Y0.5819 E0.7691
G1 X-1.1033 Y0.6525 E0.7691
G1 X-1.0601 Y0.7205 E0.7691
G1 X-1.0128 Y0.7856 E0.7691
G1 X-0.9615 Y0.8476 E0.7691
G1 X-0.9063 Y0.9063 E0.7691
G1 X-0.8476 Y0.9615 E0.7691
G1 X-0.7856 Y1.0128 E0.7691
G1 X-0.7205 Y1.0601 E0.7691
G1 X-0.6525 Y1.1033 E0.7691
G1 X-0.5819 Y1.1421 E0.7691
G1 X-0.5091 Y1.1764 E0.7691
G1 X-0.4342 Y1.206 E0.7691
G1 X-0.3576 Y1.2309 E0.7691
G1 X-0.2796 Y1.2509 E0.7691
G1 X-0.2005 Y1.266 E0.7691
G1 X-0.1206 Y1.2761 E0.7691
G1 X-0.0403 Y1.2811 E0.7691
G1 X0.0403 Y1.2811 E0.7691
G1 X0.1206 Y1.2761 E0.7691
G1 X0.2005 Y1.266 E0.7691
G1 X0.2796 Y1.2509 E0.7691
G1 X0.3576 Y1.2309 E0.7691
G1 X0.4342 Y1.206 E0.7691
G1 X0.5091 Y1.1764 E0.7691
G1 X0.5819 Y1.1421 E0.7691
G1 X0.6525 Y1.1033 E0.7691
G1 X0.7205 Y1.0601 E0.7691
G1 X0.7856 Y1.0128 E0.7691
G1 X0.8476 Y0.9615 E0.7691
G1 X0.9063 Y0.9063 E0.7691
G1 X0.9615 Y0.8476 E0.7691
G1 X1.0128 Y0.7856 E0.7691
G1 X1.0601 Y0.7205 E0.7691
G1 X1.1033 Y0.6525 E0.7691
G1 X1.1421 Y0.5819 E0.7691
G1 X1.1764 Y0.5091 E0.7691
G1 X1.206 Y0.4342 E0.7691
G1 X1.2309 Y0.3576 E0.7691
G1 X1.2509 Y0.2796 E0.7691
G1 X1.266 Y0.2005 E0.7691
G1 X1.2761 Y0.1206 E0.7691
G1 X1.2811 Y0.0403 E0.7691
G1 X1.2811 Y-0.0403 E0.7691
G1 X1.2761 Y-0.1206 E0.7691
G1 X1.266 Y-0.2005 E0.7691
G1 X1.2509 Y-0.2796 E0.7691
G1 X1.2309 Y-0.3576 E0.7691
G1 X1.206 Y-0.4342 E0.7691
G1 X1.1764 Y-0.5091 E0.7691
G1 X1.1421 Y-0.5819 E0.7691
G1 X1.1033 Y-0.6525 E0.7691
G1 X1.0601 Y-0.7205 E0.7691
G1 X1.0128 Y-0.7856 E0.7691
G1 X0.9615 Y-0.8476 E0.7691
G1 X0.9063 Y-0.9063 E0.7691
G1 X0.8476 Y-0.9615 E0.7691
G1 X0.7856 Y-1.0128 E0.7691
G1 X0.7205 Y-1.0601 E0.7691
G1 X0.6525 Y-1.1033 E0.7691
G1 X0.5819 Y-1.1421 E0.7691
G1 X0.5091 Y-1.1764 E0.7691
G1 X0.4342 Y-1.206 E0.7691
G1 X0.3576 Y-1.2309 E0.7691
G1 X0.2796 Y-1.2509 E0.7691
G1 X0.2005 Y-1.266 E0.7691
G1 X0.1206 Y-1.2761 E0.7691
G1 X0.0403 Y-1.2811 E0.7691
G1 X3.4 Y0.0 E2.04
; starting polygon
G1 X-0.047 Y-1.4947 E0.8972
G1 X-0.1407 Y-1.4888 E0.8972
G1 X-0.2339 Y-1.477 E0.8972
G1 X-0.3262 Y-1.4594 E0.8972
G1 X-0.4172 Y-1.436 E0.8972
G1 X-0.5065 Y-1.407 E0.8972
G1 X-0.5939 Y-1.3724 E0.8972
G1 X-0.6789 Y-1.3324 E0.8972
G1 X-0.7612 Y-1.2872 E0.8972
G1 X-0.8405 Y-1.2368 E0.8972
G1 X-0.9165 Y-1.1816 E0.8972
G1 X-0.9889 Y-1.1217 E0.8972
G1 X-1.0574 Y-1.0574 E0.8972
G1 X-1.1217 Y-0.9889 E0.8972
G1 X-1.1816 Y-0.9165 E0.8972
G1 X-1.2368 Y-0.8405 E0.8972
G1 X-1.2872 Y-0.7612 E0.8972
G1 X-1.3324 Y-0.6789 E0.8972
G1 X-1.3724 Y-0.5939 E0.8972
G1 X-1.407 Y-0.5065 E0.8972
G1 X-1.436 Y-0.4172 E0.8972
G1 X-1.4594 Y-0.3262 E0.8972
G1 X-1.477 Y-0.2339 E0.8972
G1 X-1.4888 Y-0.1407 E0.8972
G1 X-1.4947 Y-0.047 E0.8972
G1 X-1.4947 Y0.047 E0.8972
G1 X-1.4888 Y0.1407 E0.8972
G1 X-1.477 Y0.2339 E0.8972
G1 X-1.4594 Y0.3262 E0.8972
G1 X-1.436 Y0.4172 E0.8972
G1 X-1.407 Y0.5065 E0.8972
G1 X-1.3724 Y0.5939 E0.8972
G1 X-1.3324 Y0.6789 E0.8972
G1 X-1.2872 Y0.7612 E0.8972
G1 X-1.2368 Y0.8405 E0.8972
G1 X-1.1816 Y0.9165 E0.8972
G1 X-1.1217 Y0.9889 E0.8972
G1 X-1.0574 Y1.0574 E0.8972
G1 X-0.9889 Y1.1217 E0.8972
G1 X-0.9165 Y1.1816 E0.8972
G1 X-0.8405 Y1.2368 E0.8972
G1 X-0.7612 Y1.2872 E0.8972
G1 X-0.6789 Y1.3324 E0.8972
G1 X-0.5939 Y1.3724 E0.8972
G1 X-0.5065 Y1.407 E0.8972
G1 X-0.4172 Y1.436 E0.8972
G1 X-0.3262 Y1.4594 E0.8972
G1 X-0.2339 Y1.477 E0.8972
G1 X-0.1407 Y1.4888 E0.8972
G1 X-0.047 Y1.4947 E0.8972
G1 X0.047 Y1.4947 E0.8972
G1 X0.1407 Y1.4888 E0.8972
G1 X0.2339 Y1.477 E0.8972
G1 X0.3262 Y1.4594 E0.8972
G1 X0.4172 Y1.436 E0.8972
G1 X0.5065 Y1.407 E0.8972
G1 X0.5939 Y1.3724 E0.8972
G1 X0.6789 Y1.3324 E0.8972
G1 X0.7612 Y1.2872 E0.8972
G1 X0.8405 Y1.2368 E0.8972
G1 X0.9165 Y1.1816 E0.8972
G1 X0.9889 Y1.1217 E0.8972
G1 X1.0574 Y1.0574 E0.8972
G1 X1.1217 Y0.9889 E0.8972
G1 X1.1816 Y0.9165 E0.8972
G1 X1.2368 Y0.8405 E0.8972
G1 X1.2872 Y0.7612 E0.8972
G1 X1.3324 Y0.6789 E0.8972
G1 X1.3724 Y0.5939 E0.8972
G1 X1.407 Y0.5065 E0.8972
G1 X1.436 Y0.4172 E0.8972
G1 X1.4594 Y0.3262 E0.8972
G1 X1.477 Y0.2339 E0.8972
G1 X1.4888 Y0.1407 E0.8972
G1 X1.4947 Y0.047 E0.8972
G1 X1.4947 Y-0.047 E0.8972
G1 X1.4888 Y-0.1407 E0.8972
G1 X1.477 Y-0.2339 E0.8972
G1 X1.4594 Y-0.3262 E0.8972
G1 X1.436 Y-0.4172 E0.8972
G1 X1.407 Y-0.5065 E0.8972
G1 X1.3724 Y-0.5939 E0.8972
G1 X1.3324 Y-0.6789 E0.8972
G1 X1.2872 Y-0.7612 E0.8972
G1 X1.2368 Y-0.8405 E0.8972
G1 X1.1816 Y-0.9165 E0.8972
G1 X1.1217 Y-0.9889 E0.8972
G1 X1.0574 Y-1.0574 E0.8972
G1 X0.9889 Y-1.1217 E0.8972
G1 X0.9165 Y-1.1816 E0.8972
G1 X0.8405 Y-1.2368 E0.8972
G1 X0.7612 Y-1.2872 E0.8972
G1 X0.6789 Y-1.3324 E0.8972
G1 X0.5939 Y-1.3724 E0.8972
G1 X0.5065 Y-1.407 E0.8972
G1 X0.4172 Y-1.436 E0.8972
G1 X0.3262 Y-1.4594 E0.8972
G1 X0.2339 Y-1.477 E0.8972
G1 X0.1407 Y-1.4888 E0.8972
G1 X0.047 Y-1.4947 E0.8972
; travel
G0 X2.7 Y0.0
; travel
G1 Z11.0
; travel
G0 X-26.5 Y-0.0 Z-11.0
G1 F1200 
; new layer
G1 Z2.2
; starting solid layer
G1 E2
; travel
G0 X1.7 Y0.0
G1 F1200 
; starting polygon
G1 X-0.0758 Y-0.503 E0.3052
G1 X-0.2207 Y-0.4583 E0.3052
G1 X-0.346 Y-0.3729 E0.3052
G1 X-0.4405 Y-0.2543 E0.3052
G1 X-0.4959 Y-0.1132 E0.3052
G1 X-0.5072 Y0.038 E0.3052
G1 X-0.4735 Y0.1858 E0.3052
G1 X-0.3977 Y0.3171 E0.3052
G1 X-0.2865 Y0.4203 E0.3052
G1 X-0.1499 Y0.486 E0.3052
G1 X0.0 Y0.5086 E0.3052
G1 X0.1499 Y0.486 E0.3052
G1 X0.2865 Y0.4203 E0.3052
G1 X0.3977 Y0.3171 E0.3052
G1 X0.4735 Y0.1858 E0.3052
G1 X0.5072 Y0.038 E0.3052
G1 X0.4959 Y-0.1132 E0.3052
G1 X0.4405 Y-0.2543 E0.3052
G1 X0.346 Y-0.3729 E0.3052
G1 X0.2207 Y-0.4583 E0.3052
G1 X0.0758 Y-0.503 E0.3052
G1 X3.4 Y0.0 E2.04
G1 F1200 
; starting polygon
G1 X-0.0246 Y-0.5001 E0.3004
G1 X-0.0735 Y-0.4953 E0.3004
G1 X-0.1217 Y-0.4857 E0.3004
G1 X-0.1687 Y-0.4714 E0.3004
G1 X-0.2141 Y-0.4526 E0.3004
G1 X-0.2574 Y-0.4295 E0.3004
G1 X-0.2983 Y-0.4022 E0.3004
G1 X-0.3362 Y-0.371 E0.3004
G1 X-0.371 Y-0.3362 E0.3004
G1 X-0.4022 Y-0.2983 E0.3004
G1 X-0.4295 Y-0.2574 E0.3004
G1 X-0.4526 Y-0.2141 E0.3004
G1 X-0.4714 Y-0.1687 E0.3004
G1 X-0.4857 Y-0.1217 E0.3004
G1 X-0.4953 Y-0.0735 E0.3004
G1 X-0.5001 Y-0.0246 E0.3004
G1 X-0.5001 Y0.0246 E0.3004
G1 X-0.4953 Y0.0735 E0.3004
G1 X-0.4857 Y0.1217 E0.3004
G1 X-0.4714 Y0.1687 E0.3004
G1 X-0.4526 Y0.2141 E0.3004
G1 X-0.4295 Y0.2574 E0.3004
G1 X-0.4022 Y0.2983 E0.3004
G1 X-0.371 Y0.3362 E0.3004
G1 X-0.3362 Y0.371 E0.3004
G1 X-0.2983 Y0.4022 E0.3004
G1 X-0.2574 Y0.4295 E0.3004
G1 X-0.2141 Y0.4526 E0.3004
G1 X-0.1687 Y0.4714 E0.3004
G1 X-0.1217 Y0.4857 E0.3004
G1 X-0.0735 Y0.4953 E0.3004
G1 X-0.0246 Y0.5001 E0.3004
G1 X0.0246 Y0.5001 E0.3004
G1 X0.0735 Y0.4953 E0.3004
G1 X0.1217 Y0.4857 E0.3004
G1 X0.1687 Y0.4714 E0.3004
G1 X0.2141 Y0.4526 E0.3004
G1 X0.2574 Y0.4295 E0.3004
G1 X0.2983 Y0.4022 E0.3004
G1 X0.3362 Y0.371 E0.3004
G1 X0.371 Y0.3362 E0.3004
G1 X0.4022 Y0.2983 E0.3004
G1 X0.4295 Y0.2574 E0.3004
G1 X0.4526 Y0.2141 E0.3004
G1 X0.4714 Y0.1687 E0.3004
G1 X0.4857 Y0.1217 E0.3004
G1 X0.4953 Y0.0735 E0.3004
G1 X0.5001 Y0.0246 E0.3004
G1 X0.5001 Y-0.0246 E0.3004
G1 X0.4953 Y-0.0735 E0.3004
G1 X0.4857 Y-0.1217 E0.3004
G1 X0.4714 Y-0.1687 E0.3004
G1 X0.4526 Y-0.2141 E0.3004
G1 X0.4295 Y-0.2574 E0.3004
G1 X0.4022 Y-0.2983 E0.3004
G1 X0.371 Y-0.3362 E0.3004
G1 X0.3362 Y-0.371 E0.3004
G1 X0.2983 Y-0.4022 E0.3004
G1 X0.2574 Y-0.4295 E0.3004
G1 X0.2141 Y-0.4526 E0.3004
G1 X0.1687 Y-0.4714 E0.3004
G1 X0.1217 Y-0.4857 E0.3004
G1 X0.0735 Y-0.4953 E0.3004
G1 X0.0246 Y-0.5001 E0.3004
G1 X3.4 Y0.0 E2.04
G1 F1200 
; starting polygon
G1 X-0.0168 Y-0.5338 E0.3204
G1 X-0.0503 Y-0.5317 E0.3204
G1 X-0.0835 Y-0.5275 E0.3204
G1 X-0.1165 Y-0.5212 E0.3204
G1 X-0.149 Y-0.5129 E0.3204
G1 X-0.1809 Y-0.5025 E0.3204
G1 X-0.2121 Y-0.4901 E0.3204
G1 X-0.2425 Y-0.4759 E0.3204
G1 X-0.2719 Y-0.4597 E0.3204
G1 X-0.3002 Y-0.4417 E0.3204
G1 X-0.3273 Y-0.422 E0.3204
G1 X-0.3532 Y-0.4006 E0.3204
G1 X-0.3776 Y-0.3776 E0.3204
G1 X-0.4006 Y-0.3532 E0.3204
G1 X-0.422 Y-0.3273 E0.3204
G1 X-0.4417 Y-0.3002 E0.3204
G1 X-0.4597 Y-0.2719 E0.3204
G1 X-0.4759 Y-0.2425 E0.3204
G1 X-0.4901 Y-0.2121 E0.3204
G1 X-0.5025 Y-0.1809 E0.3204
G1 X-0.5129 Y-0.149 E0.3204
G1 X-0.5212 Y-0.1165 E0.3204
G1 X-0.5275 Y-0.0835 E0.3204
G1 X-0.5317 Y-0.0503 E0.3204
G1 X-0.5338 Y-0.0168 E0.3204
G1 X-0.5338 Y0.0168 E0.3204
G1 X-0.5317 Y0.0503 E0.3204
G1 X-0.5275 Y0.0835 E0.3204
G1 X-0.5212 Y0.1165 E0.3204
G1 X-0.5129 Y0.149 E0.3204
G1 X-0.5025 Y0.1809 E0.3204
G1 X-0.4901 Y0.2121 E0.3204
G1 X-0.4759 Y0.2425 E0.3204
G1 X-0.4597 Y0.2719 E0.3204
G1 X-0.4417 Y0.3002 E0.3204
G1 X-0.422 Y0.3273 E0.3204
G1 X-0.4006 Y0.3532 E0.3204
G1 X-0.3776 Y0.3776 E0.3204
G1 X-0.3532 Y0.4006 E0.3204
G1 X-0.3273 Y0.422 E0.3204
G1 X-0.3002 Y0.4417 E0.3204
G1 X-0.2719 Y0.4597 E0.3204
G1 X-0.2425 Y0.4759 E0.3204
G1 X-0.2121 Y0.4901 E0.3204
G1 X-0.1809 Y0.5025 E0.3204
G1 X-0.149 Y0.5129 E0.3204
G1 X-0.1165 Y0.5212 E0.3204
G1 X-0.0835 Y0.5275 E0.3204
G1 X-0.0503 Y0.5317 E0.3204
G1 X-0.0168 Y0.5338 E0.3204
G1 X0.0168 Y0.5338 E0.3204
G1 X0.0503 Y0.5317 E0.3204
G1 X0.0835 Y0.5275 E0.3204
G1 X0.1165 Y0.5212 E0.3204
G1 X0.149 Y0.5129 E0.3204
G1 X0.1809 Y0.5025 E0.3204
G1 X0.2121 Y0.4901 E0.3204
G1 X0.2425 Y0.4759 E0.3204
G1 X0.2719 Y0.4597 E0.3204
G1 X0.3002 Y0.4417 E0.3204
G1 X0.3273 Y0.422 E0.3204
G1 X0.3532 Y0.4006 E0.3204
G1 X0.3776 Y0.3776 E0.3204
G1 X0.4006 Y0.3532 E0.3204
G1 X0.422 Y0.3273 E0.3204
G1 X0.4417 Y0.3002 E0.3204
G1 X0.4597 Y0.2719 E0.3204
G1 X0.4759 Y0.2425 E0.3204
G1 X0.4901 Y0.2121 E0.3204
G1 X0.5025 Y0.1809 E0.3204
G1 X0.5129 Y0.149 E0.3204
G1 X0.5212 Y0.1165 E0.3204
G1 X0.5275 Y0.0835 E0.3204
G1 X0.5317 Y0.0503 E0.3204
G1 X0.5338 Y0.0168 E0.3204
G1 X0.5338 Y-0.0168 E0.3204
G1 X0.5317 Y-0.0503 E0.3204
G1 X0.5275 Y-0.0835 E0.3204
G1 X0.5212 Y-0.1165 E0.3204
G1 X0.5129 Y-0.149 E0.3204
G1 X0.5025 Y-0.1809 E0.3204
G1 X0.4901 Y-0.2121 E0.3204
G1 X0.4759 Y-0.2425 E0.3204
G1 X0.4597 Y-0.2719 E0.3204
G1 X0.4417 Y-0.3002 E0.3204
G1 X0.422 Y-0.3273 E0.3204
G1 X0.4006 Y-0.3532 E0.3204
G1 X0.3776 Y-0.3776 E0.3204
G1 X0.3532 Y-0.4006 E0.3204
G1 X0.3273 Y-0.422 E0.3204
G1 X0.3002 Y-0.4417 E0.3204
G1 X0.2719 Y-0.4597 E0.3204
G1 X0.2425 Y-0.4759 E0.3204
G1 X0.2121 Y-0.4901 E0.3204
G1 X0.1809 Y-0.5025 E0.3204
G1 X0.149 Y-0.5129 E0.3204
G1 X0.1165 Y-0.5212 E0.3204
G1 X0.0835 Y-0.5275 E0.3204
G1 X0.0503 Y-0.5317 E0.3204
G1 X0.0168 Y-0.5338 E0.3204
G1 X3.4 Y0.0 E2.04
G1 F1200 
; starting polygon
G1 X-0.0235 Y-0.7473 E0.4486
G1 X-0.0704 Y-0.7444 E0.4486
G1 X-0.117 Y-0.7385 E0.4486
G1 X-0.1631 Y-0.7297 E0.4486
G1 X-0.2086 Y-0.718 E0.4486
G1 X-0.2533 Y-0.7035 E0.4486
G1 X-0.2969 Y-0.6862 E0.4486
G1 X-0.3394 Y-0.6662 E0.4486
G1 X-0.3806 Y-0.6436 E0.4486
G1 X-0.4203 Y-0.6184 E0.4486
G1 X-0.4583 Y-0.5908 E0.4486
G1 X-0.4945 Y-0.5609 E0.4486
G1 X-0.5287 Y-0.5287 E0.4486
G1 X-0.5609 Y-0.4945 E0.4486
G1 X-0.5908 Y-0.4583 E0.4486
G1 X-0.6184 Y-0.4203 E0.4486
G1 X-0.6436 Y-0.3806 E0.4486
G1 X-0.6662 Y-0.3394 E0.4486
G1 X-0.6862 Y-0.2969 E0.4486
G1 X-0.7035 Y-0.2533 E0.4486
G1 X-0.718 Y-0.2086 E0.4486
G1 X-0.7297 Y-0.1631 E0.4486
G1 X-0.7385 Y-0.117 E0.4486
G1 X-0.7444 Y-0.0704 E0.4486
G1 X-0.7473 Y-0.0235 E0.4486
G1 X-0.7473 Y0.0235 E0.4486
G1 X-0.7444 Y0.0704 E0.4486
G1 X-0.7385 Y0.117 E0.4486
G1 X-0.7297 Y0.1631 E0.4486
G1 X-0.718 Y0.2086 E0.4486
G1 X-0.7035 Y0.2533 E0.4486
G1 X-0.6862 Y0.2969 E0.4486
G1 X-0.6662 Y0.3394 E0.4486
G1 X-0.6436 Y0.3806 E0.4486
G1 X-0.6184 Y0.4203 E0.4486
G1 X-0.5908 Y0.4583 E0.4486
G1 X-0.5609 Y0.4945 E0.4486
G1 X-0.5287 Y0.5287 E0.4486
G1 X-0.4945 Y0.5609 E0.4486
G1 X-0.4583 Y0.5908 E0.4486
G1 X-0.4203 Y0.6184 E0.4486
G1 X-0.3806 Y0.6436 E0.4486
G1 X-0.3394 Y0.6662 E0.4486
G1 X-0.2969 Y0.6862 E0.4486
G1 X-0.2533 Y0.7035 E0.4486
G1 X-0.2086 Y0.718 E0.4486
G1 X-0.1631 Y0.7297 E0.4486
G1 X-0.117 Y0.7385 E0.4486
G1 X-0.0704 Y0.7444 E0.4486
G1 X-0.0235 Y0.7473 E0.4486
G1 X0.0235 Y0.7473 E0.4486
G1 X0.0704 Y0.7444 E0.4486
G1 X0.117 Y0.7385 E0.4486
G1 X0.1631 Y0.7297 E0.4486
G1 X0.2086 Y0.718 E0.4486
G1 X0.2533 Y0.7035 E0.4486
G1 X0.2969 Y0.6862 E0.4486
G1 X0.3394 Y0.6662 E0.4486
G1 X0.3806 Y0.6436 E0.4486
G1 X0.4203 Y0.6184 E0.4486
G1 X0.4583 Y0.5908 E0.4486
G1 X0.4945 Y0.5609 E0.4486
G1 X0.5287 Y0.5287 E0.4486
G1 X0.5609 Y0.4945 E0.4486
G1 X0.5908 Y0.4583 E0.4486
G1 X0.6184 Y0.4203 E0.4486
G1 X0.6436 Y0.3806 E0.4486
G1 X0.6662 Y0.3394 E0.4486
G1 X0.6862 Y0.2969 E0.4486
G1 X0.7035 Y0.2533 E0.4486
G1 X0.718 Y0.2086 E0.4486
G1 X0.7297 Y0.1631 E0.4486
G1 X0.7385 Y0.117 E0.4486
G1 X0.7444 Y0.0704 E0.4486
G1 X0.7473 Y0.0235 E0.4486
G1 X0.7473 Y-0.0235 E0.4486
G1 X0.7444 Y-0.0704 E0.4486
G1 X0.7385 Y-0.117 E0.4486
G1 X0.7297 Y-0.1631 E0.4486
G1 X0.718 Y-0.2086 E0.4486
G1 X0.7035 Y-0.2533 E0.4486
G1 X0.6862 Y-0.2969 E0.4486
G1 X0.6662 Y-0.3394 E0.4486
G1 X0.6436 Y-0.3806 E0.4486
G1 X0.6184 Y-0.4203 E0.4486
G1 X0.5908 Y-0.4583 E0.4486
G1 X0.5609 Y-0.4945 E0.4486
G1 X0.5287 Y-0.5287 E0.4486
G1 X0.4945 Y-0.5609 E0.4486
G1 X0.4583 Y-0.5908 E0.4486
G1 X0.4203 Y-0.6184 E0.4486
G1 X0.3806 Y-0.6436 E0.4486
G1 X0.3394 Y-0.6662 E0.4486
G1 X0.2969 Y-0.6862 E0.4486
G1 X0.2533 Y-0.7035 E0.4486
G1 X0.2086 Y-0.718 E0.4486
G1 X0.1631 Y-0.7297 E0.4486
G1 X0.117 Y-0.7385 E0.4486
G1 X0.0704 Y-0.7444 E0.4486
G1 X0.0235 Y-0.7473 E0.4486
G1 X3.4 Y0.0 E2.04
G1 F1200 
; starting polygon
G1 X-0.0302 Y-0.9609 E0.5768
G1 X-0.0905 Y-0.9571 E0.5768
G1 X-0.1504 Y-0.9495 E0.5768
G1 X-0.2097 Y-0.9382 E0.5768
G1 X-0.2682 Y-0.9232 E0.5768
G1 X-0.3256 Y-0.9045 E0.5768
G1 X-0.3818 Y-0.8823 E0.5768
G1 X-0.4364 Y-0.8565 E0.5768
G1 X-0.4894 Y-0.8275 E0.5768
G1 X-0.5403 Y-0.7951 E0.5768
G1 X-0.5892 Y-0.7596 E0.5768
G1 X-0.6357 Y-0.7211 E0.5768
G1 X-0.6798 Y-0.6798 E0.5768
G1 X-0.7211 Y-0.6357 E0.5768
G1 X-0.7596 Y-0.5892 E0.5768
G1 X-0.7951 Y-0.5403 E0.5768
G1 X-0.8275 Y-0.4894 E0.5768
G1 X-0.8565 Y-0.4364 E0.5768
G1 X-0.8823 Y-0.3818 E0.5768
G1 X-0.9045 Y-0.3256 E0.5768
G1 X-0.9232 Y-0.2682 E0.5768
G1 X-0.9382 Y-0.2097 E0.5768
G1 X-0.9495 Y-0.1504 E0.5768
G1 X-0.9571 Y-0.0905 E0.5768
G1 X-0.9609 Y-0.0302 E0.5768
G1 X-0.9609 Y0.0302 E0.5768
G1 X-0.9571 Y0.0905 E0.5768
G1 X-0.9495 Y0.1504 E0.5768
G1 X-0.9382 Y0.2097 E0.5768
G1 X-0.9232 Y0.2682 E0.5768
G1 X-0.9045 Y0.3256 E0.5768
G1 X-0.8823 Y0.3818 E0.5768
G1 X-0.8565 Y0.4364 E0.5768
G1 X-0.8275 Y0.4894 E0.5768
G1 X-0.7951 Y0.5403 E0.5768
G1 X-0.7596 Y0.5892 E0.5768
G1 X-0.7211 Y0.6357 E0.5768
G1 X-0.6798 Y0.6798 E0.5768
G1 X-0.6357 Y0.7211 E0.5768
G1 X-0.5892 Y0.7596 E0.5768
G1 X-0.5403 Y0.7951 E0.5768
G1 X-0.4894 Y0.8275 E0.5768
G1 X-0.4364 Y0.8565 E0.5768
G1 X-0.3818 Y0.8823 E0.5768
G1 X-0.3256 Y0.9045 E0.5768
G1 X-0.2682 Y0.9232 E0.5768
G1 X-0.2097 Y0.9382 E0.5768
G1 X-0.1504 Y0.9495 E0.5768
G1 X-0.0905 Y0.9571 E0.5768
G1 X-0.0302 Y0.9609 E0.5768
G1 X0.0302 Y0.9609 E0.5768
G1 X0.0905 Y0.9571 E0.5768
G1 X0.1504 Y0.9495 E0.5768
G1 X0.2097 Y0.9382 E0.5768
G1 X0.2682 Y0.9232 E0.5768
G1 X0.3256 Y0.9045 E0.5768
G1 X0.3818 Y0.8823 E0.5768
G1 X0.4364 Y0.8565 E0.5768
G1 X0.4894 Y0.8275 E0.5768
G1 X0.5403 Y0.7951 E0.5768
G1 X0.5892 Y0.7596 E0.5768
G1 X0.6357 Y0.7211 E0.5768
G1 X0.6798 Y0.6798 E0.5768
G1 X0.7211 Y0.6357 E0.5768
G1 X0.7596 Y0.5892 E0.5768
G1 X0.7951 Y0.5403 E0.5768
G1 X0.8275 Y0.4894 E0.5768
G1 X0.8565 Y0.4364 E0.5768
G1 X0.8823 Y0.3818 E0.5768
G1 X0.9045 Y0.3256 E0.5768
G1 X0.9232 Y0.2682 E0.5768
G1 X0.9382 Y0.2097 E0.5768
G1 X0.9495 Y0.1504 E0.5768
G1 X0.9571 Y0.0905 E0.5768
G1 X0.9609 Y0.0302 E0.5768
G1 X0.9609 Y-0.0302 E0.5768
G1 X0.9571 Y-0.0905 E0.5768
G1 X0.9495 Y-0.1504 E0.5768
G1 X0.9382 Y-0.2097 E0.5768
G1 X0.9232 Y-0.2682 E0.5768
G1 X0.9045 Y-0.3256 E0.5768
G1 X0.8823 Y-0.3818 E0.5768
G1 X0.8565 Y-0.4364 E0.5768
G1 X0.8275 Y-0.4894 E0.5768
G1 X0.7951 Y-0.5403 E0.5768
G1 X0.7596 Y-0.5892 E0.5768
G1 X0.7211 Y-0.6357 E0.5768
G1 X0.6798 Y-0.6798 E0.5768
G1 X0.6357 Y-0.7211 E0.5768
G1 X0.5892 Y-0.7596 E0.5768
G1 X0.5403 Y-0.7951 E0.5768
G1 X0.4894 Y-0.8275 E0.5768
G1 X0.4364 Y-0.8565 E0.5768
G1 X0.3818 Y-0.8823 E0.5768
G1 X0.3256 Y-0.9045 E0.5768
G1 X0.2682 Y-0.9232 E0.5768
G1 X0.2097 Y-0.9382 E0.5768
G1 X0.1504 Y-0.9495 E0.5768
G1 X0.0905 Y-0.9571 E0.5768
G1 X0.0302 Y-0.9609 E0.5768
G1 X3.4 Y0.0 E2.04
G1 F1200 
; starting polygon
G1 X-0.0369 Y-1.1744 E0.705
G1 X-0.1106 Y-1.1697 E0.705
G1 X-0.1838 Y-1.1605 E0.705
G1 X-0.2563 Y-1.1467 E0.705
G1 X-0.3278 Y-1.1283 E0.705
G1 X-0.398 Y-1.1055 E0.705
G1 X-0.4666 Y-1.0783 E0.705
G1 X-0.5334 Y-1.0469 E0.705
G1 X-0.5981 Y-1.0113 E0.705
G1 X-0.6604 Y-0.9718 E0.705
G1 X-0.7201 Y-0.9284 E0.705
G1 X-0.777 Y-0.8813 E0.705
G1 X-0.8308 Y-0.8308 E0.705
G1 X-0.8813 Y-0.777 E0.705
G1 X-0.9284 Y-0.7201 E0.705
G1 X-0.9718 Y-0.6604 E0.705
G1 X-1.0113 Y-0.5981 E0.705
G1 X-1.0469 Y-0.5334 E0.705
G1 X-1.0783 Y-0.4666 E0.705
G1 X-1.1055 Y-0.398 E0.705
G1 X-1.1283 Y-0.3278 E0.705
G1 X-1.1467 Y-0.2563 E0.705
G1 X-1.1605 Y-0.1838 E0.705
G1 X-1.1697 Y-0.1106 E0.705
G1 X-1.1744 Y-0.0369 E0.705
G1 X-1.1744 Y0.0369 E0.705
G1 X-1.1697 Y0.1106 E0.705
G1 X-1.1605 Y0.1838 E0.705
G1 X-1.1467 Y0.2563 E0.705
G1 X-1.1283 Y0.3278 E0.705
G1 X-1.1055 Y0.398 E0.705
G1 X-1.0783 Y0.4666 E0.705
G1 X-1.0469 Y0.5334 E0.705
G1 X-1.0113 Y0.5981 E0.705
G1 X-0.9718 Y0.6604 E0.705
G1 X-0.9284 Y0.7201 E0.705
G1 X-0.8813 Y0.777 E0.705
G1 X-0.8308 Y0.8308 E0.705
G1 X-0.777 Y0.8813 E0.705
G1 X-0.7201 Y0.9284 E0.705
G1 X-0.6604 Y0.9718 E0.705
G1 X-0.5981 Y1.0113 E0.705
G1 X-0.5334 Y1.0469 E0.705
G1 X-0.4666 Y1.0783 E0.705
G1 X-0.398 Y1.1055 E0.705
G1 X-0.3278 Y1.1283 E0.705
G1 X-0.2563 Y1.1467 E0.705
G1 X-0.1838 Y1.1605 E0.705
G1 X-0.1106 Y1.1697 E0.705
G1 X-0.0369 Y1.1744 E0.705
G1 X0.0369 Y1.1744 E0.705
G1 X0.1106 Y1.1697 E0.705
G1 X0.1838 Y1.1605 E0.705
G1 X0.2563 Y1.1467 E0.705
G1 X0.3278 Y1.1283 E0.705
G1 X0.398 Y1.1055 E0.705
G1 X0.4666 Y1.0783 E0.705
G1 X0.5334 Y1.0469 E0.705
G1 X0.5981 Y1.0113 E0.705
G1 X0.6604 Y0.9718 E0.705
G1 X0.7201 Y0.9284 E0.705
G1 X0.777 Y0.8813 E0.705
G1 X0.8308 Y0.8308 E0.705
G1 X0.8813 Y0.777 E0.705
G1 X0.9284 Y0.7201 E0.705
G1 X0.9718 Y0.6604 E0.705
G1 X1.0113 Y0.5981 E0.705
G1 X1.0469 Y0.5334 E0.705
G1 X1.0783 Y0.4666 E0.705
G1 X1.1055 Y0.398 E0.705
G1 X1.1283 Y0.3278 E0.705
G1 X1.1467 Y0.2563 E0.705
G1 X1.1605 Y0.1838 E0.705
G1 X1.1697 Y0.1106 E0.705
G1 X1.1744 Y0.0369 E0.705
G1 X1.1744 Y-0.0369 E0.705
G1 X1.1697 Y-0.1106 E0.705
G1 X1.1605 Y-0.1838 E0.705
G1 X1.1467 Y-0.2563 E0.705
G1 X1.1283 Y-0.3278 E0.705
G1 X1.1055 Y-0.398 E0.705
G1 X1.0783 Y-0.4666 E0.705
G1 X1.0469 Y-0.5334 E0.705
G1 X1.0113 Y-0.5981 E0.705
G1 X0.9718 Y-0.6604 E0.705
G1 X0.9284 Y-0.7201 E0.705
G1 X0.8813 Y-0.777 E0.705
G1 X0.8308 Y-0.8308 E0.705
G1 X0.777 Y-0.8813 E0.705
G1 X0.7201 Y-0.9284 E0.705
G1 X0.6604 Y-0.9718 E0.705
G1 X0.5981 Y-1.0113 E0.705
G1 X0.5334 Y-1.0469 E0.705
G1 X0.4666 Y-1.0783 E0.705
G1 X0.398 Y-1.1055 E0.705
G1 X0.3278 Y-1.1283 E0.705
G1 X0.2563 Y-1.1467 E0.705
G1 X0.1838 Y-1.1605 E0.705
G1 X0.1106 Y-1.1697 E0.705
G1 X0.0369 Y-1.1744 E0.705
G1 X3.4 Y0.0 E2.04
G1 F1200 
; starting polygon
G1 X-0.0436 Y-1.3879 E0.8332
G1 X-0.1307 Y-1.3824 E0.8332
G1 X-0.2172 Y-1.3715 E0.8332
G1 X-0.3029 Y-1.3551 E0.8332
G1 X-0.3874 Y-1.3334 E0.8332
G1 X-0.4704 Y-1.3065 E0.8332
G1 X-0.5515 Y-1.2744 E0.8332
G1 X-0.6304 Y-1.2372 E0.8332
G1 X-0.7068 Y-1.1952 E0.8332
G1 X-0.7805 Y-1.1485 E0.8332
G1 X-0.8511 Y-1.0972 E0.8332
G1 X-0.9183 Y-1.0416 E0.8332
G1 X-0.9819 Y-0.9819 E0.8332
G1 X-1.0416 Y-0.9183 E0.8332
G1 X-1.0972 Y-0.8511 E0.8332
G1 X-1.1485 Y-0.7805 E0.8332
G1 X-1.1952 Y-0.7068 E0.8332
G1 X-1.2372 Y-0.6304 E0.8332
G1 X-1.2744 Y-0.5515 E0.8332
G1 X-1.3065 Y-0.4704 E0.8332
G1 X-1.3334 Y-0.3874 E0.8332
G1 X-1.3551 Y-0.3029 E0.8332
G1 X-1.3715 Y-0.2172 E0.8332
G1 X-1.3824 Y-0.1307 E0.8332
G1 X-1.3879 Y-0.0436 E0.8332
G1 X-1.3879 Y0.0436 E0.8332
G1 X-1.3824 Y0.1307 E0.8332
G1 X-1.3715 Y0.2172 E0.8332
G1 X-1.3551 Y0.3029 E0.8332
G1 X-1.3334 Y0.3874 E0.8332
G1 X-1.3065 Y0.4704 E0.8332
G1 X-1.2744 Y0.5515 E0.8332
G1 X-1.2372 Y0.6304 E0.8332
G1 X-1.1952 Y0.7068 E0.8332
G1 X-1.1485 Y0.7805 E0.8332
G1 X-1.0972 Y0.8511 E0.8332
G1 X-1.0416 Y0.9183 E0.8332
G1 X-0.9819 Y0.9819 E0.8332
G1 X-0.9183 Y1.0416 E0.8332
G1 X-0.8511 Y1.0972 E0.8332
G1 X-0.7805 Y1.1485 E0.8332
G1 X-0.7068 Y1.1952 E0.8332
G1 X-0.6304 Y1.2372 E0.8332
G1 X-0.5515 Y1.2744 E0.8332
G1 X-0.4704 Y1.3065 E0.8332
G1 X-0.3874 Y1.3334 E0.8332
G1 X-0.3029 Y1.3551 E0.8332
G1 X-0.2172 Y1.3715 E0.8332
G1 X-0.1307 Y1.3824 E0.8332
G1 X-0.0436 Y1.3879 E0.8332
G1 X0.0436 Y1.3879 E0.8332
G1 X0.1307 Y1.3824 E0.8332
G1 X0.2172 Y1.3715 E0.8332
G1 X0.3029 Y1.3551 E0.8332
G1 X0.3874 Y1.3334 E0.8332
G1 X0.4704 Y1.3065 E0.8332
G1 X0.5515 Y1.2744 E0.8332
G1 X0.6304 Y1.2372 E0.8332
G1 X0.7068 Y1.1952 E0.8332
G1 X0.7805 Y1.1485 E0.8332
G1 X0.8511 Y1.0972 E0.8332
G1 X0.9183 Y1.0416 E0.8332
G1 X0.9819 Y0.9819 E0.8332
G1 X1.0416 Y0.9183 E0.8332
G1 X1.0972 Y0.8511 E0.8332
G1 X1.1485 Y0.7805 E0.8332
G1 X1.1952 Y0.7068 E0.8332
G1 X1.2372 Y0.6304 E0.8332
G1 X1.2744 Y0.5515 E0.8332
G1 X1.3065 Y0.4704 E0.8332
G1 X1.3334 Y0.3874 E0.8332
G1 X1.3551 Y0.3029 E0.8332
G1 X1.3715 Y0.2172 E0.8332
G1 X1.3824 Y0.1307 E0.8332
G1 X1.3879 Y0.0436 E0.8332
G1 X1.3879 Y-0.0436 E0.8332
G1 X1.3824 Y-0.1307 E0.8332
G1 X1.3715 Y-0.2172 E0.8332
G1 X1.3551 Y-0.3029 E0.8332
G1 X1.3334 Y-0.3874 E0.8332
G1 X1.3065 Y-0.4704 E0.8332
G1 X1.2744 Y-0.5515 E0.8332
G1 X1.2372 Y-0.6304 E0.8332
G1 X1.1952 Y-0.7068 E0.8332
G1 X1.1485 Y-0.7805 E0.8332
G1 X1.0972 Y-0.8511 E0.8332
G1 X1.0416 Y-0.9183 E0.8332
G1 X0.9819 Y-0.9819 E0.8332
G1 X0.9183 Y-1.0416 E0.8332
G1 X0.8511 Y-1.0972 E0.8332
G1 X0.7805 Y-1.1485 E0.8332
G1 X0.7068 Y-1.1952 E0.8332
G1 X0.6304 Y-1.2372 E0.8332
G1 X0.5515 Y-1.2744 E0.8332
G1 X0.4704 Y-1.3065 E0.8332
G1 X0.3874 Y-1.3334 E0.8332
G1 X0.3029 Y-1.3551 E0.8332
G1 X0.2172 Y-1.3715 E0.8332
G1 X0.1307 Y-1.3824 E0.8332
G1 X0.0436 Y-1.3879 E0.8332
G1 X3.4 Y0.0 E2.04
; starting polygon
G1 X-0.0503 Y-1.6014 E0.9613
G1 X-0.1508 Y-1.5951 E0.9613
G1 X-0.2506 Y-1.5825 E0.9613
G1 X-0.3495 Y-1.5636 E0.9613
G1 X-0.447 Y-1.5386 E0.9613
G1 X-0.5427 Y-1.5075 E0.9613
G1 X-0.6363 Y-1.4704 E0.9613
G1 X-0.7274 Y-1.4276 E0.9613
G1 X-0.8156 Y-1.3791 E0.9613
G1 X-0.9006 Y-1.3252 E0.9613
G1 X-0.982 Y-1.266 E0.9613
G1 X-1.0596 Y-1.2018 E0.9613
G1 X-1.1329 Y-1.1329 E0.9613
G1 X-1.2018 Y-1.0596 E0.9613
G1 X-1.266 Y-0.982 E0.9613
G1 X-1.3252 Y-0.9006 E0.9613
G1 X-1.3791 Y-0.8156 E0.9613
G1 X-1.4276 Y-0.7274 E0.9613
G1 X-1.4704 Y-0.6363 E0.9613
G1 X-1.5075 Y-0.5427 E0.9613
G1 X-1.5386 Y-0.447 E0.9613
G1 X-1.5636 Y-0.3495 E0.9613
G1 X-1.5825 Y-0.2506 E0.9613
G1 X-1.5951 Y-0.1508 E0.9613
G1 X-1.6014 Y-0.0503 E0.9613
G1 X-1.6014 Y0.0503 E0.9613
G1 X-1.5951 Y0.1508 E0.9613
G1 X-1.5825 Y0.2506 E0.9613
G1 X-1.5636 Y0.3495 E0.9613
G1 X-1.5386 Y0.447 E0.9613
G1 X-1.5075 Y0.5427 E0.9613
G1 X-1.4704 Y0.6363 E0.9613
G1 X-1.4276 Y0.7274 E0.9613
G1 X-1.3791 Y0.8156 E0.9613
G1 X-1.3252 Y0.9006 E0.9613
G1 X-1.266 Y0.982 E0.9613
G1 X-1.2018 Y1.0596 E0.9613
G1 X-1.1329 Y1.1329 E0.9613
G1 X-1.0596 Y1.2018 E0.9613
G1 X-0.982 Y1.266 E0.9613
G1 X-0.9006 Y1.3252 E0.9613
G1 X-0.8156 Y1.3791 E0.9613
G1 X-0.7274 Y1.4276 E0.9613
G1 X-0.6363 Y1.4704 E0.9613
G1 X-0.5427 Y1.5075 E0.9613
G1 X-0.447 Y1.5386 E0.9613
G1 X-0.3495 Y1.5636 E0.9613
G1 X-0.2506 Y1.5825 E0.9613
G1 X-0.1508 Y1.5951 E0.9613
G1 X-0.0503 Y1.6014 E0.9613
G1 X0.0503 Y1.6014 E0.9613
G1 X0.1508 Y1.5951 E0.9613
G1 X0.2506 Y1.5825 E0.9613
G1 X0.3495 Y1.5636 E0.9613
G1 X0.447 Y1.5386 E0.9613
G1 X0.5427 Y1.5075 E0.9613
G1 X0.6363 Y1.4704 E0.9613
G1 X0.7274 Y1.4276 E0.9613
G1 X0.8156 Y1.3791 E0.9613
G1 X0.9006 Y1.3252 E0.9613
G1 X0.982 Y1.266 E0.9613
G1 X1.0596 Y1.2018 E0.9613
G1 X1.1329 Y1.1329 E0.9613
G1 X1.2018 Y1.0596 E0.9613
G1 X1.266 Y0.982 E0.9613
G1 X1.3252 Y0.9006 E0.9613
G1 X1.3791 Y0.8156 E0.9613
G1 X1.4276 Y0.7274 E0.9613
G1 X1.4704 Y0.6363 E0.9613
G1 X1.5075 Y0.5427 E0.9613
G1 X1.5386 Y0.447 E0.9613
G1 X1.5636 Y0.3495 E0.9613
G1 X1.5825 Y0.2506 E0.9613
G1 X1.5951 Y0.1508 E0.9613
G1 X1.6014 Y0.0503 E0.9613
G1 X1.6014 Y-0.0503 E0.9613
G1 X1.5951 Y-0.1508 E0.9613
G1 X1.5825 Y-0.2506 E0.9613
G1 X1.5636 Y-0.3495 E0.9613
G1 X1.5386 Y-0.447 E0.9613
G1 X1.5075 Y-0.5427 E0.9613
G1 X1.4704 Y-0.6363 E0.9613
G1 X1.4276 Y-0.7274 E0.9613
G1 X1.3791 Y-0.8156 E0.9613
G1 X1.3252 Y-0.9006 E0.9613
G1 X1.266 Y-0.982 E0.9613
G1 X1.2018 Y-1.0596 E0.9613
G1 X1.1329 Y-1.1329 E0.9613
G1 X1.0596 Y-1.2018 E0.9613
G1 X0.982 Y-1.266 E0.9613
G1 X0.9006 Y-1.3252 E0.9613
G1 X0.8156 Y-1.3791 E0.9613
G1 X0.7274 Y-1.4276 E0.9613
G1 X0.6363 Y-1.4704 E0.9613
G1 X0.5427 Y-1.5075 E0.9613
G1 X0.447 Y-1.5386 E0.9613
G1 X0.3495 Y-1.5636 E0.9613
G1 X0.2506 Y-1.5825 E0.9613
G1 X0.1508 Y-1.5951 E0.9613
G1 X0.0503 Y-1.6014 E0.9613
; travel
G0 X1.0 Y0.0
; travel
G1 Z11.0
; travel
G0 X-26.5 Y-0.0 Z-11.0
G1 F1200 
; new layer
G1 Z2.2
; starting solid layer
G1 E2
; travel
G0 X3.4 Y0.0
G1 F1200 
; starting polygon
G1 X-0.038 Y-0.5072 E0.3052
G1 X-0.1132 Y-0.4959 E0.3052
G1 X-0.1858 Y-0.4735 E0.3052
G1 X-0.2543 Y-0.4405 E0.3052
G1 X-0.3171 Y-0.3977 E0.3052
G1 X-0.3729 Y-0.346 E0.3052
G1 X-0.4203 Y-0.2865 E0.3052
G1 X-0.4583 Y-0.2207 E0.3052
G1 X-0.486 Y-0.1499 E0.3052
G1 X-0.503 Y-0.0758 E0.3052
G1 X-0.5086 Y-0.0 E0.3052
G1 X-0.503 Y0.0758 E0.3052
G1 X-0.486 Y0.1499 E0.3052
G1 X-0.4583 Y0.2207 E0.3052
G1 X-0.4203 Y0.2865 E0.3052
G1 X-0.3729 Y0.346 E0.3052
G1 X-0.3171 Y0.3977 E0.3052
G1 X-0.2543 Y0.4405 E0.3052
G1 X-0.1858 Y0.4735 E0.3052
G1 X-0.1132 Y0.4959 E0.3052
G1 X-0.038 Y0.5072 E0.3052
G1 X0.038 Y0.5072 E0.3052
G1 X0.1132 Y0.4959 E0.3052
G1 X0.1858 Y0.4735 E0.3052
G1 X0.2543 Y0.4405 E0.3052
G1 X0.3171 Y0.3977 E0.3052
G1 X0.3729 Y0.346 E0.3052
G1 X0.4203 Y0.2865 E0.3052
G1 X0.4583 Y0.2207 E0.3052
G1 X0.486 Y0.1499 E0.3052
G1 X0.503 Y0.0758 E0.3052
G1 X0.5086 Y0.0 E0.3052
G1 X0.503 Y-0.0758 E0.3052
G1 X0.486 Y-0.1499 E0.3052
G1 X0.4583 Y-0.2207 E0.3052
G1 X0.4203 Y-0.2865 E0.3052
G1 X0.3729 Y-0.346 E0.3052
G1 X0.3171 Y-0.3977 E0.3052
G1 X0.2543 Y-0.4405 E0.3052
G1 X0.1858 Y-0.4735 E0.3052
G1 X0.1132 Y-0.4959 E0.3052
G1 X0.038 Y-0.5072 E0.3052
G1 X3.4 Y0.0 E2.04
G1 F1200 
; starting polygon
G1 X-0.0186 Y-0.5023 E0.3016
G1 X-0.0556 Y-0.4996 E0.3016
G1 X-0.0924 Y-0.4941 E0.3016
G1 X-0.1286 Y-0.4859 E0.3016
G1 X-0.1641 Y-0.4751 E0.3016
G1 X-0.1988 Y-0.4617 E0.3016
G1 X-0.2323 Y-0.4457 E0.3016
G1 X-0.2646 Y-0.4274 E0.3016
G1 X-0.2955 Y-0.4067 E0.3016
G1 X-0.3247 Y-0.3837 E0.3016
G1 X-0.3521 Y-0.3587 E0.3016
G1 X-0.3777 Y-0.3317 E0.3016
G1 X-0.4011 Y-0.3029 E0.3016
G1 X-0.4224 Y-0.2725 E0.3016
G1 X-0.4414 Y-0.2405 E0.3016
G1 X-0.4579 Y-0.2073 E0.3016
G1 X-0.472 Y-0.1729 E0.3016
G1 X-0.4835 Y-0.1376 E0.3016
G1 X-0.4923 Y-0.1015 E0.3016
G1 X-0.4985 Y-0.0648 E0.3016
G1 X-0.5019 Y-0.0279 E0.3016
G1 X-0.5026 Y0.0093 E0.3016
G1 X-0.5005 Y0.0464 E0.3016
G1 X-0.4957 Y0.0832 E0.3016
G1 X-0.4882 Y0.1196 E0.3016
G1 X-0.4781 Y0.1553 E0.3016
G1 X-0.4653 Y0.1902 E0.3016
G1 X-0.45 Y0.2241 E0.3016
G1 X-0.4322 Y0.2567 E0.3016
G1 X-0.412 Y0.2879 E0.3016
G1 X-0.3897 Y0.3175 E0.3016
G1 X-0.3651 Y0.3454 E0.3016
G1 X-0.3386 Y0.3715 E0.3016
G1 X-0.3103 Y0.3955 E0.3016
G1 X-0.2802 Y0.4173 E0.3016
G1 X-0.2486 Y0.4369 E0.3016
G1 X-0.2157 Y0.454 E0.3016
G1 X-0.1816 Y0.4687 E0.3016
G1 X-0.1465 Y0.4808 E0.3016
G1 X-0.1106 Y0.4903 E0.3016
G1 X-0.074 Y0.4972 E0.3016
G1 X-0.0371 Y0.5013 E0.3016
G1 X-0.0 Y0.5027 E0.3016
G1 X0.0371 Y0.5013 E0.3016
G1 X0.074 Y0.4972 E0.3016
G1 X0.1106 Y0.4903 E0.3016
G1 X0.1465 Y0.4808 E0.3016
G1 X0.1816 Y0.4687 E0.3016
G1 X0.2157 Y0.454 E0.3016
G1 X0.2486 Y0.4369 E0.3016
G1 X0.2802 Y0.4173 E0.3016
G1 X0.3103 Y0.3955 E0.3016
G1 X0.3386 Y0.3715 E0.3016
G1 X0.3651 Y0.3454 E0.3016
G1 X0.3897 Y0.3175 E0.3016
G1 X0.412 Y0.2879 E0.3016
G1 X0.4322 Y0.2567 E0.3016
G1 X0.45 Y0.2241 E0.3016
G1 X0.4653 Y0.1902 E0.3016
G1 X0.4781 Y0.1553 E0.3016
G1 X0.4882 Y0.1196 E0.3016
G1 X0.4957 Y0.0832 E0.3016
G1 X0.5005 Y0.0464 E0.3016
G1 X0.5026 Y0.0093 E0.3016
G1 X0.5019 Y-0.0279 E0.3016
G1 X0.4985 Y-0.0648 E0.3016
G1 X0.4923 Y-0.1015 E0.3016
G1 X0.4835 Y-0.1376 E0.3016
G1 X0.472 Y-0.1729 E0.3016
G1 X0.4579 Y-0.2073 E0.3016
G1 X0.4414 Y-0.2405 E0.3016
G1 X0.4224 Y-0.2725 E0.3016
G1 X0.4011 Y-0.3029 E0.3016
G1 X0.3777 Y-0.3317 E0.3016
G1 X0.3521 Y-0.3587 E0.3016
G1 X0.3247 Y-0.3837 E0.3016
G1 X0.2955 Y-0.4067 E0.3016
G1 X0.2646 Y-0.4274 E0.3016
G1 X0.2323 Y-0.4457 E0.3016
G1 X0.1988 Y-0.4617 E0.3016
G1 X0.1641 Y-0.4751 E0.3016
G1 X0.1286 Y-0.4859 E0.3016
G1 X0.0924 Y-0.4941 E0.3016
G1 X0.0556 Y-0.4996 E0.3016
G1 X0.0186 Y-0.5023 E0.3016
G1 X3.4 Y0.0 E2.04
G1 F1200 
; starting polygon
G1 X-0.0201 Y-0.6406 E0.3845
G1 X-0.0603 Y-0.638 E0.3845
G1 X-0.1003 Y-0.633 E0.3845
G1 X-0.1398 Y-0.6255 E0.3845
G1 X-0.1788 Y-0.6154 E0.3845
G1 X-0.2171 Y-0.603 E0.3845
G1 X-0.2545 Y-0.5882 E0.3845
G1 X-0.291 Y-0.571 E0.3845
G1 X-0.3262 Y-0.5516 E0.3845
G1 X-0.3602 Y-0.5301 E0.3845
G1 X-0.3928 Y-0.5064 E0.3845
G1 X-0.4238 Y-0.4807 E0.3845
G1 X-0.4532 Y-0.4532 E0.3845
G1 X-0.4807 Y-0.4238 E0.3845
G1 X-0.5064 Y-0.3928 E0.3845
G1 X-0.5301 Y-0.3602 E0.3845
G1 X-0.5516 Y-0.3262 E0.3845
G1 X-0.571 Y-0.291 E0.3845
G1 X-0.5882 Y-0.2545 E0.3845
G1 X-0.603 Y-0.2171 E0.3845
G1 X-0.6154 Y-0.1788 E0.3845
G1 X-0.6255 Y-0.1398 E0.3845
G1 X-0.633 Y-0.1003 E0.3845
G1 X-0.638 Y-0.0603 E0.3845
G1 X-0.6406 Y-0.0201 E0.3845
G1 X-0.6406 Y0.0201 E0.3845
G1 X-0.638 Y0.0603 E0.3845
G1 X-0.633 Y0.1003 E0.3845
G1 X-0.6255 Y0.1398 E0.3845
G1 X-0.6154 Y0.1788 E0.3845
G1 X-0.603 Y0.2171 E0.3845
G1 X-0.5882 Y0.2545 E0.3845
G1 X-0.571 Y0.291 E0.3845
G1 X-0.5516 Y0.3262 E0.3845
G1 X-0.5301 Y0.3602 E0.3845
G1 X-0.5064 Y0.3928 E0.3845
G1 X-0.4807 Y0.4238 E0.3845
G1 X-0.4532 Y0.4532 E0.3845
G1 X-0.4238 Y0.4807 E0.3845
G1 X-0.3928 Y0.5064 E0.3845
G1 X-0.3602 Y0.5301 E0.3845
G1 X-0.3262 Y0.5516 E0.3845
G1 X-0.291 Y0.571 E0.3845
G1 X-0.2545 Y0.5882 E0.3845
G1 X-0.2171 Y0.603 E0.3845
G1 X-0.1788 Y0.6154 E0.3845
G1 X-0.1398 Y0.6255 E0.3845
G1 X-0.1003 Y0.633 E0.3845
G1 X-0.0603 Y0.638 E0.3845
G1 X-0.0201 Y0.6406 E0.3845
G1 X0.0201 Y0.6406 E0.3845
G1 X0.0603 Y0.638 E0.3845
G1 X0.1003 Y0.633 E0.3845
G1 X0.1398 Y0.6255 E0.3845
G1 X0.1788 Y0.6154 E0.3845
G1 X0.2171 Y0.603 E0.3845
G1 X0.2545 Y0.5882 E0.3845
G1 X0.291 Y0.571 E0.3845
G1 X0.3262 Y0.5516 E0.3845
G1 X0.3602 Y0.5301 E0.3845
G1 X0.3928 Y0.5064 E0.3845
G1 X0.4238 Y0.4807 E0.3845
G1 X0.4532 Y0.4532 E0.3845
G1 X0.4807 Y0.4238 E0.3845
G1 X0.5064 Y0.3928 E0.3845
G1 X0.5301 Y0.3602 E0.3845
G1 X0.5516 Y0.3262 E0.3845
G1 X0.571 Y0.291 E0.3845
G1 X0.5882 Y0.2545 E0.3845
G1 X0.603 Y0.2171 E0.3845
G1 X0.6154 Y0.1788 E0.3845
G1 X0.6255 Y0.1398 E0.3845
G1 X0.633 Y0.1003 E0.3845
G1 X0.638 Y0.0603 E0.3845
G1 X0.6406 Y0.0201 E0.3845
G1 X0.6406 Y-0.0201 E0.3845
G1 X0.638 Y-0.0603 E0.3845
G1 X0.633 Y-0.1003 E0.3845
G1 X0.6255 Y-0.1398 E0.3845
G1 X0.6154 Y-0.1788 E0.3845
G1 X0.603 Y-0.2171 E0.3845
G1 X0.5882 Y-0.2545 E0.3845
G1 X0.571 Y-0.291 E0.3845
G1 X0.5516 Y-0.3262 E0.3845
G1 X0.5301 Y-0.3602 E0.3845
G1 X0.5064 Y-0.3928 E0.3845
G1 X0.4807 Y-0.4238 E0.3845
G1 X0.4532 Y-0.4532 E0.3845
G1 X0.4238 Y-0.4807 E0.3845
G1 X0.3928 Y-0.5064 E0.3845
G1 X0.3602 Y-0.5301 E0.3845
G1 X0.3262 Y-0.5516 E0.3845
G1 X0.291 Y-0.571 E0.3845
G1 X0.2545 Y-0.5882 E0.3845
G1 X0.2171 Y-0.603 E0.3845
G1 X0.1788 Y-0.6154 E0.3845
G1 X0.1398 Y-0.6255 E0.3845
G1 X0.1003 Y-0.633 E0.3845
G1 X0.0603 Y-0.638 E0.3845
G1 X0.0201 Y-0.6406 E0.3845
G1 X3.4 Y0.0 E2.04
G1 F1200 
; starting polygon
G1 X-0.0268 Y-0.8541 E0.5127
G1 X-0.0804 Y-0.8507 E0.5127
G1 X-0.1337 Y-0.844 E0.5127
G1 X-0.1864 Y-0.8339 E0.5127
G1 X-0.2384 Y-0.8206 E0.5127
G1 X-0.2895 Y-0.804 E0.5127
G1 X-0.3394 Y-0.7842 E0.5127
G1 X-0.3879 Y-0.7614 E0.5127
G1 X-0.435 Y-0.7355 E0.5127
G1 X-0.4803 Y-0.7068 E0.5127
G1 X-0.5237 Y-0.6752 E0.5127
G1 X-0.5651 Y-0.641 E0.5127
G1 X-0.6042 Y-0.6042 E0.5127
G1 X-0.641 Y-0.5651 E0.5127
G1 X-0.6752 Y-0.5237 E0.5127
G1 X-0.7068 Y-0.4803 E0.5127
G1 X-0.7355 Y-0.435 E0.5127
G1 X-0.7614 Y-0.3879 E0.5127
G1 X-0.7842 Y-0.3394 E0.5127
G1 X-0.804 Y-0.2895 E0.5127
G1 X-0.8206 Y-0.2384 E0.5127
G1 X-0.8339 Y-0.1864 E0.5127
G1 X-0.844 Y-0.1337 E0.5127
G1 X-0.8507 Y-0.0804 E0.5127
G1 X-0.8541 Y-0.0268 E0.5127
G1 X-0.8541 Y0.0268 E0.5127
G1 X-0.8507 Y0.0804 E0.5127
G1 X-0.844 Y0.1337 E0.5127
G1 X-0.8339 Y0.1864 E0.5127
G1 X-0.8206 Y0.2384 E0.5127
G1 X-0.804 Y0.2895 E0.5127
G1 X-0.7842 Y0.3394 E0.5127
G1 X-0.7614 Y0.3879 E0.5127
G1 X-0.7355 Y0.435 E0.5127
G1 X-0.7068 Y0.4803 E0.5127
G1 X-0.6752 Y0.5237 E0.5127
G1 X-0.641 Y0.5651 E0.5127
G1 X-0.6042 Y0.6042 E0.5127
G1 X-0.5651 Y0.641 E0.5127
G1 X-0.5237 Y0.6752 E0.5127
G1 X-0.4803 Y0.7068 E0.5127
G1 X-0.435 Y0.7355 E0.5127
G1 X-0.3879 Y0.7614 E0.5127
G1 X-0.3394 Y0.7842 E0.5127
G1 X-0.2895 Y0.804 E0.5127
G1 X-0.2384 Y0.8206 E0.5127
G1 X-0.1864 Y0.8339 E0.5127
G1 X-0.1337 Y0.844 E0.5127
G1 X-0.0804 Y0.8507 E0.5127
G1 X-0.0268 Y0.8541 E0.5127
G1 X0.0268 Y0.8541 E0.5127
G1 X0.0804 Y0.8507 E0.5127
G1 X0.1337 Y0.844 E0.5127
G1 X0.1864 Y0.8339 E0.5127
G1 X0.2384 Y0.8206 E0.5127
G1 X0.2895 Y0.804 E0.5127
G1 X0.3394 Y0.7842 E0.5127
G1 X0.3879 Y0.7614 E0.5127
G1 X0.435 Y0.7355 E0.5127
G1 X0.4803 Y0.7068 E0.5127
G1 X0.5237 Y0.6752 E0.5127
G1 X0.5651 Y0.641 E0.5127
G1 X0.6042 Y0.6042 E0.5127
G1 X0.641 Y0.5651 E0.5127
G1 X0.6752 Y0.5237 E0.5127
G1 X0.7068 Y0.4803 E0.5127
G1 X0.7355 Y0.435 E0.5127
G1 X0.7614 Y0.3879 E0.5127
G1 X0.7842 Y0.3394 E0.5127
G1 X0.804 Y0.2895 E0.5127
G1 X0.8206 Y0.2384 E0.5127
G1 X0.8339 Y0.1864 E0.5127
G1 X0.844 Y0.1337 E0.5127
G1 X0.8507 Y0.0804 E0.5127
G1 X0.8541 Y0.0268 E0.5127
G1 X0.8541 Y-0.0268 E0.5127
G1 X0.8507 Y-0.0804 E0.5127
G1 X0.844 Y-0.1337 E0.5127
G1 X0.8339 Y-0.1864 E0.5127
G1 X0.8206 Y-0.2384 E0.5127
G1 X0.804 Y-0.2895 E0.5127
G1 X0.7842 Y-0.3394 E0.5127
G1 X0.7614 Y-0.3879 E0.5127
G1 X0.7355 Y-0.435 E0.5127
G1 X0.7068 Y-0.4803 E0.5127
G1 X0.6752 Y-0.5237 E0.5127
G1 X0.641 Y-0.5651 E0.5127
G1 X0.6042 Y-0.6042 E0.5127
G1 X0.5651 Y-0.641 E0.5127
G1 X0.5237 Y-0.6752 E0.5127
G1 X0.4803 Y-0.7068 E0.5127
G1 X0.435 Y-0.7355 E0.5127
G1 X0.3879 Y-0.7614 E0.5127
G1 X0.3394 Y-0.7842 E0.5127
G1 X0.2895 Y-0.804 E0.5127
G1 X0.2384 Y-0.8206 E0.5127
G1 X0.1864 Y-0.8339 E0.5127
G1 X0.1337 Y-0.844 E0.5127
G1 X0.0804 Y-0.8507 E0.5127
G1 X0.0268 Y-0.8541 E0.5127
G1 X3.4 Y0.0 E2.04
G1 F1200 
; starting polygon
G1 X-0.0336 Y-1.0676 E0.6409
G1 X-0.1005 Y-1.0634 E0.6409
G1 X-0.1671 Y-1.055 E0.6409
G1 X-0.233 Y-1.0424 E0.6409
G1 X-0.298 Y-1.0257 E0.6409
G1 X-0.3618 Y-1.005 E0.6409
G1 X-0.4242 Y-0.9803 E0.6409
G1 X-0.4849 Y-0.9517 E0.6409
G1 X-0.5437 Y-0.9194 E0.6409
G1 X-0.6004 Y-0.8834 E0.6409
G1 X-0.6547 Y-0.844 E0.6409
G1 X-0.7064 Y-0.8012 E0.6409
G1 X-0.7553 Y-0.7553 E0.6409
G1 X-0.8012 Y-0.7064 E0.6409
G1 X-0.844 Y-0.6547 E0.6409
G1 X-0.8834 Y-0.6004 E0.6409
G1 X-0.9194 Y-0.5437 E0.6409
G1 X-0.9517 Y-0.4849 E0.6409
G1 X-0.9803 Y-0.4242 E0.6409
G1 X-1.005 Y-0.3618 E0.6409
G1 X-1.0257 Y-0.298 E0.6409
G1 X-1.0424 Y-0.233 E0.6409
G1 X-1.055 Y-0.1671 E0.6409
G1 X-1.0634 Y-0.1005 E0.6409
G1 X-1.0676 Y-0.0336 E0.6409
G1 X-1.0676 Y0.0336 E0.6409
G1 X-1.0634 Y0.1005 E0.6409
G1 X-1.055 Y0.1671 E0.6409
G1 X-1.0424 Y0.233 E0.6409
G1 X-1.0257 Y0.298 E0.6409
G1 X-1.005 Y0.3618 E0.6409
G1 X-0.9803 Y0.4242 E0.6409
G1 X-0.9517 Y0.4849 E0.6409
G1 X-0.9194 Y0.5437 E0.6409
G1 X-0.8834 Y0.6004 E0.6409
G1 X-0.844 Y0.6547 E0.6409
G1 X-0.8012 Y0.7064 E0.6409
G1 X-0.7553 Y0.7553 E0.6409
G1 X-0.7064 Y0.8012 E0.6409
G1 X-0.6547 Y0.844 E0.6409
G1 X-0.6004 Y0.8834 E0.6409
G1 X-0.5437 Y0.9194 E0.6409
G1 X-0.4849 Y0.9517 E0.6409
G1 X-0.4242 Y0.9803 E0.6409
G1 X-0.3618 Y1.005 E0.6409
G1 X-0.298 Y1.0257 E0.6409
G1 X-0.233 Y1.0424 E0.6409
G1 X-0.1671 Y1.055 E0.6409
G1 X-0.1005 Y1.0634 E0.6409
G1 X-0.0336 Y1.0676 E0.6409
G1 X0.0336 Y1.0676 E0.6409
G1 X0.1005 Y1.0634 E0.6409
G1 X0.1671 Y1.055 E0.6409
G1 X0.233 Y1.0424 E0.6409
G1 X0.298 Y1.0257 E0.6409
G1 X0.3618 Y1.005 E0.6409
G1 X0.4242 Y0.9803 E0.6409
G1 X0.4849 Y0.9517 E0.6409
G1 X0.5437 Y0.9194 E0.6409
G1 X0.6004 Y0.8834 E0.6409
G1 X0.6547 Y0.844 E0.6409
G1 X0.7064 Y0.8012 E0.6409
G1 X0.7553 Y0.7553 E0.6409
G1 X0.8012 Y0.7064 E0.6409
G1 X0.844 Y0.6547 E0.6409
G1 X0.8834 Y0.6004 E0.6409
G1 X0.9194 Y0.5437 E0.6409
G1 X0.9517 Y0.4849 E0.6409
G1 X0.9803 Y0.4242 E0.6409
G1 X1.005 Y0.3618 E0.6409
G1 X1.0257 Y0.298 E0.6409
G1 X1.0424 Y0.233 E0.6409
G1 X1.055 Y0.1671 E0.6409
G1 X1.0634 Y0.1005 E0.6409
G1 X1.0676 Y0.0336 E0.6409
G1 X1.0676 Y-0.0336 E0.6409
G1 X1.0634 Y-0.1005 E0.6409
G1 X1.055 Y-0.1671 E0.6409
G1 X1.0424 Y-0.233 E0.6409
G1 X1.0257 Y-0.298 E0.6409
G1 X1.005 Y-0.3618 E0.6409
G1 X0.9803 Y-0.4242 E0.6409
G1 X0.9517 Y-0.4849 E0.6409
G1 X0.9194 Y-0.5437 E0.6409
G1 X0.8834 Y-0.6004 E0.6409
G1 X0.844 Y-0.6547 E0.6409
G1 X0.8012 Y-0.7064 E0.6409
G1 X0.7553 Y-0.7553 E0.6409
G1 X0.7064 Y-0.8012 E0.6409
G1 X0.6547 Y-0.844 E0.6409
G1 X0.6004 Y-0.8834 E0.6409
G1 X0.5437 Y-0.9194 E0.6409
G1 X0.4849 Y-0.9517 E0.6409
G1 X0.4242 Y-0.9803 E0.6409
G1 X0.3618 Y-1.005 E0.6409
G1 X0.298 Y-1.0257 E0.6409
G1 X0.233 Y-1.0424 E0.6409
G1 X0.1671 Y-1.055 E0.6409
G1 X0.1005 Y-1.0634 E0.6409
G1 X0.0336 Y-1.0676 E0.6409
G1 X3.4 Y0.0 E2.04
G1 F1200 
; starting polygon
G1 X-0.0403 Y-1.2811 E0.7691
G1 X-0.1206 Y-1.2761 E0.7691
G1 X-0.2005 Y-1.266 E0.7691
G1 X-0.2796 Y-1.2509 E0.7691
G1 X-0.3576 Y-1.2309 E0.7691
G1 X-0.4342 Y-1.206 E0.7691
G1 X-0.5091 Y-1.1764 E0.7691
G1 X-0.5819 Y-1.1421 E0.7691
G1 X-0.6525 Y-1.1033 E0.7691
G1 X-0.7205 Y-1.0601 E0.7691
G1 X-0.7856 Y-1.0128 E0.7691
G1 X-0.8476 Y-0.9615 E0.7691
G1 X-0.9063 Y-0.9063 E0.7691
G1 X-0.9615 Y-0.8476 E0.7691
G1 X-1.0128 Y-0.7856 E0.7691
G1 X-1.0601 Y-0.7205 E0.7691
G1 X-1.1033 Y-0.6525 E0.7691
G1 X-1.1421 Y-0.5819 E0.7691
G1 X-1.1764 Y-0.5091 E0.7691
G1 X-1.206 Y-0.4342 E0.7691
G1 X-1.2309 Y-0.3576 E0.7691
G1 X-1.2509 Y-0.2796 E0.7691
G1 X-1.266 Y-0.2005 E0.7691
G1 X-1.2761 Y-0.1206 E0.7691
G1 X-1.2811 Y-0.0403 E0.7691
G1 X-1.2811 Y0.0403 E0.7691
G1 X-1.2761 Y0.1206 E0.7691
G1 X-1.266 Y0.2005 E0.7691
G1 X-1.2509 Y0.2796 E0.7691
G1 X-1.2309 Y0.3576 E0.7691
G1 X-1.206 Y0.4342 E0.7691
G1 X-1.1764 Y0.5091 E0.7691
G1 X-1.1421 Y0.5819 E0.7691
G1 X-1.1033 Y0.6525 E0.7691
G1 X-1.0601 Y0.7205 E0.7691
G1 X-1.0128 Y0.7856 E0.7691
G1 X-0.9615 Y0.8476 E0.7691
G1 X-0.9063 Y0.9063 E0.7691
G1 X-0.8476 Y0.9615 E0.7691
G1 X-0.7856 Y1.0128 E0.7691
G1 X-0.7205 Y1.0601 E0.7691
G1 X-0.6525 Y1.1033 E0.7691
G1 X-0.5819 Y1.1421 E0.7691
G1 X-0.5091 Y1.1764 E0.7691
G1 X-0.4342 Y1.206 E0.7691
G1 X-0.3576 Y1.2309 E0.7691
G1 X-0.2796 Y1.2509 E0.7691
G1 X-0.2005 Y1.266 E0.7691
G1 X-0.1206 Y1.2761 E0.7691
G1 X-0.0403 Y1.2811 E0.7691
G1 X0.0403 Y1.2811 E0.7691
G1 X0.1206 Y1.2761 E0.7691
G1 X0.2005 Y1.266 E0.7691
G1 X0.2796 Y1.2509 E0.7691
G1 X0.3576 Y1.2309 E0.7691
G1 X0.4342 Y1.206 E0.7691
G1 X0.5091 Y1.1764 E0.7691
G1 X0.5819 Y1.1421 E0.7691
G1 X0.6525 Y1.1033 E0.7691
G1 X0.7205 Y1.0601 E0.7691
G1 X0.7856 Y1.0128 E0.7691
G1 X0.8476 Y0.9615 E0.7691
G1 X0.9063 Y0.9063 E0.7691
G1 X0.9615 Y0.8476 E0.7691
G1 X1.0128 Y0.7856 E0.7691
G1 X1.0601 Y0.7205 E0.7691
G1 X1.1033 Y0.6525 E0.7691
G1 X1.1421 Y0.5819 E0.7691
G1 X1.1764 Y0.5091 E0.7691
G1 X1.206 Y0.4342 E0.7691
G1 X1.2309 Y0.3576 E0.7691
G1 X1.2509 Y0.2796 E0.7691
G1 X1.266 Y0.2005 E0.7691
G1 X1.2761 Y0.1206 E0.7691
G1 X1.2811 Y0.0403 E0.7691
G1 X1.2811 Y-0.0403 E0.7691
G1 X1.2761 Y-0.1206 E0.7691
G1 X1.266 Y-0.2005 E0.7691
G1 X1.2509 Y-0.2796 E0.7691
G1 X1.2309 Y-0.3576 E0.7691
G1 X1.206 Y-0.4342 E0.7691
G1 X1.1764 Y-0.5091 E0.7691
G1 X1.1421 Y-0.5819 E0.7691
G1 X1.1033 Y-0.6525 E0.7691
G1 X1.0601 Y-0.7205 E0.7691
G1 X1.0128 Y-0.7856 E0.7691
G1 X0.9615 Y-0.8476 E0.7691
G1 X0.9063 Y-0.9063 E0.7691
G1 X0.8476 Y-0.9615 E0.7691
G1 X0.7856 Y-1.0128 E0.7691
G1 X0.7205 Y-1.0601 E0.7691
G1 X0.6525 Y-1.1033 E0.7691
G1 X0.5819 Y-1.1421 E0.7691
G1 X0.5091 Y-1.1764 E0.7691
G1 X0.4342 Y-1.206 E0.7691
G1 X0.3576 Y-1.2309 E0.7691
G1 X0.2796 Y-1.2509 E0.7691
G1 X0.2005 Y-1.266 E0.7691
G1 X0.1206 Y-1.2761 E0.7691
G1 X0.0403 Y-1.2811 E0.7691
G1 X3.4 Y0.0 E2.04
; starting polygon
G1 X-0.047 Y-1.4947 E0.8972
G1 X-0.1407 Y-1.4888 E0.8972
G1 X-0.2339 Y-1.477 E0.8972
G1 X-0.3262 Y-1.4594 E0.8972
G1 X-0.4172 Y-1.436 E0.8972
G1 X-0.5065 Y-1.407 E0.8972
G1 X-0.5939 Y-1.3724 E0.8972
G1 X-0.6789 Y-1.3324 E0.8972
G1 X-0.7612 Y-1.2872 E0.8972
G1 X-0.8405 Y-1.2368 E0.8972
G1 X-0.9165 Y-1.1816 E0.8972
G1 X-0.9889 Y-1.1217 E0.8972
G1 X-1.0574 Y-1.0574 E0.8972
G1 X-1.1217 Y-0.9889 E0.8972
G1 X-1.1816 Y-0.9165 E0.8972
G1 X-1.2368 Y-0.8405 E0.8972
G1 X-1.2872 Y-0.7612 E0.8972
G1 X-1.3324 Y-0.6789 E0.8972
G1 X-1.3724 Y-0.5939 E0.8972
G1 X-1.407 Y-0.5065 E0.8972
G1 X-1.436 Y-0.4172 E0.8972
G1 X-1.4594 Y-0.3262 E0.8972
G1 X-1.477 Y-0.2339 E0.8972
G1 X-1.4888 Y-0.1407 E0.8972
G1 X-1.4947 Y-0.047 E0.8972
G1 X-1.4947 Y0.047 E0.8972
G1 X-1.4888 Y0.1407 E0.8972
G1 X-1.477 Y0.2339 E0.8972
G1 X-1.4594 Y0.3262 E0.8972
G1 X-1.436 Y0.4172 E0.8972
G1 X-1.407 Y0.5065 E0.8972
G1 X-1.3724 Y0.5939 E0.8972
G1 X-1.3324 Y0.6789 E0.8972
G1 X-1.2872 Y0.7612 E0.8972
G1 X-1.2368 Y0.8405 E0.8972
G1 X-1.1816 Y0.9165 E0.8972
G1 X-1.1217 Y0.9889 E0.8972
G1 X-1.0574 Y1.0574 E0.8972
G1 X-0.9889 Y1.1217 E0.8972
G1 X-0.9165 Y1.1816 E0.8972
G1 X-0.8405 Y1.2368 E0.8972
G1 X-0.7612 Y1.2872 E0.8972
G1 X-0.6789 Y1.3324 E0.8972
G1 X-0.5939 Y1.3724 E0.8972
G1 X-0.5065 Y1.407 E0.8972
G1 X-0.4172 Y1.436 E0.8972
G1 X-0.3262 Y1.4594 E0.8972
G1 X-0.2339 Y1.477 E0.8972
G1 X-0.1407 Y1.4888 E0.8972
G1 X-0.047 Y1.4947 E0.8972
G1 X0.047 Y1.4947 E0.8972
G1 X0.1407 Y1.4888 E0.8972
G1 X0.2339 Y1.477 E0.8972
G1 X0.3262 Y1.4594 E0.8972
G1 X0.4172 Y1.436 E0.8972
G1 X0.5065 Y1.407 E0.8972
G1 X0.5939 Y1.3724 E0.8972
G1 X0.6789 Y1.3324 E0.8972
G1 X0.7612 Y1.2872 E0.8972
G1 X0.8405 Y1.2368 E0.8972
G1 X0.9165 Y1.1816 E0.8972
G1 X0.9889 Y1.1217 E0.8972
G1 X1.0574 Y1.0574 E0.8972
G1 X1.1217 Y0.9889 E0.8972
G1 X1.1816 Y0.9165 E0.8972
G1 X1.2368 Y0.8405 E0.8972
G1 X1.2872 Y0.7612 E0.8972
G1 X1.3324 Y0.6789 E0.8972
G1 X1.3724 Y0.5939 E0.8972
G1 X1.407 Y0.5065 E0.8972
G1 X1.436 Y0.4172 E0.8972
G1 X1.4594 Y0.3262 E0.8972
G1 X1.477 Y0.2339 E0.8972
G1 X1.4888 Y0.1407 E0.8972
G1 X1.4947 Y0.047 E0.8972
G1 X1.4947 Y-0.047 E0.8972
G1 X1.4888 Y-0.1407 E0.8972
G1 X1.477 Y-0.2339 E0.8972
G1 X1.4594 Y-0.3262 E0.8972
G1 X1.436 Y-0.4172 E0.8972
G1 X1.407 Y-0.5065 E0.8972
G1 X1.3724 Y-0.5939 E0.8972
G1 X1.3324 Y-0.6789 E0.8972
G1 X1.2872 Y-0.7612 E0.8972
G1 X1.2368 Y-0.8405 E0.8972
G1 X1.1816 Y-0.9165 E0.8972
G1 X1.1217 Y-0.9889 E0.8972
G1 X1.0574 Y-1.0574 E0.8972
G1 X0.9889 Y-1.1217 E0.8972
G1 X0.9165 Y-1.1816 E0.8972
G1 X0.8405 Y-1.2368 E0.8972
G1 X0.7612 Y-1.2872 E0.8972
G1 X0.6789 Y-1.3324 E0.8972
G1 X0.5939 Y-1.3724 E0.8972
G1 X0.5065 Y-1.407 E0.8972
G1 X0.4172 Y-1.436 E0.8972
G1 X0.3262 Y-1.4594 E0.8972
G1 X0.2339 Y-1.477 E0.8972
G1 X0.1407 Y-1.4888 E0.8972
G1 X0.047 Y-1.4947 E0.8972
; travel
G0 X2.7 Y0.0
G1 F1200 
G1 X-0.1955 Y-0.0 Z-4.3 E2.5827
G1 X-1.2837 Y0.6778 E0.871
G1 X1.2451 Y0.7463 E0.871
G1 X1.2221 Y0.8142 E0.8811
G1 X-1.3377 Y0.6057 E0.8811
G1 X-1.3495 Y0.535 E0.871
G1 X1.1571 Y0.8765 E0.871
G1 X1.1269 Y0.9415 E0.8811
G1 X-1.3954 Y0.4576 E0.8811
G1 X-1.3994 Y0.386 E0.871
G1 X1.0556 Y0.9965 E0.871
G1 X1.0185 Y1.0579 E0.8811
G1 X-1.4367 Y0.304 E0.8811
G1 X-1.4329 Y0.2324 E0.871
G1 X0.9416 Y1.1048 E0.871
G1 X0.8982 Y1.1618 E0.8811
G1 X-1.4611 Y0.1469 E0.8811
G1 X-1.4496 Y0.0761 E0.871
G1 X0.8167 Y1.2001 E0.871
G1 X0.7673 Y1.2521 E0.8811
G1 X-1.4684 Y-0.0119 E0.8811
G1 X-1.4494 Y-0.081 E0.871
G1 X0.6821 Y1.2814 E0.871
G1 X0.6274 Y1.3277 E0.8811
G1 X-1.4585 Y-0.1706 E0.8811
G1 X-1.4321 Y-0.2373 E0.871
G1 X0.5396 Y1.3476 E0.871
G1 X0.4802 Y1.3878 E0.8811
G1 X-1.4315 Y-0.3273 E0.8811
G1 X-1.3981 Y-0.3907 E0.871
G1 X0.3907 Y1.3981 E0.871
G1 X0.3273 Y1.4315 E0.8811
G1 X-1.3878 Y-0.4802 E0.8811
G1 X-1.3476 Y-0.5396 E0.871
G1 X0.2373 Y1.4321 E0.871
G1 X0.1706 Y1.4585 E0.8811
G1 X-1.3277 Y-0.6274 E0.8811
G1 X-1.2814 Y-0.6821 E0.871
G1 X0.081 Y1.4494 E0.871
G1 X0.0119 Y1.4684 E0.8811
G1 X-1.2521 Y-0.7673 E0.8811
G1 X-1.2001 Y-0.8167 E0.871
G1 X-0.0761 Y1.4496 E0.871
G1 X-0.1469 Y1.4611 E0.8811
G1 X-1.1618 Y-0.8982 E0.8811
G1 X-1.1048 Y-0.9416 E0.871
G1 X-0.2324 Y1.4329 E0.871
G1 X-0.304 Y1.4367 E0.8811
G1 X-1.0579 Y-1.0185 E0.8811
G1 X-0.9965 Y-1.0556 E0.871
G1 X-0.386 Y1.3994 E0.871
G1 X-0.4576 Y1.3954 E0.8811
G1 X-0.9415 Y-1.1269 E0.8811
G1 X-0.8765 Y-1.1571 E0.871
G1 X-0.535 Y1.3495 E0.871
G1 X-0.6057 Y1.3377 E0.8811
G1 X-0.8142 Y-1.2221 E0.8811
G1 X-0.7463 Y-1.2451 E0.871
G1 X-0.6778 Y1.2837 E0.871
G1 X-0.7468 Y1.2644 E0.8811
G1 X-0.6773 Y-1.303 E0.8811
G1 X-0.6073 Y-1.3185 E0.871
G1 X-0.8126 Y1.2029 E0.871
G1 X-0.8792 Y1.1762 E0.8811
G1 X-0.5324 Y-1.3686 E0.8811
G1 X-0.4612 Y-1.3764 E0.871
G1 X-0.9379 Y1.108 E0.871
G1 X-1.0012 Y1.0743 E0.8811
G1 X-0.3813 Y-1.4181 E0.8811
G1 X-0.3097 Y-1.4182 E0.871
G1 X-1.0522 Y1.0001 E0.871
G1 X-1.1115 Y0.9598 E0.8811
G1 X-0.2258 Y-1.451 E0.8811
G1 X-0.1545 Y-1.4434 E0.871
G1 X-1.1542 Y0.8804 E0.871
G1 X-1.2087 Y0.834 E0.8811
G1 X-0.0676 Y-1.4669 E0.8811
G1 X0.0024 Y-1.4516 E0.871
G1 X-1.2426 Y0.7505 E0.871
G1 X-1.2918 Y0.6984 E0.8811
G1 X0.0914 Y-1.4656 E0.8811
G1 X0.1594 Y-1.4429 E0.871
G1 X-1.3164 Y0.6118 E0.871
G1 X-1.3597 Y0.5546 E0.8811
G1 X0.2494 Y-1.4472 E0.8811
G1 X0.3145 Y-1.4172 E0.871
G1 X-1.3749 Y0.4658 E0.871
G1 X-1.4117 Y0.4044 E0.8811
G1 X0.4044 Y-1.4117 E0.8811
G1 X0.4658 Y-1.3749 E0.871
G1 X-1.4172 Y0.3145 E0.871
G1 X-1.4472 Y0.2494 E0.8811
G1 X0.5546 Y-1.3597 E0.8811
G1 X0.6118 Y-1.3164 E0.871
G1 X-1.4429 Y0.1594 E0.871
G1 X-1.4656 Y0.0914 E0.8811
G1 X0.6984 Y-1.2918 E0.8811
G1 X0.7505 Y-1.2426 E0.871
G1 X-1.4516 Y0.0024 E0.871
G1 X-1.4669 Y-0.0676 E0.8811
G1 X0.834 Y-1.2087 E0.8811
G1 X0.8804 Y-1.1542 E0.871
G1 X-1.4434 Y-0.1545 E0.871
G1 X-1.451 Y-0.2258 E0.8811
G1 X0.9598 Y-1.1115 E0.8811
G1 X1.0001 Y-1.0522 E0.871
G1 X-1.4182 Y-0.3097 E0.871
G1 X-1.4181 Y-0.3813 E0.8811
G1 X1.0743 Y-1.0012 E0.8811
G1 X1.108 Y-0.9379 E0.871
G1 X-1.3764 Y-0.4612 E0.871
G1 X-1.3686 Y-0.5324 E0.8811
G1 X1.1762 Y-0.8792 E0.8811
G1 X1.2029 Y-0.8126 E0.871
G1 X-1.3185 Y-0.6073 E0.871
G1 X-1.303 Y-0.6773 E0.8811
G1 X1.2644 Y-0.7468 E0.8811
G1 X1.2837 Y-0.6778 E0.871
G1 X-1.2451 Y-0.7463 E0.871
G1 X-1.2221 Y-0.8142 E0.8811
G1 X1.3377 Y-0.6057 E0.8811
G1 X1.3495 Y-0.535 E0.871
G1 X-1.1571 Y-0.8765 E0.871
G1 X-1.1269 Y-0.9415 E0.8811
G1 X1.3954 Y-0.4576 E0.8811
G1 X1.3994 Y-0.386 E0.871
G1 X-1.0556 Y-0.9965 E0.871
G1 X-1.0185 Y-1.0579 E0.8811
G1 X1.4367 Y-0.304 E0.8811
G1 X1.4329 Y-0.2324 E0.871
G1 X-0.9416 Y-1.1048 E0.871
G1 X-0.8982 Y-1.1618 E0.8811
G1 X1.4611 Y-0.1469 E0.8811
G1 X1.4496 Y-0.0761 E0.871
G1 X-0.8167 Y-1.2001 E0.871
G1 X-0.7673 Y-1.2521 E0.8811
G1 X1.4684 Y0.0119 E0.8811
G1 X1.4494 Y0.081 E0.871
G1 X-0.6821 Y-1.2814 E0.871
G1 X-0.6274 Y-1.3277 E0.8811
G1 X1.4585 Y0.1706 E0.8811
G1 X1.4321 Y0.2373 E0.871
G1 X-0.5396 Y-1.3476 E0.871
G1 X-0.4802 Y-1.3878 E0.8811
G1 X1.4315 Y0.3273 E0.8811
G1 X1.3981 Y0.3907 E0.871
G1 X-0.3907 Y-1.3981 E0.871
G1 X-0.3273 Y-1.4315 E0.8811
G1 X1.3878 Y0.4802 E0.8811
G1 X1.3476 Y0.5396 E0.871
G1 X-0.2373 Y-1.4321 E0.871
G1 X-0.1706 Y-1.4585 E0.8811
G1 X1.3277 Y0.6274 E0.8811
G1 X1.2814 Y0.6821 E0.871
G1 X-0.081 Y-1.4494 E0.871
G1 X-0.0119 Y-1.4684 E0.8811
G1 X1.2521 Y0.7673 E0.8811
G1 X1.2001 Y0.8167 E0.871
G1 X0.0761 Y-1.4496 E0.871
G1 X0.1469 Y-1.4611 E0.8811
G1 X1.1618 Y0.8982 E0.8811
G1 X1.1048 Y0.9416 E0.871
G1 X0.2324 Y-1.4329 E0.871
G1 X0.304 Y-1.4367 E0.8811
G1 X1.0579 Y1.0185 E0.8811
G1 X0.9965 Y1.0556 E0.871
G1 X0.386 Y-1.3994 E0.871
G1 X0.4576 Y-1.3954 E0.8811
G1 X0.9415 Y1.1269 E0.8811
G1 X0.8765 Y1.1571 E0.871
G1 X0.535 Y-1.3495 E0.871
G1 X0.6057 Y-1.3377 E0.8811
G1 X0.8142 Y1.2221 E0.8811
G1 X0.7463 Y1.2451 E0.871
G1 X0.6778 Y-1.2837 E0.871
G1 X0.7468 Y-1.2644 E0.8811
G1 X0.6773 Y1.303 E0.8811
G1 X0.6073 Y1.3185 E0.871
G1 X0.8126 Y-1.2029 E0.871
G1 X0.8792 Y-1.1762 E0.8811
G1 X0.5324 Y1.3686 E0.8811
G1 X0.4612 Y1.3764 E0.871
G1 X0.9379 Y-1.108 E0.871
G1 X1.0012 Y-1.0743 E0.8811
G1 X0.3813 Y1.4181 E0.8811
G1 X0.3097 Y1.4182 E0.871
G1 X1.0522 Y-1.0001 E0.871
G1 X1.1115 Y-0.9598 E0.8811
G1 X0.2258 Y1.451 E0.8811
G1 X0.1545 Y1.4434 E0.871
G1 X1.1542 Y-0.8804 E0.871
G1 X1.2087 Y-0.834 E0.8811
G1 X0.0676 Y1.4669 E0.8811
G1 X-0.0024 Y1.4516 E0.871
G1 X1.2426 Y-0.7505 E0.871
G1 X1.2918 Y-0.6984 E0.8811
G1 X-0.0914 Y1.4656 E0.8811
G1 X-0.1594 Y1.4429 E0.871
G1 X1.3164 Y-0.6118 E0.871
G1 X1.3597 Y-0.5546 E0.8811
G1 X-0.2494 Y1.4472 E0.8811
G1 X-0.3145 Y1.4172 E0.871
G1 X1.3749 Y-0.4658 E0.871
G1 X1.4117 Y-0.4044 E0.8811
G1 X-0.4044 Y1.4117 E0.8811
G1 X-0.4658 Y1.3749 E0.871
G1 X1.4172 Y-0.3145 E0.871
G1 X1.4472 Y-0.2494 E0.8811
G1 X-0.5546 Y1.3597 E0.8811
G1 X-0.6118 Y1.3164 E0.871
G1 X1.4429 Y-0.1594 E0.871
G1 X1.4656 Y-0.0914 E0.8811
G1 X-0.6984 Y1.2918 E0.8811
G1 X-0.7505 Y1.2426 E0.871
G1 X1.4516 Y-0.0024 E0.871
G1 X1.4669 Y0.0676 E0.8811
G1 X-0.834 Y1.2087 E0.8811
G1 X-0.8804 Y1.1542 E0.871
G1 X1.4434 Y0.1545 E0.871
G1 X1.451 Y0.2258 E0.8811
G1 X-0.9598 Y1.1115 E0.8811
G1 X-1.0001 Y1.0522 E0.871
G1 X1.4182 Y0.3097 E0.871
G1 X1.4181 Y0.3813 E0.8811
G1 X-1.0743 Y1.0012 E0.8811
G1 X-1.108 Y0.9379 E0.871
G1 X1.3764 Y0.4612 E0.871
G1 X1.3686 Y0.5324 E0.8811
G1 X-1.1762 Y0.8792 E0.8811
G1 X-1.2029 Y0.8126 E0.871
G1 X1.3185 Y0.6073 E0.871
G1 X1.303 Y0.6773 E0.8811
G1 X-0.8766 Y0.7468 Z2.1 E1.437
G1 X1.2556 Y0.7082 E0.8649
G1 X1.236 Y0.7718 E0.8743
G1 X-1.3078 Y0.6428 E0.8743
G1 X-1.3208 Y0.5776 E0.8649
G1 X1.1775 Y0.8316 E0.8649
G1 X1.1516 Y0.8929 E0.8743
G1 X-1.3661 Y0.5072 E0.8743
G1 X-1.3724 Y0.441 E0.8649
G1 X1.0873 Y0.9465 E0.8649
G1 X1.0553 Y1.0048 E0.8743
G1 X-1.4104 Y0.3664 E0.8743
G1 X-1.41 Y0.2999 E0.8649
G1 X0.986 Y1.0516 E0.8649
G1 X0.9483 Y1.1064 E0.8743
G1 X-1.4402 Y0.2218 E0.8743
G1 X-1.4331 Y0.1557 E0.8649
G1 X0.8745 Y1.146 E0.8649
G1 X0.8315 Y1.1967 E0.8743
G1 X-1.4553 Y0.075 E0.8743
G1 X-1.4415 Y0.0099 E0.8649
G1 X0.7541 Y1.2286 E0.8649
G1 X0.7061 Y1.2747 E0.8743
G1 X-1.4554 Y-0.0726 E0.8743
G1 X-1.4351 Y-0.136 E0.8649
G1 X0.6259 Y1.2986 E0.8649
G1 X0.5736 Y1.3396 E0.8743
G1 X-1.4406 Y-0.2195 E0.8743
G1 X-1.414 Y-0.2805 E0.8649
G1 X0.4914 Y1.3552 E0.8649
G1 X0.4351 Y1.3907 E0.8743
G1 X-1.411 Y-0.3641 E0.8743
G1 X-1.3784 Y-0.4221 E0.8649
G1 X0.3517 Y1.398 E0.8649
G1 X0.2922 Y1.4276 E0.8743
G1 X-1.3669 Y-0.505 E0.8743
G1 X-1.3286 Y-0.5594 E0.8649
G1 X0.2085 Y1.4264 E0.8649
G1 X0.1462 Y1.4498 E0.8743
G1 X-1.3088 Y-0.6407 E0.8743
G1 X-1.2652 Y-0.6909 E0.8649
G1 X0.0631 Y1.4402 E0.8649
G1 X-0.0012 Y1.4572 E0.8743
G1 X-1.2373 Y-0.7698 E0.8743
G1 X-1.1888 Y-0.8154 E0.8649
G1 X-0.0829 Y1.4392 E0.8649
G1 X-0.1486 Y1.4496 E0.8743
G1 X-1.153 Y-0.891 E0.8743
G1 X-1.1002 Y-0.9314 E0.8649
G1 X-0.2281 Y1.4234 E0.8649
G1 X-0.2945 Y1.4271 E0.8743
G1 X-1.057 Y-1.0031 E0.8743
G1 X-1.0003 Y-1.038 E0.8649
G1 X-0.3709 Y1.393 E0.8649
G1 X-0.4374 Y1.39 E0.8743
G1 X-0.9501 Y-1.1049 E0.8743
G1 X-0.8902 Y-1.1338 E0.8649
G1 X-0.5099 Y1.3483 E0.8649
G1 X-0.5758 Y1.3386 E0.8743
G1 X-0.8334 Y-1.1953 E0.8743
G1 X-0.7709 Y-1.2181 E0.8649
G1 X-0.6437 Y1.2898 E0.8649
G1 X-0.7082 Y1.2735 E0.8743
G1 X-0.7082 Y-1.2735 E0.8743
G1 X-0.6437 Y-1.2898 E0.8649
G1 X-0.7709 Y1.2181 E0.8649
G1 X-0.8334 Y1.1953 E0.8743
G1 X-0.5758 Y-1.3386 E0.8743
G1 X-0.5099 Y-1.3483 E0.8649
G1 X-0.8902 Y1.1338 E0.8649
G1 X-0.9501 Y1.1049 E0.8743
G1 X-0.4374 Y-1.39 E0.8743
G1 X-0.3709 Y-1.393 E0.8649
G1 X-1.0003 Y1.038 E0.8649
G1 X-1.057 Y1.0031 E0.8743
G1 X-0.2945 Y-1.4271 E0.8743
G1 X-0.2281 Y-1.4234 E0.8649
G1 X-1.1002 Y0.9314 E0.8649
G1 X-1.153 Y0.891 E0.8743
G1 X-0.1486 Y-1.4496 E0.8743
G1 X-0.0829 Y-1.4392 E0.8649
G1 X-1.1888 Y0.8154 E0.8649
G1 X-1.2373 Y0.7698 E0.8743
G1 X-0.0012 Y-1.4572 E0.8743
G1 X0.0631 Y-1.4402 E0.8649
G1 X-1.2652 Y0.6909 E0.8649
G1 X-1.3088 Y0.6407 E0.8743
G1 X0.1462 Y-1.4498 E0.8743
G1 X0.2085 Y-1.4264 E0.8649
G1 X-1.3286 Y0.5594 E0.8649
G1 X-1.3669 Y0.505 E0.8743
G1 X0.2922 Y-1.4276 E0.8743
G1 X0.3517 Y-1.398 E0.8649
G1 X-1.3784 Y0.4221 E0.8649
G1 X-1.411 Y0.3641 E0.8743
G1 X0.4351 Y-1.3907 E0.8743
G1 X0.4914 Y-1.3552 E0.8649
G1 X-1.414 Y0.2805 E0.8649
G1 X-1.4406 Y0.2195 E0.8743
G1 X0.5736 Y-1.3396 E0.8743
G1 X0.6259 Y-1.2986 E0.8649
G1 X-1.4351 Y0.136 E0.8649
G1 X-1.4554 Y0.0726 E0.8743
G1 X0.7061 Y-1.2747 E0.8743
G1 X0.7541 Y-1.2286 E0.8649
G1 X-1.4415 Y-0.0099 E0.8649
G1 X-1.4553 Y-0.075 E0.8743
G1 X0.8315 Y-1.1967 E0.8743
G1 X0.8745 Y-1.146 E0.8649
G1 X-1.4331 Y-0.1557 E0.8649
G1 X-1.4402 Y-0.2218 E0.8743
G1 X0.9483 Y-1.1064 E0.8743
G1 X0.986 Y-1.0516 E0.8649
G1 X-1.41 Y-0.2999 E0.8649
G1 X-1.4104 Y-0.3664 E0.8743
G1 X1.0553 Y-1.0048 E0.8743
G1 X1.0873 Y-0.9465 E0.8649
G1 X-1.3724 Y-0.441 E0.8649
G1 X-1.3661 Y-0.5072 E0.8743
G1 X1.1516 Y-0.8929 E0.8743
G1 X1.1775 Y-0.8316 E0.8649
G1 X-1.3208 Y-0.5776 E0.8649
G1 X-1.3078 Y-0.6428 E0.8743
G1 X1.236 Y-0.7718 E0.8743
G1 X1.2556 Y-0.7082 E0.8649
G1 X-1.2556 Y-0.7082 E0.8649
G1 X-1.236 Y-0.7718 E0.8743
G1 X1.3078 Y-0.6428 E0.8743
G1 X1.3208 Y-0.5776 E0.8649
G1 X-1.1775 Y-0.8316 E0.8649
G1 X-1.1516 Y-0.8929 E0.8743
G1 X1.3661 Y-0.5072 E0.8743
G1 X1.3724 Y-0.441 E0.8649
G1 X-1.0873 Y-0.9465 E0.8649
G1 X-1.0553 Y-1.0048 E0.8743
G1 X1.4104 Y-0.3664 E0.8743
G1 X1.41 Y-0.2999 E0.8649
G1 X-0.986 Y-1.0516 E0.8649
G1 X-0.9483 Y-1.1064 E0.8743
G1 X1.4402 Y-0.2218 E0.8743
G1 X1.4331 Y-0.1557 E0.8649
G1 X-0.8745 Y-1.146 E0.8649
G1 X-0.8315 Y-1.1967 E0.8743
G1 X1.4553 Y-0.075 E0.8743
G1 X1.4415 Y-0.0099 E0.8649
G1 X-0.7541 Y-1.2286 E0.8649
G1 X-0.7061 Y-1.2747 E0.8743
G1 X1.4554 Y0.0726 E0.8743
G1 X1.4351 Y0.136 E0.8649
G1 X-0.6259 Y-1.2986 E0.8649
G1 X-0.5736 Y-1.3396 E0.8743
G1 X1.4406 Y0.2195 E0.8743
G1 X1.414 Y0.2805 E0.8649
G1 X-0.4914 Y-1.3552 E0.8649
G1 X-0.4351 Y-1.3907 E0.8743
G1 X1.411 Y0.3641 E0.8743
G1 X1.3784 Y0.4221 E0.8649
G1 X-0.3517 Y-1.398 E0.8649
G1 X-0.2922 Y-1.4276 E0.8743
G1 X1.3669 Y0.505 E0.8743
G1 X1.3286 Y0.5594 E0.8649
G1 X-0.2085 Y-1.4264 E0.8649
G1 X-0.1462 Y-1.4498 E0.8743
G1 X1.3088 Y0.6407 E0.8743
G1 X1.2652 Y0.6909 E0.8649
G1 X-0.0631 Y-1.4402 E0.8649
G1 X0.0012 Y-1.4572 E0.8743
G1 X1.2373 Y0.7698 E0.8743
G1 X1.1888 Y0.8154 E0.8649
G1 X0.0829 Y-1.4392 E0.8649
G1 X0.1486 Y-1.4496 E0.8743
G1 X1.153 Y0.891 E0.8743
G1 X1.1002 Y0.9314 E0.8649
G1 X0.2281 Y-1.4234 E0.8649
G1 X0.2945 Y-1.4271 E0.8743
G1 X1.057 Y1.0031 E0.8743
G1 X1.0003 Y1.038 E0.8649
G1 X0.3709 Y-1.393 E0.8649
G1 X0.4374 Y-1.39 E0.8743
G1 X0.9501 Y1.1049 E0.8743
G1 X0.8902 Y1.1338 E0.8649
G1 X0.5099 Y-1.3483 E0.8649
G1 X0.5758 Y-1.3386 E0.8743
G1 X0.8334 Y1.1953 E0.8743
G1 X0.7709 Y1.2181 E0.8649
G1 X0.6437 Y-1.2898 E0.8649
G1 X0.7082 Y-1.2735 E0.8743
G1 X0.7082 Y1.2735 E0.8743
G1 X0.6437 Y1.2898 E0.8649
G1 X0.7709 Y-1.2181 E0.8649
G1 X0.8334 Y-1.1953 E0.8743
G1 X0.5758 Y1.3386 E0.8743
G1 X0.5099 Y1.3483 E0.8649
G1 X0.8902 Y-1.1338 E0.8649
G1 X0.9501 Y-1.1049 E0.8743
G1 X0.4374 Y1.39 E0.8743
G1 X0.3709 Y1.393 E0.8649
G1 X1.0003 Y-1.038 E0.8649
G1 X1.057 Y-1.0031 E0.8743
G1 X0.2945 Y1.4271 E0.8743
G1 X0.2281 Y1.4234 E0.8649
G1 X1.1002 Y-0.9314 E0.8649
G1 X1.153 Y-0.891 E0.8743
G1 X0.1486 Y1.4496 E0.8743
G1 X0.0829 Y1.4392 E0.8649
G1 X1.1888 Y-0.8154 E0.8649
G1 X1.2373 Y-0.7698 E0.8743
G1 X0.0012 Y1.4572 E0.8743
G1 X-0.0631 Y1.4402 E0.8649
G1 X1.2652 Y-0.6909 E0.8649
G1 X1.3088 Y-0.6407 E0.8743
G1 X-0.1462 Y1.4498 E0.8743
G1 X-0.2085 Y1.4264 E0.8649
G1 X1.3286 Y-0.5594 E0.8649
G1 X1.3669 Y-0.505 E0.8743
G1 X-0.2922 Y1.4276 E0.8743
G1 X-0.3517 Y1.398 E0.8649
G1 X1.3784 Y-0.4221 E0.8649
G1 X1.411 Y-0.3641 E0.8743
G1 X-0.4351 Y1.3907 E0.8743
G1 X-0.4914 Y1.3552 E0.8649
G1 X1.414 Y-0.2805 E0.8649
G1 X1.4406 Y-0.2195 E0.8743
G1 X-0.5736 Y1.3396 E0.8743
G1 X-0.6259 Y1.2986 E0.8649
G1 X1.4351 Y-0.136 E0.8649
G1 X1.4554 Y-0.0726 E0.8743
G1 X-0.7061 Y1.2747 E0.8743
G1 X-0.7541 Y1.2286 E0.8649
G1 X1.4415 Y0.0099 E0.8649
G1 X1.4553 Y0.075 E0.8743
G1 X-0.8315 Y1.1967 E0.8743
G1 X-0.8745 Y1.146 E0.8649
G1 X1.4331 Y0.1557 E0.8649
G1 X1.4402 Y0.2218 E0.8743
G1 X-0.9483 Y1.1064 E0.8743
G1 X-0.986 Y1.0516 E0.8649
G1 X1.41 Y0.2999 E0.8649
G1 X1.4104 Y0.3664 E0.8743
G1 X-1.0553 Y1.0048 E0.8743
G1 X-1.0873 Y0.9465 E0.8649
G1 X1.3724 Y0.441 E0.8649
G1 X1.3661 Y0.5072 E0.8743
G1 X-1.1516 Y0.8929 E0.8743
G1 X-1.1775 Y0.8316 E0.8649
G1 X1.3208 Y0.5776 E0.8649
G1 X1.3078 Y0.6428 E0.8743
G1 X-1.236 Y0.7718 E0.8743
G1 X1.7034 Y0.7082 Z2.2 E1.7226
G1 X-1.2624 Y0.6862 E0.8621
G1 X1.2278 Y0.7464 E0.8621
G1 X1.2076 Y0.8061 E0.8711
G1 X-1.3114 Y0.6231 E0.8711
G1 X-1.3228 Y0.5611 E0.8621
G1 X1.15 Y0.8614 E0.8621
G1 X1.1242 Y0.9189 E0.8711
G1 X-1.3654 Y0.4937 E0.8711
G1 X-1.3708 Y0.4309 E0.8621
G1 X1.0615 Y0.9684 E0.8621
G1 X1.0302 Y1.0231 E0.8711
G1 X-1.4067 Y0.3596 E0.8711
G1 X-1.4059 Y0.2965 E0.8621
G1 X0.9631 Y1.0663 E0.8621
G1 X0.9267 Y1.1177 E0.8711
G1 X-1.4348 Y0.2221 E0.8711
G1 X-1.428 Y0.1595 E0.8621
G1 X0.8557 Y1.1543 E0.8621
G1 X0.8145 Y1.2019 E0.8711
G1 X-1.4496 Y0.0826 E0.8711
G1 X-1.4367 Y0.0209 E0.8621
G1 X0.7403 Y1.2315 E0.8621
G1 X0.6947 Y1.2749 E0.8711
G1 X-1.4508 Y-0.0577 E0.8711
G1 X-1.432 Y-0.1179 E0.8621
G1 X0.618 Y1.2972 E0.8621
G1 X0.5684 Y1.336 E0.8711
G1 X-1.4384 Y-0.1974 E0.8711
G1 X-1.414 Y-0.2555 E0.8621
G1 X0.4899 Y1.3508 E0.8621
G1 X0.4368 Y1.3846 E0.8711
G1 X-1.4126 Y-0.3353 E0.8711
G1 X-1.3827 Y-0.3908 E0.8621
G1 X0.3573 Y1.3917 E0.8621
G1 X0.3011 Y1.4203 E0.8711
G1 X-1.3737 Y-0.4701 E0.8711
G1 X-1.3385 Y-0.5224 E0.8621
G1 X0.2213 Y1.4197 E0.8621
G1 X0.1626 Y1.4428 E0.8711
G1 X-1.3219 Y-0.6005 E0.8711
G1 X-1.2819 Y-0.6492 E0.8621
G1 X0.0832 Y1.4345 E0.8621
G1 X0.0226 Y1.4517 E0.8711
G1 X-1.2578 Y-0.7253 E0.8711
G1 X-1.2132 Y-0.7699 E0.8621
G1 X-0.0556 Y1.4358 E0.8621
G1 X-0.1176 Y1.4471 E0.8711
G1 X-1.1819 Y-0.8433 E0.8711
G1 X-1.1333 Y-0.8834 E0.8621
G1 X-0.1939 Y1.4237 E0.8621
G1 X-0.2567 Y1.429 E0.8711
G1 X-1.095 Y-0.9534 E0.8711
G1 X-1.0427 Y-0.9886 E0.8621
G1 X-0.3304 Y1.3984 E0.8621
G1 X-0.3935 Y1.3976 E0.8711
G1 X-0.9979 Y-1.0546 E0.8711
G1 X-0.9424 Y-1.0846 E0.8621
G1 X-0.4638 Y1.3599 E0.8621
G1 X-0.5265 Y1.3531 E0.8711
G1 X-0.8914 Y-1.146 E0.8711
G1 X-0.8333 Y-1.1705 E0.8621
G1 X-0.5929 Y1.3088 E0.8621
G1 X-0.6546 Y1.2959 E0.8711
G1 X-0.7767 Y-1.2267 E0.8711
G1 X-0.7165 Y-1.2455 E0.8621
G1 X-0.7165 Y1.2455 E0.8621
G1 X-0.7767 Y1.2267 E0.8711
G1 X-0.6546 Y-1.2959 E0.8711
G1 X-0.5929 Y-1.3088 E0.8621
G1 X-0.8333 Y1.1705 E0.8621
G1 X-0.8914 Y1.146 E0.8711
G1 X-0.5265 Y-1.3531 E0.8711
G1 X-0.4638 Y-1.3599 E0.8621
G1 X-0.9424 Y1.0846 E0.8621
G1 X-0.9979 Y1.0546 E0.8711
G1 X-0.3935 Y-1.3976 E0.8711
G1 X-0.3304 Y-1.3984 E0.8621
G1 X-1.0427 Y0.9886 E0.8621
G1 X-1.095 Y0.9534 E0.8711
G1 X-0.2567 Y-1.429 E0.8711
G1 X-0.1939 Y-1.4237 E0.8621
G1 X-1.1333 Y0.8834 E0.8621
G1 X-1.1819 Y0.8433 E0.8711
G1 X-0.1176 Y-1.4471 E0.8711
G1 X-0.0556 Y-1.4358 E0.8621
G1 X-1.2132 Y0.7699 E0.8621
G1 X-1.2578 Y0.7253 E0.8711
G1 X0.0226 Y-1.4517 E0.8711
G1 X0.0832 Y-1.4345 E0.8621
G1 X-1.2819 Y0.6492 E0.8621
G1 X-1.3219 Y0.6005 E0.8711
G1 X0.1626 Y-1.4428 E0.8711
G1 X0.2213 Y-1.4197 E0.8621
G1 X-1.3385 Y0.5224 E0.8621
G1 X-1.3737 Y0.4701 E0.8711
G1 X0.3011 Y-1.4203 E0.8711
G1 X0.3573 Y-1.3917 E0.8621
G1 X-1.3827 Y0.3908 E0.8621
G1 X-1.4126 Y0.3353 E0.8711
G1 X0.4368 Y-1.3847 E0.8711
G1 X0.4899 Y-1.3508 E0.8621
G1 X-1.414 Y0.2555 E0.8621
G1 X-1.4384 Y0.1974 E0.8711
G1 X0.5684 Y-1.336 E0.8711
G1 X0.618 Y-1.2972 E0.8621
G1 X-1.432 Y0.1179 E0.8621
G1 X-1.4508 Y0.0577 E0.8711
G1 X0.6947 Y-1.2749 E0.8711
G1 X0.7403 Y-1.2315 E0.8621
G1 X-1.4367 Y-0.0209 E0.8621
G1 X-1.4496 Y-0.0826 E0.8711
G1 X0.8145 Y-1.2019 E0.8711
G1 X0.8557 Y-1.1543 E0.8621
G1 X-1.428 Y-0.1595 E0.8621
G1 X-1.4348 Y-0.2221 E0.8711
G1 X0.9267 Y-1.1177 E0.8711
G1 X0.9631 Y-1.0663 E0.8621
G1 X-1.4059 Y-0.2965 E0.8621
G1 X-1.4067 Y-0.3596 E0.8711
G1 X1.0302 Y-1.0231 E0.8711
G1 X1.0615 Y-0.9684 E0.8621
G1 X-1.3708 Y-0.4309 E0.8621
G1 X-1.3654 Y-0.4937 E0.8711
G1 X1.1242 Y-0.9189 E0.8711
G1 X1.15 Y-0.8614 E0.8621
G1 X-1.3228 Y-0.5611 E0.8621
G1 X-1.3114 Y-0.6231 E0.8711
G1 X1.2076 Y-0.8061 E0.8711
G1 X1.2278 Y-0.7464 E0.8621
G1 X-1.2624 Y-0.6862 E0.8621
G1 X-1.2451 Y-0.7468 E0.8711
G1 X1.2797 Y-0.6858 E0.8711
G1 X1.2941 Y-0.6244 E0.8621
G1 X-1.1903 Y-0.8048 E0.8621
G1 X-1.1672 Y-0.8635 E0.8711
G1 X1.34 Y-0.559 E0.8711
G1 X1.3483 Y-0.4966 E0.8621
G1 X-1.1071 Y-0.9159 E0.8621
G1 X-1.0784 Y-0.9721 E0.8711
G1 X1.3877 Y-0.4271 E0.8711
G1 X1.39 Y-0.3641 E0.8621
G1 X-1.0135 Y-1.0185 E0.8621
G1 X-0.9796 Y-1.0716 E0.8711
G1 X1.4224 Y-0.2912 E0.8711
G1 X1.4186 Y-0.2283 E0.8621
G1 X-0.9105 Y-1.1116 E0.8621
G1 X-0.8716 Y-1.1612 E0.8711
G1 X1.4439 Y-0.1526 E0.8711
G1 X1.434 Y-0.0903 E0.8621
G1 X-0.7989 Y-1.1943 E0.8621
G1 X-0.7554 Y-1.2399 E0.8711
G1 X1.4518 Y-0.0125 E0.8711
G1 X1.436 Y0.0485 E0.8621
G1 X-0.68 Y-1.2658 E0.8621
G1 X-0.6323 Y-1.307 E0.8711
G1 X1.4463 Y0.1277 E0.8711
G1 X1.4247 Y0.1869 E0.8621
G1 X-0.5546 Y-1.3255 E0.8621
G1 X-0.5032 Y-1.3619 E0.8711
G1 X1.4272 Y0.2667 E0.8711
G1 X1.4 Y0.3235 E0.8621
G1 X-0.4241 Y-1.3729 E0.8621
G1 X-0.3694 Y-1.4041 E0.8711
G1 X1.3948 Y0.4032 E0.8711
G1 X1.3622 Y0.4571 E0.8621
G1 X-0.2896 Y-1.4074 E0.8621
G1 X-0.2321 Y-1.4332 E0.8711
G1 X1.3494 Y0.5359 E0.8711
G1 X1.3117 Y0.5865 E0.8621
G1 X-0.1524 Y-1.4288 E0.8621
G1 X-0.0927 Y-1.4489 E0.8711
G1 X1.2913 Y0.6637 E0.8711
G1 X1.249 Y0.7103 E0.8621
G1 X-0.0138 Y-1.4368 E0.8621
G1 X0.0476 Y-1.4511 E0.8711
G1 X1.2213 Y0.7852 E0.8711
G1 X1.1746 Y0.8276 E0.8621
G1 X0.1249 Y-1.4314 E0.8621
G1 X0.1874 Y-1.4398 E0.8711
G1 X1.1398 Y0.8994 E0.8711
G1 X1.0893 Y0.9371 E0.8621
G1 X0.2625 Y-1.4127 E0.8621
G1 X0.3255 Y-1.415 E0.8711
G1 X1.0477 Y1.0052 E0.8711
G1 X0.9937 Y1.0378 E0.8621
G1 X0.3976 Y-1.3808 E0.8621
G1 X0.4605 Y-1.3769 E0.8711
G1 X0.9458 Y1.1016 E0.8711
G1 X0.8889 Y1.1289 E0.8621
G1 X0.529 Y-1.3359 E0.8621
G1 X0.5913 Y-1.3261 E0.8711
G1 X0.835 Y1.1878 E0.8711
G1 X0.7758 Y1.2094 E0.8621
G1 X0.6555 Y-1.2786 E0.8621
G1 X0.7165 Y-1.2628 E0.8711
G1 X0.7165 Y1.2628 E0.8711
G1 X0.6555 Y1.2786 E0.8621
G1 X0.7758 Y-1.2094 E0.8621
G1 X0.835 Y-1.1878 E0.8711
G1 X0.5913 Y1.3261 E0.8711
G1 X0.529 Y1.3359 E0.8621
G1 X0.8889 Y-1.1289 E0.8621
G1 X0.9458 Y-1.1016 E0.8711
G1 X0.4605 Y1.3769 E0.8711
G1 X0.3976 Y1.3808 E0.8621
G1 X0.9937 Y-1.0378 E0.8621
G1 X1.0477 Y-1.0052 E0.8711
G1 X0.3255 Y1.415 E0.8711
G1 X0.2625 Y1.4127 E0.8621
G1 X1.0893 Y-0.9371 E0.8621
G1 X1.1398 Y-0.8994 E0.8711
G1 X0.1874 Y1.4398 E0.8711
G1 X0.1249 Y1.4314 E0.8621
G1 X1.1746 Y-0.8276 E0.8621
G1 X1.2213 Y-0.7852 E0.8711
G1 X0.0476 Y1.4511 E0.8711
G1 X-0.0138 Y1.4368 E0.8621
G1 X1.249 Y-0.7103 E0.8621
G1 X1.2914 Y-0.6637 E0.8711
G1 X-0.0927 Y1.4489 E0.8711
G1 X-0.1524 Y1.4288 E0.8621
G1 X1.3117 Y-0.5865 E0.8621
G1 X1.3494 Y-0.5359 E0.8711
G1 X-0.2321 Y1.4332 E0.8711
G1 X-0.2896 Y1.4074 E0.8621
G1 X1.3622 Y-0.4571 E0.8621
G1 X1.3948 Y-0.4032 E0.8711
G1 X-0.3694 Y1.4041 E0.8711
G1 X-0.4241 Y1.3729 E0.8621
G1 X1.4 Y-0.3235 E0.8621
G1 X1.4272 Y-0.2667 E0.8711
G1 X-0.5032 Y1.3619 E0.8711
G1 X-0.5546 Y1.3255 E0.8621
G1 X1.4247 Y-0.1869 E0.8621
G1 X1.4463 Y-0.1277 E0.8711
G1 X-0.6323 Y1.307 E0.8711
G1 X-0.68 Y1.2658 E0.8621
G1 X1.436 Y-0.0485 E0.8621
G1 X1.4518 Y0.0125 E0.8711
G1 X-0.7554 Y1.2399 E0.8711
G1 X-0.7989 Y1.1943 E0.8621
G1 X1.434 Y0.0903 E0.8621
G1 X1.4439 Y0.1526 E0.8711
G1 X-0.8716 Y1.1612 E0.8711
G1 X-0.9105 Y1.1116 E0.8621
G1 X1.4186 Y0.2283 E0.8621
G1 X1.4224 Y0.2912 E0.8711
G1 X-0.9796 Y1.0716 E0.8711
G1 X-1.0135 Y1.0185 E0.8621
G1 X1.39 Y0.3641 E0.8621
G1 X1.3877 Y0.4271 E0.8711
G1 X-1.0784 Y0.9721 E0.8711
G1 X-1.1071 Y0.9159 E0.8621
G1 X1.3483 Y0.4966 E0.8621
G1 X1.34 Y0.559 E0.8711
G1 X-1.1672 Y0.8635 E0.8711
G1 X-1.1903 Y0.8048 E0.8621
G1 X1.2941 Y0.6244 E0.8621
G1 X1.2797 Y0.6858 E0.8711
G1 X-0.8324 Y0.7468 Z2.2 E1.4807
G1 X1.2357 Y0.7127 E0.8559
G1 X1.2182 Y0.7689 E0.8643
G1 X-1.283 Y0.6549 E0.8643
G1 X-1.2954 Y0.5973 E0.8559
G1 X1.1658 Y0.8221 E0.8559
G1 X1.1432 Y0.8765 E0.8643
G1 X-1.3373 Y0.5356 E0.8643
G1 X-1.3443 Y0.4771 E0.8559
G1 X1.0862 Y0.9247 E0.8559
G1 X1.0588 Y0.9768 E0.8643
G1 X-1.3804 Y0.4117 E0.8643
G1 X-1.3821 Y0.3529 E0.8559
G1 X0.9976 Y1.0196 E0.8559
G1 X0.9656 Y1.0691 E0.8643
G1 X-1.4122 Y0.2845 E0.8643
G1 X-1.4085 Y0.2257 E0.8559
G1 X0.9007 Y1.1061 E0.8559
G1 X0.8643 Y1.1524 E0.8643
G1 X-1.4322 Y0.1549 E0.8643
G1 X-1.4232 Y0.0967 E0.8559
G1 X0.7964 Y1.1834 E0.8559
G1 X0.756 Y1.2263 E0.8643
G1 X-1.4403 Y0.024 E0.8643
G1 X-1.4261 Y-0.0331 E0.8559
G1 X0.6855 Y1.251 E0.8559
G1 X0.6413 Y1.2899 E0.8643
G1 X-1.4366 Y-0.107 E0.8643
G1 X-1.4172 Y-0.1627 E0.8559
G1 X0.5689 Y1.3081 E0.8559
G1 X0.5214 Y1.3429 E0.8643
G1 X-1.4209 Y-0.2372 E0.8643
G1 X-1.3965 Y-0.2909 E0.8559
G1 X0.4476 Y1.3544 E0.8559
G1 X0.3971 Y1.3847 E0.8643
G1 X-1.3934 Y-0.3655 E0.8643
G1 X-1.3643 Y-0.4166 E0.8559
G1 X0.3226 Y1.3895 E0.8559
G1 X0.2695 Y1.4151 E0.8643
G1 X-1.3544 Y-0.4907 E0.8643
G1 X-1.3207 Y-0.539 E0.8559
G1 X0.1949 Y1.4131 E0.8559
G1 X0.1397 Y1.4338 E0.8643
G1 X-1.3042 Y-0.6118 E0.8643
G1 X-1.2662 Y-0.6569 E0.8559
G1 X0.0656 Y1.425 E0.8559
G1 X0.0088 Y1.4405 E0.8643
G1 X-1.2431 Y-0.7278 E0.8643
G1 X-1.2013 Y-0.7693 E0.8559
G1 X-0.0643 Y1.425 E0.8559
G1 X-0.1223 Y1.4353 E0.8643
G1 X-1.1718 Y-0.8379 E0.8643
G1 X-1.1263 Y-0.8753 E0.8559
G1 X-0.1936 Y1.4133 E0.8559
G1 X-0.2523 Y1.4183 E0.8643
G1 X-1.0908 Y-0.941 E0.8643
G1 X-1.0421 Y-0.9741 E0.8559
G1 X-0.3213 Y1.3898 E0.8559
G1 X-0.3802 Y1.3895 E0.8643
G1 X-1.0007 Y-1.0363 E0.8643
G1 X-0.9492 Y-1.0648 E0.8559
G1 X-0.4464 Y1.3548 E0.8559
G1 X-0.505 Y1.3491 E0.8643
G1 X-0.9023 Y-1.123 E0.8643
G1 X-0.8484 Y-1.1467 E0.8559
G1 X-0.5677 Y1.3086 E0.8559
G1 X-0.6256 Y1.2976 E0.8643
G1 X-0.7964 Y-1.2004 E0.8643
G1 X-0.7406 Y-1.2191 E0.8559
G1 X-0.6844 Y1.2516 E0.8559
G1 X-0.741 Y1.2354 E0.8643
G1 X-0.684 Y-1.2678 E0.8643
G1 X-0.6267 Y-1.2814 E0.8559
G1 X-0.7953 Y1.1842 E0.8559
G1 X-0.8502 Y1.1629 E0.8643
G1 X-0.5659 Y-1.3248 E0.8643
G1 X-0.5076 Y-1.3331 E0.8559
G1 X-0.8997 Y1.1069 E0.8559
G1 X-0.9525 Y1.0807 E0.8643
G1 X-0.4431 Y-1.3707 E0.8643
G1 X-0.3842 Y-1.3737 E0.8559
G1 X-0.9966 Y1.0205 E0.8559
G1 X-1.0468 Y0.9896 E0.8643
G1 X-0.3166 Y-1.4053 E0.8643
G1 X-0.2577 Y-1.403 E0.8559
G1 X-1.0853 Y0.9257 E0.8559
G1 X-1.1325 Y0.8903 E0.8643
G1 X-0.1875 Y-1.4283 E0.8643
G1 X-0.1291 Y-1.4206 E0.8559
G1 X-1.165 Y0.8231 E0.8559
G1 X-1.2087 Y0.7837 E0.8643
G1 X-0.0568 Y-1.4394 E0.8643
G1 X0.0007 Y-1.4265 E0.8559
G1 X-1.235 Y0.7138 E0.8559
G1 X-1.275 Y0.6705 E0.8643
G1 X0.0743 Y-1.4386 E0.8643
G1 X0.1304 Y-1.4205 E0.8559
G1 X-1.2948 Y0.5985 E0.8559
G1 X-1.3307 Y0.5518 E0.8643
G1 X0.2048 Y-1.4259 E0.8643
G1 X0.259 Y-1.4028 E0.8559
G1 X-1.3439 Y0.4783 E0.8559
G1 X-1.3753 Y0.4285 E0.8643
G1 X0.3337 Y-1.4014 E0.8643
G1 X0.3855 Y-1.3734 E0.8559
G1 X-1.3818 Y0.3541 E0.8559
G1 X-1.4086 Y0.3017 E0.8643
G1 X0.4597 Y-1.3652 E0.8643
G1 X0.5088 Y-1.3326 E0.8559
G1 X-1.4083 Y0.227 E0.8559
G1 X-1.4302 Y0.1723 E0.8643
G1 X0.5819 Y-1.3178 E0.8643
G1 X0.6279 Y-1.2809 E0.8559
G1 X-1.4231 Y0.098 E0.8559
G1 X-1.4399 Y0.0416 E0.8643
G1 X0.6994 Y-1.2594 E0.8643
G1 X0.7417 Y-1.2185 E0.8559
G1 X-1.4261 Y-0.0318 E0.8559
G1 X-1.4378 Y-0.0896 E0.8643
G1 X0.811 Y-1.1906 E0.8643
G1 X0.8495 Y-1.146 E0.8559
G1 X-1.4173 Y-0.1614 E0.8559
G1 X-1.4237 Y-0.2199 E0.8643
G1 X0.9159 Y-1.1119 E0.8643
G1 X0.9501 Y-1.064 E0.8559
G1 X-1.3968 Y-0.2896 E0.8559
G1 X-1.3978 Y-0.3485 E0.8643
G1 X1.0132 Y-1.024 E0.8643
G1 X1.043 Y-0.9732 E0.8559
G1 X-1.3646 Y-0.4154 E0.8559
G1 X-1.3603 Y-0.4741 E0.8643
G1 X1.1021 Y-0.9276 E0.8643
G1 X1.1271 Y-0.8743 E0.8559
G1 X-1.3212 Y-0.5378 E0.8559
G1 X-1.3115 Y-0.5959 E0.8643
G1 X1.1819 Y-0.8236 E0.8643
G1 X1.202 Y-0.7682 E0.8559
G1 X-1.2668 Y-0.6557 E0.8559
G1 X-1.2519 Y-0.7127 E0.8643
G1 X1.2519 Y-0.7127 E0.8643
G1 X1.2668 Y-0.6557 E0.8559
G1 X-1.202 Y-0.7682 E0.8559
G1 X-1.1819 Y-0.8236 E0.8643
G1 X1.3115 Y-0.5959 E0.8643
G1 X1.3212 Y-0.5378 E0.8559
G1 X-1.1271 Y-0.8743 E0.8559
G1 X-1.1021 Y-0.9276 E0.8643
G1 X1.3603 Y-0.4741 E0.8643
G1 X1.3646 Y-0.4154 E0.8559
G1 X-1.043 Y-0.9732 E0.8559
G1 X-1.0132 Y-1.024 E0.8643
G1 X1.3978 Y-0.3485 E0.8643
G1 X1.3968 Y-0.2896 E0.8559
G1 X-0.9501 Y-1.064 E0.8559
G1 X-0.9159 Y-1.1119 E0.8643
G1 X1.4237 Y-0.2199 E0.8643
G1 X1.4173 Y-0.1614 E0.8559
G1 X-0.8495 Y-1.146 E0.8559
G1 X-0.811 Y-1.1906 E0.8643
G1 X1.4378 Y-0.0896 E0.8643
G1 X1.4261 Y-0.0318 E0.8559
G1 X-0.7417 Y-1.2185 E0.8559
G1 X-0.6994 Y-1.2594 E0.8643
G1 X1.4399 Y0.0416 E0.8643
G1 X1.4231 Y0.098 E0.8559
G1 X-0.6279 Y-1.2809 E0.8559
G1 X-0.5819 Y-1.3178 E0.8643
G1 X1.4302 Y0.1723 E0.8643
G1 X1.4083 Y0.227 E0.8559
G1 X-0.5088 Y-1.3326 E0.8559
G1 X-0.4597 Y-1.3652 E0.8643
G1 X1.4086 Y0.3017 E0.8643
G1 X1.3818 Y0.3541 E0.8559
G1 X-0.3855 Y-1.3734 E0.8559
G1 X-0.3337 Y-1.4014 E0.8643
G1 X1.3753 Y0.4285 E0.8643
G1 X1.3439 Y0.4783 E0.8559
G1 X-0.259 Y-1.4028 E0.8559
G1 X-0.2048 Y-1.4259 E0.8643
G1 X1.3307 Y0.5518 E0.8643
G1 X1.2948 Y0.5985 E0.8559
G1 X-0.1304 Y-1.4205 E0.8559
G1 X-0.0743 Y-1.4386 E0.8643
G1 X1.275 Y0.6705 E0.8643
G1 X1.235 Y0.7138 E0.8559
G1 X-0.0007 Y-1.4265 E0.8559
G1 X0.0568 Y-1.4394 E0.8643
G1 X1.2087 Y0.7837 E0.8643
G1 X1.165 Y0.8231 E0.8559
G1 X0.1291 Y-1.4206 E0.8559
G1 X0.1875 Y-1.4283 E0.8643
G1 X1.1325 Y0.8903 E0.8643
G1 X1.0853 Y0.9257 E0.8559
G1 X0.2577 Y-1.403 E0.8559
G1 X0.3166 Y-1.4053 E0.8643
G1 X1.0468 Y0.9896 E0.8643
G1 X0.9966 Y1.0205 E0.8559
G1 X0.3842 Y-1.3737 E0.8559
G1 X0.4431 Y-1.3707 E0.8643
G1 X0.9525 Y1.0807 E0.8643
G1 X0.8997 Y1.1069 E0.8559
G1 X0.5076 Y-1.3331 E0.8559
G1 X0.5659 Y-1.3248 E0.8643
G1 X0.8502 Y1.1629 E0.8643
G1 X0.7953 Y1.1842 E0.8559
G1 X0.6267 Y-1.2814 E0.8559
G1 X0.684 Y-1.2678 E0.8643
G1 X0.741 Y1.2354 E0.8643
G1 X0.6844 Y1.2516 E0.8559
G1 X0.7406 Y-1.2191 E0.8559
G1 X0.7964 Y-1.2004 E0.8643
G1 X0.6256 Y1.2976 E0.8643
G1 X0.5677 Y1.3086 E0.8559
G1 X0.8484 Y-1.1467 E0.8559
G1 X0.9023 Y-1.123 E0.8643
G1 X0.505 Y1.3491 E0.8643
G1 X0.4464 Y1.3548 E0.8559
G1 X0.9492 Y-1.0648 E0.8559
G1 X1.0007 Y-1.0363 E0.8643
G1 X0.3802 Y1.3895 E0.8643
G1 X0.3213 Y1.3898 E0.8559
G1 X1.0421 Y-0.9741 E0.8559
G1 X1.0908 Y-0.941 E0.8643
G1 X0.2523 Y1.4183 E0.8643
G1 X0.1936 Y1.4133 E0.8559
G1 X1.1263 Y-0.8753 E0.8559
G1 X1.1718 Y-0.8379 E0.8643
G1 X0.1223 Y1.4353 E0.8643
G1 X0.0643 Y1.425 E0.8559
G1 X1.2013 Y-0.7693 E0.8559
G1 X1.2431 Y-0.7278 E0.8643
G1 X-0.0088 Y1.4405 E0.8643
G1 X-0.0656 Y1.425 E0.8559
G1 X1.2662 Y-0.6568 E0.8559
G1 X1.3042 Y-0.6118 E0.8643
G1 X-0.1397 Y1.4338 E0.8643
G1 X-0.1949 Y1.4131 E0.8559
G1 X1.3207 Y-0.539 E0.8559
G1 X1.3544 Y-0.4907 E0.8643
G1 X-0.2695 Y1.4151 E0.8643
G1 X-0.3226 Y1.3895 E0.8559
G1 X1.3643 Y-0.4166 E0.8559
G1 X1.3934 Y-0.3655 E0.8643
G1 X-0.3971 Y1.3847 E0.8643
G1 X-0.4476 Y1.3544 E0.8559
G1 X1.3965 Y-0.2909 E0.8559
G1 X1.4209 Y-0.2372 E0.8643
G1 X-0.5214 Y1.3429 E0.8643
G1 X-0.5689 Y1.3081 E0.8559
G1 X1.4172 Y-0.1627 E0.8559
G1 X1.4366 Y-0.107 E0.8643
G1 X-0.6413 Y1.2899 E0.8643
G1 X-0.6855 Y1.251 E0.8559
G1 X1.4261 Y-0.0331 E0.8559
G1 X1.4403 Y0.024 E0.8643
G1 X-0.756 Y1.2263 E0.8643
G1 X-0.7964 Y1.1834 E0.8559
G1 X1.4232 Y0.0967 E0.8559
G1 X1.4322 Y0.1549 E0.8643
G1 X-0.8643 Y1.1524 E0.8643
G1 X-0.9007 Y1.1061 E0.8559
G1 X1.4085 Y0.2257 E0.8559
G1 X1.4122 Y0.2845 E0.8643
G1 X-0.9656 Y1.0691 E0.8643
G1 X-0.9976 Y1.0196 E0.8559
G1 X1.3821 Y0.3529 E0.8559
G1 X1.3804 Y0.4117 E0.8643
G1 X-1.0588 Y0.9768 E0.8643
G1 X-1.0862 Y0.9247 E0.8559
G1 X1.3443 Y0.4771 E0.8559
G1 X1.3373 Y0.5356 E0.8643
G1 X-1.1432 Y0.8765 E0.8643
G1 X-1.1658 Y0.8221 E0.8559
G1 X1.2954 Y0.5973 E0.8559
G1 X1.283 Y0.6549 E0.8643
G1 X-1.2182 Y0.7689 E0.8643
G1 X1.6264 Y0.7127 Z2.2 E1.6963
G1 X-1.241 Y0.6914 E0.8524
G1 X1.2097 Y0.7448 E0.8524
G1 X1.1917 Y0.7979 E0.8605
G1 X-1.2857 Y0.6356 E0.8605
G1 X-1.2966 Y0.5806 E0.8524
G1 X1.1402 Y0.8474 E0.8524
G1 X1.1176 Y0.8988 E0.8605
G1 X-1.3362 Y0.5211 E0.8605
G1 X-1.3422 Y0.4654 E0.8524
G1 X1.062 Y0.9436 E0.8524
G1 X1.035 Y0.9927 E0.8605
G1 X-1.3765 Y0.4026 E0.8605
G1 X-1.3777 Y0.3466 E0.8524
G1 X0.9757 Y1.0326 E0.8524
G1 X0.9446 Y1.0792 E0.8605
G1 X-1.4063 Y0.2811 E0.8605
G1 X-1.4027 Y0.2252 E0.8524
G1 X0.882 Y1.1137 E0.8524
G1 X0.8469 Y1.1574 E0.8605
G1 X-1.4255 Y0.1575 E0.8605
G1 X-1.417 Y0.1021 E0.8524
G1 X0.7816 Y1.1863 E0.8524
G1 X0.7428 Y1.2268 E0.8605
G1 X-1.4338 Y0.0327 E0.8605
G1 X-1.4205 Y-0.0218 E0.8524
G1 X0.6752 Y1.2499 E0.8524
G1 X0.6331 Y1.2869 E0.8605
G1 X-1.4312 Y-0.0924 E0.8605
G1 X-1.4132 Y-0.1455 E0.8524
G1 X0.5637 Y1.304 E0.8524
G1 X0.5185 Y1.3372 E0.8605
G1 X-1.4177 Y-0.2168 E0.8605
G1 X-1.3951 Y-0.2681 E0.8524
G1 X0.4479 Y1.3482 E0.8524
G1 X0.4 Y1.3773 E0.8605
G1 X-1.3934 Y-0.3395 E0.8605
G1 X-1.3664 Y-0.3887 E0.8524
G1 X0.3287 Y1.3821 E0.8524
G1 X0.2784 Y1.4069 E0.8605
G1 X-1.3585 Y-0.4597 E0.8605
G1 X-1.3273 Y-0.5063 E0.8524
G1 X0.207 Y1.4055 E0.8524
G1 X0.1548 Y1.4258 E0.8605
G1 X-1.3133 Y-0.5763 E0.8605
G1 X-1.2782 Y-0.62 E0.8524
G1 X0.0837 Y1.4182 E0.8524
G1 X0.0299 Y1.4339 E0.8605
G1 X-1.258 Y-0.6886 E0.8605
G1 X-1.2193 Y-0.7291 E0.8524
G1 X-0.0402 Y1.4201 E0.8524
G1 X-0.0952 Y1.431 E0.8605
G1 X-1.1932 Y-0.7956 E0.8605
G1 X-1.1511 Y-0.8326 E0.8524
G1 X-0.1638 Y1.4111 E0.8524
G1 X-0.2195 Y1.4173 E0.8605
G1 X-1.1193 Y-0.8966 E0.8605
G1 X-1.0741 Y-0.9297 E0.8524
G1 X-0.2862 Y1.3915 E0.8524
G1 X-0.3422 Y1.3927 E0.8605
G1 X-1.0369 Y-0.9907 E0.8605
G1 X-0.989 Y-1.0198 E0.8524
G1 X-0.4064 Y1.3613 E0.8524
G1 X-0.4623 Y1.3576 E0.8605
G1 X-0.9467 Y-1.0774 E0.8605
G1 X-0.8964 Y-1.1021 E0.8524
G1 X-0.5235 Y1.3207 E0.8524
G1 X-0.5789 Y1.3122 E0.8605
G1 X-0.8492 Y-1.1558 E0.8605
G1 X-0.7969 Y-1.1761 E0.8524
G1 X-0.6366 Y1.27 E0.8524
G1 X-0.691 Y1.2567 E0.8605
G1 X-0.7452 Y-1.2254 E0.8605
G1 X-0.6914 Y-1.241 E0.8524
G1 X-0.7448 Y1.2097 E0.8524
G1 X-0.7979 Y1.1917 E0.8605
G1 X-0.6356 Y-1.2857 E0.8605
G1 X-0.5806 Y-1.2966 E0.8524
G1 X-0.8474 Y1.1402 E0.8524
G1 X-0.8988 Y1.1176 E0.8605
G1 X-0.5211 Y-1.3362 E0.8605
G1 X-0.4654 Y-1.3422 E0.8524
G1 X-0.9436 Y1.062 E0.8524
G1 X-0.9927 Y1.035 E0.8605
G1 X-0.4026 Y-1.3765 E0.8605
G1 X-0.3466 Y-1.3777 E0.8524
G1 X-1.0326 Y0.9757 E0.8524
G1 X-1.0792 Y0.9446 E0.8605
G1 X-0.2811 Y-1.4063 E0.8605
G1 X-0.2252 Y-1.4027 E0.8524
G1 X-1.1137 Y0.882 E0.8524
G1 X-1.1574 Y0.8469 E0.8605
G1 X-0.1575 Y-1.4255 E0.8605
G1 X-0.1021 Y-1.417 E0.8524
G1 X-1.1863 Y0.7816 E0.8524
G1 X-1.2268 Y0.7428 E0.8605
G1 X-0.0327 Y-1.4338 E0.8605
G1 X0.0218 Y-1.4205 E0.8524
G1 X-1.2499 Y0.6752 E0.8524
G1 X-1.2869 Y0.6331 E0.8605
G1 X0.0924 Y-1.4312 E0.8605
G1 X0.1455 Y-1.4132 E0.8524
G1 X-1.304 Y0.5637 E0.8524
G1 X-1.3372 Y0.5185 E0.8605
G1 X0.2168 Y-1.4177 E0.8605
G1 X0.2681 Y-1.3951 E0.8524
G1 X-1.3482 Y0.4479 E0.8524
G1 X-1.3773 Y0.4 E0.8605
G1 X0.3395 Y-1.3934 E0.8605
G1 X0.3887 Y-1.3664 E0.8524
G1 X-1.3821 Y0.3287 E0.8524
G1 X-1.4069 Y0.2784 E0.8605
G1 X0.4597 Y-1.3585 E0.8605
G1 X0.5063 Y-1.3273 E0.8524
G1 X-1.4055 Y0.207 E0.8524
G1 X-1.4258 Y0.1548 E0.8605
G1 X0.5763 Y-1.3133 E0.8605
G1 X0.62 Y-1.2782 E0.8524
G1 X-1.4182 Y0.0837 E0.8524
G1 X-1.4339 Y0.0299 E0.8605
G1 X0.6886 Y-1.258 E0.8605
G1 X0.7291 Y-1.2193 E0.8524
G1 X-1.4201 Y-0.0402 E0.8524
G1 X-1.431 Y-0.0952 E0.8605
G1 X0.7956 Y-1.1932 E0.8605
G1 X0.8326 Y-1.1511 E0.8524
G1 X-1.4111 Y-0.1638 E0.8524
G1 X-1.4173 Y-0.2195 E0.8605
G1 X0.8966 Y-1.1193 E0.8605
G1 X0.9297 Y-1.0741 E0.8524
G1 X-1.3915 Y-0.2862 E0.8524
G1 X-1.3927 Y-0.3422 E0.8605
G1 X0.9907 Y-1.0369 E0.8605
G1 X1.0198 Y-0.989 E0.8524
G1 X-1.3613 Y-0.4064 E0.8524
G1 X-1.3576 Y-0.4623 E0.8605
G1 X1.0774 Y-0.9467 E0.8605
G1 X1.1021 Y-0.8964 E0.8524
G1 X-1.3207 Y-0.5235 E0.8524
G1 X-1.3122 Y-0.5789 E0.8605
G1 X1.1558 Y-0.8492 E0.8605
G1 X1.1761 Y-0.7969 E0.8524
G1 X-1.27 Y-0.6366 E0.8524
G1 X-1.2567 Y-0.691 E0.8605
G1 X1.2254 Y-0.7452 E0.8605
G1 X1.241 Y-0.6914 E0.8524
G1 X-1.2097 Y-0.7448 E0.8524
G1 X-1.1917 Y-0.7979 E0.8605
G1 X1.2857 Y-0.6356 E0.8605
G1 X1.2966 Y-0.5806 E0.8524
G1 X-1.1402 Y-0.8474 E0.8524
G1 X-1.1176 Y-0.8988 E0.8605
G1 X1.3362 Y-0.5211 E0.8605
G1 X1.3422 Y-0.4654 E0.8524
G1 X-1.062 Y-0.9436 E0.8524
G1 X-1.035 Y-0.9927 E0.8605
G1 X1.3765 Y-0.4026 E0.8605
G1 X1.3777 Y-0.3466 E0.8524
G1 X-0.9757 Y-1.0326 E0.8524
G1 X-0.9446 Y-1.0792 E0.8605
G1 X1.4063 Y-0.2811 E0.8605
G1 X1.4027 Y-0.2252 E0.8524
G1 X-0.882 Y-1.1137 E0.8524
G1 X-0.8469 Y-1.1574 E0.8605
G1 X1.4255 Y-0.1575 E0.8605
G1 X1.417 Y-0.1021 E0.8524
G1 X-0.7816 Y-1.1863 E0.8524
G1 X-0.7428 Y-1.2268 E0.8605
G1 X1.4338 Y-0.0327 E0.8605
G1 X1.4205 Y0.0218 E0.8524
G1 X-0.6752 Y-1.2499 E0.8524
G1 X-0.6331 Y-1.2869 E0.8605
G1 X1.4312 Y0.0924 E0.8605
G1 X1.4132 Y0.1455 E0.8524
G1 X-0.5637 Y-1.304 E0.8524
G1 X-0.5185 Y-1.3372 E0.8605
G1 X1.4177 Y0.2168 E0.8605
G1 X1.3951 Y0.2681 E0.8524
G1 X-0.4479 Y-1.3482 E0.8524
G1 X-0.4 Y-1.3773 E0.8605
G1 X1.3934 Y0.3395 E0.8605
G1 X1.3664 Y0.3887 E0.8524
G1 X-0.3287 Y-1.3821 E0.8524
G1 X-0.2784 Y-1.4069 E0.8605
G1 X1.3585 Y0.4597 E0.8605
G1 X1.3273 Y0.5063 E0.8524
G1 X-0.207 Y-1.4055 E0.8524
G1 X-0.1548 Y-1.4258 E0.8605
G1 X1.3133 Y0.5763 E0.8605
G1 X1.2782 Y0.62 E0.8524
G1 X-0.0837 Y-1.4182 E0.8524
G1 X-0.0299 Y-1.4339 E0.8605
G1 X1.258 Y0.6886 E0.8605
G1 X1.2193 Y0.7291 E0.8524
G1 X0.0402 Y-1.4201 E0.8524
G1 X0.0952 Y-1.431 E0.8605
G1 X1.1932 Y0.7956 E0.8605
G1 X1.1511 Y0.8326 E0.8524
G1 X0.1638 Y-1.4111 E0.8524
G1 X0.2195 Y-1.4173 E0.8605
G1 X1.1193 Y0.8966 E0.8605
G1 X1.0741 Y0.9297 E0.8524
G1 X0.2862 Y-1.3915 E0.8524
G1 X0.3422 Y-1.3927 E0.8605
G1 X1.0369 Y0.9907 E0.8605
G1 X0.989 Y1.0198 E0.8524
G1 X0.4064 Y-1.3613 E0.8524
G1 X0.4623 Y-1.3576 E0.8605
G1 X0.9467 Y1.0774 E0.8605
G1 X0.8964 Y1.1021 E0.8524
G1 X0.5235 Y-1.3207 E0.8524
G1 X0.5789 Y-1.3122 E0.8605
G1 X0.8492 Y1.1558 E0.8605
G1 X0.7969 Y1.1761 E0.8524
G1 X0.6366 Y-1.27 E0.8524
G1 X0.691 Y-1.2567 E0.8605
G1 X0.7452 Y1.2254 E0.8605
G1 X0.6914 Y1.241 E0.8524
G1 X0.7448 Y-1.2097 E0.8524
G1 X0.7979 Y-1.1917 E0.8605
G1 X0.6356 Y1.2857 E0.8605
G1 X0.5806 Y1.2966 E0.8524
G1 X0.8474 Y-1.1402 E0.8524
G1 X0.8988 Y-1.1176 E0.8605
G1 X0.5211 Y1.3362 E0.8605
G1 X0.4654 Y1.3422 E0.8524
G1 X0.9436 Y-1.062 E0.8524
G1 X0.9927 Y-1.035 E0.8605
G1 X0.4026 Y1.3765 E0.8605
G1 X0.3466 Y1.3777 E0.8524
G1 X1.0326 Y-0.9757 E0.8524
G1 X1.0792 Y-0.9446 E0.8605
G1 X0.2811 Y1.4063 E0.8605
G1 X0.2252 Y1.4027 E0.8524
G1 X1.1137 Y-0.882 E0.8524
G1 X1.1574 Y-0.8469 E0.8605
G1 X0.1575 Y1.4255 E0.8605
G1 X0.1021 Y1.417 E0.8524
G1 X1.1863 Y-0.7816 E0.8524
G1 X1.2268 Y-0.7428 E0.8605
G1 X0.0327 Y1.4338 E0.8605
G1 X-0.0218 Y1.4205 E0.8524
G1 X1.2499 Y-0.6752 E0.8524
G1 X1.2869 Y-0.6331 E0.8605
G1 X-0.0924 Y1.4312 E0.8605
G1 X-0.1455 Y1.4132 E0.8524
G1 X1.304 Y-0.5637 E0.8524
G1 X1.3372 Y-0.5185 E0.8605
G1 X-0.2168 Y1.4177 E0.8605
G1 X-0.2681 Y1.3951 E0.8524
G1 X1.3482 Y-0.4479 E0.8524
G1 X1.3773 Y-0.4 E0.8605
G1 X-0.3395 Y1.3934 E0.8605
G1 X-0.3887 Y1.3664 E0.8524
G1 X1.3821 Y-0.3287 E0.8524
G1 X1.4069 Y-0.2784 E0.8605
G1 X-0.4597 Y1.3585 E0.8605
G1 X-0.5063 Y1.3273 E0.8524
G1 X1.4055 Y-0.207 E0.8524
G1 X1.4258 Y-0.1548 E0.8605
G1 X-0.5763 Y1.3133 E0.8605
G1 X-0.62 Y1.2782 E0.8524
G1 X1.4182 Y-0.0837 E0.8524
G1 X1.4339 Y-0.0299 E0.8605
G1 X-0.6886 Y1.258 E0.8605
G1 X-0.7291 Y1.2193 E0.8524
G1 X1.4201 Y0.0402 E0.8524
G1 X1.431 Y0.0952 E0.8605
G1 X-0.7956 Y1.1932 E0.8605
G1 X-0.8326 Y1.1511 E0.8524
G1 X1.4111 Y0.1638 E0.8524
G1 X1.4173 Y0.2195 E0.8605
G1 X-0.8966 Y1.1193 E0.8605
G1 X-0.9297 Y1.0741 E0.8524
G1 X1.3915 Y0.2862 E0.8524
G1 X1.3927 Y0.3422 E0.8605
G1 X-0.9907 Y1.0369 E0.8605
G1 X-1.0198 Y0.989 E0.8524
G1 X1.3613 Y0.4064 E0.8524
G1 X1.3576 Y0.4623 E0.8605
G1 X-1.0774 Y0.9467 E0.8605
G1 X-1.1021 Y0.8964 E0.8524
G1 X1.3207 Y0.5235 E0.8524
G1 X1.3122 Y0.5789 E0.8605
G1 X-1.1558 Y0.8492 E0.8605
G1 X-1.1761 Y0.7969 E0.8524
G1 X1.27 Y0.6366 E0.8524
G1 X1.2567 Y0.691 E0.8605
G1 X-0.869 Y0.7452 Z2.2 E1.488
G1 X1.2157 Y0.7226 E0.8486
G1 X1.1995 Y0.7735 E0.8564
G1 X-1.26 Y0.6705 E0.8564
G1 X-1.2719 Y0.6184 E0.8486
G1 X1.151 Y0.8218 E0.8486
G1 X1.1306 Y0.8712 E0.8564
G1 X-1.3117 Y0.5627 E0.8564
G1 X-1.3192 Y0.5098 E0.8486
G1 X1.0782 Y0.9153 E0.8486
G1 X1.0537 Y0.9627 E0.8564
G1 X-1.3542 Y0.4509 E0.8564
G1 X-1.3572 Y0.3976 E0.8485
G1 X0.9978 Y1.0023 E0.8486
G1 X0.9694 Y1.0475 E0.8564
G1 X-1.3872 Y0.336 E0.8564
G1 X-1.3857 Y0.2826 E0.8486
G1 X0.9104 Y1.0822 E0.8486
G1 X0.8784 Y1.125 E0.8564
G1 X-1.4104 Y0.2188 E0.8564
G1 X-1.4045 Y0.1657 E0.8486
G1 X0.8167 Y1.1546 E0.8486
G1 X0.7812 Y1.1945 E0.8564
G1 X-1.4238 Y0.1 E0.8564
G1 X-1.4134 Y0.0476 E0.8486
G1 X0.7172 Y1.2189 E0.8486
G1 X0.6785 Y1.2557 E0.8564
G1 X-1.4271 Y-0.0195 E0.8564
G1 X-1.4125 Y-0.0709 E0.8486
G1 X0.6127 Y1.2747 E0.8486
G1 X0.571 Y1.3081 E0.8564
G1 X-1.4205 Y-0.1388 E0.8564
G1 X-1.4016 Y-0.1888 E0.8486
G1 X0.5039 Y1.3214 E0.8486
G1 X0.4595 Y1.3513 E0.8564
G1 X-1.4039 Y-0.2572 E0.8564
G1 X-1.3809 Y-0.3054 E0.8486
G1 X0.3915 Y1.359 E0.8486
G1 X0.3449 Y1.385 E0.8564
G1 X-1.3775 Y-0.3738 E0.8564
G1 X-1.3505 Y-0.4199 E0.8486
G1 X0.2764 Y1.387 E0.8486
G1 X0.2278 Y1.409 E0.8564
G1 X-1.3414 Y-0.4877 E0.8564
G1 X-1.3106 Y-0.5314 E0.8486
G1 X0.1594 Y1.4052 E0.8486
G1 X0.1091 Y1.4231 E0.8564
G1 X-1.2958 Y-0.5983 E0.8564
G1 X-1.2615 Y-0.6392 E0.8485
G1 X0.0413 Y1.4136 E0.8486
G1 X-0.0104 Y1.4272 E0.8564
G1 X-1.2412 Y-0.7046 E0.8564
G1 X-1.2036 Y-0.7426 E0.8486
G1 X-0.0772 Y1.4121 E0.8486
G1 X-0.1298 Y1.4214 E0.8564
G1 X-1.1779 Y-0.806 E0.8564
G1 X-1.1373 Y-0.8407 E0.8485
G1 X-0.1951 Y1.4007 E0.8486
G1 X-0.2483 Y1.4055 E0.8564
G1 X-1.1063 Y-0.9017 E0.8564
G1 X-1.0629 Y-0.9329 E0.8486
G1 X-0.3116 Y1.3795 E0.8486
G1 X-0.365 Y1.3798 E0.8564
G1 X-1.027 Y-0.9912 E0.8564
G1 X-0.9811 Y-1.0186 E0.8486
G1 X-0.4259 Y1.3486 E0.8486
G1 X-0.4792 Y1.3444 E0.8564
G1 X-0.9405 Y-1.0736 E0.8564
G1 X-0.8925 Y-1.0971 E0.8486
G1 X-0.5373 Y1.3082 E0.8486
G1 X-0.59 Y1.2996 E0.8564
G1 X-0.8473 Y-1.1485 E0.8564
G1 X-0.7975 Y-1.1679 E0.8486
G1 X-0.6449 Y1.2587 E0.8486
G1 X-0.6967 Y1.2457 E0.8564
G1 X-0.7483 Y-1.2154 E0.8564
G1 X-0.697 Y-1.2306 E0.8486
G1 X-0.7479 Y1.2003 E0.8486
G1 X-0.7985 Y1.183 E0.8564
G1 X-0.6439 Y-1.2738 E0.8564
G1 X-0.5916 Y-1.2846 E0.8486
G1 X-0.8457 Y1.1335 E0.8486
G1 X-0.8947 Y1.1121 E0.8564
G1 X-0.5351 Y-1.3232 E0.8564
G1 X-0.482 Y-1.3296 E0.8486
G1 X-0.9376 Y1.0588 E0.8486
G1 X-0.9846 Y1.0333 E0.8564
G1 X-0.4225 Y-1.3633 E0.8564
G1 X-0.3691 Y-1.3652 E0.8486
G1 X-1.0229 Y0.9766 E0.8486
G1 X-1.0676 Y0.9473 E0.8564
G1 X-0.3069 Y-1.3939 E0.8564
G1 X-0.2536 Y-1.3913 E0.8486
G1 X-1.1011 Y0.8876 E0.8486
G1 X-1.1431 Y0.8546 E0.8564
G1 X-0.1892 Y-1.4147 E0.8564
G1 X-0.1362 Y-1.4077 E0.8486
G1 X-1.1715 Y0.7923 E0.8486
G1 X-1.2106 Y0.756 E0.8564
G1 X-0.0702 Y-1.4256 E0.8564
G1 X-0.018 Y-1.4141 E0.8486
G1 X-1.2337 Y0.6915 E0.8486
G1 X-1.2696 Y0.652 E0.8564
G1 X0.0494 Y-1.4264 E0.8564
G1 X0.1004 Y-1.4107 E0.8486
G1 X-1.2872 Y0.5858 E0.8485
G1 X-1.3198 Y0.5435 E0.8564
G1 X0.1686 Y-1.4173 E0.8564
G1 X0.2181 Y-1.3973 E0.8486
G1 X-1.3317 Y0.4761 E0.8486
G1 X-1.3606 Y0.4311 E0.8564
G1 X0.2866 Y-1.3982 E0.8564
G1 X0.3343 Y-1.3742 E0.8486
G1 X-1.3669 Y0.363 E0.8486
G1 X-1.3919 Y0.3158 E0.8564
G1 X0.4026 Y-1.3693 E0.8564
G1 X0.4481 Y-1.3414 E0.8486
G1 X-1.3925 Y0.2473 E0.8486
G1 X-1.4135 Y0.1982 E0.8564
G1 X0.5157 Y-1.3308 E0.8564
G1 X0.5588 Y-1.2992 E0.8486
G1 X-1.4083 Y0.1299 E0.8486
G1 X-1.4251 Y0.0792 E0.8564
G1 X0.6253 Y-1.283 E0.8564
G1 X0.6655 Y-1.2479 E0.8486
G1 X-1.4142 Y0.0116 E0.8486
G1 X-1.4267 Y-0.0403 E0.8564
G1 X0.7304 Y-1.2262 E0.8564
G1 X0.7676 Y-1.1878 E0.8486
G1 X-1.4102 Y-0.1067 E0.8486
G1 X-1.4183 Y-0.1595 E0.8564
G1 X0.8305 Y-1.1608 E0.8564
G1 X0.8643 Y-1.1194 E0.8486
G1 X-1.3963 Y-0.2244 E0.8486
G1 X-1.4 Y-0.2777 E0.8564
G1 X0.9247 Y-1.0872 E0.8564
G1 X0.9549 Y-1.0432 E0.8486
G1 X-1.3727 Y-0.3404 E0.8486
G1 X-1.3719 Y-0.3938 E0.8564
G1 X1.0124 Y-1.006 E0.8564
G1 X1.0389 Y-0.9596 E0.8486
G1 X-1.3394 Y-0.4541 E0.8486
G1 X-1.3341 Y-0.5073 E0.8564
G1 X1.0931 Y-0.9178 E0.8564
G1 X1.1155 Y-0.8693 E0.8486
G1 X-1.2967 Y-0.5646 E0.8486
G1 X-1.287 Y-0.6171 E0.8564
G1 X1.166 Y-0.8231 E0.8564
G1 X1.1844 Y-0.7729 E0.8486
G1 X-1.2449 Y-0.6711 E0.8486
G1 X-1.2308 Y-0.7226 E0.8564
G1 X1.2308 Y-0.7226 E0.8564
G1 X1.2449 Y-0.6711 E0.8486
G1 X-1.1844 Y-0.7729 E0.8486
G1 X-1.166 Y-0.8231 E0.8564
G1 X1.287 Y-0.6171 E0.8564
G1 X1.2967 Y-0.5646 E0.8486
G1 X-1.1155 Y-0.8693 E0.8486
G1 X-1.0931 Y-0.9178 E0.8564
G1 X1.3341 Y-0.5073 E0.8564
G1 X1.3394 Y-0.4541 E0.8486
G1 X-1.0389 Y-0.9596 E0.8486
G1 X-1.0124 Y-1.006 E0.8564
G1 X1.3719 Y-0.3938 E0.8564
G1 X1.3727 Y-0.3404 E0.8486
G1 X-0.9549 Y-1.0432 E0.8486
G1 X-0.9247 Y-1.0872 E0.8564
G1 X1.4 Y-0.2777 E0.8564
G1 X1.3963 Y-0.2244 E0.8486
G1 X-0.8643 Y-1.1194 E0.8486
G1 X-0.8305 Y-1.1608 E0.8564
G1 X1.4183 Y-0.1595 E0.8564
G1 X1.4102 Y-0.1067 E0.8486
G1 X-0.7676 Y-1.1878 E0.8486
G1 X-0.7304 Y-1.2262 E0.8564
G1 X1.4267 Y-0.0403 E0.8564
G1 X1.4142 Y0.0116 E0.8486
G1 X-0.6655 Y-1.2479 E0.8486
G1 X-0.6253 Y-1.283 E0.8564
G1 X1.4251 Y0.0792 E0.8564
G1 X1.4083 Y0.1299 E0.8485
G1 X-0.5588 Y-1.2992 E0.8486
G1 X-0.5157 Y-1.3308 E0.8564
G1 X1.4135 Y0.1982 E0.8564
G1 X1.3925 Y0.2473 E0.8486
G1 X-0.4481 Y-1.3414 E0.8486
G1 X-0.4026 Y-1.3693 E0.8564
G1 X1.3919 Y0.3158 E0.8564
G1 X1.3669 Y0.363 E0.8486
G1 X-0.3343 Y-1.3742 E0.8486
G1 X-0.2866 Y-1.3982 E0.8564
G1 X1.3606 Y0.4311 E0.8564
G1 X1.3317 Y0.4761 E0.8486
G1 X-0.2181 Y-1.3973 E0.8486
G1 X-0.1686 Y-1.4173 E0.8564
G1 X1.3198 Y0.5435 E0.8564
G1 X1.2872 Y0.5858 E0.8486
G1 X-0.1004 Y-1.4107 E0.8486
G1 X-0.0494 Y-1.4264 E0.8564
G1 X1.2697 Y0.652 E0.8564
G1 X1.2337 Y0.6915 E0.8486
G1 X0.018 Y-1.4141 E0.8486
G1 X0.0702 Y-1.4256 E0.8564
G1 X1.2106 Y0.756 E0.8564
G1 X1.1715 Y0.7923 E0.8486
G1 X0.1362 Y-1.4077 E0.8486
G1 X0.1892 Y-1.4147 E0.8564
G1 X1.1431 Y0.8546 E0.8564
G1 X1.1011 Y0.8876 E0.8486
G1 X0.2536 Y-1.3913 E0.8486
G1 X0.3069 Y-1.3939 E0.8564
G1 X1.0676 Y0.9473 E0.8564
G1 X1.0229 Y0.9766 E0.8486
G1 X0.3691 Y-1.3652 E0.8486
G1 X0.4225 Y-1.3633 E0.8564
G1 X0.9846 Y1.0333 E0.8564
G1 X0.9376 Y1.0587 E0.8486
G1 X0.482 Y-1.3296 E0.8486
G1 X0.5351 Y-1.3232 E0.8564
G1 X0.8947 Y1.1121 E0.8564
G1 X0.8457 Y1.1335 E0.8486
G1 X0.5916 Y-1.2846 E0.8486
G1 X0.6439 Y-1.2738 E0.8564
G1 X0.7985 Y1.183 E0.8564
G1 X0.7479 Y1.2003 E0.8486
G1 X0.697 Y-1.2306 E0.8486
G1 X0.7483 Y-1.2154 E0.8564
G1 X0.6967 Y1.2457 E0.8564
G1 X0.6449 Y1.2587 E0.8486
G1 X0.7975 Y-1.1679 E0.8486
G1 X0.8473 Y-1.1485 E0.8564
G1 X0.59 Y1.2996 E0.8564
G1 X0.5373 Y1.3082 E0.8486
G1 X0.8925 Y-1.0971 E0.8486
G1 X0.9405 Y-1.0736 E0.8564
G1 X0.4792 Y1.3444 E0.8564
G1 X0.4259 Y1.3486 E0.8486
G1 X0.9811 Y-1.0186 E0.8485
G1 X1.027 Y-0.9912 E0.8564
G1 X0.365 Y1.3798 E0.8564
G1 X0.3116 Y1.3795 E0.8486
G1 X1.0629 Y-0.9329 E0.8486
G1 X1.1063 Y-0.9017 E0.8564
G1 X0.2483 Y1.4055 E0.8564
G1 X0.1951 Y1.4007 E0.8486
G1 X1.1373 Y-0.8407 E0.8486
G1 X1.1779 Y-0.806 E0.8564
G1 X0.1298 Y1.4214 E0.8564
G1 X0.0772 Y1.4121 E0.8486
G1 X1.2036 Y-0.7426 E0.8486
G1 X1.2412 Y-0.7046 E0.8564
G1 X0.0104 Y1.4272 E0.8564
G1 X-0.0413 Y1.4136 E0.8486
G1 X1.2615 Y-0.6392 E0.8486
G1 X1.2958 Y-0.5983 E0.8564
G1 X-0.1091 Y1.4231 E0.8564
G1 X-0.1594 Y1.4052 E0.8486
G1 X1.3106 Y-0.5314 E0.8486
G1 X1.3414 Y-0.4877 E0.8564
G1 X-0.2278 Y1.409 E0.8564
G1 X-0.2764 Y1.387 E0.8486
G1 X1.3505 Y-0.4199 E0.8486
G1 X1.3775 Y-0.3738 E0.8564
G1 X-0.3449 Y1.385 E0.8564
G1 X-0.3915 Y1.359 E0.8486
G1 X1.3809 Y-0.3054 E0.8486
