; *************************************************
; *************************************************
; ******* File generated by Extruder Turtle *******
; ******* written by Leah Buechley and  ***********
; ******* and Franklin Pezutti-Dyer ***************
; ******* Hand and Machine Lab, UNM, 2022 *********
; *************************************************
; *************************************************
; *************** Printer parameters **************
; Printer: 3D Potter Micro
; Nozzle size: 3.0
; Extrude width: 3.4
; Layer height: 2.2
; Extrude rate: 3.0
; Speed: 1000
; *************** 3D Potter initialization **************
M82                             ; Absolute extrusion mode
G28                             ; Home all axes
G92 E0                          ; Reset Extruder
G90 							; Absolute coordinates for X,Y,Z   
; M208 X0 Y0 Z0 S1              ; Set axis minima
; M208 X415 Y405 Z500 S0        ; Set axis maxima 
G1 X132 Y150 Z25 F5000 			; Go to the starting position (center of bed) 25mm above print
G1 F5000 E1000                  ; Prime Extruder, Extrude 1000mm of clay
G1 X132 Y150 Z0 F1000 			; Go to the starting position more slowly
M83                             ; Relative extrusion
G91                     		; Relative coordinates for X,Y,Z axes
G1 E5                 			; Extrude 5mm of clay
G1 F1000
; *************** End printer initialization **************
; Changed extrude rate to: 7.0
; *************************************************************
G1 X40.000 Y0.000 Z0.000 E280.000
G1 X0.000 Y0.000 Z0.000 E0.000
G1 X-0.437 Y0.908 Z0.000 E7.057
G1 X-0.437 Y0.908 Z0.000 E7.057
G1 X-0.437 Y0.908 Z0.000 E7.057
G1 X-0.437 Y0.908 Z0.000 E7.057
G1 X-0.437 Y0.908 Z0.000 E7.057
G1 X-0.437 Y0.908 Z0.000 E7.057
G1 X-0.437 Y0.908 Z0.000 E7.057
G1 X-0.437 Y0.908 Z0.000 E7.057
G1 X-0.437 Y0.908 Z0.000 E7.057
G1 X-0.437 Y0.908 Z0.000 E7.057
G1 X-0.437 Y0.908 Z0.000 E7.057
G1 X-0.437 Y0.908 Z0.000 E7.057
G1 X-0.437 Y0.908 Z0.000 E7.057
G1 X-0.437 Y0.908 Z0.000 E7.057
G1 X-0.437 Y0.908 Z0.000 E7.057
G1 X-0.437 Y0.908 Z0.000 E7.057
G1 X-0.437 Y0.908 Z0.000 E7.057
G1 X-0.437 Y0.908 Z0.000 E7.057
G1 X-0.437 Y0.908 Z0.000 E7.057
G1 X-0.437 Y0.908 Z0.000 E7.057
G1 X-0.437 Y0.908 Z0.000 E7.057
G1 X-0.437 Y0.908 Z0.000 E7.057
G1 X-0.437 Y0.908 Z0.000 E7.057
G1 X-0.437 Y0.908 Z0.000 E7.057
G1 X-0.437 Y0.908 Z0.000 E7.057
G1 X-0.437 Y0.908 Z0.000 E7.057
G1 X-0.437 Y0.908 Z0.000 E7.057
G1 X-0.437 Y0.908 Z0.000 E7.057
G1 X-0.437 Y0.908 Z0.000 E7.057
G1 X-0.437 Y0.908 Z0.000 E7.057
G1 X-0.437 Y0.908 Z0.000 E7.057
G1 X-0.437 Y0.908 Z0.000 E7.057
G1 X-0.437 Y0.908 Z0.000 E7.057
G1 X-0.437 Y0.908 Z0.000 E7.057
G1 X-0.749 Y0.517 Z0.000 E6.373
G1 X-0.983 Y0.224 Z0.000 E7.057
G1 X-0.983 Y0.224 Z0.000 E7.057
G1 X-0.983 Y0.224 Z0.000 E7.057
G1 X-0.983 Y0.224 Z0.000 E7.057
G1 X-0.983 Y0.224 Z0.000 E7.057
G1 X-0.983 Y0.224 Z0.000 E7.057
G1 X-0.983 Y0.224 Z0.000 E7.057
G1 X-0.983 Y0.224 Z0.000 E7.057
G1 X-0.983 Y0.224 Z0.000 E7.057
G1 X-0.983 Y0.224 Z0.000 E7.057
G1 X-0.983 Y0.224 Z0.000 E7.057
G1 X-0.983 Y0.224 Z0.000 E7.057
G1 X-0.983 Y0.224 Z0.000 E7.057
G1 X-0.983 Y0.224 Z0.000 E7.057
G1 X-0.983 Y0.224 Z0.000 E7.057
G1 X-0.983 Y0.224 Z0.000 E7.057
G1 X-0.983 Y0.224 Z0.000 E7.057
G1 X-0.983 Y0.224 Z0.000 E7.057
G1 X-0.983 Y0.224 Z0.000 E7.057
G1 X-0.983 Y0.224 Z0.000 E7.057
G1 X-0.983 Y0.224 Z0.000 E7.057
G1 X-0.983 Y0.224 Z0.000 E7.057
G1 X-0.983 Y0.224 Z0.000 E7.057
G1 X-0.983 Y0.224 Z0.000 E7.057
G1 X-0.983 Y0.224 Z0.000 E7.057
G1 X-0.983 Y0.224 Z0.000 E7.057
G1 X-0.983 Y0.224 Z0.000 E7.057
G1 X-0.983 Y0.224 Z0.000 E7.057
G1 X-0.983 Y0.224 Z0.000 E7.057
G1 X-0.983 Y0.224 Z0.000 E7.057
G1 X-0.983 Y0.224 Z0.000 E7.057
G1 X-0.983 Y0.224 Z0.000 E7.057
G1 X-0.983 Y0.224 Z0.000 E7.057
G1 X-0.955 Y0.102 Z0.000 E6.724
G1 X-0.788 Y-0.629 Z0.000 E7.057
G1 X-0.788 Y-0.629 Z0.000 E7.057
G1 X-0.788 Y-0.629 Z0.000 E7.057
G1 X-0.788 Y-0.629 Z0.000 E7.057
G1 X-0.788 Y-0.629 Z0.000 E7.057
G1 X-0.788 Y-0.629 Z0.000 E7.057
G1 X-0.788 Y-0.629 Z0.000 E7.057
G1 X-0.788 Y-0.629 Z0.000 E7.057
G1 X-0.788 Y-0.629 Z0.000 E7.057
G1 X-0.788 Y-0.629 Z0.000 E7.057
G1 X-0.788 Y-0.629 Z0.000 E7.057
G1 X-0.788 Y-0.629 Z0.000 E7.057
G1 X-0.788 Y-0.629 Z0.000 E7.057
G1 X-0.788 Y-0.629 Z0.000 E7.057
G1 X-0.788 Y-0.629 Z0.000 E7.057
G1 X-0.788 Y-0.629 Z0.000 E7.057
G1 X-0.788 Y-0.629 Z0.000 E7.057
G1 X-0.788 Y-0.629 Z0.000 E7.057
G1 X-0.788 Y-0.629 Z0.000 E7.057
G1 X-0.788 Y-0.629 Z0.000 E7.057
G1 X-0.788 Y-0.629 Z0.000 E7.057
G1 X-0.788 Y-0.629 Z0.000 E7.057
G1 X-0.788 Y-0.629 Z0.000 E7.057
G1 X-0.788 Y-0.629 Z0.000 E7.057
G1 X-0.788 Y-0.629 Z0.000 E7.057
G1 X-0.788 Y-0.629 Z0.000 E7.057
G1 X-0.788 Y-0.629 Z0.000 E7.057
G1 X-0.788 Y-0.629 Z0.000 E7.057
G1 X-0.788 Y-0.629 Z0.000 E7.057
G1 X-0.788 Y-0.629 Z0.000 E7.057
G1 X-0.788 Y-0.629 Z0.000 E7.057
G1 X-0.788 Y-0.629 Z0.000 E7.057
G1 X-0.788 Y-0.629 Z0.000 E7.057
G1 X-0.788 Y-0.629 Z0.000 E7.057
G1 X-0.225 Y-0.900 Z0.000 E6.492
G1 X0.000 Y-1.008 Z0.000 E7.057
G1 X0.000 Y-1.008 Z0.000 E7.057
G1 X0.000 Y-1.008 Z0.000 E7.057
G1 X0.000 Y-1.008 Z0.000 E7.057
G1 X0.000 Y-1.008 Z0.000 E7.057
G1 X0.000 Y-1.008 Z0.000 E7.057
G1 X0.000 Y-1.008 Z0.000 E7.057
G1 X0.000 Y-1.008 Z0.000 E7.057
G1 X0.000 Y-1.008 Z0.000 E7.057
G1 X0.000 Y-1.008 Z0.000 E7.057
G1 X-0.000 Y-1.008 Z0.000 E7.057
G1 X0.000 Y-1.008 Z0.000 E7.057
G1 X0.000 Y-1.008 Z0.000 E7.057
G1 X0.000 Y-1.008 Z0.000 E7.057
G1 X0.000 Y-1.008 Z0.000 E7.057
G1 X0.000 Y-1.008 Z0.000 E7.057
G1 X0.000 Y-1.008 Z0.000 E7.057
G1 X0.000 Y-1.008 Z0.000 E7.057
G1 X0.000 Y-1.008 Z0.000 E7.057
G1 X0.000 Y-1.008 Z0.000 E7.057
G1 X0.000 Y-1.008 Z0.000 E7.057
G1 X0.000 Y-1.008 Z0.000 E7.057
G1 X-0.000 Y-1.008 Z0.000 E7.057
G1 X0.000 Y-1.008 Z0.000 E7.057
G1 X-0.000 Y-1.008 Z0.000 E7.057
G1 X0.000 Y-1.008 Z0.000 E7.057
G1 X0.000 Y-1.008 Z0.000 E7.057
G1 X0.000 Y-1.008 Z0.000 E7.057
G1 X0.000 Y-1.008 Z0.000 E7.057
G1 X0.000 Y-1.008 Z0.000 E7.057
G1 X0.000 Y-1.008 Z0.000 E7.057
G1 X0.000 Y-1.008 Z0.000 E7.057
G1 X0.000 Y-1.008 Z0.000 E7.057
G1 X0.225 Y-0.900 Z0.000 E6.492
G1 X0.788 Y-0.629 Z0.000 E7.057
G1 X0.788 Y-0.629 Z0.000 E7.057
G1 X0.788 Y-0.629 Z0.000 E7.057
G1 X0.788 Y-0.629 Z0.000 E7.057
G1 X0.788 Y-0.629 Z0.000 E7.057
G1 X0.788 Y-0.629 Z0.000 E7.057
G1 X0.788 Y-0.629 Z0.000 E7.057
G1 X0.788 Y-0.629 Z0.000 E7.057
G1 X0.788 Y-0.629 Z0.000 E7.057
G1 X0.788 Y-0.629 Z0.000 E7.057
G1 X0.788 Y-0.629 Z0.000 E7.057
G1 X0.788 Y-0.629 Z0.000 E7.057
G1 X0.788 Y-0.629 Z0.000 E7.057
G1 X0.788 Y-0.629 Z0.000 E7.057
G1 X0.788 Y-0.629 Z0.000 E7.057
G1 X0.788 Y-0.629 Z0.000 E7.057
G1 X0.788 Y-0.629 Z0.000 E7.057
G1 X0.788 Y-0.629 Z0.000 E7.057
G1 X0.788 Y-0.629 Z0.000 E7.057
G1 X0.788 Y-0.629 Z0.000 E7.057
G1 X0.788 Y-0.629 Z0.000 E7.057
G1 X0.788 Y-0.629 Z0.000 E7.057
G1 X0.788 Y-0.629 Z0.000 E7.057
G1 X0.788 Y-0.629 Z0.000 E7.057
G1 X0.788 Y-0.629 Z0.000 E7.057
G1 X0.788 Y-0.629 Z0.000 E7.057
G1 X0.788 Y-0.629 Z0.000 E7.057
G1 X0.788 Y-0.629 Z0.000 E7.057
G1 X0.788 Y-0.629 Z0.000 E7.057
G1 X0.788 Y-0.629 Z0.000 E7.057
G1 X0.788 Y-0.629 Z0.000 E7.057
G1 X0.788 Y-0.629 Z0.000 E7.057
G1 X0.788 Y-0.629 Z0.000 E7.057
G1 X0.788 Y-0.629 Z0.000 E7.057
G1 X0.955 Y0.102 Z0.000 E6.724
G1 X0.983 Y0.224 Z0.000 E7.057
G1 X0.983 Y0.224 Z0.000 E7.057
G1 X0.983 Y0.224 Z0.000 E7.057
G1 X0.983 Y0.224 Z0.000 E7.057
G1 X0.983 Y0.224 Z0.000 E7.057
G1 X0.983 Y0.224 Z0.000 E7.057
G1 X0.983 Y0.224 Z0.000 E7.057
G1 X0.983 Y0.224 Z0.000 E7.057
G1 X0.983 Y0.224 Z0.000 E7.057
G1 X0.983 Y0.224 Z0.000 E7.057
G1 X0.983 Y0.224 Z0.000 E7.057
G1 X0.983 Y0.224 Z0.000 E7.057
G1 X0.983 Y0.224 Z0.000 E7.057
G1 X0.983 Y0.224 Z0.000 E7.057
G1 X0.983 Y0.224 Z0.000 E7.057
G1 X0.983 Y0.224 Z0.000 E7.057
G1 X0.983 Y0.224 Z0.000 E7.057
G1 X0.983 Y0.224 Z0.000 E7.057
G1 X0.983 Y0.224 Z0.000 E7.057
G1 X0.983 Y0.224 Z0.000 E7.057
G1 X0.983 Y0.224 Z0.000 E7.057
G1 X0.983 Y0.224 Z0.000 E7.057
G1 X0.983 Y0.224 Z0.000 E7.057
G1 X0.983 Y0.224 Z0.000 E7.057
G1 X0.983 Y0.224 Z0.000 E7.057
G1 X0.983 Y0.224 Z0.000 E7.057
G1 X0.983 Y0.224 Z0.000 E7.057
G1 X0.983 Y0.224 Z0.000 E7.057
G1 X0.983 Y0.224 Z0.000 E7.057
G1 X0.983 Y0.224 Z0.000 E7.057
G1 X0.983 Y0.224 Z0.000 E7.057
G1 X0.983 Y0.224 Z0.000 E7.057
G1 X0.983 Y0.224 Z0.000 E7.057
G1 X0.749 Y0.517 Z0.000 E6.373
G1 X0.437 Y0.908 Z0.000 E7.057
G1 X0.437 Y0.908 Z0.000 E7.057
G1 X0.437 Y0.908 Z0.000 E7.057
G1 X0.437 Y0.908 Z0.000 E7.057
G1 X0.437 Y0.908 Z0.000 E7.057
G1 X0.437 Y0.908 Z0.000 E7.057
G1 X0.437 Y0.908 Z0.000 E7.057
G1 X0.437 Y0.908 Z0.000 E7.057
G1 X0.437 Y0.908 Z0.000 E7.057
G1 X0.437 Y0.908 Z0.000 E7.057
G1 X0.437 Y0.908 Z0.000 E7.057
G1 X0.437 Y0.908 Z0.000 E7.057
G1 X0.437 Y0.908 Z0.000 E7.057
G1 X0.437 Y0.908 Z0.000 E7.057
G1 X0.437 Y0.908 Z0.000 E7.057
G1 X0.437 Y0.908 Z0.000 E7.057
G1 X0.437 Y0.908 Z0.000 E7.057
G1 X0.437 Y0.908 Z0.000 E7.057
G1 X0.437 Y0.908 Z0.000 E7.057
G1 X0.437 Y0.908 Z0.000 E7.057
G1 X0.437 Y0.908 Z0.000 E7.057
G1 X0.437 Y0.908 Z0.000 E7.057
G1 X0.437 Y0.908 Z0.000 E7.057
G1 X0.437 Y0.908 Z0.000 E7.057
G1 X0.437 Y0.908 Z0.000 E7.057
G1 X0.437 Y0.908 Z0.000 E7.057
G1 X0.437 Y0.908 Z0.000 E7.057
G1 X0.437 Y0.908 Z0.000 E7.057
G1 X0.437 Y0.908 Z0.000 E7.057
G1 X0.437 Y0.908 Z0.000 E7.057
G1 X0.437 Y0.908 Z0.000 E7.057
G1 X0.437 Y0.908 Z0.000 E7.057
G1 X0.437 Y0.908 Z0.000 E7.057
G1 X0.437 Y0.908 Z0.000 E7.057
G1 X-3.774 Y-0.000 Z0.000 E26.416
G1 X-0.434 Y0.901 Z0.000 E7.002
G1 X-0.434 Y0.901 Z0.000 E7.002
G1 X-0.434 Y0.901 Z0.000 E7.002
G1 X-0.434 Y0.901 Z0.000 E7.002
G1 X-0.434 Y0.901 Z0.000 E7.002
G1 X-0.434 Y0.901 Z0.000 E7.002
G1 X-0.434 Y0.901 Z0.000 E7.002
G1 X-0.434 Y0.901 Z0.000 E7.002
G1 X-0.434 Y0.901 Z0.000 E7.002
G1 X-0.434 Y0.901 Z0.000 E7.002
G1 X-0.434 Y0.901 Z0.000 E7.002
G1 X-0.434 Y0.901 Z0.000 E7.002
G1 X-0.434 Y0.901 Z0.000 E7.002
G1 X-0.434 Y0.901 Z0.000 E7.002
G1 X-0.434 Y0.901 Z0.000 E7.002
G1 X-0.434 Y0.901 Z0.000 E7.002
G1 X-0.434 Y0.901 Z0.000 E7.002
G1 X-0.434 Y0.901 Z0.000 E7.002
G1 X-0.434 Y0.901 Z0.000 E7.002
G1 X-0.434 Y0.901 Z0.000 E7.002
G1 X-0.434 Y0.901 Z0.000 E7.002
G1 X-0.434 Y0.901 Z0.000 E7.002
G1 X-0.434 Y0.901 Z0.000 E7.002
G1 X-0.434 Y0.901 Z0.000 E7.002
G1 X-0.434 Y0.901 Z0.000 E7.002
G1 X-0.434 Y0.901 Z0.000 E7.002
G1 X-0.434 Y0.901 Z0.000 E7.002
G1 X-0.434 Y0.901 Z0.000 E7.002
G1 X-0.434 Y0.901 Z0.000 E7.002
G1 X-0.434 Y0.901 Z0.000 E7.002
G1 X-0.434 Y0.901 Z0.000 E7.002
G1 X-0.743 Y0.513 Z0.000 E6.323
G1 X-0.975 Y0.223 Z0.000 E7.002
G1 X-0.975 Y0.223 Z0.000 E7.002
G1 X-0.975 Y0.223 Z0.000 E7.002
G1 X-0.975 Y0.223 Z0.000 E7.002
G1 X-0.975 Y0.223 Z0.000 E7.002
G1 X-0.975 Y0.223 Z0.000 E7.002
G1 X-0.975 Y0.223 Z0.000 E7.002
G1 X-0.975 Y0.223 Z0.000 E7.002
G1 X-0.975 Y0.223 Z0.000 E7.002
G1 X-0.975 Y0.223 Z0.000 E7.002
G1 X-0.975 Y0.223 Z0.000 E7.002
G1 X-0.975 Y0.223 Z0.000 E7.002
G1 X-0.975 Y0.223 Z0.000 E7.002
G1 X-0.975 Y0.223 Z0.000 E7.002
G1 X-0.975 Y0.223 Z0.000 E7.002
G1 X-0.975 Y0.223 Z0.000 E7.002
G1 X-0.975 Y0.223 Z0.000 E7.002
G1 X-0.975 Y0.223 Z0.000 E7.002
G1 X-0.975 Y0.223 Z0.000 E7.002
G1 X-0.975 Y0.223 Z0.000 E7.002
G1 X-0.975 Y0.223 Z0.000 E7.002
G1 X-0.975 Y0.223 Z0.000 E7.002
G1 X-0.975 Y0.223 Z0.000 E7.002
G1 X-0.975 Y0.223 Z0.000 E7.002
G1 X-0.975 Y0.223 Z0.000 E7.002
G1 X-0.975 Y0.223 Z0.000 E7.002
G1 X-0.975 Y0.223 Z0.000 E7.002
G1 X-0.975 Y0.223 Z0.000 E7.002
G1 X-0.975 Y0.223 Z0.000 E7.002
G1 X-0.975 Y0.223 Z0.000 E7.002
G1 X-0.948 Y0.102 Z0.000 E6.671
G1 X-0.782 Y-0.624 Z0.000 E7.002
G1 X-0.782 Y-0.624 Z0.000 E7.002
G1 X-0.782 Y-0.624 Z0.000 E7.002
G1 X-0.782 Y-0.624 Z0.000 E7.002
G1 X-0.782 Y-0.624 Z0.000 E7.002
G1 X-0.782 Y-0.624 Z0.000 E7.002
G1 X-0.782 Y-0.624 Z0.000 E7.002
G1 X-0.782 Y-0.624 Z0.000 E7.002
G1 X-0.782 Y-0.624 Z0.000 E7.002
G1 X-0.782 Y-0.624 Z0.000 E7.002
G1 X-0.782 Y-0.624 Z0.000 E7.002
G1 X-0.782 Y-0.624 Z0.000 E7.002
G1 X-0.782 Y-0.624 Z0.000 E7.002
G1 X-0.782 Y-0.624 Z0.000 E7.002
G1 X-0.782 Y-0.624 Z0.000 E7.002
G1 X-0.782 Y-0.624 Z0.000 E7.002
G1 X-0.782 Y-0.624 Z0.000 E7.002
G1 X-0.782 Y-0.624 Z0.000 E7.002
G1 X-0.782 Y-0.624 Z0.000 E7.002
G1 X-0.782 Y-0.624 Z0.000 E7.002
G1 X-0.782 Y-0.624 Z0.000 E7.002
G1 X-0.782 Y-0.624 Z0.000 E7.002
G1 X-0.782 Y-0.624 Z0.000 E7.002
G1 X-0.782 Y-0.624 Z0.000 E7.002
G1 X-0.782 Y-0.624 Z0.000 E7.002
G1 X-0.782 Y-0.624 Z0.000 E7.002
G1 X-0.782 Y-0.624 Z0.000 E7.002
G1 X-0.782 Y-0.624 Z0.000 E7.002
G1 X-0.782 Y-0.624 Z0.000 E7.002
G1 X-0.782 Y-0.624 Z0.000 E7.002
G1 X-0.782 Y-0.624 Z0.000 E7.002
G1 X-0.223 Y-0.893 Z0.000 E6.441
G1 X0.000 Y-1.000 Z0.000 E7.002
G1 X0.000 Y-1.000 Z0.000 E7.002
G1 X0.000 Y-1.000 Z0.000 E7.002
G1 X0.000 Y-1.000 Z0.000 E7.002
G1 X0.000 Y-1.000 Z0.000 E7.002
G1 X0.000 Y-1.000 Z0.000 E7.002
G1 X0.000 Y-1.000 Z0.000 E7.002
G1 X0.000 Y-1.000 Z0.000 E7.002
G1 X0.000 Y-1.000 Z0.000 E7.002
G1 X0.000 Y-1.000 Z0.000 E7.002
G1 X0.000 Y-1.000 Z0.000 E7.002
G1 X0.000 Y-1.000 Z0.000 E7.002
G1 X0.000 Y-1.000 Z0.000 E7.002
G1 X0.000 Y-1.000 Z0.000 E7.002
G1 X0.000 Y-1.000 Z0.000 E7.002
G1 X0.000 Y-1.000 Z0.000 E7.002
G1 X0.000 Y-1.000 Z0.000 E7.002
G1 X0.000 Y-1.000 Z0.000 E7.002
G1 X0.000 Y-1.000 Z0.000 E7.002
G1 X0.000 Y-1.000 Z0.000 E7.002
G1 X0.000 Y-1.000 Z0.000 E7.002
G1 X0.000 Y-1.000 Z0.000 E7.002
G1 X0.000 Y-1.000 Z0.000 E7.002
G1 X0.000 Y-1.000 Z0.000 E7.002
G1 X0.000 Y-1.000 Z0.000 E7.002
G1 X0.000 Y-1.000 Z0.000 E7.002
G1 X0.000 Y-1.000 Z0.000 E7.002
G1 X0.000 Y-1.000 Z0.000 E7.002
G1 X0.000 Y-1.000 Z0.000 E7.002
G1 X0.000 Y-1.000 Z0.000 E7.002
G1 X0.223 Y-0.893 Z0.000 E6.441
G1 X0.782 Y-0.624 Z0.000 E7.002
G1 X0.782 Y-0.624 Z0.000 E7.002
G1 X0.782 Y-0.624 Z0.000 E7.002
G1 X0.782 Y-0.624 Z0.000 E7.002
G1 X0.782 Y-0.624 Z0.000 E7.002
G1 X0.782 Y-0.624 Z0.000 E7.002
G1 X0.782 Y-0.624 Z0.000 E7.002
G1 X0.782 Y-0.624 Z0.000 E7.002
G1 X0.782 Y-0.624 Z0.000 E7.002
G1 X0.782 Y-0.624 Z0.000 E7.002
G1 X0.782 Y-0.624 Z0.000 E7.002
G1 X0.782 Y-0.624 Z0.000 E7.002
G1 X0.782 Y-0.624 Z0.000 E7.002
G1 X0.782 Y-0.624 Z0.000 E7.002
G1 X0.782 Y-0.624 Z0.000 E7.002
G1 X0.782 Y-0.624 Z0.000 E7.002
G1 X0.782 Y-0.624 Z0.000 E7.002
G1 X0.782 Y-0.624 Z0.000 E7.002
G1 X0.782 Y-0.624 Z0.000 E7.002
G1 X0.782 Y-0.624 Z0.000 E7.002
G1 X0.782 Y-0.624 Z0.000 E7.002
G1 X0.782 Y-0.624 Z0.000 E7.002
G1 X0.782 Y-0.624 Z0.000 E7.002
G1 X0.782 Y-0.624 Z0.000 E7.002
G1 X0.782 Y-0.624 Z0.000 E7.002
G1 X0.782 Y-0.624 Z0.000 E7.002
G1 X0.782 Y-0.624 Z0.000 E7.002
G1 X0.782 Y-0.624 Z0.000 E7.002
G1 X0.782 Y-0.624 Z0.000 E7.002
G1 X0.782 Y-0.624 Z0.000 E7.002
G1 X0.782 Y-0.624 Z0.000 E7.002
G1 X0.948 Y0.102 Z0.000 E6.671
G1 X0.975 Y0.223 Z0.000 E7.002
G1 X0.975 Y0.223 Z0.000 E7.002
G1 X0.975 Y0.223 Z0.000 E7.002
G1 X0.975 Y0.223 Z0.000 E7.002
G1 X0.975 Y0.223 Z0.000 E7.002
G1 X0.975 Y0.223 Z0.000 E7.002
G1 X0.975 Y0.223 Z0.000 E7.002
G1 X0.975 Y0.223 Z0.000 E7.002
G1 X0.975 Y0.223 Z0.000 E7.002
G1 X0.975 Y0.223 Z0.000 E7.002
G1 X0.975 Y0.223 Z0.000 E7.002
G1 X0.975 Y0.223 Z0.000 E7.002
G1 X0.975 Y0.223 Z0.000 E7.002
G1 X0.975 Y0.223 Z0.000 E7.002
G1 X0.975 Y0.223 Z0.000 E7.002
G1 X0.975 Y0.223 Z0.000 E7.002
G1 X0.975 Y0.223 Z0.000 E7.002
G1 X0.975 Y0.223 Z0.000 E7.002
G1 X0.975 Y0.223 Z0.000 E7.002
G1 X0.975 Y0.223 Z0.000 E7.002
G1 X0.975 Y0.223 Z0.000 E7.002
G1 X0.975 Y0.223 Z0.000 E7.002
G1 X0.975 Y0.223 Z0.000 E7.002
G1 X0.975 Y0.223 Z0.000 E7.002
G1 X0.975 Y0.223 Z0.000 E7.002
G1 X0.975 Y0.223 Z0.000 E7.002
G1 X0.975 Y0.223 Z0.000 E7.002
G1 X0.975 Y0.223 Z0.000 E7.002
G1 X0.975 Y0.223 Z0.000 E7.002
G1 X0.975 Y0.223 Z0.000 E7.002
G1 X0.743 Y0.513 Z0.000 E6.323
G1 X0.434 Y0.901 Z0.000 E7.002
G1 X0.434 Y0.901 Z0.000 E7.002
G1 X0.434 Y0.901 Z0.000 E7.002
G1 X0.434 Y0.901 Z0.000 E7.002
G1 X0.434 Y0.901 Z0.000 E7.002
G1 X0.434 Y0.901 Z0.000 E7.002
G1 X0.434 Y0.901 Z0.000 E7.002
G1 X0.434 Y0.901 Z0.000 E7.002
G1 X0.434 Y0.901 Z0.000 E7.002
G1 X0.434 Y0.901 Z0.000 E7.002
G1 X0.434 Y0.901 Z0.000 E7.002
G1 X0.434 Y0.901 Z0.000 E7.002
G1 X0.434 Y0.901 Z0.000 E7.002
G1 X0.434 Y0.901 Z0.000 E7.002
G1 X0.434 Y0.901 Z0.000 E7.002
G1 X0.434 Y0.901 Z0.000 E7.002
G1 X0.434 Y0.901 Z0.000 E7.002
G1 X0.434 Y0.901 Z0.000 E7.002
G1 X0.434 Y0.901 Z0.000 E7.002
G1 X0.434 Y0.901 Z0.000 E7.002
G1 X0.434 Y0.901 Z0.000 E7.002
G1 X0.434 Y0.901 Z0.000 E7.002
G1 X0.434 Y0.901 Z0.000 E7.002
G1 X0.434 Y0.901 Z0.000 E7.002
G1 X0.434 Y0.901 Z0.000 E7.002
G1 X0.434 Y0.901 Z0.000 E7.002
G1 X0.434 Y0.901 Z0.000 E7.002
G1 X0.434 Y0.901 Z0.000 E7.002
G1 X0.434 Y0.901 Z0.000 E7.002
G1 X0.434 Y0.901 Z0.000 E7.002
G1 X0.434 Y0.901 Z0.000 E7.002
G1 X-3.774 Y0.000 Z0.000 E26.416
G1 X-0.434 Y0.902 Z0.000 E7.005
G1 X-0.434 Y0.902 Z0.000 E7.005
G1 X-0.434 Y0.902 Z0.000 E7.005
G1 X-0.434 Y0.902 Z0.000 E7.005
G1 X-0.434 Y0.902 Z0.000 E7.005
G1 X-0.434 Y0.902 Z0.000 E7.005
G1 X-0.434 Y0.902 Z0.000 E7.005
G1 X-0.434 Y0.902 Z0.000 E7.005
G1 X-0.434 Y0.902 Z0.000 E7.005
G1 X-0.434 Y0.902 Z0.000 E7.005
G1 X-0.434 Y0.902 Z0.000 E7.005
G1 X-0.434 Y0.902 Z0.000 E7.005
G1 X-0.434 Y0.902 Z0.000 E7.005
G1 X-0.434 Y0.902 Z0.000 E7.005
G1 X-0.434 Y0.902 Z0.000 E7.005
G1 X-0.434 Y0.902 Z0.000 E7.005
G1 X-0.434 Y0.902 Z0.000 E7.005
G1 X-0.434 Y0.902 Z0.000 E7.005
G1 X-0.434 Y0.902 Z0.000 E7.005
G1 X-0.434 Y0.902 Z0.000 E7.005
G1 X-0.434 Y0.902 Z0.000 E7.005
G1 X-0.434 Y0.902 Z0.000 E7.005
G1 X-0.434 Y0.902 Z0.000 E7.005
G1 X-0.434 Y0.902 Z0.000 E7.005
G1 X-0.434 Y0.902 Z0.000 E7.005
G1 X-0.434 Y0.902 Z0.000 E7.005
G1 X-0.434 Y0.902 Z0.000 E7.005
G1 X-0.434 Y0.902 Z0.000 E7.005
G1 X-0.898 Y0.320 Z0.000 E6.674
G1 X-0.976 Y0.223 Z0.000 E7.005
G1 X-0.976 Y0.223 Z0.000 E7.005
G1 X-0.976 Y0.223 Z0.000 E7.005
G1 X-0.976 Y0.223 Z0.000 E7.005
G1 X-0.976 Y0.223 Z0.000 E7.005
G1 X-0.976 Y0.223 Z0.000 E7.005
G1 X-0.976 Y0.223 Z0.000 E7.005
G1 X-0.976 Y0.223 Z0.000 E7.005
G1 X-0.976 Y0.223 Z0.000 E7.005
G1 X-0.976 Y0.223 Z0.000 E7.005
G1 X-0.976 Y0.223 Z0.000 E7.005
G1 X-0.976 Y0.223 Z0.000 E7.005
G1 X-0.976 Y0.223 Z0.000 E7.005
G1 X-0.976 Y0.223 Z0.000 E7.005
G1 X-0.976 Y0.223 Z0.000 E7.005
G1 X-0.976 Y0.223 Z0.000 E7.005
G1 X-0.976 Y0.223 Z0.000 E7.005
G1 X-0.976 Y0.223 Z0.000 E7.005
G1 X-0.976 Y0.223 Z0.000 E7.005
G1 X-0.976 Y0.223 Z0.000 E7.005
G1 X-0.976 Y0.223 Z0.000 E7.005
G1 X-0.976 Y0.223 Z0.000 E7.005
G1 X-0.976 Y0.223 Z0.000 E7.005
G1 X-0.976 Y0.223 Z0.000 E7.005
G1 X-0.976 Y0.223 Z0.000 E7.005
G1 X-0.976 Y0.223 Z0.000 E7.005
G1 X-0.976 Y0.223 Z0.000 E7.005
G1 X-0.838 Y-0.382 Z0.000 E6.444
G1 X-0.782 Y-0.624 Z0.000 E7.005
G1 X-0.782 Y-0.624 Z0.000 E7.005
G1 X-0.782 Y-0.624 Z0.000 E7.005
G1 X-0.782 Y-0.624 Z0.000 E7.005
G1 X-0.782 Y-0.624 Z0.000 E7.005
G1 X-0.782 Y-0.624 Z0.000 E7.005
G1 X-0.782 Y-0.624 Z0.000 E7.005
G1 X-0.782 Y-0.624 Z0.000 E7.005
G1 X-0.782 Y-0.624 Z0.000 E7.005
G1 X-0.782 Y-0.624 Z0.000 E7.005
G1 X-0.782 Y-0.624 Z0.000 E7.005
G1 X-0.782 Y-0.624 Z0.000 E7.005
G1 X-0.782 Y-0.624 Z0.000 E7.005
G1 X-0.782 Y-0.624 Z0.000 E7.005
G1 X-0.782 Y-0.624 Z0.000 E7.005
G1 X-0.782 Y-0.624 Z0.000 E7.005
G1 X-0.782 Y-0.624 Z0.000 E7.005
G1 X-0.782 Y-0.624 Z0.000 E7.005
G1 X-0.782 Y-0.624 Z0.000 E7.005
G1 X-0.782 Y-0.624 Z0.000 E7.005
G1 X-0.782 Y-0.624 Z0.000 E7.005
G1 X-0.782 Y-0.624 Z0.000 E7.005
G1 X-0.782 Y-0.624 Z0.000 E7.005
G1 X-0.782 Y-0.624 Z0.000 E7.005
G1 X-0.782 Y-0.624 Z0.000 E7.005
G1 X-0.782 Y-0.624 Z0.000 E7.005
G1 X-0.782 Y-0.624 Z0.000 E7.005
G1 X-0.335 Y-0.839 Z0.000 E6.326
G1 X0.000 Y-1.001 Z0.000 E7.005
G1 X0.000 Y-1.001 Z0.000 E7.005
G1 X0.000 Y-1.001 Z0.000 E7.005
G1 X0.000 Y-1.001 Z0.000 E7.005
G1 X0.000 Y-1.001 Z0.000 E7.005
G1 X0.000 Y-1.001 Z0.000 E7.005
G1 X0.000 Y-1.001 Z0.000 E7.005
G1 X0.000 Y-1.001 Z0.000 E7.005
G1 X0.000 Y-1.001 Z0.000 E7.005
G1 X0.000 Y-1.001 Z0.000 E7.005
G1 X0.000 Y-1.001 Z0.000 E7.005
G1 X0.000 Y-1.001 Z0.000 E7.005
G1 X0.000 Y-1.001 Z0.000 E7.005
G1 X0.000 Y-1.001 Z0.000 E7.005
G1 X0.000 Y-1.001 Z0.000 E7.005
G1 X0.000 Y-1.001 Z0.000 E7.005
G1 X0.000 Y-1.001 Z0.000 E7.005
G1 X0.000 Y-1.001 Z0.000 E7.005
G1 X0.000 Y-1.001 Z0.000 E7.005
G1 X0.000 Y-1.001 Z0.000 E7.005
G1 X0.000 Y-1.001 Z0.000 E7.005
G1 X0.000 Y-1.001 Z0.000 E7.005
G1 X0.000 Y-1.001 Z0.000 E7.005
G1 X0.000 Y-1.001 Z0.000 E7.005
G1 X0.000 Y-1.001 Z0.000 E7.005
G1 X0.000 Y-1.001 Z0.000 E7.005
G1 X0.000 Y-1.001 Z0.000 E7.005
G1 X0.335 Y-0.839 Z0.000 E6.326
G1 X0.782 Y-0.624 Z0.000 E7.005
G1 X0.782 Y-0.624 Z0.000 E7.005
G1 X0.782 Y-0.624 Z0.000 E7.005
G1 X0.782 Y-0.624 Z0.000 E7.005
G1 X0.782 Y-0.624 Z0.000 E7.005
G1 X0.782 Y-0.624 Z0.000 E7.005
G1 X0.782 Y-0.624 Z0.000 E7.005
G1 X0.782 Y-0.624 Z0.000 E7.005
G1 X0.782 Y-0.624 Z0.000 E7.005
G1 X0.782 Y-0.624 Z0.000 E7.005
G1 X0.782 Y-0.624 Z0.000 E7.005
G1 X0.782 Y-0.624 Z0.000 E7.005
G1 X0.782 Y-0.624 Z0.000 E7.005
G1 X0.782 Y-0.624 Z0.000 E7.005
G1 X0.782 Y-0.624 Z0.000 E7.005
G1 X0.782 Y-0.624 Z0.000 E7.005
G1 X0.782 Y-0.624 Z0.000 E7.005
G1 X0.782 Y-0.624 Z0.000 E7.005
G1 X0.782 Y-0.624 Z0.000 E7.005
G1 X0.782 Y-0.624 Z0.000 E7.005
G1 X0.782 Y-0.624 Z0.000 E7.005
G1 X0.782 Y-0.624 Z0.000 E7.005
G1 X0.782 Y-0.624 Z0.000 E7.005
G1 X0.782 Y-0.624 Z0.000 E7.005
G1 X0.782 Y-0.624 Z0.000 E7.005
G1 X0.782 Y-0.624 Z0.000 E7.005
G1 X0.782 Y-0.624 Z0.000 E7.005
G1 X0.838 Y-0.382 Z0.000 E6.444
G1 X0.976 Y0.223 Z0.000 E7.005
G1 X0.976 Y0.223 Z0.000 E7.005
G1 X0.976 Y0.223 Z0.000 E7.005
G1 X0.976 Y0.223 Z0.000 E7.005
G1 X0.976 Y0.223 Z0.000 E7.005
G1 X0.976 Y0.223 Z0.000 E7.005
G1 X0.976 Y0.223 Z0.000 E7.005
G1 X0.976 Y0.223 Z0.000 E7.005
G1 X0.976 Y0.223 Z0.000 E7.005
G1 X0.976 Y0.223 Z0.000 E7.005
G1 X0.976 Y0.223 Z0.000 E7.005
G1 X0.976 Y0.223 Z0.000 E7.005
G1 X0.976 Y0.223 Z0.000 E7.005
G1 X0.976 Y0.223 Z0.000 E7.005
G1 X0.976 Y0.223 Z0.000 E7.005
G1 X0.976 Y0.223 Z0.000 E7.005
G1 X0.976 Y0.223 Z0.000 E7.005
G1 X0.976 Y0.223 Z0.000 E7.005
G1 X0.976 Y0.223 Z0.000 E7.005
G1 X0.976 Y0.223 Z0.000 E7.005
G1 X0.976 Y0.223 Z0.000 E7.005
G1 X0.976 Y0.223 Z0.000 E7.005
G1 X0.976 Y0.223 Z0.000 E7.005
G1 X0.976 Y0.223 Z0.000 E7.005
G1 X0.976 Y0.223 Z0.000 E7.005
G1 X0.976 Y0.223 Z0.000 E7.005
G1 X0.976 Y0.223 Z0.000 E7.005
G1 X0.898 Y0.320 Z0.000 E6.674
G1 X0.434 Y0.902 Z0.000 E7.005
G1 X0.434 Y0.902 Z0.000 E7.005
G1 X0.434 Y0.902 Z0.000 E7.005
G1 X0.434 Y0.902 Z0.000 E7.005
G1 X0.434 Y0.902 Z0.000 E7.005
G1 X0.434 Y0.902 Z0.000 E7.005
G1 X0.434 Y0.902 Z0.000 E7.005
G1 X0.434 Y0.902 Z0.000 E7.005
G1 X0.434 Y0.902 Z0.000 E7.005
G1 X0.434 Y0.902 Z0.000 E7.005
G1 X0.434 Y0.902 Z0.000 E7.005
G1 X0.434 Y0.902 Z0.000 E7.005
G1 X0.434 Y0.902 Z0.000 E7.005
G1 X0.434 Y0.902 Z0.000 E7.005
G1 X0.434 Y0.902 Z0.000 E7.005
G1 X0.434 Y0.902 Z0.000 E7.005
G1 X0.434 Y0.902 Z0.000 E7.005
G1 X0.434 Y0.902 Z0.000 E7.005
G1 X0.434 Y0.902 Z0.000 E7.005
G1 X0.434 Y0.902 Z0.000 E7.005
G1 X0.434 Y0.902 Z0.000 E7.005
G1 X0.434 Y0.902 Z0.000 E7.005
G1 X0.434 Y0.902 Z0.000 E7.005
G1 X0.434 Y0.902 Z0.000 E7.005
G1 X0.434 Y0.902 Z0.000 E7.005
G1 X0.434 Y0.902 Z0.000 E7.005
G1 X0.434 Y0.902 Z0.000 E7.005
G1 X0.434 Y0.902 Z0.000 E7.005
G1 X-3.774 Y-0.000 Z0.000 E26.416
G1 X-0.434 Y0.902 Z0.000 E7.008
G1 X-0.434 Y0.902 Z0.000 E7.008
G1 X-0.434 Y0.902 Z0.000 E7.008
G1 X-0.434 Y0.902 Z0.000 E7.008
G1 X-0.434 Y0.902 Z0.000 E7.008
G1 X-0.434 Y0.902 Z0.000 E7.008
G1 X-0.434 Y0.902 Z0.000 E7.008
G1 X-0.434 Y0.902 Z0.000 E7.008
G1 X-0.434 Y0.902 Z0.000 E7.008
G1 X-0.434 Y0.902 Z0.000 E7.008
G1 X-0.434 Y0.902 Z0.000 E7.008
G1 X-0.434 Y0.902 Z0.000 E7.008
G1 X-0.434 Y0.902 Z0.000 E7.008
G1 X-0.434 Y0.902 Z0.000 E7.008
G1 X-0.434 Y0.902 Z0.000 E7.008
G1 X-0.434 Y0.902 Z0.000 E7.008
G1 X-0.434 Y0.902 Z0.000 E7.008
G1 X-0.434 Y0.902 Z0.000 E7.008
G1 X-0.434 Y0.902 Z0.000 E7.008
G1 X-0.434 Y0.902 Z0.000 E7.008
G1 X-0.434 Y0.902 Z0.000 E7.008
G1 X-0.434 Y0.902 Z0.000 E7.008
G1 X-0.434 Y0.902 Z0.000 E7.008
G1 X-0.434 Y0.902 Z0.000 E7.008
G1 X-0.512 Y0.805 Z0.000 E6.677
G1 X-0.976 Y0.223 Z0.000 E7.008
G1 X-0.976 Y0.223 Z0.000 E7.008
G1 X-0.976 Y0.223 Z0.000 E7.008
G1 X-0.976 Y0.223 Z0.000 E7.008
G1 X-0.976 Y0.223 Z0.000 E7.008
G1 X-0.976 Y0.223 Z0.000 E7.008
G1 X-0.976 Y0.223 Z0.000 E7.008
G1 X-0.976 Y0.223 Z0.000 E7.008
G1 X-0.976 Y0.223 Z0.000 E7.008
G1 X-0.976 Y0.223 Z0.000 E7.008
G1 X-0.976 Y0.223 Z0.000 E7.008
G1 X-0.976 Y0.223 Z0.000 E7.008
G1 X-0.976 Y0.223 Z0.000 E7.008
G1 X-0.976 Y0.223 Z0.000 E7.008
G1 X-0.976 Y0.223 Z0.000 E7.008
G1 X-0.976 Y0.223 Z0.000 E7.008
G1 X-0.976 Y0.223 Z0.000 E7.008
G1 X-0.976 Y0.223 Z0.000 E7.008
G1 X-0.976 Y0.223 Z0.000 E7.008
G1 X-0.976 Y0.223 Z0.000 E7.008
G1 X-0.976 Y0.223 Z0.000 E7.008
G1 X-0.976 Y0.223 Z0.000 E7.008
G1 X-0.976 Y0.223 Z0.000 E7.008
G1 X-0.976 Y0.223 Z0.000 E7.008
G1 X-0.921 Y-0.019 Z0.000 E6.447
G1 X-0.783 Y-0.624 Z0.000 E7.008
G1 X-0.783 Y-0.624 Z0.000 E7.008
G1 X-0.783 Y-0.624 Z0.000 E7.008
G1 X-0.783 Y-0.624 Z0.000 E7.008
G1 X-0.783 Y-0.624 Z0.000 E7.008
G1 X-0.783 Y-0.624 Z0.000 E7.008
G1 X-0.783 Y-0.624 Z0.000 E7.008
G1 X-0.783 Y-0.624 Z0.000 E7.008
G1 X-0.783 Y-0.624 Z0.000 E7.008
G1 X-0.783 Y-0.624 Z0.000 E7.008
G1 X-0.783 Y-0.624 Z0.000 E7.008
G1 X-0.783 Y-0.624 Z0.000 E7.008
G1 X-0.783 Y-0.624 Z0.000 E7.008
G1 X-0.783 Y-0.624 Z0.000 E7.008
G1 X-0.783 Y-0.624 Z0.000 E7.008
G1 X-0.783 Y-0.624 Z0.000 E7.008
G1 X-0.783 Y-0.624 Z0.000 E7.008
G1 X-0.783 Y-0.624 Z0.000 E7.008
G1 X-0.783 Y-0.624 Z0.000 E7.008
G1 X-0.783 Y-0.624 Z0.000 E7.008
G1 X-0.783 Y-0.624 Z0.000 E7.008
G1 X-0.783 Y-0.624 Z0.000 E7.008
G1 X-0.783 Y-0.624 Z0.000 E7.008
G1 X-0.783 Y-0.624 Z0.000 E7.008
G1 X-0.447 Y-0.786 Z0.000 E6.329
G1 X0.000 Y-1.001 Z0.000 E7.008
G1 X0.000 Y-1.001 Z0.000 E7.008
G1 X-0.000 Y-1.001 Z0.000 E7.008
G1 X0.000 Y-1.001 Z0.000 E7.008
G1 X-0.000 Y-1.001 Z0.000 E7.008
G1 X0.000 Y-1.001 Z0.000 E7.008
G1 X0.000 Y-1.001 Z0.000 E7.008
G1 X-0.000 Y-1.001 Z0.000 E7.008
G1 X0.000 Y-1.001 Z0.000 E7.008
G1 X0.000 Y-1.001 Z0.000 E7.008
G1 X0.000 Y-1.001 Z0.000 E7.008
G1 X0.000 Y-1.001 Z0.000 E7.008
G1 X0.000 Y-1.001 Z0.000 E7.008
G1 X0.000 Y-1.001 Z0.000 E7.008
G1 X0.000 Y-1.001 Z0.000 E7.008
G1 X0.000 Y-1.001 Z0.000 E7.008
G1 X0.000 Y-1.001 Z0.000 E7.008
G1 X0.000 Y-1.001 Z0.000 E7.008
G1 X0.000 Y-1.001 Z0.000 E7.008
G1 X0.000 Y-1.001 Z0.000 E7.008
G1 X0.000 Y-1.001 Z0.000 E7.008
G1 X0.000 Y-1.001 Z0.000 E7.008
G1 X0.000 Y-1.001 Z0.000 E7.008
G1 X0.000 Y-1.001 Z0.000 E7.008
G1 X0.447 Y-0.786 Z0.000 E6.329
G1 X0.783 Y-0.624 Z0.000 E7.008
G1 X0.783 Y-0.624 Z0.000 E7.008
G1 X0.783 Y-0.624 Z0.000 E7.008
G1 X0.783 Y-0.624 Z0.000 E7.008
G1 X0.783 Y-0.624 Z0.000 E7.008
G1 X0.783 Y-0.624 Z0.000 E7.008
G1 X0.783 Y-0.624 Z0.000 E7.008
G1 X0.783 Y-0.624 Z0.000 E7.008
G1 X0.783 Y-0.624 Z0.000 E7.008
G1 X0.783 Y-0.624 Z0.000 E7.008
G1 X0.783 Y-0.624 Z0.000 E7.008
G1 X0.783 Y-0.624 Z0.000 E7.008
G1 X0.783 Y-0.624 Z0.000 E7.008
G1 X0.783 Y-0.624 Z0.000 E7.008
G1 X0.783 Y-0.624 Z0.000 E7.008
G1 X0.783 Y-0.624 Z0.000 E7.008
G1 X0.783 Y-0.624 Z0.000 E7.008
G1 X0.783 Y-0.624 Z0.000 E7.008
G1 X0.783 Y-0.624 Z0.000 E7.008
G1 X0.783 Y-0.624 Z0.000 E7.008
G1 X0.783 Y-0.624 Z0.000 E7.008
G1 X0.783 Y-0.624 Z0.000 E7.008
G1 X0.783 Y-0.624 Z0.000 E7.008
G1 X0.783 Y-0.624 Z0.000 E7.008
G1 X0.921 Y-0.019 Z0.000 E6.447
G1 X0.976 Y0.223 Z0.000 E7.008
G1 X0.976 Y0.223 Z0.000 E7.008
G1 X0.976 Y0.223 Z0.000 E7.008
G1 X0.976 Y0.223 Z0.000 E7.008
G1 X0.976 Y0.223 Z0.000 E7.008
G1 X0.976 Y0.223 Z0.000 E7.008
G1 X0.976 Y0.223 Z0.000 E7.008
G1 X0.976 Y0.223 Z0.000 E7.008
G1 X0.976 Y0.223 Z0.000 E7.008
G1 X0.976 Y0.223 Z0.000 E7.008
G1 X0.976 Y0.223 Z0.000 E7.008
G1 X0.976 Y0.223 Z0.000 E7.008
G1 X0.976 Y0.223 Z0.000 E7.008
G1 X0.976 Y0.223 Z0.000 E7.008
G1 X0.976 Y0.223 Z0.000 E7.008
G1 X0.976 Y0.223 Z0.000 E7.008
G1 X0.976 Y0.223 Z0.000 E7.008
G1 X0.976 Y0.223 Z0.000 E7.008
G1 X0.976 Y0.223 Z0.000 E7.008
G1 X0.976 Y0.223 Z0.000 E7.008
G1 X0.976 Y0.223 Z0.000 E7.008
G1 X0.976 Y0.223 Z0.000 E7.008
G1 X0.976 Y0.223 Z0.000 E7.008
G1 X0.976 Y0.223 Z0.000 E7.008
G1 X0.512 Y0.805 Z0.000 E6.677
G1 X0.434 Y0.902 Z0.000 E7.008
G1 X0.434 Y0.902 Z0.000 E7.008
G1 X0.434 Y0.902 Z0.000 E7.008
G1 X0.434 Y0.902 Z0.000 E7.008
G1 X0.434 Y0.902 Z0.000 E7.008
G1 X0.434 Y0.902 Z0.000 E7.008
G1 X0.434 Y0.902 Z0.000 E7.008
G1 X0.434 Y0.902 Z0.000 E7.008
G1 X0.434 Y0.902 Z0.000 E7.008
G1 X0.434 Y0.902 Z0.000 E7.008
G1 X0.434 Y0.902 Z0.000 E7.008
G1 X0.434 Y0.902 Z0.000 E7.008
G1 X0.434 Y0.902 Z0.000 E7.008
G1 X0.434 Y0.902 Z0.000 E7.008
G1 X0.434 Y0.902 Z0.000 E7.008
G1 X0.434 Y0.902 Z0.000 E7.008
G1 X0.434 Y0.902 Z0.000 E7.008
G1 X0.434 Y0.902 Z0.000 E7.008
G1 X0.434 Y0.902 Z0.000 E7.008
G1 X0.434 Y0.902 Z0.000 E7.008
G1 X0.434 Y0.902 Z0.000 E7.008
G1 X0.434 Y0.902 Z0.000 E7.008
G1 X0.434 Y0.902 Z0.000 E7.008
G1 X0.434 Y0.902 Z0.000 E7.008
G1 X-3.774 Y0.000 Z0.000 E26.416
G1 X-0.435 Y0.903 Z0.000 E7.013
G1 X-0.435 Y0.903 Z0.000 E7.013
G1 X-0.435 Y0.903 Z0.000 E7.013
G1 X-0.435 Y0.903 Z0.000 E7.013
G1 X-0.435 Y0.903 Z0.000 E7.013
G1 X-0.435 Y0.903 Z0.000 E7.013
G1 X-0.435 Y0.903 Z0.000 E7.013
G1 X-0.435 Y0.903 Z0.000 E7.013
G1 X-0.435 Y0.903 Z0.000 E7.013
G1 X-0.435 Y0.903 Z0.000 E7.013
G1 X-0.435 Y0.903 Z0.000 E7.013
G1 X-0.435 Y0.903 Z0.000 E7.013
G1 X-0.435 Y0.903 Z0.000 E7.013
G1 X-0.435 Y0.903 Z0.000 E7.013
G1 X-0.435 Y0.903 Z0.000 E7.013
G1 X-0.435 Y0.903 Z0.000 E7.013
G1 X-0.435 Y0.903 Z0.000 E7.013
G1 X-0.435 Y0.903 Z0.000 E7.013
G1 X-0.435 Y0.903 Z0.000 E7.013
G1 X-0.435 Y0.903 Z0.000 E7.013
G1 X-0.435 Y0.903 Z0.000 E7.013
G1 X-0.667 Y0.611 Z0.000 E6.334
G1 X-0.977 Y0.223 Z0.000 E7.013
G1 X-0.977 Y0.223 Z0.000 E7.013
G1 X-0.977 Y0.223 Z0.000 E7.013
G1 X-0.977 Y0.223 Z0.000 E7.013
G1 X-0.977 Y0.223 Z0.000 E7.013
G1 X-0.977 Y0.223 Z0.000 E7.013
G1 X-0.977 Y0.223 Z0.000 E7.013
G1 X-0.977 Y0.223 Z0.000 E7.013
G1 X-0.977 Y0.223 Z0.000 E7.013
G1 X-0.977 Y0.223 Z0.000 E7.013
G1 X-0.977 Y0.223 Z0.000 E7.013
G1 X-0.977 Y0.223 Z0.000 E7.013
G1 X-0.977 Y0.223 Z0.000 E7.013
G1 X-0.977 Y0.223 Z0.000 E7.013
G1 X-0.977 Y0.223 Z0.000 E7.013
G1 X-0.977 Y0.223 Z0.000 E7.013
G1 X-0.977 Y0.223 Z0.000 E7.013
G1 X-0.977 Y0.223 Z0.000 E7.013
G1 X-0.977 Y0.223 Z0.000 E7.013
G1 X-0.977 Y0.223 Z0.000 E7.013
G1 X-0.977 Y0.223 Z0.000 E7.013
G1 X-0.811 Y-0.504 Z0.000 E6.682
G1 X-0.783 Y-0.625 Z0.000 E7.013
G1 X-0.783 Y-0.625 Z0.000 E7.013
G1 X-0.783 Y-0.625 Z0.000 E7.013
G1 X-0.783 Y-0.625 Z0.000 E7.013
G1 X-0.783 Y-0.625 Z0.000 E7.013
G1 X-0.783 Y-0.625 Z0.000 E7.013
G1 X-0.783 Y-0.625 Z0.000 E7.013
G1 X-0.783 Y-0.625 Z0.000 E7.013
G1 X-0.783 Y-0.625 Z0.000 E7.013
G1 X-0.783 Y-0.625 Z0.000 E7.013
G1 X-0.783 Y-0.625 Z0.000 E7.013
G1 X-0.783 Y-0.625 Z0.000 E7.013
G1 X-0.783 Y-0.625 Z0.000 E7.013
G1 X-0.783 Y-0.625 Z0.000 E7.013
G1 X-0.783 Y-0.625 Z0.000 E7.013
G1 X-0.783 Y-0.625 Z0.000 E7.013
G1 X-0.783 Y-0.625 Z0.000 E7.013
G1 X-0.783 Y-0.625 Z0.000 E7.013
G1 X-0.783 Y-0.625 Z0.000 E7.013
G1 X-0.783 Y-0.625 Z0.000 E7.013
G1 X-0.559 Y-0.732 Z0.000 E6.452
G1 X0.000 Y-1.002 Z0.000 E7.013
G1 X0.000 Y-1.002 Z0.000 E7.013
G1 X-0.000 Y-1.002 Z0.000 E7.013
G1 X0.000 Y-1.002 Z0.000 E7.013
G1 X0.000 Y-1.002 Z0.000 E7.013
G1 X0.000 Y-1.002 Z0.000 E7.013
G1 X-0.000 Y-1.002 Z0.000 E7.013
G1 X0.000 Y-1.002 Z0.000 E7.013
G1 X-0.000 Y-1.002 Z0.000 E7.013
G1 X0.000 Y-1.002 Z0.000 E7.013
G1 X0.000 Y-1.002 Z0.000 E7.013
G1 X0.000 Y-1.002 Z0.000 E7.013
G1 X0.000 Y-1.002 Z0.000 E7.013
G1 X0.000 Y-1.002 Z0.000 E7.013
G1 X-0.000 Y-1.002 Z0.000 E7.013
G1 X0.000 Y-1.002 Z0.000 E7.013
G1 X0.000 Y-1.002 Z0.000 E7.013
G1 X0.000 Y-1.002 Z0.000 E7.013
G1 X0.000 Y-1.002 Z0.000 E7.013
G1 X-0.000 Y-1.002 Z0.000 E7.013
G1 X0.000 Y-1.002 Z0.000 E7.013
G1 X0.559 Y-0.732 Z0.000 E6.452
G1 X0.783 Y-0.625 Z0.000 E7.013
G1 X0.783 Y-0.625 Z0.000 E7.013
G1 X0.783 Y-0.625 Z0.000 E7.013
G1 X0.783 Y-0.625 Z0.000 E7.013
G1 X0.783 Y-0.625 Z0.000 E7.013
G1 X0.783 Y-0.625 Z0.000 E7.013
G1 X0.783 Y-0.625 Z0.000 E7.013
G1 X0.783 Y-0.625 Z0.000 E7.013
G1 X0.783 Y-0.625 Z0.000 E7.013
G1 X0.783 Y-0.625 Z0.000 E7.013
G1 X0.783 Y-0.625 Z0.000 E7.013
G1 X0.783 Y-0.625 Z0.000 E7.013
G1 X0.783 Y-0.625 Z0.000 E7.013
G1 X0.783 Y-0.625 Z0.000 E7.013
G1 X0.783 Y-0.625 Z0.000 E7.013
G1 X0.783 Y-0.625 Z0.000 E7.013
G1 X0.783 Y-0.625 Z0.000 E7.013
G1 X0.783 Y-0.625 Z0.000 E7.013
G1 X0.783 Y-0.625 Z0.000 E7.013
G1 X0.783 Y-0.625 Z0.000 E7.013
G1 X0.811 Y-0.504 Z0.000 E6.682
G1 X0.977 Y0.223 Z0.000 E7.013
G1 X0.977 Y0.223 Z0.000 E7.013
G1 X0.977 Y0.223 Z0.000 E7.013
G1 X0.977 Y0.223 Z0.000 E7.013
G1 X0.977 Y0.223 Z0.000 E7.013
G1 X0.977 Y0.223 Z0.000 E7.013
G1 X0.977 Y0.223 Z0.000 E7.013
G1 X0.977 Y0.223 Z0.000 E7.013
G1 X0.977 Y0.223 Z0.000 E7.013
G1 X0.977 Y0.223 Z0.000 E7.013
G1 X0.977 Y0.223 Z0.000 E7.013
G1 X0.977 Y0.223 Z0.000 E7.013
G1 X0.977 Y0.223 Z0.000 E7.013
G1 X0.977 Y0.223 Z0.000 E7.013
G1 X0.977 Y0.223 Z0.000 E7.013
G1 X0.977 Y0.223 Z0.000 E7.013
G1 X0.977 Y0.223 Z0.000 E7.013
G1 X0.977 Y0.223 Z0.000 E7.013
G1 X0.977 Y0.223 Z0.000 E7.013
G1 X0.977 Y0.223 Z0.000 E7.013
G1 X0.977 Y0.223 Z0.000 E7.013
G1 X0.667 Y0.611 Z0.000 E6.334
G1 X0.435 Y0.903 Z0.000 E7.013
G1 X0.435 Y0.903 Z0.000 E7.013
G1 X0.435 Y0.903 Z0.000 E7.013
G1 X0.435 Y0.903 Z0.000 E7.013
G1 X0.435 Y0.903 Z0.000 E7.013
G1 X0.435 Y0.903 Z0.000 E7.013
G1 X0.435 Y0.903 Z0.000 E7.013
G1 X0.435 Y0.903 Z0.000 E7.013
G1 X0.435 Y0.903 Z0.000 E7.013
G1 X0.435 Y0.903 Z0.000 E7.013
G1 X0.435 Y0.903 Z0.000 E7.013
G1 X0.435 Y0.903 Z0.000 E7.013
G1 X0.435 Y0.903 Z0.000 E7.013
G1 X0.435 Y0.903 Z0.000 E7.013
G1 X0.435 Y0.903 Z0.000 E7.013
G1 X0.435 Y0.903 Z0.000 E7.013
G1 X0.435 Y0.903 Z0.000 E7.013
G1 X0.435 Y0.903 Z0.000 E7.013
G1 X0.435 Y0.903 Z0.000 E7.013
G1 X0.435 Y0.903 Z0.000 E7.013
G1 X0.435 Y0.903 Z0.000 E7.013
G1 X-3.774 Y0.000 Z0.000 E26.416
G1 X-0.435 Y0.904 Z0.000 E7.020
G1 X-0.435 Y0.904 Z0.000 E7.020
G1 X-0.435 Y0.904 Z0.000 E7.020
G1 X-0.435 Y0.904 Z0.000 E7.020
G1 X-0.435 Y0.904 Z0.000 E7.020
G1 X-0.435 Y0.904 Z0.000 E7.020
G1 X-0.435 Y0.904 Z0.000 E7.020
G1 X-0.435 Y0.904 Z0.000 E7.020
G1 X-0.435 Y0.904 Z0.000 E7.020
G1 X-0.435 Y0.904 Z0.000 E7.020
G1 X-0.435 Y0.904 Z0.000 E7.020
G1 X-0.435 Y0.904 Z0.000 E7.020
G1 X-0.435 Y0.904 Z0.000 E7.020
G1 X-0.435 Y0.904 Z0.000 E7.020
G1 X-0.435 Y0.904 Z0.000 E7.020
G1 X-0.435 Y0.904 Z0.000 E7.020
G1 X-0.435 Y0.904 Z0.000 E7.020
G1 X-0.435 Y0.904 Z0.000 E7.020
G1 X-0.823 Y0.418 Z0.000 E6.458
G1 X-0.978 Y0.223 Z0.000 E7.020
G1 X-0.978 Y0.223 Z0.000 E7.020
G1 X-0.978 Y0.223 Z0.000 E7.020
G1 X-0.978 Y0.223 Z0.000 E7.020
G1 X-0.978 Y0.223 Z0.000 E7.020
G1 X-0.978 Y0.223 Z0.000 E7.020
G1 X-0.978 Y0.223 Z0.000 E7.020
G1 X-0.978 Y0.223 Z0.000 E7.020
G1 X-0.978 Y0.223 Z0.000 E7.020
G1 X-0.978 Y0.223 Z0.000 E7.020
G1 X-0.978 Y0.223 Z0.000 E7.020
G1 X-0.978 Y0.223 Z0.000 E7.020
G1 X-0.978 Y0.223 Z0.000 E7.020
G1 X-0.978 Y0.223 Z0.000 E7.020
G1 X-0.978 Y0.223 Z0.000 E7.020
G1 X-0.978 Y0.223 Z0.000 E7.020
G1 X-0.978 Y0.223 Z0.000 E7.020
G1 X-0.895 Y-0.140 Z0.000 E6.339
G1 X-0.784 Y-0.625 Z0.000 E7.020
G1 X-0.784 Y-0.625 Z0.000 E7.020
G1 X-0.784 Y-0.625 Z0.000 E7.020
G1 X-0.784 Y-0.625 Z0.000 E7.020
G1 X-0.784 Y-0.625 Z0.000 E7.020
G1 X-0.784 Y-0.625 Z0.000 E7.020
G1 X-0.784 Y-0.625 Z0.000 E7.020
G1 X-0.784 Y-0.625 Z0.000 E7.020
G1 X-0.784 Y-0.625 Z0.000 E7.020
G1 X-0.784 Y-0.625 Z0.000 E7.020
G1 X-0.784 Y-0.625 Z0.000 E7.020
G1 X-0.784 Y-0.625 Z0.000 E7.020
G1 X-0.784 Y-0.625 Z0.000 E7.020
G1 X-0.784 Y-0.625 Z0.000 E7.020
G1 X-0.784 Y-0.625 Z0.000 E7.020
G1 X-0.784 Y-0.625 Z0.000 E7.020
G1 X-0.784 Y-0.625 Z0.000 E7.020
G1 X-0.672 Y-0.679 Z0.000 E6.688
G1 X0.000 Y-1.003 Z0.000 E7.020
G1 X0.000 Y-1.003 Z0.000 E7.020
G1 X0.000 Y-1.003 Z0.000 E7.020
G1 X0.000 Y-1.003 Z0.000 E7.020
G1 X-0.000 Y-1.003 Z0.000 E7.020
G1 X0.000 Y-1.003 Z0.000 E7.020
G1 X0.000 Y-1.003 Z0.000 E7.020
G1 X0.000 Y-1.003 Z0.000 E7.020
G1 X0.000 Y-1.003 Z0.000 E7.020
G1 X0.000 Y-1.003 Z0.000 E7.020
G1 X0.000 Y-1.003 Z0.000 E7.020
G1 X0.000 Y-1.003 Z0.000 E7.020
G1 X0.000 Y-1.003 Z0.000 E7.020
G1 X0.000 Y-1.003 Z0.000 E7.020
G1 X0.000 Y-1.003 Z0.000 E7.020
G1 X0.000 Y-1.003 Z0.000 E7.020
G1 X0.000 Y-1.003 Z0.000 E7.020
G1 X0.000 Y-1.003 Z0.000 E7.020
G1 X0.672 Y-0.679 Z0.000 E6.688
G1 X0.784 Y-0.625 Z0.000 E7.020
G1 X0.784 Y-0.625 Z0.000 E7.020
G1 X0.784 Y-0.625 Z0.000 E7.020
G1 X0.784 Y-0.625 Z0.000 E7.020
G1 X0.784 Y-0.625 Z0.000 E7.020
G1 X0.784 Y-0.625 Z0.000 E7.020
G1 X0.784 Y-0.625 Z0.000 E7.020
G1 X0.784 Y-0.625 Z0.000 E7.020
G1 X0.784 Y-0.625 Z0.000 E7.020
G1 X0.784 Y-0.625 Z0.000 E7.020
G1 X0.784 Y-0.625 Z0.000 E7.020
G1 X0.784 Y-0.625 Z0.000 E7.020
G1 X0.784 Y-0.625 Z0.000 E7.020
G1 X0.784 Y-0.625 Z0.000 E7.020
G1 X0.784 Y-0.625 Z0.000 E7.020
G1 X0.784 Y-0.625 Z0.000 E7.020
G1 X0.784 Y-0.625 Z0.000 E7.020
G1 X0.895 Y-0.140 Z0.000 E6.339
G1 X0.978 Y0.223 Z0.000 E7.020
G1 X0.978 Y0.223 Z0.000 E7.020
G1 X0.978 Y0.223 Z0.000 E7.020
G1 X0.978 Y0.223 Z0.000 E7.020
G1 X0.978 Y0.223 Z0.000 E7.020
G1 X0.978 Y0.223 Z0.000 E7.020
G1 X0.978 Y0.223 Z0.000 E7.020
G1 X0.978 Y0.223 Z0.000 E7.020
G1 X0.978 Y0.223 Z0.000 E7.020
G1 X0.978 Y0.223 Z0.000 E7.020
G1 X0.978 Y0.223 Z0.000 E7.020
G1 X0.978 Y0.223 Z0.000 E7.020
G1 X0.978 Y0.223 Z0.000 E7.020
G1 X0.978 Y0.223 Z0.000 E7.020
G1 X0.978 Y0.223 Z0.000 E7.020
G1 X0.978 Y0.223 Z0.000 E7.020
G1 X0.978 Y0.223 Z0.000 E7.020
G1 X0.823 Y0.418 Z0.000 E6.458
G1 X0.435 Y0.904 Z0.000 E7.020
G1 X0.435 Y0.904 Z0.000 E7.020
G1 X0.435 Y0.904 Z0.000 E7.020
G1 X0.435 Y0.904 Z0.000 E7.020
G1 X0.435 Y0.904 Z0.000 E7.020
G1 X0.435 Y0.904 Z0.000 E7.020
G1 X0.435 Y0.904 Z0.000 E7.020
G1 X0.435 Y0.904 Z0.000 E7.020
G1 X0.435 Y0.904 Z0.000 E7.020
G1 X0.435 Y0.904 Z0.000 E7.020
G1 X0.435 Y0.904 Z0.000 E7.020
G1 X0.435 Y0.904 Z0.000 E7.020
G1 X0.435 Y0.904 Z0.000 E7.020
G1 X0.435 Y0.904 Z0.000 E7.020
G1 X0.435 Y0.904 Z0.000 E7.020
G1 X0.435 Y0.904 Z0.000 E7.020
G1 X0.435 Y0.904 Z0.000 E7.020
G1 X0.435 Y0.904 Z0.000 E7.020
G1 X-3.774 Y-0.000 Z0.000 E26.416
G1 X-0.436 Y0.905 Z0.000 E7.029
G1 X-0.436 Y0.905 Z0.000 E7.029
G1 X-0.436 Y0.905 Z0.000 E7.029
G1 X-0.436 Y0.905 Z0.000 E7.029
G1 X-0.436 Y0.905 Z0.000 E7.029
G1 X-0.436 Y0.905 Z0.000 E7.029
G1 X-0.436 Y0.905 Z0.000 E7.029
G1 X-0.436 Y0.905 Z0.000 E7.029
G1 X-0.436 Y0.905 Z0.000 E7.029
G1 X-0.436 Y0.905 Z0.000 E7.029
G1 X-0.436 Y0.905 Z0.000 E7.029
G1 X-0.436 Y0.905 Z0.000 E7.029
G1 X-0.436 Y0.905 Z0.000 E7.029
G1 X-0.436 Y0.905 Z0.000 E7.029
G1 X-0.436 Y0.905 Z0.000 E7.029
G1 X-0.979 Y0.223 Z0.000 E7.029
G1 X-0.979 Y0.223 Z0.000 E7.029
G1 X-0.979 Y0.223 Z0.000 E7.029
G1 X-0.979 Y0.223 Z0.000 E7.029
G1 X-0.979 Y0.223 Z0.000 E7.029
G1 X-0.979 Y0.223 Z0.000 E7.029
G1 X-0.979 Y0.223 Z0.000 E7.029
G1 X-0.979 Y0.223 Z0.000 E7.029
G1 X-0.979 Y0.223 Z0.000 E7.029
G1 X-0.979 Y0.223 Z0.000 E7.029
G1 X-0.979 Y0.223 Z0.000 E7.029
G1 X-0.979 Y0.223 Z0.000 E7.029
G1 X-0.979 Y0.223 Z0.000 E7.029
G1 X-0.979 Y0.223 Z0.000 E7.029
G1 X-0.979 Y0.223 Z0.000 E7.029
G1 X-0.785 Y-0.626 Z0.000 E7.029
G1 X-0.785 Y-0.626 Z0.000 E7.029
G1 X-0.785 Y-0.626 Z0.000 E7.029
G1 X-0.785 Y-0.626 Z0.000 E7.029
G1 X-0.785 Y-0.626 Z0.000 E7.029
G1 X-0.785 Y-0.626 Z0.000 E7.029
G1 X-0.785 Y-0.626 Z0.000 E7.029
G1 X-0.785 Y-0.626 Z0.000 E7.029
G1 X-0.785 Y-0.626 Z0.000 E7.029
G1 X-0.785 Y-0.626 Z0.000 E7.029
G1 X-0.785 Y-0.626 Z0.000 E7.029
G1 X-0.785 Y-0.626 Z0.000 E7.029
G1 X-0.785 Y-0.626 Z0.000 E7.029
G1 X-0.785 Y-0.626 Z0.000 E7.029
G1 X-0.785 Y-0.626 Z0.000 E7.029
G1 X0.000 Y-1.004 Z0.000 E7.029
G1 X0.000 Y-1.004 Z0.000 E7.029
G1 X0.000 Y-1.004 Z0.000 E7.029
G1 X0.000 Y-1.004 Z0.000 E7.029
G1 X0.000 Y-1.004 Z0.000 E7.029
G1 X-0.000 Y-1.004 Z0.000 E7.029
G1 X0.000 Y-1.004 Z0.000 E7.029
G1 X0.000 Y-1.004 Z0.000 E7.029
G1 X0.000 Y-1.004 Z0.000 E7.029
G1 X0.000 Y-1.004 Z0.000 E7.029
G1 X-0.000 Y-1.004 Z0.000 E7.029
G1 X0.000 Y-1.004 Z0.000 E7.029
G1 X0.000 Y-1.004 Z0.000 E7.029
G1 X0.000 Y-1.004 Z0.000 E7.029
G1 X0.000 Y-1.004 Z0.000 E7.029
G1 X0.785 Y-0.626 Z0.000 E7.029
G1 X0.785 Y-0.626 Z0.000 E7.029
G1 X0.785 Y-0.626 Z0.000 E7.029
G1 X0.785 Y-0.626 Z0.000 E7.029
G1 X0.785 Y-0.626 Z0.000 E7.029
G1 X0.785 Y-0.626 Z0.000 E7.029
G1 X0.785 Y-0.626 Z0.000 E7.029
G1 X0.785 Y-0.626 Z0.000 E7.029
G1 X0.785 Y-0.626 Z0.000 E7.029
G1 X0.785 Y-0.626 Z0.000 E7.029
G1 X0.785 Y-0.626 Z0.000 E7.029
G1 X0.785 Y-0.626 Z0.000 E7.029
G1 X0.785 Y-0.626 Z0.000 E7.029
G1 X0.785 Y-0.626 Z0.000 E7.029
G1 X0.785 Y-0.626 Z0.000 E7.029
G1 X0.979 Y0.223 Z0.000 E7.029
G1 X0.979 Y0.223 Z0.000 E7.029
G1 X0.979 Y0.223 Z0.000 E7.029
G1 X0.979 Y0.223 Z0.000 E7.029
G1 X0.979 Y0.223 Z0.000 E7.029
G1 X0.979 Y0.223 Z0.000 E7.029
G1 X0.979 Y0.223 Z0.000 E7.029
G1 X0.979 Y0.223 Z0.000 E7.029
G1 X0.979 Y0.223 Z0.000 E7.029
G1 X0.979 Y0.223 Z0.000 E7.029
G1 X0.979 Y0.223 Z0.000 E7.029
G1 X0.979 Y0.223 Z0.000 E7.029
G1 X0.979 Y0.223 Z0.000 E7.029
G1 X0.979 Y0.223 Z0.000 E7.029
G1 X0.979 Y0.223 Z0.000 E7.029
G1 X0.436 Y0.905 Z0.000 E7.029
G1 X0.436 Y0.905 Z0.000 E7.029
G1 X0.436 Y0.905 Z0.000 E7.029
G1 X0.436 Y0.905 Z0.000 E7.029
G1 X0.436 Y0.905 Z0.000 E7.029
G1 X0.436 Y0.905 Z0.000 E7.029
G1 X0.436 Y0.905 Z0.000 E7.029
G1 X0.436 Y0.905 Z0.000 E7.029
G1 X0.436 Y0.905 Z0.000 E7.029
G1 X0.436 Y0.905 Z0.000 E7.029
G1 X0.436 Y0.905 Z0.000 E7.029
G1 X0.436 Y0.905 Z0.000 E7.029
G1 X0.436 Y0.905 Z0.000 E7.029
G1 X0.436 Y0.905 Z0.000 E7.029
G1 X0.436 Y0.905 Z0.000 E7.029
G1 X-3.774 Y0.000 Z0.000 E26.416
G1 X-0.431 Y0.896 Z0.000 E6.959
G1 X-0.431 Y0.896 Z0.000 E6.959
G1 X-0.431 Y0.896 Z0.000 E6.959
G1 X-0.431 Y0.896 Z0.000 E6.959
G1 X-0.431 Y0.896 Z0.000 E6.959
G1 X-0.431 Y0.896 Z0.000 E6.959
G1 X-0.431 Y0.896 Z0.000 E6.959
G1 X-0.431 Y0.896 Z0.000 E6.959
G1 X-0.431 Y0.896 Z0.000 E6.959
G1 X-0.431 Y0.896 Z0.000 E6.959
G1 X-0.431 Y0.896 Z0.000 E6.959
G1 X-0.508 Y0.799 Z0.000 E6.630
G1 X-0.969 Y0.221 Z0.000 E6.959
G1 X-0.969 Y0.221 Z0.000 E6.959
G1 X-0.969 Y0.221 Z0.000 E6.959
G1 X-0.969 Y0.221 Z0.000 E6.959
G1 X-0.969 Y0.221 Z0.000 E6.959
G1 X-0.969 Y0.221 Z0.000 E6.959
G1 X-0.969 Y0.221 Z0.000 E6.959
G1 X-0.969 Y0.221 Z0.000 E6.959
G1 X-0.969 Y0.221 Z0.000 E6.959
G1 X-0.969 Y0.221 Z0.000 E6.959
G1 X-0.969 Y0.221 Z0.000 E6.959
G1 X-0.914 Y-0.019 Z0.000 E6.402
G1 X-0.777 Y-0.620 Z0.000 E6.959
G1 X-0.777 Y-0.620 Z0.000 E6.959
G1 X-0.777 Y-0.620 Z0.000 E6.959
G1 X-0.777 Y-0.620 Z0.000 E6.959
G1 X-0.777 Y-0.620 Z0.000 E6.959
G1 X-0.777 Y-0.620 Z0.000 E6.959
G1 X-0.777 Y-0.620 Z0.000 E6.959
G1 X-0.777 Y-0.620 Z0.000 E6.959
G1 X-0.777 Y-0.620 Z0.000 E6.959
G1 X-0.777 Y-0.620 Z0.000 E6.959
G1 X-0.777 Y-0.620 Z0.000 E6.959
G1 X-0.444 Y-0.780 Z0.000 E6.285
G1 X0.000 Y-0.994 Z0.000 E6.959
G1 X-0.000 Y-0.994 Z0.000 E6.959
G1 X0.000 Y-0.994 Z0.000 E6.959
G1 X0.000 Y-0.994 Z0.000 E6.959
G1 X0.000 Y-0.994 Z0.000 E6.959
G1 X0.000 Y-0.994 Z0.000 E6.959
G1 X0.000 Y-0.994 Z0.000 E6.959
G1 X0.000 Y-0.994 Z0.000 E6.959
G1 X0.000 Y-0.994 Z0.000 E6.959
G1 X0.000 Y-0.994 Z0.000 E6.959
G1 X0.000 Y-0.994 Z0.000 E6.959
G1 X0.444 Y-0.780 Z0.000 E6.285
G1 X0.777 Y-0.620 Z0.000 E6.959
G1 X0.777 Y-0.620 Z0.000 E6.959
G1 X0.777 Y-0.620 Z0.000 E6.959
G1 X0.777 Y-0.620 Z0.000 E6.959
G1 X0.777 Y-0.620 Z0.000 E6.959
G1 X0.777 Y-0.620 Z0.000 E6.959
G1 X0.777 Y-0.620 Z0.000 E6.959
G1 X0.777 Y-0.620 Z0.000 E6.959
G1 X0.777 Y-0.620 Z0.000 E6.959
G1 X0.777 Y-0.620 Z0.000 E6.959
G1 X0.777 Y-0.620 Z0.000 E6.959
G1 X0.914 Y-0.019 Z0.000 E6.402
G1 X0.969 Y0.221 Z0.000 E6.959
G1 X0.969 Y0.221 Z0.000 E6.959
G1 X0.969 Y0.221 Z0.000 E6.959
G1 X0.969 Y0.221 Z0.000 E6.959
G1 X0.969 Y0.221 Z0.000 E6.959
G1 X0.969 Y0.221 Z0.000 E6.959
G1 X0.969 Y0.221 Z0.000 E6.959
G1 X0.969 Y0.221 Z0.000 E6.959
G1 X0.969 Y0.221 Z0.000 E6.959
G1 X0.969 Y0.221 Z0.000 E6.959
G1 X0.969 Y0.221 Z0.000 E6.959
G1 X0.508 Y0.799 Z0.000 E6.630
G1 X0.431 Y0.896 Z0.000 E6.959
G1 X0.431 Y0.896 Z0.000 E6.959
G1 X0.431 Y0.896 Z0.000 E6.959
G1 X0.431 Y0.896 Z0.000 E6.959
G1 X0.431 Y0.896 Z0.000 E6.959
G1 X0.431 Y0.896 Z0.000 E6.959
G1 X0.431 Y0.896 Z0.000 E6.959
G1 X0.431 Y0.896 Z0.000 E6.959
G1 X0.431 Y0.896 Z0.000 E6.959
G1 X0.431 Y0.896 Z0.000 E6.959
G1 X0.431 Y0.896 Z0.000 E6.959
G1 X-3.774 Y-0.000 Z0.000 E26.416
G1 X-0.431 Y0.895 Z0.000 E6.952
G1 X-0.431 Y0.895 Z0.000 E6.952
G1 X-0.431 Y0.895 Z0.000 E6.952
G1 X-0.431 Y0.895 Z0.000 E6.952
G1 X-0.431 Y0.895 Z0.000 E6.952
G1 X-0.431 Y0.895 Z0.000 E6.952
G1 X-0.431 Y0.895 Z0.000 E6.952
G1 X-0.431 Y0.895 Z0.000 E6.952
G1 X-0.661 Y0.606 Z0.000 E6.279
G1 X-0.968 Y0.221 Z0.000 E6.952
G1 X-0.968 Y0.221 Z0.000 E6.952
G1 X-0.968 Y0.221 Z0.000 E6.952
G1 X-0.968 Y0.221 Z0.000 E6.952
G1 X-0.968 Y0.221 Z0.000 E6.952
G1 X-0.968 Y0.221 Z0.000 E6.952
G1 X-0.968 Y0.221 Z0.000 E6.952
G1 X-0.968 Y0.221 Z0.000 E6.952
G1 X-0.804 Y-0.499 Z0.000 E6.624
G1 X-0.777 Y-0.619 Z0.000 E6.952
G1 X-0.777 Y-0.619 Z0.000 E6.952
G1 X-0.777 Y-0.619 Z0.000 E6.952
G1 X-0.777 Y-0.619 Z0.000 E6.952
G1 X-0.777 Y-0.619 Z0.000 E6.952
G1 X-0.777 Y-0.619 Z0.000 E6.952
G1 X-0.777 Y-0.619 Z0.000 E6.952
G1 X-0.555 Y-0.726 Z0.000 E6.396
G1 X0.000 Y-0.993 Z0.000 E6.952
G1 X0.000 Y-0.993 Z0.000 E6.952
G1 X0.000 Y-0.993 Z0.000 E6.952
G1 X0.000 Y-0.993 Z0.000 E6.952
G1 X0.000 Y-0.993 Z0.000 E6.952
G1 X0.000 Y-0.993 Z0.000 E6.952
G1 X0.000 Y-0.993 Z0.000 E6.952
G1 X0.000 Y-0.993 Z0.000 E6.952
G1 X0.555 Y-0.726 Z0.000 E6.396
G1 X0.777 Y-0.619 Z0.000 E6.952
G1 X0.777 Y-0.619 Z0.000 E6.952
G1 X0.777 Y-0.619 Z0.000 E6.952
G1 X0.777 Y-0.619 Z0.000 E6.952
G1 X0.777 Y-0.619 Z0.000 E6.952
G1 X0.777 Y-0.619 Z0.000 E6.952
G1 X0.777 Y-0.619 Z0.000 E6.952
G1 X0.804 Y-0.499 Z0.000 E6.624
G1 X0.968 Y0.221 Z0.000 E6.952
G1 X0.968 Y0.221 Z0.000 E6.952
G1 X0.968 Y0.221 Z0.000 E6.952
G1 X0.968 Y0.221 Z0.000 E6.952
G1 X0.968 Y0.221 Z0.000 E6.952
G1 X0.968 Y0.221 Z0.000 E6.952
G1 X0.968 Y0.221 Z0.000 E6.952
G1 X0.968 Y0.221 Z0.000 E6.952
G1 X0.661 Y0.606 Z0.000 E6.279
G1 X0.431 Y0.895 Z0.000 E6.952
G1 X0.431 Y0.895 Z0.000 E6.952
G1 X0.431 Y0.895 Z0.000 E6.952
G1 X0.431 Y0.895 Z0.000 E6.952
G1 X0.431 Y0.895 Z0.000 E6.952
G1 X0.431 Y0.895 Z0.000 E6.952
G1 X0.431 Y0.895 Z0.000 E6.952
G1 X0.431 Y0.895 Z0.000 E6.952
G1 X-3.774 Y-0.000 Z0.000 E26.416
G1 X-0.430 Y0.893 Z0.000 E6.937
G1 X-0.430 Y0.893 Z0.000 E6.937
G1 X-0.430 Y0.893 Z0.000 E6.937
G1 X-0.430 Y0.893 Z0.000 E6.937
G1 X-0.430 Y0.893 Z0.000 E6.937
G1 X-0.813 Y0.413 Z0.000 E6.382
G1 X-0.966 Y0.221 Z0.000 E6.937
G1 X-0.966 Y0.221 Z0.000 E6.937
G1 X-0.966 Y0.221 Z0.000 E6.937
G1 X-0.966 Y0.221 Z0.000 E6.937
G1 X-0.884 Y-0.139 Z0.000 E6.265
G1 X-0.775 Y-0.618 Z0.000 E6.937
G1 X-0.775 Y-0.618 Z0.000 E6.937
G1 X-0.775 Y-0.618 Z0.000 E6.937
G1 X-0.775 Y-0.618 Z0.000 E6.937
G1 X-0.664 Y-0.671 Z0.000 E6.610
G1 X0.000 Y-0.991 Z0.000 E6.937
G1 X0.000 Y-0.991 Z0.000 E6.937
G1 X0.000 Y-0.991 Z0.000 E6.937
G1 X0.000 Y-0.991 Z0.000 E6.937
G1 X0.000 Y-0.991 Z0.000 E6.937
G1 X0.664 Y-0.671 Z0.000 E6.610
G1 X0.775 Y-0.618 Z0.000 E6.937
G1 X0.775 Y-0.618 Z0.000 E6.937
G1 X0.775 Y-0.618 Z0.000 E6.937
G1 X0.775 Y-0.618 Z0.000 E6.937
G1 X0.884 Y-0.139 Z0.000 E6.265
G1 X0.966 Y0.221 Z0.000 E6.937
G1 X0.966 Y0.221 Z0.000 E6.937
G1 X0.966 Y0.221 Z0.000 E6.937
G1 X0.966 Y0.221 Z0.000 E6.937
G1 X0.813 Y0.413 Z0.000 E6.382
G1 X0.430 Y0.893 Z0.000 E6.937
G1 X0.430 Y0.893 Z0.000 E6.937
G1 X0.430 Y0.893 Z0.000 E6.937
G1 X0.430 Y0.893 Z0.000 E6.937
G1 X0.430 Y0.893 Z0.000 E6.937
G1 X-3.774 Y0.000 Z0.000 E26.416
G1 X-0.426 Y0.885 Z0.000 E6.873
G1 X-0.426 Y0.885 Z0.000 E6.873
G1 X-0.957 Y0.218 Z0.000 E6.873
G1 X-0.957 Y0.218 Z0.000 E6.873
G1 X-0.768 Y-0.612 Z0.000 E6.873
G1 X-0.768 Y-0.612 Z0.000 E6.873
G1 X0.000 Y-0.982 Z0.000 E6.873
G1 X0.000 Y-0.982 Z0.000 E6.873
G1 X0.768 Y-0.612 Z0.000 E6.873
G1 X0.768 Y-0.612 Z0.000 E6.873
G1 X0.957 Y0.218 Z0.000 E6.873
G1 X0.957 Y0.218 Z0.000 E6.873
G1 X0.426 Y0.885 Z0.000 E6.873
G1 X0.426 Y0.885 Z0.000 E6.873
G1 X-3.205 Y-1.181 Z0.000 E23.909
G1 X-0.386 Y0.801 Z0.000 E6.225
G1 X-0.214 Y0.586 Z0.000 E4.367
G1 X0.695 Y-0.554 Z0.000 E6.225
G1 X0.695 Y-0.554 Z0.000 E6.225
G1 X0.695 Y-0.554 Z0.000 E6.225
G1 X-0.619 Y0.078 Z0.000 E4.367
G1 X-0.867 Y0.198 Z0.000 E6.225
G1 X-7.208 Y-36.552 Z2.200 E261.250
G1 X0.979 Y0.235 Z-0.000 E7.045
G1 X0.979 Y0.235 Z0.000 E7.045
G1 X0.979 Y0.235 Z0.000 E7.045
G1 X0.979 Y0.235 Z0.000 E7.045
G1 X0.979 Y0.235 Z0.000 E7.045
G1 X0.979 Y0.235 Z0.000 E7.045
G1 X0.979 Y0.235 Z0.000 E7.045
G1 X0.979 Y0.235 Z0.000 E7.045
G1 X0.979 Y0.235 Z0.000 E7.045
G1 X0.979 Y0.235 Z0.000 E7.045
G1 X0.979 Y0.235 Z0.000 E7.045
G1 X0.979 Y0.235 Z0.000 E7.045
G1 X0.979 Y0.235 Z0.000 E7.045
G1 X0.979 Y0.235 Z0.000 E7.045
G1 X0.979 Y0.235 Z0.000 E7.045
G1 X0.979 Y0.235 Z0.000 E7.045
G1 X0.979 Y0.235 Z0.000 E7.045
G1 X0.979 Y0.235 Z0.000 E7.045
G1 X0.979 Y0.235 Z0.000 E7.045
G1 X0.979 Y0.235 Z0.000 E7.045
G1 X0.979 Y0.235 Z0.000 E7.045
G1 X0.979 Y0.235 Z0.000 E7.045
G1 X0.979 Y0.235 Z0.000 E7.045
G1 X0.979 Y0.235 Z0.000 E7.045
G1 X0.979 Y0.235 Z0.000 E7.045
G1 X0.979 Y0.235 Z0.000 E7.045
G1 X0.979 Y0.235 Z0.000 E7.045
G1 X0.979 Y0.235 Z0.000 E7.045
G1 X0.979 Y0.235 Z0.000 E7.045
G1 X0.979 Y0.235 Z0.000 E7.045
G1 X0.979 Y0.235 Z0.000 E7.045
G1 X0.979 Y0.235 Z0.000 E7.045
G1 X0.979 Y0.235 Z0.000 E7.045
G1 X0.584 Y0.719 Z0.000 E6.481
G1 X0.426 Y0.912 Z0.000 E7.045
G1 X0.426 Y0.912 Z0.000 E7.045
G1 X0.426 Y0.912 Z0.000 E7.045
G1 X0.426 Y0.912 Z0.000 E7.045
G1 X0.426 Y0.912 Z0.000 E7.045
G1 X0.426 Y0.912 Z-0.000 E7.045
G1 X0.426 Y0.912 Z0.000 E7.045
G1 X0.426 Y0.912 Z-0.000 E7.045
G1 X0.426 Y0.912 Z0.000 E7.045
G1 X0.426 Y0.912 Z-0.000 E7.045
G1 X0.426 Y0.912 Z0.000 E7.045
G1 X0.426 Y0.912 Z0.000 E7.045
G1 X0.426 Y0.912 Z0.000 E7.045
G1 X0.426 Y0.912 Z0.000 E7.045
G1 X0.426 Y0.912 Z0.000 E7.045
G1 X0.426 Y0.912 Z-0.000 E7.045
G1 X0.426 Y0.912 Z0.000 E7.045
G1 X0.426 Y0.912 Z-0.000 E7.045
G1 X0.426 Y0.912 Z0.000 E7.045
G1 X0.426 Y0.912 Z0.000 E7.045
G1 X0.426 Y0.912 Z0.000 E7.045
G1 X0.426 Y0.912 Z0.000 E7.045
G1 X0.426 Y0.912 Z0.000 E7.045
G1 X0.426 Y0.912 Z0.000 E7.045
G1 X0.426 Y0.912 Z0.000 E7.045
G1 X0.426 Y0.912 Z-0.000 E7.045
G1 X0.426 Y0.912 Z0.000 E7.045
G1 X0.426 Y0.912 Z0.000 E7.045
G1 X0.426 Y0.912 Z0.000 E7.045
G1 X0.426 Y0.912 Z0.000 E7.045
G1 X0.426 Y0.912 Z0.000 E7.045
G1 X0.426 Y0.912 Z0.000 E7.045
G1 X0.052 Y0.907 Z0.000 E6.362
G1 X-0.447 Y0.902 Z0.000 E7.045
G1 X-0.447 Y0.902 Z0.000 E7.045
G1 X-0.447 Y0.902 Z0.000 E7.045
G1 X-0.447 Y0.902 Z0.000 E7.045
G1 X-0.447 Y0.902 Z0.000 E7.045
G1 X-0.447 Y0.902 Z0.000 E7.045
G1 X-0.447 Y0.902 Z0.000 E7.045
G1 X-0.447 Y0.902 Z0.000 E7.045
G1 X-0.447 Y0.902 Z-0.000 E7.045
G1 X-0.447 Y0.902 Z0.000 E7.045
G1 X-0.447 Y0.902 Z-0.000 E7.045
G1 X-0.447 Y0.902 Z0.000 E7.045
G1 X-0.447 Y0.902 Z-0.000 E7.045
G1 X-0.447 Y0.902 Z0.000 E7.045
G1 X-0.447 Y0.902 Z0.000 E7.045
G1 X-0.447 Y0.902 Z-0.000 E7.045
G1 X-0.447 Y0.902 Z0.000 E7.045
G1 X-0.447 Y0.902 Z0.000 E7.045
G1 X-0.447 Y0.902 Z0.000 E7.045
G1 X-0.447 Y0.902 Z0.000 E7.045
G1 X-0.447 Y0.902 Z0.000 E7.045
G1 X-0.447 Y0.902 Z0.000 E7.045
G1 X-0.447 Y0.902 Z0.000 E7.045
G1 X-0.447 Y0.902 Z0.000 E7.045
G1 X-0.447 Y0.902 Z0.000 E7.045
G1 X-0.447 Y0.902 Z0.000 E7.045
G1 X-0.447 Y0.902 Z0.000 E7.045
G1 X-0.447 Y0.902 Z0.000 E7.045
G1 X-0.447 Y0.902 Z0.000 E7.045
G1 X-0.447 Y0.902 Z0.000 E7.045
G1 X-0.447 Y0.902 Z0.000 E7.045
G1 X-0.447 Y0.902 Z0.000 E7.045
G1 X-0.524 Y0.803 Z0.000 E6.712
G1 X-0.984 Y0.212 Z0.000 E7.045
G1 X-0.984 Y0.212 Z0.000 E7.045
G1 X-0.984 Y0.212 Z0.000 E7.045
G1 X-0.984 Y0.212 Z0.000 E7.045
G1 X-0.984 Y0.212 Z0.000 E7.045
G1 X-0.984 Y0.212 Z0.000 E7.045
G1 X-0.984 Y0.212 Z0.000 E7.045
G1 X-0.984 Y0.212 Z0.000 E7.045
G1 X-0.984 Y0.212 Z0.000 E7.045
G1 X-0.984 Y0.212 Z0.000 E7.045
G1 X-0.984 Y0.212 Z0.000 E7.045
G1 X-0.984 Y0.212 Z0.000 E7.045
G1 X-0.984 Y0.212 Z0.000 E7.045
G1 X-0.984 Y0.212 Z0.000 E7.045
G1 X-0.984 Y0.212 Z0.000 E7.045
G1 X-0.984 Y0.212 Z0.000 E7.045
G1 X-0.984 Y0.212 Z0.000 E7.045
G1 X-0.984 Y0.212 Z0.000 E7.045
G1 X-0.984 Y0.212 Z0.000 E7.045
G1 X-0.984 Y0.212 Z0.000 E7.045
G1 X-0.984 Y0.212 Z0.000 E7.045
G1 X-0.984 Y0.212 Z0.000 E7.045
G1 X-0.984 Y0.212 Z0.000 E7.045
G1 X-0.984 Y0.212 Z0.000 E7.045
G1 X-0.984 Y0.212 Z0.000 E7.045
G1 X-0.984 Y0.212 Z0.000 E7.045
G1 X-0.984 Y0.212 Z0.000 E7.045
G1 X-0.984 Y0.212 Z0.000 E7.045
G1 X-0.984 Y0.212 Z0.000 E7.045
G1 X-0.984 Y0.212 Z0.000 E7.045
G1 X-0.984 Y0.212 Z0.000 E7.045
G1 X-0.984 Y0.212 Z0.000 E7.045
G1 X-0.984 Y0.212 Z0.000 E7.045
G1 X-0.809 Y-0.515 Z0.000 E6.712
G1 X-0.779 Y-0.637 Z0.000 E7.045
G1 X-0.779 Y-0.637 Z0.000 E7.045
G1 X-0.779 Y-0.637 Z-0.000 E7.045
G1 X-0.779 Y-0.637 Z0.000 E7.045
G1 X-0.779 Y-0.637 Z0.000 E7.045
G1 X-0.779 Y-0.637 Z0.000 E7.045
G1 X-0.779 Y-0.637 Z0.000 E7.045
G1 X-0.779 Y-0.637 Z0.000 E7.045
G1 X-0.779 Y-0.637 Z0.000 E7.045
G1 X-0.779 Y-0.637 Z0.000 E7.045
G1 X-0.779 Y-0.637 Z0.000 E7.045
G1 X-0.779 Y-0.637 Z0.000 E7.045
G1 X-0.779 Y-0.637 Z0.000 E7.045
G1 X-0.779 Y-0.637 Z0.000 E7.045
G1 X-0.779 Y-0.637 Z0.000 E7.045
G1 X-0.779 Y-0.637 Z0.000 E7.045
G1 X-0.779 Y-0.637 Z0.000 E7.045
G1 X-0.779 Y-0.637 Z0.000 E7.045
G1 X-0.779 Y-0.637 Z0.000 E7.045
G1 X-0.779 Y-0.637 Z0.000 E7.045
G1 X-0.779 Y-0.637 Z0.000 E7.045
G1 X-0.779 Y-0.637 Z0.000 E7.045
G1 X-0.779 Y-0.637 Z0.000 E7.045
G1 X-0.779 Y-0.637 Z0.000 E7.045
G1 X-0.779 Y-0.637 Z0.000 E7.045
G1 X-0.779 Y-0.637 Z0.000 E7.045
G1 X-0.779 Y-0.637 Z0.000 E7.045
G1 X-0.779 Y-0.637 Z0.000 E7.045
G1 X-0.779 Y-0.637 Z0.000 E7.045
G1 X-0.779 Y-0.637 Z0.000 E7.045
G1 X-0.779 Y-0.637 Z0.000 E7.045
G1 X-0.779 Y-0.637 Z0.000 E7.045
G1 X-0.327 Y-0.848 Z0.000 E6.362
G1 X0.012 Y-1.006 Z0.000 E7.045
G1 X0.012 Y-1.006 Z0.000 E7.045
G1 X0.012 Y-1.006 Z0.000 E7.045
G1 X0.012 Y-1.006 Z0.000 E7.045
G1 X0.012 Y-1.006 Z0.000 E7.045
G1 X0.012 Y-1.006 Z0.000 E7.045
G1 X0.012 Y-1.006 Z0.000 E7.045
G1 X0.012 Y-1.006 Z0.000 E7.045
G1 X0.012 Y-1.006 Z0.000 E7.045
G1 X0.012 Y-1.006 Z0.000 E7.045
G1 X0.012 Y-1.006 Z0.000 E7.045
G1 X0.012 Y-1.006 Z0.000 E7.045
G1 X0.012 Y-1.006 Z0.000 E7.045
G1 X0.012 Y-1.006 Z0.000 E7.045
G1 X0.012 Y-1.006 Z0.000 E7.045
G1 X0.012 Y-1.006 Z0.000 E7.045
G1 X0.012 Y-1.006 Z0.000 E7.045
G1 X0.012 Y-1.006 Z0.000 E7.045
G1 X0.012 Y-1.006 Z0.000 E7.045
G1 X0.012 Y-1.006 Z0.000 E7.045
G1 X0.012 Y-1.006 Z0.000 E7.045
G1 X0.012 Y-1.006 Z0.000 E7.045
G1 X0.012 Y-1.006 Z0.000 E7.045
G1 X0.012 Y-1.006 Z0.000 E7.045
G1 X0.012 Y-1.006 Z0.000 E7.045
G1 X0.012 Y-1.006 Z0.000 E7.045
G1 X0.012 Y-1.006 Z0.000 E7.045
G1 X0.012 Y-1.006 Z0.000 E7.045
G1 X0.012 Y-1.006 Z0.000 E7.045
G1 X0.012 Y-1.006 Z0.000 E7.045
G1 X0.012 Y-1.006 Z0.000 E7.045
G1 X0.012 Y-1.006 Z0.000 E7.045
G1 X0.235 Y-0.895 Z0.000 E6.481
G1 X0.794 Y-0.618 Z0.000 E7.045
G1 X0.794 Y-0.618 Z0.000 E7.045
G1 X0.794 Y-0.618 Z-0.000 E7.045
G1 X0.794 Y-0.618 Z0.000 E7.045
G1 X0.794 Y-0.618 Z0.000 E7.045
G1 X0.794 Y-0.618 Z0.000 E7.045
G1 X0.794 Y-0.618 Z0.000 E7.045
G1 X0.794 Y-0.618 Z0.000 E7.045
G1 X0.794 Y-0.618 Z0.000 E7.045
G1 X0.794 Y-0.618 Z0.000 E7.045
G1 X0.794 Y-0.618 Z0.000 E7.045
G1 X0.794 Y-0.618 Z0.000 E7.045
G1 X0.794 Y-0.618 Z0.000 E7.045
G1 X0.794 Y-0.618 Z0.000 E7.045
G1 X0.794 Y-0.618 Z0.000 E7.045
G1 X0.794 Y-0.618 Z0.000 E7.045
G1 X0.794 Y-0.618 Z0.000 E7.045
G1 X0.794 Y-0.618 Z0.000 E7.045
G1 X0.794 Y-0.618 Z0.000 E7.045
G1 X0.794 Y-0.618 Z0.000 E7.045
G1 X0.794 Y-0.618 Z0.000 E7.045
G1 X0.794 Y-0.618 Z0.000 E7.045
G1 X0.794 Y-0.618 Z0.000 E7.045
G1 X0.794 Y-0.618 Z0.000 E7.045
G1 X0.794 Y-0.618 Z0.000 E7.045
G1 X0.794 Y-0.618 Z0.000 E7.045
G1 X0.794 Y-0.618 Z0.000 E7.045
G1 X0.794 Y-0.618 Z0.000 E7.045
G1 X0.794 Y-0.618 Z0.000 E7.045
G1 X0.794 Y-0.618 Z0.000 E7.045
G1 X0.794 Y-0.618 Z0.000 E7.045
G1 X0.794 Y-0.618 Z0.000 E7.045
G1 X0.794 Y-0.618 Z0.000 E7.045
G1 X0.797 Y3.689 Z0.000 E26.416
G1 X0.975 Y0.235 Z0.000 E7.019
G1 X0.975 Y0.235 Z0.000 E7.019
G1 X0.975 Y0.235 Z0.000 E7.019
G1 X0.975 Y0.235 Z0.000 E7.019
G1 X0.975 Y0.235 Z0.000 E7.019
G1 X0.975 Y0.235 Z0.000 E7.019
G1 X0.975 Y0.235 Z0.000 E7.019
G1 X0.975 Y0.235 Z0.000 E7.019
G1 X0.975 Y0.235 Z0.000 E7.019
G1 X0.975 Y0.235 Z0.000 E7.019
G1 X0.975 Y0.235 Z0.000 E7.019
G1 X0.975 Y0.235 Z0.000 E7.019
G1 X0.975 Y0.235 Z0.000 E7.019
G1 X0.975 Y0.235 Z0.000 E7.019
G1 X0.975 Y0.235 Z0.000 E7.019
G1 X0.975 Y0.235 Z0.000 E7.019
G1 X0.975 Y0.235 Z0.000 E7.019
G1 X0.975 Y0.235 Z0.000 E7.019
G1 X0.975 Y0.235 Z0.000 E7.019
G1 X0.975 Y0.235 Z0.000 E7.019
G1 X0.975 Y0.235 Z0.000 E7.019
G1 X0.975 Y0.235 Z0.000 E7.019
G1 X0.975 Y0.235 Z0.000 E7.019
G1 X0.975 Y0.235 Z0.000 E7.019
G1 X0.975 Y0.235 Z0.000 E7.019
G1 X0.975 Y0.235 Z0.000 E7.019
G1 X0.975 Y0.235 Z0.000 E7.019
G1 X0.975 Y0.235 Z0.000 E7.019
G1 X0.975 Y0.235 Z0.000 E7.019
G1 X0.975 Y0.235 Z0.000 E7.019
G1 X0.503 Y0.812 Z0.000 E6.688
G1 X0.424 Y0.908 Z0.000 E7.019
G1 X0.424 Y0.908 Z0.000 E7.019
G1 X0.424 Y0.908 Z0.000 E7.019
G1 X0.424 Y0.908 Z0.000 E7.019
G1 X0.424 Y0.908 Z0.000 E7.019
G1 X0.424 Y0.908 Z0.000 E7.019
G1 X0.424 Y0.908 Z0.000 E7.019
G1 X0.424 Y0.908 Z0.000 E7.019
G1 X0.424 Y0.908 Z0.000 E7.019
G1 X0.424 Y0.908 Z0.000 E7.019
G1 X0.424 Y0.908 Z0.000 E7.019
G1 X0.424 Y0.908 Z0.000 E7.019
G1 X0.424 Y0.908 Z0.000 E7.019
G1 X0.424 Y0.908 Z0.000 E7.019
G1 X0.424 Y0.908 Z0.000 E7.019
G1 X0.424 Y0.908 Z0.000 E7.019
G1 X0.424 Y0.908 Z0.000 E7.019
G1 X0.424 Y0.908 Z0.000 E7.019
G1 X0.424 Y0.908 Z0.000 E7.019
G1 X0.424 Y0.908 Z0.000 E7.019
G1 X0.424 Y0.908 Z0.000 E7.019
G1 X0.424 Y0.908 Z0.000 E7.019
G1 X0.424 Y0.908 Z0.000 E7.019
G1 X0.424 Y0.908 Z0.000 E7.019
G1 X0.424 Y0.908 Z0.000 E7.019
G1 X0.424 Y0.908 Z0.000 E7.019
G1 X0.424 Y0.908 Z0.000 E7.019
G1 X0.424 Y0.908 Z0.000 E7.019
G1 X0.424 Y0.908 Z0.000 E7.019
G1 X-0.197 Y0.901 Z0.000 E6.457
G1 X-0.446 Y0.898 Z0.000 E7.019
G1 X-0.446 Y0.898 Z0.000 E7.019
G1 X-0.446 Y0.898 Z0.000 E7.019
G1 X-0.446 Y0.898 Z0.000 E7.019
G1 X-0.446 Y0.898 Z0.000 E7.019
G1 X-0.446 Y0.898 Z0.000 E7.019
G1 X-0.446 Y0.898 Z0.000 E7.019
G1 X-0.446 Y0.898 Z0.000 E7.019
G1 X-0.446 Y0.898 Z0.000 E7.019
G1 X-0.446 Y0.898 Z0.000 E7.019
G1 X-0.446 Y0.898 Z0.000 E7.019
G1 X-0.446 Y0.898 Z0.000 E7.019
G1 X-0.446 Y0.898 Z0.000 E7.019
G1 X-0.446 Y0.898 Z0.000 E7.019
G1 X-0.446 Y0.898 Z0.000 E7.019
G1 X-0.446 Y0.898 Z0.000 E7.019
G1 X-0.446 Y0.898 Z0.000 E7.019
G1 X-0.446 Y0.898 Z0.000 E7.019
G1 X-0.446 Y0.898 Z0.000 E7.019
G1 X-0.446 Y0.898 Z0.000 E7.019
G1 X-0.446 Y0.898 Z0.000 E7.019
G1 X-0.446 Y0.898 Z0.000 E7.019
G1 X-0.446 Y0.898 Z0.000 E7.019
G1 X-0.446 Y0.898 Z0.000 E7.019
G1 X-0.446 Y0.898 Z0.000 E7.019
G1 X-0.446 Y0.898 Z0.000 E7.019
G1 X-0.446 Y0.898 Z0.000 E7.019
G1 X-0.446 Y0.898 Z0.000 E7.019
G1 X-0.446 Y0.898 Z0.000 E7.019
G1 X-0.751 Y0.506 Z0.000 E6.339
G1 X-0.980 Y0.212 Z-0.000 E7.019
G1 X-0.980 Y0.212 Z0.000 E7.019
G1 X-0.980 Y0.212 Z0.000 E7.019
G1 X-0.980 Y0.212 Z0.000 E7.019
G1 X-0.980 Y0.212 Z0.000 E7.019
G1 X-0.980 Y0.212 Z0.000 E7.019
G1 X-0.980 Y0.212 Z0.000 E7.019
G1 X-0.980 Y0.212 Z0.000 E7.019
G1 X-0.980 Y0.212 Z0.000 E7.019
G1 X-0.980 Y0.212 Z0.000 E7.019
G1 X-0.980 Y0.212 Z0.000 E7.019
G1 X-0.980 Y0.212 Z0.000 E7.019
G1 X-0.980 Y0.212 Z0.000 E7.019
G1 X-0.980 Y0.212 Z0.000 E7.019
G1 X-0.980 Y0.212 Z0.000 E7.019
G1 X-0.980 Y0.212 Z0.000 E7.019
G1 X-0.980 Y0.212 Z0.000 E7.019
G1 X-0.980 Y0.212 Z0.000 E7.019
G1 X-0.980 Y0.212 Z0.000 E7.019
G1 X-0.980 Y0.212 Z0.000 E7.019
G1 X-0.980 Y0.212 Z0.000 E7.019
G1 X-0.980 Y0.212 Z0.000 E7.019
G1 X-0.980 Y0.212 Z0.000 E7.019
G1 X-0.980 Y0.212 Z0.000 E7.019
G1 X-0.980 Y0.212 Z0.000 E7.019
G1 X-0.980 Y0.212 Z0.000 E7.019
G1 X-0.980 Y0.212 Z0.000 E7.019
G1 X-0.980 Y0.212 Z0.000 E7.019
G1 X-0.980 Y0.212 Z0.000 E7.019
G1 X-0.893 Y-0.151 Z0.000 E6.339
G1 X-0.777 Y-0.634 Z0.000 E7.019
G1 X-0.777 Y-0.634 Z0.000 E7.019
G1 X-0.777 Y-0.634 Z0.000 E7.019
G1 X-0.777 Y-0.634 Z0.000 E7.019
G1 X-0.777 Y-0.634 Z0.000 E7.019
G1 X-0.777 Y-0.634 Z0.000 E7.019
G1 X-0.777 Y-0.634 Z0.000 E7.019
G1 X-0.777 Y-0.634 Z0.000 E7.019
G1 X-0.777 Y-0.634 Z0.000 E7.019
G1 X-0.777 Y-0.634 Z0.000 E7.019
G1 X-0.777 Y-0.634 Z0.000 E7.019
G1 X-0.777 Y-0.634 Z0.000 E7.019
G1 X-0.777 Y-0.634 Z0.000 E7.019
G1 X-0.777 Y-0.634 Z0.000 E7.019
G1 X-0.777 Y-0.634 Z0.000 E7.019
G1 X-0.777 Y-0.634 Z0.000 E7.019
G1 X-0.777 Y-0.634 Z0.000 E7.019
G1 X-0.777 Y-0.634 Z0.000 E7.019
G1 X-0.777 Y-0.634 Z0.000 E7.019
G1 X-0.777 Y-0.634 Z0.000 E7.019
G1 X-0.777 Y-0.634 Z0.000 E7.019
G1 X-0.777 Y-0.634 Z0.000 E7.019
G1 X-0.777 Y-0.634 Z0.000 E7.019
G1 X-0.777 Y-0.634 Z0.000 E7.019
G1 X-0.777 Y-0.634 Z0.000 E7.019
G1 X-0.777 Y-0.634 Z0.000 E7.019
G1 X-0.777 Y-0.634 Z0.000 E7.019
G1 X-0.777 Y-0.634 Z0.000 E7.019
G1 X-0.777 Y-0.634 Z0.000 E7.019
G1 X-0.551 Y-0.740 Z0.000 E6.457
G1 X0.012 Y-1.003 Z0.000 E7.019
G1 X0.012 Y-1.003 Z0.000 E7.019
G1 X0.012 Y-1.003 Z0.000 E7.019
G1 X0.012 Y-1.003 Z0.000 E7.019
G1 X0.012 Y-1.003 Z0.000 E7.019
G1 X0.012 Y-1.003 Z0.000 E7.019
G1 X0.012 Y-1.003 Z0.000 E7.019
G1 X0.012 Y-1.003 Z0.000 E7.019
G1 X0.012 Y-1.003 Z0.000 E7.019
G1 X0.012 Y-1.003 Z0.000 E7.019
G1 X0.012 Y-1.003 Z0.000 E7.019
G1 X0.012 Y-1.003 Z0.000 E7.019
G1 X0.012 Y-1.003 Z0.000 E7.019
G1 X0.012 Y-1.003 Z0.000 E7.019
G1 X0.012 Y-1.003 Z0.000 E7.019
G1 X0.012 Y-1.003 Z0.000 E7.019
G1 X0.012 Y-1.003 Z0.000 E7.019
G1 X0.012 Y-1.003 Z0.000 E7.019
G1 X0.012 Y-1.003 Z0.000 E7.019
G1 X0.012 Y-1.003 Z0.000 E7.019
G1 X0.012 Y-1.003 Z0.000 E7.019
G1 X0.012 Y-1.003 Z0.000 E7.019
G1 X0.012 Y-1.003 Z0.000 E7.019
G1 X0.012 Y-1.003 Z0.000 E7.019
G1 X0.012 Y-1.003 Z0.000 E7.019
G1 X0.012 Y-1.003 Z0.000 E7.019
G1 X0.012 Y-1.003 Z0.000 E7.019
G1 X0.012 Y-1.003 Z0.000 E7.019
G1 X0.012 Y-1.003 Z0.000 E7.019
G1 X0.123 Y-0.947 Z0.000 E6.688
G1 X0.791 Y-0.616 Z0.000 E7.019
G1 X0.791 Y-0.616 Z0.000 E7.019
G1 X0.791 Y-0.616 Z-0.000 E7.019
G1 X0.791 Y-0.616 Z0.000 E7.019
G1 X0.791 Y-0.616 Z0.000 E7.019
G1 X0.791 Y-0.616 Z0.000 E7.019
G1 X0.791 Y-0.616 Z0.000 E7.019
G1 X0.791 Y-0.616 Z0.000 E7.019
G1 X0.791 Y-0.616 Z0.000 E7.019
G1 X0.791 Y-0.616 Z0.000 E7.019
G1 X0.791 Y-0.616 Z0.000 E7.019
G1 X0.791 Y-0.616 Z0.000 E7.019
G1 X0.791 Y-0.616 Z0.000 E7.019
G1 X0.791 Y-0.616 Z0.000 E7.019
G1 X0.791 Y-0.616 Z0.000 E7.019
G1 X0.791 Y-0.616 Z0.000 E7.019
G1 X0.791 Y-0.616 Z0.000 E7.019
G1 X0.791 Y-0.616 Z0.000 E7.019
G1 X0.791 Y-0.616 Z0.000 E7.019
G1 X0.791 Y-0.616 Z0.000 E7.019
G1 X0.791 Y-0.616 Z0.000 E7.019
G1 X0.791 Y-0.616 Z0.000 E7.019
G1 X0.791 Y-0.616 Z0.000 E7.019
G1 X0.791 Y-0.616 Z0.000 E7.019
G1 X0.791 Y-0.616 Z0.000 E7.019
G1 X0.791 Y-0.616 Z0.000 E7.019
G1 X0.791 Y-0.616 Z0.000 E7.019
G1 X0.791 Y-0.616 Z0.000 E7.019
G1 X0.791 Y-0.616 Z0.000 E7.019
G1 X0.791 Y-0.616 Z0.000 E7.019
G1 X0.797 Y3.689 Z0.000 E26.416
G1 X0.976 Y0.235 Z0.000 E7.024
G1 X0.976 Y0.235 Z0.000 E7.024
G1 X0.976 Y0.235 Z0.000 E7.024
G1 X0.976 Y0.235 Z0.000 E7.024
G1 X0.976 Y0.235 Z0.000 E7.024
G1 X0.976 Y0.235 Z0.000 E7.024
G1 X0.976 Y0.235 Z0.000 E7.024
G1 X0.976 Y0.235 Z0.000 E7.024
G1 X0.976 Y0.235 Z0.000 E7.024
G1 X0.976 Y0.235 Z0.000 E7.024
G1 X0.976 Y0.235 Z0.000 E7.024
G1 X0.976 Y0.235 Z0.000 E7.024
G1 X0.976 Y0.235 Z0.000 E7.024
G1 X0.976 Y0.235 Z0.000 E7.024
G1 X0.976 Y0.235 Z0.000 E7.024
G1 X0.976 Y0.235 Z0.000 E7.024
G1 X0.976 Y0.235 Z0.000 E7.024
G1 X0.976 Y0.235 Z0.000 E7.024
G1 X0.976 Y0.235 Z0.000 E7.024
G1 X0.976 Y0.235 Z0.000 E7.024
G1 X0.976 Y0.235 Z0.000 E7.024
G1 X0.976 Y0.235 Z0.000 E7.024
G1 X0.976 Y0.235 Z0.000 E7.024
G1 X0.976 Y0.235 Z0.000 E7.024
G1 X0.976 Y0.235 Z0.000 E7.024
G1 X0.976 Y0.235 Z0.000 E7.024
G1 X0.897 Y0.331 Z0.000 E6.692
G1 X0.425 Y0.909 Z0.000 E7.024
G1 X0.425 Y0.909 Z0.000 E7.024
G1 X0.425 Y0.909 Z0.000 E7.024
G1 X0.425 Y0.909 Z0.000 E7.024
G1 X0.425 Y0.909 Z0.000 E7.024
G1 X0.425 Y0.909 Z0.000 E7.024
G1 X0.425 Y0.909 Z0.000 E7.024
G1 X0.425 Y0.909 Z0.000 E7.024
G1 X0.425 Y0.909 Z0.000 E7.024
G1 X0.425 Y0.909 Z0.000 E7.024
G1 X0.425 Y0.909 Z0.000 E7.024
G1 X0.425 Y0.909 Z0.000 E7.024
G1 X0.425 Y0.909 Z0.000 E7.024
G1 X0.425 Y0.909 Z0.000 E7.024
G1 X0.425 Y0.909 Z0.000 E7.024
G1 X0.425 Y0.909 Z0.000 E7.024
G1 X0.425 Y0.909 Z0.000 E7.024
G1 X0.425 Y0.909 Z0.000 E7.024
G1 X0.425 Y0.909 Z0.000 E7.024
G1 X0.425 Y0.909 Z0.000 E7.024
G1 X0.425 Y0.909 Z0.000 E7.024
G1 X0.425 Y0.909 Z0.000 E7.024
G1 X0.425 Y0.909 Z0.000 E7.024
G1 X0.425 Y0.909 Z0.000 E7.024
G1 X0.425 Y0.909 Z0.000 E7.024
G1 X0.425 Y0.909 Z0.000 E7.024
G1 X0.176 Y0.906 Z0.000 E6.462
G1 X-0.446 Y0.899 Z0.000 E7.024
G1 X-0.446 Y0.899 Z0.000 E7.024
G1 X-0.446 Y0.899 Z0.000 E7.024
G1 X-0.446 Y0.899 Z0.000 E7.024
G1 X-0.446 Y0.899 Z0.000 E7.024
G1 X-0.446 Y0.899 Z0.000 E7.024
G1 X-0.446 Y0.899 Z0.000 E7.024
G1 X-0.446 Y0.899 Z0.000 E7.024
G1 X-0.446 Y0.899 Z0.000 E7.024
G1 X-0.446 Y0.899 Z0.000 E7.024
G1 X-0.446 Y0.899 Z0.000 E7.024
G1 X-0.446 Y0.899 Z0.000 E7.024
G1 X-0.446 Y0.899 Z0.000 E7.024
G1 X-0.446 Y0.899 Z0.000 E7.024
G1 X-0.446 Y0.899 Z0.000 E7.024
G1 X-0.446 Y0.899 Z0.000 E7.024
G1 X-0.446 Y0.899 Z0.000 E7.024
G1 X-0.446 Y0.899 Z0.000 E7.024
G1 X-0.446 Y0.899 Z0.000 E7.024
G1 X-0.446 Y0.899 Z0.000 E7.024
G1 X-0.446 Y0.899 Z0.000 E7.024
G1 X-0.446 Y0.899 Z0.000 E7.024
G1 X-0.446 Y0.899 Z0.000 E7.024
G1 X-0.446 Y0.899 Z0.000 E7.024
G1 X-0.446 Y0.899 Z0.000 E7.024
G1 X-0.446 Y0.899 Z0.000 E7.024
G1 X-0.675 Y0.604 Z0.000 E6.344
G1 X-0.981 Y0.212 Z0.000 E7.024
G1 X-0.981 Y0.212 Z0.000 E7.024
G1 X-0.981 Y0.212 Z0.000 E7.024
G1 X-0.981 Y0.212 Z0.000 E7.024
G1 X-0.981 Y0.212 Z0.000 E7.024
G1 X-0.981 Y0.212 Z0.000 E7.024
G1 X-0.981 Y0.212 Z0.000 E7.024
G1 X-0.981 Y0.212 Z0.000 E7.024
G1 X-0.981 Y0.212 Z0.000 E7.024
G1 X-0.981 Y0.212 Z0.000 E7.024
G1 X-0.981 Y0.212 Z0.000 E7.024
G1 X-0.981 Y0.212 Z0.000 E7.024
G1 X-0.981 Y0.212 Z0.000 E7.024
G1 X-0.981 Y0.212 Z0.000 E7.024
G1 X-0.981 Y0.212 Z0.000 E7.024
G1 X-0.981 Y0.212 Z0.000 E7.024
G1 X-0.981 Y0.212 Z0.000 E7.024
G1 X-0.981 Y0.212 Z0.000 E7.024
G1 X-0.981 Y0.212 Z0.000 E7.024
G1 X-0.981 Y0.212 Z0.000 E7.024
G1 X-0.981 Y0.212 Z0.000 E7.024
G1 X-0.981 Y0.212 Z0.000 E7.024
G1 X-0.981 Y0.212 Z0.000 E7.024
G1 X-0.981 Y0.212 Z0.000 E7.024
G1 X-0.981 Y0.212 Z0.000 E7.024
G1 X-0.981 Y0.212 Z0.000 E7.024
G1 X-0.864 Y-0.272 Z0.000 E6.344
G1 X-0.777 Y-0.635 Z0.000 E7.024
G1 X-0.777 Y-0.635 Z0.000 E7.024
G1 X-0.777 Y-0.635 Z0.000 E7.024
G1 X-0.777 Y-0.635 Z0.000 E7.024
G1 X-0.777 Y-0.635 Z0.000 E7.024
G1 X-0.777 Y-0.635 Z0.000 E7.024
G1 X-0.777 Y-0.635 Z0.000 E7.024
G1 X-0.777 Y-0.635 Z0.000 E7.024
G1 X-0.777 Y-0.635 Z0.000 E7.024
G1 X-0.777 Y-0.635 Z0.000 E7.024
G1 X-0.777 Y-0.635 Z0.000 E7.024
G1 X-0.777 Y-0.635 Z0.000 E7.024
G1 X-0.777 Y-0.635 Z0.000 E7.024
G1 X-0.777 Y-0.635 Z0.000 E7.024
G1 X-0.777 Y-0.635 Z0.000 E7.024
G1 X-0.777 Y-0.635 Z0.000 E7.024
G1 X-0.777 Y-0.635 Z0.000 E7.024
G1 X-0.777 Y-0.635 Z0.000 E7.024
G1 X-0.777 Y-0.635 Z0.000 E7.024
G1 X-0.777 Y-0.635 Z0.000 E7.024
G1 X-0.777 Y-0.635 Z0.000 E7.024
G1 X-0.777 Y-0.635 Z0.000 E7.024
G1 X-0.777 Y-0.635 Z0.000 E7.024
G1 X-0.777 Y-0.635 Z0.000 E7.024
G1 X-0.777 Y-0.635 Z0.000 E7.024
G1 X-0.777 Y-0.635 Z0.000 E7.024
G1 X-0.214 Y-0.898 Z0.000 E6.462
G1 X0.012 Y-1.003 Z0.000 E7.024
G1 X0.012 Y-1.003 Z0.000 E7.024
G1 X0.012 Y-1.003 Z0.000 E7.024
G1 X0.012 Y-1.003 Z0.000 E7.024
G1 X0.012 Y-1.003 Z0.000 E7.024
G1 X0.012 Y-1.003 Z0.000 E7.024
G1 X0.012 Y-1.003 Z0.000 E7.024
G1 X0.012 Y-1.003 Z0.000 E7.024
G1 X0.012 Y-1.003 Z0.000 E7.024
G1 X0.012 Y-1.003 Z0.000 E7.024
G1 X0.012 Y-1.003 Z0.000 E7.024
G1 X0.012 Y-1.003 Z0.000 E7.024
G1 X0.012 Y-1.003 Z0.000 E7.024
G1 X0.012 Y-1.003 Z0.000 E7.024
G1 X0.012 Y-1.003 Z0.000 E7.024
G1 X0.012 Y-1.003 Z0.000 E7.024
G1 X0.012 Y-1.003 Z0.000 E7.024
G1 X0.012 Y-1.003 Z0.000 E7.024
G1 X0.012 Y-1.003 Z0.000 E7.024
G1 X0.012 Y-1.003 Z0.000 E7.024
G1 X0.012 Y-1.003 Z0.000 E7.024
G1 X0.012 Y-1.003 Z0.000 E7.024
G1 X0.012 Y-1.003 Z0.000 E7.024
G1 X0.012 Y-1.003 Z0.000 E7.024
G1 X0.012 Y-1.003 Z0.000 E7.024
G1 X0.012 Y-1.003 Z0.000 E7.024
G1 X0.680 Y-0.672 Z0.000 E6.692
G1 X0.792 Y-0.616 Z0.000 E7.024
G1 X0.792 Y-0.616 Z0.000 E7.024
G1 X0.792 Y-0.616 Z0.000 E7.024
G1 X0.792 Y-0.616 Z0.000 E7.024
G1 X0.792 Y-0.616 Z0.000 E7.024
G1 X0.792 Y-0.616 Z0.000 E7.024
G1 X0.792 Y-0.616 Z0.000 E7.024
G1 X0.792 Y-0.616 Z0.000 E7.024
G1 X0.792 Y-0.616 Z0.000 E7.024
G1 X0.792 Y-0.616 Z0.000 E7.024
G1 X0.792 Y-0.616 Z0.000 E7.024
G1 X0.792 Y-0.616 Z0.000 E7.024
G1 X0.792 Y-0.616 Z0.000 E7.024
G1 X0.792 Y-0.616 Z0.000 E7.024
G1 X0.792 Y-0.616 Z0.000 E7.024
G1 X0.792 Y-0.616 Z0.000 E7.024
G1 X0.792 Y-0.616 Z0.000 E7.024
G1 X0.792 Y-0.616 Z0.000 E7.024
G1 X0.792 Y-0.616 Z0.000 E7.024
G1 X0.792 Y-0.616 Z0.000 E7.024
G1 X0.792 Y-0.616 Z0.000 E7.024
G1 X0.792 Y-0.616 Z0.000 E7.024
G1 X0.792 Y-0.616 Z0.000 E7.024
G1 X0.792 Y-0.616 Z0.000 E7.024
G1 X0.792 Y-0.616 Z0.000 E7.024
G1 X0.792 Y-0.616 Z0.000 E7.024
G1 X0.797 Y3.689 Z0.000 E26.416
G1 X0.977 Y0.235 Z0.000 E7.031
G1 X0.977 Y0.235 Z0.000 E7.031
G1 X0.977 Y0.235 Z0.000 E7.031
G1 X0.977 Y0.235 Z0.000 E7.031
G1 X0.977 Y0.235 Z0.000 E7.031
G1 X0.977 Y0.235 Z0.000 E7.031
G1 X0.977 Y0.235 Z0.000 E7.031
G1 X0.977 Y0.235 Z0.000 E7.031
G1 X0.977 Y0.235 Z0.000 E7.031
G1 X0.977 Y0.235 Z0.000 E7.031
G1 X0.977 Y0.235 Z0.000 E7.031
G1 X0.977 Y0.235 Z0.000 E7.031
G1 X0.977 Y0.235 Z0.000 E7.031
G1 X0.977 Y0.235 Z0.000 E7.031
G1 X0.977 Y0.235 Z0.000 E7.031
G1 X0.977 Y0.235 Z0.000 E7.031
G1 X0.977 Y0.235 Z0.000 E7.031
G1 X0.977 Y0.235 Z0.000 E7.031
G1 X0.977 Y0.235 Z0.000 E7.031
G1 X0.977 Y0.235 Z0.000 E7.031
G1 X0.977 Y0.235 Z0.000 E7.031
G1 X0.977 Y0.235 Z0.000 E7.031
G1 X0.977 Y0.235 Z0.000 E7.031
G1 X0.740 Y0.524 Z0.000 E6.349
G1 X0.425 Y0.910 Z0.000 E7.031
G1 X0.425 Y0.910 Z0.000 E7.031
G1 X0.425 Y0.910 Z0.000 E7.031
G1 X0.425 Y0.910 Z0.000 E7.031
G1 X0.425 Y0.910 Z0.000 E7.031
G1 X0.425 Y0.910 Z0.000 E7.031
G1 X0.425 Y0.910 Z0.000 E7.031
G1 X0.425 Y0.910 Z0.000 E7.031
G1 X0.425 Y0.910 Z0.000 E7.031
G1 X0.425 Y0.910 Z0.000 E7.031
G1 X0.425 Y0.910 Z0.000 E7.031
G1 X0.425 Y0.910 Z0.000 E7.031
G1 X0.425 Y0.910 Z0.000 E7.031
G1 X0.425 Y0.910 Z0.000 E7.031
G1 X0.425 Y0.910 Z0.000 E7.031
G1 X0.425 Y0.910 Z0.000 E7.031
G1 X0.425 Y0.910 Z0.000 E7.031
G1 X0.425 Y0.910 Z0.000 E7.031
G1 X0.425 Y0.910 Z0.000 E7.031
G1 X0.425 Y0.910 Z0.000 E7.031
G1 X0.425 Y0.910 Z0.000 E7.031
G1 X0.425 Y0.910 Z0.000 E7.031
G1 X0.425 Y0.910 Z0.000 E7.031
G1 X-0.322 Y0.901 Z0.000 E6.699
G1 X-0.446 Y0.900 Z-0.000 E7.031
G1 X-0.446 Y0.900 Z0.000 E7.031
G1 X-0.446 Y0.900 Z0.000 E7.031
G1 X-0.446 Y0.900 Z0.000 E7.031
G1 X-0.446 Y0.900 Z0.000 E7.031
G1 X-0.446 Y0.900 Z0.000 E7.031
G1 X-0.446 Y0.900 Z0.000 E7.031
G1 X-0.446 Y0.900 Z0.000 E7.031
G1 X-0.446 Y0.900 Z0.000 E7.031
G1 X-0.446 Y0.900 Z0.000 E7.031
G1 X-0.446 Y0.900 Z0.000 E7.031
G1 X-0.446 Y0.900 Z0.000 E7.031
G1 X-0.446 Y0.900 Z0.000 E7.031
G1 X-0.446 Y0.900 Z0.000 E7.031
G1 X-0.446 Y0.900 Z0.000 E7.031
G1 X-0.446 Y0.900 Z0.000 E7.031
G1 X-0.446 Y0.900 Z0.000 E7.031
G1 X-0.446 Y0.900 Z0.000 E7.031
G1 X-0.446 Y0.900 Z0.000 E7.031
G1 X-0.446 Y0.900 Z0.000 E7.031
G1 X-0.446 Y0.900 Z0.000 E7.031
G1 X-0.446 Y0.900 Z0.000 E7.031
G1 X-0.599 Y0.703 Z-0.000 E6.468
G1 X-0.982 Y0.212 Z0.000 E7.031
G1 X-0.982 Y0.212 Z0.000 E7.031
G1 X-0.982 Y0.212 Z0.000 E7.031
G1 X-0.982 Y0.212 Z0.000 E7.031
G1 X-0.982 Y0.212 Z0.000 E7.031
G1 X-0.982 Y0.212 Z0.000 E7.031
G1 X-0.982 Y0.212 Z0.000 E7.031
G1 X-0.982 Y0.212 Z0.000 E7.031
G1 X-0.982 Y0.212 Z0.000 E7.031
G1 X-0.982 Y0.212 Z0.000 E7.031
G1 X-0.982 Y0.212 Z0.000 E7.031
G1 X-0.982 Y0.212 Z0.000 E7.031
G1 X-0.982 Y0.212 Z0.000 E7.031
G1 X-0.982 Y0.212 Z0.000 E7.031
G1 X-0.982 Y0.212 Z0.000 E7.031
G1 X-0.982 Y0.212 Z0.000 E7.031
G1 X-0.982 Y0.212 Z0.000 E7.031
G1 X-0.982 Y0.212 Z0.000 E7.031
G1 X-0.982 Y0.212 Z0.000 E7.031
G1 X-0.982 Y0.212 Z0.000 E7.031
G1 X-0.982 Y0.212 Z0.000 E7.031
G1 X-0.982 Y0.212 Z0.000 E7.031
G1 X-0.982 Y0.212 Z0.000 E7.031
G1 X-0.836 Y-0.393 Z0.000 E6.468
G1 X-0.778 Y-0.635 Z0.000 E7.031
G1 X-0.778 Y-0.635 Z0.000 E7.031
G1 X-0.778 Y-0.635 Z0.000 E7.031
G1 X-0.778 Y-0.635 Z0.000 E7.031
G1 X-0.778 Y-0.635 Z0.000 E7.031
G1 X-0.778 Y-0.635 Z0.000 E7.031
G1 X-0.778 Y-0.635 Z0.000 E7.031
G1 X-0.778 Y-0.635 Z0.000 E7.031
G1 X-0.778 Y-0.635 Z0.000 E7.031
G1 X-0.778 Y-0.635 Z0.000 E7.031
G1 X-0.778 Y-0.635 Z0.000 E7.031
G1 X-0.778 Y-0.635 Z0.000 E7.031
G1 X-0.778 Y-0.635 Z0.000 E7.031
G1 X-0.778 Y-0.635 Z0.000 E7.031
G1 X-0.778 Y-0.635 Z0.000 E7.031
G1 X-0.778 Y-0.635 Z0.000 E7.031
G1 X-0.778 Y-0.635 Z0.000 E7.031
G1 X-0.778 Y-0.635 Z0.000 E7.031
G1 X-0.778 Y-0.635 Z0.000 E7.031
G1 X-0.778 Y-0.635 Z0.000 E7.031
G1 X-0.778 Y-0.635 Z0.000 E7.031
G1 X-0.778 Y-0.635 Z0.000 E7.031
G1 X-0.665 Y-0.688 Z0.000 E6.699
G1 X0.012 Y-1.004 Z0.000 E7.031
G1 X0.012 Y-1.004 Z0.000 E7.031
G1 X0.012 Y-1.004 Z0.000 E7.031
G1 X0.012 Y-1.004 Z0.000 E7.031
G1 X0.012 Y-1.004 Z0.000 E7.031
G1 X0.012 Y-1.004 Z0.000 E7.031
G1 X0.012 Y-1.004 Z0.000 E7.031
G1 X0.012 Y-1.004 Z0.000 E7.031
G1 X0.012 Y-1.004 Z0.000 E7.031
G1 X0.012 Y-1.004 Z0.000 E7.031
G1 X0.012 Y-1.004 Z0.000 E7.031
G1 X0.012 Y-1.004 Z0.000 E7.031
G1 X0.012 Y-1.004 Z0.000 E7.031
G1 X0.012 Y-1.004 Z0.000 E7.031
G1 X0.012 Y-1.004 Z0.000 E7.031
G1 X0.012 Y-1.004 Z0.000 E7.031
G1 X0.012 Y-1.004 Z0.000 E7.031
G1 X0.012 Y-1.004 Z0.000 E7.031
G1 X0.012 Y-1.004 Z0.000 E7.031
G1 X0.012 Y-1.004 Z0.000 E7.031
G1 X0.012 Y-1.004 Z0.000 E7.031
G1 X0.012 Y-1.004 Z0.000 E7.031
G1 X0.012 Y-1.004 Z0.000 E7.031
G1 X0.458 Y-0.783 Z0.000 E6.349
G1 X0.793 Y-0.617 Z0.000 E7.031
G1 X0.793 Y-0.617 Z0.000 E7.031
G1 X0.793 Y-0.617 Z0.000 E7.031
G1 X0.793 Y-0.617 Z0.000 E7.031
G1 X0.793 Y-0.617 Z0.000 E7.031
G1 X0.793 Y-0.617 Z0.000 E7.031
G1 X0.793 Y-0.617 Z0.000 E7.031
G1 X0.793 Y-0.617 Z0.000 E7.031
G1 X0.793 Y-0.617 Z0.000 E7.031
G1 X0.793 Y-0.617 Z0.000 E7.031
G1 X0.793 Y-0.617 Z0.000 E7.031
G1 X0.793 Y-0.617 Z0.000 E7.031
G1 X0.793 Y-0.617 Z0.000 E7.031
G1 X0.793 Y-0.617 Z0.000 E7.031
G1 X0.793 Y-0.617 Z0.000 E7.031
G1 X0.793 Y-0.617 Z0.000 E7.031
G1 X0.793 Y-0.617 Z0.000 E7.031
G1 X0.793 Y-0.617 Z0.000 E7.031
G1 X0.793 Y-0.617 Z0.000 E7.031
G1 X0.793 Y-0.617 Z0.000 E7.031
G1 X0.793 Y-0.617 Z0.000 E7.031
G1 X0.793 Y-0.617 Z0.000 E7.031
G1 X0.793 Y-0.617 Z0.000 E7.031
G1 X0.797 Y3.689 Z0.000 E26.416
G1 X0.971 Y0.234 Z0.000 E6.990
G1 X0.971 Y0.234 Z0.000 E6.990
G1 X0.971 Y0.234 Z0.000 E6.990
G1 X0.971 Y0.234 Z0.000 E6.990
G1 X0.971 Y0.234 Z0.000 E6.990
G1 X0.971 Y0.234 Z0.000 E6.990
G1 X0.971 Y0.234 Z0.000 E6.990
G1 X0.971 Y0.234 Z0.000 E6.990
G1 X0.971 Y0.234 Z0.000 E6.990
G1 X0.971 Y0.234 Z0.000 E6.990
G1 X0.971 Y0.234 Z0.000 E6.990
G1 X0.971 Y0.234 Z0.000 E6.990
G1 X0.971 Y0.234 Z0.000 E6.990
G1 X0.971 Y0.234 Z0.000 E6.990
G1 X0.971 Y0.234 Z0.000 E6.990
G1 X0.971 Y0.234 Z0.000 E6.990
G1 X0.971 Y0.234 Z0.000 E6.990
G1 X0.971 Y0.234 Z0.000 E6.990
G1 X0.971 Y0.234 Z0.000 E6.990
G1 X0.971 Y0.234 Z0.000 E6.990
G1 X0.658 Y0.617 Z0.000 E6.313
G1 X0.423 Y0.905 Z-0.000 E6.990
G1 X0.423 Y0.905 Z0.000 E6.990
G1 X0.423 Y0.905 Z0.000 E6.990
G1 X0.423 Y0.905 Z0.000 E6.990
G1 X0.423 Y0.905 Z0.000 E6.990
G1 X0.423 Y0.905 Z0.000 E6.990
G1 X0.423 Y0.905 Z0.000 E6.990
G1 X0.423 Y0.905 Z0.000 E6.990
G1 X0.423 Y0.905 Z0.000 E6.990
G1 X0.423 Y0.905 Z0.000 E6.990
G1 X0.423 Y0.905 Z0.000 E6.990
G1 X0.423 Y0.905 Z0.000 E6.990
G1 X0.423 Y0.905 Z0.000 E6.990
G1 X0.423 Y0.905 Z0.000 E6.990
G1 X0.423 Y0.905 Z0.000 E6.990
G1 X0.423 Y0.905 Z0.000 E6.990
G1 X0.423 Y0.905 Z0.000 E6.990
G1 X0.423 Y0.905 Z0.000 E6.990
G1 X0.423 Y0.905 Z0.000 E6.990
G1 X0.299 Y0.903 Z0.000 E6.660
G1 X-0.444 Y0.895 Z-0.000 E6.990
G1 X-0.444 Y0.895 Z0.000 E6.990
G1 X-0.444 Y0.895 Z0.000 E6.990
G1 X-0.444 Y0.895 Z0.000 E6.990
G1 X-0.444 Y0.895 Z0.000 E6.990
G1 X-0.444 Y0.895 Z0.000 E6.990
G1 X-0.444 Y0.895 Z0.000 E6.990
G1 X-0.444 Y0.895 Z0.000 E6.990
G1 X-0.444 Y0.895 Z0.000 E6.990
G1 X-0.444 Y0.895 Z0.000 E6.990
G1 X-0.444 Y0.895 Z0.000 E6.990
G1 X-0.444 Y0.895 Z0.000 E6.990
G1 X-0.444 Y0.895 Z0.000 E6.990
G1 X-0.444 Y0.895 Z0.000 E6.990
G1 X-0.444 Y0.895 Z0.000 E6.990
G1 X-0.444 Y0.895 Z0.000 E6.990
G1 X-0.444 Y0.895 Z0.000 E6.990
G1 X-0.444 Y0.895 Z0.000 E6.990
G1 X-0.444 Y0.895 Z0.000 E6.990
G1 X-0.444 Y0.895 Z0.000 E6.990
G1 X-0.824 Y0.406 Z0.000 E6.431
G1 X-0.976 Y0.211 Z-0.000 E6.990
G1 X-0.976 Y0.211 Z0.000 E6.990
G1 X-0.976 Y0.211 Z0.000 E6.990
G1 X-0.976 Y0.211 Z0.000 E6.990
G1 X-0.976 Y0.211 Z0.000 E6.990
G1 X-0.976 Y0.211 Z0.000 E6.990
G1 X-0.976 Y0.211 Z0.000 E6.990
G1 X-0.976 Y0.211 Z0.000 E6.990
G1 X-0.976 Y0.211 Z0.000 E6.990
G1 X-0.976 Y0.211 Z0.000 E6.990
G1 X-0.976 Y0.211 Z0.000 E6.990
G1 X-0.976 Y0.211 Z0.000 E6.990
G1 X-0.976 Y0.211 Z0.000 E6.990
G1 X-0.976 Y0.211 Z0.000 E6.990
G1 X-0.976 Y0.211 Z0.000 E6.990
G1 X-0.976 Y0.211 Z0.000 E6.990
G1 X-0.976 Y0.211 Z0.000 E6.990
G1 X-0.976 Y0.211 Z0.000 E6.990
G1 X-0.976 Y0.211 Z0.000 E6.990
G1 X-0.918 Y-0.030 Z-0.000 E6.431
G1 X-0.773 Y-0.632 Z0.000 E6.990
G1 X-0.773 Y-0.632 Z0.000 E6.990
G1 X-0.773 Y-0.632 Z0.000 E6.990
G1 X-0.773 Y-0.632 Z0.000 E6.990
G1 X-0.773 Y-0.632 Z0.000 E6.990
G1 X-0.773 Y-0.632 Z0.000 E6.990
G1 X-0.773 Y-0.632 Z0.000 E6.990
G1 X-0.773 Y-0.632 Z0.000 E6.990
G1 X-0.773 Y-0.632 Z0.000 E6.990
G1 X-0.773 Y-0.632 Z0.000 E6.990
G1 X-0.773 Y-0.632 Z0.000 E6.990
G1 X-0.773 Y-0.632 Z0.000 E6.990
G1 X-0.773 Y-0.632 Z0.000 E6.990
G1 X-0.773 Y-0.632 Z0.000 E6.990
G1 X-0.773 Y-0.632 Z0.000 E6.990
G1 X-0.773 Y-0.632 Z0.000 E6.990
G1 X-0.773 Y-0.632 Z0.000 E6.990
G1 X-0.773 Y-0.632 Z0.000 E6.990
G1 X-0.773 Y-0.632 Z0.000 E6.990
G1 X-0.773 Y-0.632 Z0.000 E6.990
G1 X-0.101 Y-0.946 Z-0.000 E6.660
G1 X0.012 Y-0.999 Z0.000 E6.990
G1 X0.012 Y-0.999 Z0.000 E6.990
G1 X0.012 Y-0.999 Z0.000 E6.990
G1 X0.012 Y-0.999 Z0.000 E6.990
G1 X0.012 Y-0.999 Z0.000 E6.990
G1 X0.012 Y-0.999 Z0.000 E6.990
G1 X0.012 Y-0.999 Z0.000 E6.990
G1 X0.012 Y-0.999 Z0.000 E6.990
G1 X0.012 Y-0.999 Z0.000 E6.990
G1 X0.012 Y-0.999 Z0.000 E6.990
G1 X0.012 Y-0.999 Z0.000 E6.990
G1 X0.012 Y-0.999 Z0.000 E6.990
G1 X0.012 Y-0.999 Z0.000 E6.990
G1 X0.012 Y-0.999 Z0.000 E6.990
G1 X0.012 Y-0.999 Z0.000 E6.990
G1 X0.012 Y-0.999 Z0.000 E6.990
G1 X0.012 Y-0.999 Z0.000 E6.990
G1 X0.012 Y-0.999 Z0.000 E6.990
G1 X0.012 Y-0.999 Z0.000 E6.990
G1 X0.344 Y-0.834 Z0.000 E6.313
G1 X0.788 Y-0.613 Z0.000 E6.990
G1 X0.788 Y-0.613 Z0.000 E6.990
G1 X0.788 Y-0.613 Z0.000 E6.990
G1 X0.788 Y-0.613 Z0.000 E6.990
G1 X0.788 Y-0.613 Z0.000 E6.990
G1 X0.788 Y-0.613 Z0.000 E6.990
G1 X0.788 Y-0.613 Z0.000 E6.990
G1 X0.788 Y-0.613 Z0.000 E6.990
G1 X0.788 Y-0.613 Z0.000 E6.990
G1 X0.788 Y-0.613 Z0.000 E6.990
G1 X0.788 Y-0.613 Z0.000 E6.990
G1 X0.788 Y-0.613 Z0.000 E6.990
G1 X0.788 Y-0.613 Z0.000 E6.990
G1 X0.788 Y-0.613 Z0.000 E6.990
G1 X0.788 Y-0.613 Z0.000 E6.990
G1 X0.788 Y-0.613 Z0.000 E6.990
G1 X0.788 Y-0.613 Z0.000 E6.990
G1 X0.788 Y-0.613 Z0.000 E6.990
G1 X0.788 Y-0.613 Z0.000 E6.990
G1 X0.788 Y-0.613 Z0.000 E6.990
G1 X0.797 Y3.689 Z0.000 E26.416
G1 X0.971 Y0.234 Z0.000 E6.993
G1 X0.971 Y0.234 Z0.000 E6.993
G1 X0.971 Y0.234 Z0.000 E6.993
G1 X0.971 Y0.234 Z0.000 E6.993
G1 X0.971 Y0.234 Z0.000 E6.993
G1 X0.971 Y0.234 Z0.000 E6.993
G1 X0.971 Y0.234 Z0.000 E6.993
G1 X0.971 Y0.234 Z0.000 E6.993
G1 X0.971 Y0.234 Z0.000 E6.993
G1 X0.971 Y0.234 Z0.000 E6.993
G1 X0.971 Y0.234 Z0.000 E6.993
G1 X0.971 Y0.234 Z0.000 E6.993
G1 X0.971 Y0.234 Z0.000 E6.993
G1 X0.971 Y0.234 Z0.000 E6.993
G1 X0.971 Y0.234 Z0.000 E6.993
G1 X0.971 Y0.234 Z0.000 E6.993
G1 X0.971 Y0.234 Z0.000 E6.993
G1 X0.501 Y0.809 Z0.000 E6.663
G1 X0.423 Y0.905 Z0.000 E6.993
G1 X0.423 Y0.905 Z0.000 E6.993
G1 X0.423 Y0.905 Z0.000 E6.993
G1 X0.423 Y0.905 Z0.000 E6.993
G1 X0.423 Y0.905 Z0.000 E6.993
G1 X0.423 Y0.905 Z0.000 E6.993
G1 X0.423 Y0.905 Z0.000 E6.993
G1 X0.423 Y0.905 Z0.000 E6.993
G1 X0.423 Y0.905 Z0.000 E6.993
G1 X0.423 Y0.905 Z0.000 E6.993
G1 X0.423 Y0.905 Z0.000 E6.993
G1 X0.423 Y0.905 Z0.000 E6.993
G1 X0.423 Y0.905 Z0.000 E6.993
G1 X0.423 Y0.905 Z0.000 E6.993
G1 X0.423 Y0.905 Z0.000 E6.993
G1 X0.423 Y0.905 Z0.000 E6.993
G1 X-0.196 Y0.898 Z0.000 E6.433
G1 X-0.444 Y0.895 Z-0.000 E6.993
G1 X-0.444 Y0.895 Z0.000 E6.993
G1 X-0.444 Y0.895 Z0.000 E6.993
G1 X-0.444 Y0.895 Z0.000 E6.993
G1 X-0.444 Y0.895 Z0.000 E6.993
G1 X-0.444 Y0.895 Z0.000 E6.993
G1 X-0.444 Y0.895 Z0.000 E6.993
G1 X-0.444 Y0.895 Z0.000 E6.993
G1 X-0.444 Y0.895 Z0.000 E6.993
G1 X-0.444 Y0.895 Z0.000 E6.993
G1 X-0.444 Y0.895 Z0.000 E6.993
G1 X-0.444 Y0.895 Z0.000 E6.993
G1 X-0.444 Y0.895 Z0.000 E6.993
G1 X-0.444 Y0.895 Z0.000 E6.993
G1 X-0.444 Y0.895 Z0.000 E6.993
G1 X-0.444 Y0.895 Z0.000 E6.993
G1 X-0.748 Y0.504 Z0.000 E6.315
G1 X-0.976 Y0.211 Z0.000 E6.993
G1 X-0.976 Y0.211 Z0.000 E6.993
G1 X-0.976 Y0.211 Z0.000 E6.993
G1 X-0.976 Y0.211 Z0.000 E6.993
G1 X-0.976 Y0.211 Z0.000 E6.993
G1 X-0.976 Y0.211 Z0.000 E6.993
G1 X-0.976 Y0.211 Z0.000 E6.993
G1 X-0.976 Y0.211 Z0.000 E6.993
G1 X-0.976 Y0.211 Z0.000 E6.993
G1 X-0.976 Y0.211 Z0.000 E6.993
G1 X-0.976 Y0.211 Z0.000 E6.993
G1 X-0.976 Y0.211 Z0.000 E6.993
G1 X-0.976 Y0.211 Z0.000 E6.993
G1 X-0.976 Y0.211 Z0.000 E6.993
G1 X-0.976 Y0.211 Z0.000 E6.993
G1 X-0.976 Y0.211 Z0.000 E6.993
G1 X-0.890 Y-0.150 Z0.000 E6.315
G1 X-0.774 Y-0.632 Z0.000 E6.993
G1 X-0.774 Y-0.632 Z0.000 E6.993
G1 X-0.774 Y-0.632 Z0.000 E6.993
G1 X-0.774 Y-0.632 Z0.000 E6.993
G1 X-0.774 Y-0.632 Z0.000 E6.993
G1 X-0.774 Y-0.632 Z0.000 E6.993
G1 X-0.774 Y-0.632 Z0.000 E6.993
G1 X-0.774 Y-0.632 Z0.000 E6.993
G1 X-0.774 Y-0.632 Z0.000 E6.993
G1 X-0.774 Y-0.632 Z0.000 E6.993
G1 X-0.774 Y-0.632 Z0.000 E6.993
G1 X-0.774 Y-0.632 Z0.000 E6.993
G1 X-0.774 Y-0.632 Z0.000 E6.993
G1 X-0.774 Y-0.632 Z0.000 E6.993
G1 X-0.774 Y-0.632 Z0.000 E6.993
G1 X-0.774 Y-0.632 Z0.000 E6.993
G1 X-0.549 Y-0.737 Z0.000 E6.433
G1 X0.012 Y-0.999 Z0.000 E6.993
G1 X0.012 Y-0.999 Z0.000 E6.993
G1 X0.012 Y-0.999 Z0.000 E6.993
G1 X0.012 Y-0.999 Z0.000 E6.993
G1 X0.012 Y-0.999 Z0.000 E6.993
G1 X0.012 Y-0.999 Z0.000 E6.993
G1 X0.012 Y-0.999 Z0.000 E6.993
G1 X0.012 Y-0.999 Z0.000 E6.993
G1 X0.012 Y-0.999 Z0.000 E6.993
G1 X0.012 Y-0.999 Z0.000 E6.993
G1 X0.012 Y-0.999 Z0.000 E6.993
G1 X0.012 Y-0.999 Z0.000 E6.993
G1 X0.012 Y-0.999 Z0.000 E6.993
G1 X0.012 Y-0.999 Z0.000 E6.993
G1 X0.012 Y-0.999 Z0.000 E6.993
G1 X0.012 Y-0.999 Z0.000 E6.993
G1 X0.123 Y-0.944 Z0.000 E6.663
G1 X0.788 Y-0.614 Z0.000 E6.993
G1 X0.788 Y-0.614 Z0.000 E6.993
G1 X0.788 Y-0.614 Z0.000 E6.993
G1 X0.788 Y-0.614 Z0.000 E6.993
G1 X0.788 Y-0.614 Z0.000 E6.993
G1 X0.788 Y-0.614 Z0.000 E6.993
G1 X0.788 Y-0.614 Z0.000 E6.993
G1 X0.788 Y-0.614 Z0.000 E6.993
G1 X0.788 Y-0.614 Z0.000 E6.993
G1 X0.788 Y-0.614 Z0.000 E6.993
G1 X0.788 Y-0.614 Z0.000 E6.993
G1 X0.788 Y-0.614 Z0.000 E6.993
G1 X0.788 Y-0.614 Z0.000 E6.993
G1 X0.788 Y-0.614 Z0.000 E6.993
G1 X0.788 Y-0.614 Z0.000 E6.993
G1 X0.788 Y-0.614 Z0.000 E6.993
G1 X0.788 Y-0.614 Z0.000 E6.993
G1 X0.797 Y3.689 Z0.000 E26.416
G1 X0.972 Y0.234 Z0.000 E6.997
G1 X0.972 Y0.234 Z0.000 E6.997
G1 X0.972 Y0.234 Z0.000 E6.997
G1 X0.972 Y0.234 Z0.000 E6.997
G1 X0.972 Y0.234 Z0.000 E6.997
G1 X0.972 Y0.234 Z0.000 E6.997
G1 X0.972 Y0.234 Z0.000 E6.997
G1 X0.972 Y0.234 Z0.000 E6.997
G1 X0.972 Y0.234 Z0.000 E6.997
G1 X0.972 Y0.234 Z0.000 E6.997
G1 X0.972 Y0.234 Z0.000 E6.997
G1 X0.972 Y0.234 Z0.000 E6.997
G1 X0.972 Y0.234 Z0.000 E6.997
G1 X0.893 Y0.330 Z0.000 E6.667
G1 X0.423 Y0.906 Z0.000 E6.997
G1 X0.423 Y0.906 Z0.000 E6.997
G1 X0.423 Y0.906 Z0.000 E6.997
G1 X0.423 Y0.906 Z0.000 E6.997
G1 X0.423 Y0.906 Z0.000 E6.997
G1 X0.423 Y0.906 Z0.000 E6.997
G1 X0.423 Y0.906 Z0.000 E6.997
G1 X0.423 Y0.906 Z0.000 E6.997
G1 X0.423 Y0.906 Z0.000 E6.997
G1 X0.423 Y0.906 Z0.000 E6.997
G1 X0.423 Y0.906 Z0.000 E6.997
G1 X0.423 Y0.906 Z0.000 E6.997
G1 X0.423 Y0.906 Z0.000 E6.997
G1 X0.175 Y0.903 Z0.000 E6.437
G1 X-0.444 Y0.895 Z0.000 E6.997
G1 X-0.444 Y0.895 Z0.000 E6.997
G1 X-0.444 Y0.895 Z0.000 E6.997
G1 X-0.444 Y0.895 Z0.000 E6.997
G1 X-0.444 Y0.895 Z0.000 E6.997
G1 X-0.444 Y0.895 Z0.000 E6.997
G1 X-0.444 Y0.895 Z0.000 E6.997
G1 X-0.444 Y0.895 Z0.000 E6.997
G1 X-0.444 Y0.895 Z0.000 E6.997
G1 X-0.444 Y0.895 Z0.000 E6.997
G1 X-0.444 Y0.895 Z0.000 E6.997
G1 X-0.444 Y0.895 Z0.000 E6.997
G1 X-0.444 Y0.895 Z0.000 E6.997
G1 X-0.673 Y0.602 Z0.000 E6.319
G1 X-0.977 Y0.211 Z0.000 E6.997
G1 X-0.977 Y0.211 Z0.000 E6.997
G1 X-0.977 Y0.211 Z0.000 E6.997
G1 X-0.977 Y0.211 Z0.000 E6.997
G1 X-0.977 Y0.211 Z0.000 E6.997
G1 X-0.977 Y0.211 Z0.000 E6.997
G1 X-0.977 Y0.211 Z0.000 E6.997
G1 X-0.977 Y0.211 Z0.000 E6.997
G1 X-0.977 Y0.211 Z0.000 E6.997
G1 X-0.977 Y0.211 Z0.000 E6.997
G1 X-0.977 Y0.211 Z0.000 E6.997
G1 X-0.977 Y0.211 Z0.000 E6.997
G1 X-0.977 Y0.211 Z0.000 E6.997
G1 X-0.861 Y-0.271 Z0.000 E6.319
G1 X-0.774 Y-0.632 Z0.000 E6.997
G1 X-0.774 Y-0.632 Z0.000 E6.997
G1 X-0.774 Y-0.632 Z0.000 E6.997
G1 X-0.774 Y-0.632 Z0.000 E6.997
G1 X-0.774 Y-0.632 Z0.000 E6.997
G1 X-0.774 Y-0.632 Z0.000 E6.997
G1 X-0.774 Y-0.632 Z0.000 E6.997
G1 X-0.774 Y-0.632 Z0.000 E6.997
G1 X-0.774 Y-0.632 Z0.000 E6.997
G1 X-0.774 Y-0.632 Z0.000 E6.997
G1 X-0.774 Y-0.632 Z0.000 E6.997
G1 X-0.774 Y-0.632 Z0.000 E6.997
G1 X-0.774 Y-0.632 Z0.000 E6.997
G1 X-0.213 Y-0.895 Z0.000 E6.437
G1 X0.012 Y-0.999 Z0.000 E6.997
G1 X0.012 Y-0.999 Z0.000 E6.997
G1 X0.012 Y-0.999 Z0.000 E6.997
G1 X0.012 Y-0.999 Z0.000 E6.997
G1 X0.012 Y-0.999 Z0.000 E6.997
G1 X0.012 Y-0.999 Z0.000 E6.997
G1 X0.012 Y-0.999 Z0.000 E6.997
G1 X0.012 Y-0.999 Z0.000 E6.997
G1 X0.012 Y-0.999 Z0.000 E6.997
G1 X0.012 Y-0.999 Z0.000 E6.997
G1 X0.012 Y-0.999 Z0.000 E6.997
G1 X0.012 Y-0.999 Z0.000 E6.997
G1 X0.012 Y-0.999 Z0.000 E6.997
G1 X0.678 Y-0.669 Z0.000 E6.667
G1 X0.789 Y-0.614 Z0.000 E6.997
G1 X0.789 Y-0.614 Z0.000 E6.997
G1 X0.789 Y-0.614 Z0.000 E6.997
G1 X0.789 Y-0.614 Z0.000 E6.997
G1 X0.789 Y-0.614 Z0.000 E6.997
G1 X0.789 Y-0.614 Z0.000 E6.997
G1 X0.789 Y-0.614 Z0.000 E6.997
G1 X0.789 Y-0.614 Z0.000 E6.997
G1 X0.789 Y-0.614 Z0.000 E6.997
G1 X0.789 Y-0.614 Z0.000 E6.997
G1 X0.789 Y-0.614 Z0.000 E6.997
G1 X0.789 Y-0.614 Z0.000 E6.997
G1 X0.789 Y-0.614 Z0.000 E6.997
G1 X0.797 Y3.689 Z0.000 E26.416
G1 X0.973 Y0.234 Z0.000 E7.003
G1 X0.973 Y0.234 Z0.000 E7.003
G1 X0.973 Y0.234 Z0.000 E7.003
G1 X0.973 Y0.234 Z0.000 E7.003
G1 X0.973 Y0.234 Z0.000 E7.003
G1 X0.973 Y0.234 Z0.000 E7.003
G1 X0.973 Y0.234 Z0.000 E7.003
G1 X0.973 Y0.234 Z0.000 E7.003
G1 X0.973 Y0.234 Z0.000 E7.003
G1 X0.973 Y0.234 Z0.000 E7.003
G1 X0.737 Y0.522 Z0.000 E6.325
G1 X0.424 Y0.906 Z0.000 E7.003
G1 X0.424 Y0.906 Z0.000 E7.003
G1 X0.424 Y0.906 Z0.000 E7.003
G1 X0.424 Y0.906 Z0.000 E7.003
G1 X0.424 Y0.906 Z0.000 E7.003
G1 X0.424 Y0.906 Z0.000 E7.003
G1 X0.424 Y0.906 Z0.000 E7.003
G1 X0.424 Y0.906 Z0.000 E7.003
G1 X0.424 Y0.906 Z0.000 E7.003
G1 X0.424 Y0.906 Z0.000 E7.003
G1 X-0.321 Y0.898 Z0.000 E6.673
G1 X-0.445 Y0.896 Z-0.000 E7.003
G1 X-0.445 Y0.896 Z0.000 E7.003
G1 X-0.445 Y0.896 Z0.000 E7.003
G1 X-0.445 Y0.896 Z0.000 E7.003
G1 X-0.445 Y0.896 Z0.000 E7.003
G1 X-0.445 Y0.896 Z0.000 E7.003
G1 X-0.445 Y0.896 Z0.000 E7.003
G1 X-0.445 Y0.896 Z0.000 E7.003
G1 X-0.445 Y0.896 Z0.000 E7.003
G1 X-0.597 Y0.701 Z0.000 E6.443
G1 X-0.978 Y0.211 Z0.000 E7.003
G1 X-0.978 Y0.211 Z0.000 E7.003
G1 X-0.978 Y0.211 Z0.000 E7.003
G1 X-0.978 Y0.211 Z0.000 E7.003
G1 X-0.978 Y0.211 Z0.000 E7.003
G1 X-0.978 Y0.211 Z0.000 E7.003
G1 X-0.978 Y0.211 Z0.000 E7.003
G1 X-0.978 Y0.211 Z0.000 E7.003
G1 X-0.978 Y0.211 Z0.000 E7.003
G1 X-0.978 Y0.211 Z0.000 E7.003
G1 X-0.833 Y-0.392 Z0.000 E6.443
G1 X-0.775 Y-0.633 Z0.000 E7.003
G1 X-0.775 Y-0.633 Z0.000 E7.003
G1 X-0.775 Y-0.633 Z0.000 E7.003
G1 X-0.775 Y-0.633 Z0.000 E7.003
G1 X-0.775 Y-0.633 Z0.000 E7.003
G1 X-0.775 Y-0.633 Z0.000 E7.003
G1 X-0.775 Y-0.633 Z0.000 E7.003
G1 X-0.775 Y-0.633 Z0.000 E7.003
G1 X-0.775 Y-0.633 Z0.000 E7.003
G1 X-0.662 Y-0.685 Z0.000 E6.673
G1 X0.012 Y-1.000 Z0.000 E7.003
G1 X0.012 Y-1.000 Z0.000 E7.003
G1 X0.012 Y-1.000 Z0.000 E7.003
G1 X0.012 Y-1.000 Z0.000 E7.003
G1 X0.012 Y-1.000 Z0.000 E7.003
G1 X0.012 Y-1.000 Z0.000 E7.003
G1 X0.012 Y-1.000 Z0.000 E7.003
G1 X0.012 Y-1.000 Z0.000 E7.003
G1 X0.012 Y-1.000 Z0.000 E7.003
G1 X0.012 Y-1.000 Z0.000 E7.003
G1 X0.456 Y-0.780 Z0.000 E6.325
G1 X0.789 Y-0.615 Z-0.000 E7.003
G1 X0.789 Y-0.615 Z0.000 E7.003
G1 X0.789 Y-0.615 Z0.000 E7.003
G1 X0.789 Y-0.615 Z0.000 E7.003
G1 X0.789 Y-0.615 Z0.000 E7.003
G1 X0.789 Y-0.615 Z0.000 E7.003
G1 X0.789 Y-0.615 Z0.000 E7.003
G1 X0.789 Y-0.615 Z0.000 E7.003
G1 X0.789 Y-0.615 Z0.000 E7.003
G1 X0.789 Y-0.615 Z0.000 E7.003
G1 X0.797 Y3.689 Z0.000 E26.416
G1 X0.974 Y0.234 Z0.000 E7.015
G1 X0.974 Y0.234 Z0.000 E7.015
G1 X0.974 Y0.234 Z0.000 E7.015
G1 X0.974 Y0.234 Z0.000 E7.015
G1 X0.974 Y0.234 Z0.000 E7.015
G1 X0.974 Y0.234 Z0.000 E7.015
G1 X0.974 Y0.234 Z0.000 E7.015
G1 X0.581 Y0.715 Z0.000 E6.454
G1 X0.424 Y0.908 Z0.000 E7.015
G1 X0.424 Y0.908 Z0.000 E7.015
G1 X0.424 Y0.908 Z0.000 E7.015
G1 X0.424 Y0.908 Z0.000 E7.015
G1 X0.424 Y0.908 Z0.000 E7.015
G1 X0.424 Y0.908 Z0.000 E7.015
G1 X0.052 Y0.904 Z0.000 E6.335
G1 X-0.445 Y0.898 Z0.000 E7.015
G1 X-0.445 Y0.898 Z0.000 E7.015
G1 X-0.445 Y0.898 Z0.000 E7.015
G1 X-0.445 Y0.898 Z0.000 E7.015
G1 X-0.445 Y0.898 Z0.000 E7.015
G1 X-0.445 Y0.898 Z0.000 E7.015
G1 X-0.522 Y0.800 Z0.000 E6.684
G1 X-0.980 Y0.212 Z0.000 E7.015
G1 X-0.980 Y0.212 Z0.000 E7.015
G1 X-0.980 Y0.212 Z0.000 E7.015
G1 X-0.980 Y0.212 Z0.000 E7.015
G1 X-0.980 Y0.212 Z0.000 E7.015
G1 X-0.980 Y0.212 Z0.000 E7.015
G1 X-0.980 Y0.212 Z0.000 E7.015
G1 X-0.805 Y-0.513 Z0.000 E6.684
G1 X-0.776 Y-0.634 Z0.000 E7.015
G1 X-0.776 Y-0.634 Z0.000 E7.015
G1 X-0.776 Y-0.634 Z0.000 E7.015
G1 X-0.776 Y-0.634 Z0.000 E7.015
G1 X-0.776 Y-0.634 Z0.000 E7.015
G1 X-0.776 Y-0.634 Z0.000 E7.015
G1 X-0.326 Y-0.844 Z0.000 E6.335
G1 X0.012 Y-1.002 Z0.000 E7.015
G1 X0.012 Y-1.002 Z0.000 E7.015
G1 X0.012 Y-1.002 Z0.000 E7.015
G1 X0.012 Y-1.002 Z0.000 E7.015
G1 X0.012 Y-1.002 Z0.000 E7.015
G1 X0.012 Y-1.002 Z0.000 E7.015
G1 X0.234 Y-0.892 Z0.000 E6.454
G1 X0.791 Y-0.616 Z0.000 E7.015
G1 X0.791 Y-0.616 Z0.000 E7.015
G1 X0.791 Y-0.616 Z0.000 E7.015
G1 X0.791 Y-0.616 Z0.000 E7.015
G1 X0.791 Y-0.616 Z0.000 E7.015
G1 X0.791 Y-0.616 Z0.000 E7.015
G1 X0.791 Y-0.616 Z0.000 E7.015
G1 X0.797 Y3.689 Z0.000 E26.416
G1 X0.945 Y0.227 Z0.000 E6.804
G1 X0.945 Y0.227 Z0.000 E6.804
G1 X0.945 Y0.227 Z0.000 E6.804
G1 X0.945 Y0.227 Z0.000 E6.804
G1 X0.488 Y0.787 Z0.000 E6.483
G1 X0.411 Y0.881 Z0.000 E6.804
G1 X0.411 Y0.881 Z0.000 E6.804
G1 X0.411 Y0.881 Z0.000 E6.804
G1 X-0.191 Y0.874 Z0.000 E6.259
G1 X-0.432 Y0.871 Z0.000 E6.804
G1 X-0.432 Y0.871 Z0.000 E6.804
G1 X-0.432 Y0.871 Z0.000 E6.804
G1 X-0.728 Y0.490 Z0.000 E6.145
G1 X-0.950 Y0.205 Z0.000 E6.804
G1 X-0.950 Y0.205 Z0.000 E6.804
G1 X-0.950 Y0.205 Z0.000 E6.804
G1 X-0.866 Y-0.146 Z0.000 E6.145
G1 X-0.753 Y-0.615 Z0.000 E6.804
G1 X-0.753 Y-0.615 Z0.000 E6.804
G1 X-0.753 Y-0.615 Z0.000 E6.804
G1 X-0.534 Y-0.717 Z0.000 E6.259
G1 X0.011 Y-0.972 Z0.000 E6.804
G1 X0.011 Y-0.972 Z0.000 E6.804
G1 X0.011 Y-0.972 Z0.000 E6.804
G1 X0.119 Y-0.918 Z0.000 E6.483
G1 X0.767 Y-0.597 Z0.000 E6.804
G1 X0.767 Y-0.597 Z0.000 E6.804
G1 X0.767 Y-0.597 Z0.000 E6.804
G1 X0.767 Y-0.597 Z0.000 E6.804
G1 X0.797 Y3.689 Z0.000 E26.416
G1 X0.784 Y0.289 Z0.000 E5.853
G1 X0.154 Y0.792 Z0.000 E5.651
G1 X-0.590 Y0.529 Z0.000 E5.547
G1 X-0.756 Y-0.238 Z0.000 E5.547
G1 X-0.187 Y-0.785 Z0.000 E5.651
G1 X0.595 Y-0.587 Z0.000 E5.853
G1 X-7.207 Y-35.651 Z2.200 E255.068
G1 X0.974 Y0.248 Z0.000 E7.037
G1 X0.974 Y0.248 Z0.000 E7.037
G1 X0.974 Y0.248 Z0.000 E7.037
G1 X0.974 Y0.248 Z0.000 E7.037
G1 X0.974 Y0.248 Z0.000 E7.037
G1 X0.974 Y0.248 Z0.000 E7.037
G1 X0.974 Y0.248 Z0.000 E7.037
G1 X0.974 Y0.248 Z0.000 E7.037
G1 X0.974 Y0.248 Z0.000 E7.037
G1 X0.974 Y0.248 Z0.000 E7.037
G1 X0.974 Y0.248 Z0.000 E7.037
G1 X0.974 Y0.248 Z0.000 E7.037
G1 X0.974 Y0.248 Z0.000 E7.037
G1 X0.974 Y0.248 Z0.000 E7.037
G1 X0.974 Y0.248 Z0.000 E7.037
G1 X0.974 Y0.248 Z0.000 E7.037
G1 X0.974 Y0.248 Z0.000 E7.037
G1 X0.974 Y0.248 Z0.000 E7.037
G1 X0.974 Y0.248 Z0.000 E7.037
G1 X0.974 Y0.248 Z0.000 E7.037
G1 X0.974 Y0.248 Z0.000 E7.037
G1 X0.974 Y0.248 Z0.000 E7.037
G1 X0.974 Y0.248 Z0.000 E7.037
G1 X0.974 Y0.248 Z0.000 E7.037
G1 X0.974 Y0.248 Z0.000 E7.037
G1 X0.974 Y0.248 Z0.000 E7.037
G1 X0.974 Y0.248 Z0.000 E7.037
G1 X0.974 Y0.248 Z0.000 E7.037
G1 X0.974 Y0.248 Z0.000 E7.037
G1 X0.974 Y0.248 Z0.000 E7.037
G1 X0.974 Y0.248 Z0.000 E7.037
G1 X0.974 Y0.248 Z0.000 E7.037
G1 X0.494 Y0.821 Z0.000 E6.705
G1 X0.414 Y0.916 Z0.000 E7.037
G1 X0.414 Y0.916 Z0.000 E7.037
G1 X0.414 Y0.916 Z0.000 E7.037
G1 X0.414 Y0.916 Z0.000 E7.037
G1 X0.414 Y0.916 Z0.000 E7.037
G1 X0.414 Y0.916 Z0.000 E7.037
G1 X0.414 Y0.916 Z0.000 E7.037
G1 X0.414 Y0.916 Z0.000 E7.037
G1 X0.414 Y0.916 Z0.000 E7.037
G1 X0.414 Y0.916 Z0.000 E7.037
G1 X0.414 Y0.916 Z0.000 E7.037
G1 X0.414 Y0.916 Z0.000 E7.037
G1 X0.414 Y0.916 Z0.000 E7.037
G1 X0.414 Y0.916 Z0.000 E7.037
G1 X0.414 Y0.916 Z0.000 E7.037
G1 X0.414 Y0.916 Z0.000 E7.037
G1 X0.414 Y0.916 Z0.000 E7.037
G1 X0.414 Y0.916 Z0.000 E7.037
G1 X0.414 Y0.916 Z0.000 E7.037
G1 X0.414 Y0.916 Z0.000 E7.037
G1 X0.414 Y0.916 Z0.000 E7.037
G1 X0.414 Y0.916 Z0.000 E7.037
G1 X0.414 Y0.916 Z0.000 E7.037
G1 X0.414 Y0.916 Z0.000 E7.037
G1 X0.414 Y0.916 Z0.000 E7.037
G1 X0.414 Y0.916 Z0.000 E7.037
G1 X0.414 Y0.916 Z0.000 E7.037
G1 X0.414 Y0.916 Z0.000 E7.037
G1 X0.414 Y0.916 Z0.000 E7.037
G1 X0.414 Y0.916 Z0.000 E7.037
G1 X0.414 Y0.916 Z0.000 E7.037
G1 X-0.209 Y0.901 Z0.000 E6.474
G1 X-0.458 Y0.895 Z0.000 E7.037
G1 X-0.458 Y0.895 Z0.000 E7.037
G1 X-0.458 Y0.895 Z0.000 E7.037
G1 X-0.458 Y0.895 Z0.000 E7.037
G1 X-0.458 Y0.895 Z0.000 E7.037
G1 X-0.458 Y0.895 Z0.000 E7.037
G1 X-0.458 Y0.895 Z0.000 E7.037
G1 X-0.458 Y0.895 Z0.000 E7.037
G1 X-0.458 Y0.895 Z0.000 E7.037
G1 X-0.458 Y0.895 Z0.000 E7.037
G1 X-0.458 Y0.895 Z0.000 E7.037
G1 X-0.458 Y0.895 Z0.000 E7.037
G1 X-0.458 Y0.895 Z0.000 E7.037
G1 X-0.458 Y0.895 Z0.000 E7.037
G1 X-0.458 Y0.895 Z0.000 E7.037
G1 X-0.458 Y0.895 Z0.000 E7.037
G1 X-0.458 Y0.895 Z0.000 E7.037
G1 X-0.458 Y0.895 Z0.000 E7.037
G1 X-0.458 Y0.895 Z0.000 E7.037
G1 X-0.458 Y0.895 Z0.000 E7.037
G1 X-0.458 Y0.895 Z0.000 E7.037
G1 X-0.458 Y0.895 Z0.000 E7.037
G1 X-0.458 Y0.895 Z0.000 E7.037
G1 X-0.458 Y0.895 Z0.000 E7.037
G1 X-0.458 Y0.895 Z0.000 E7.037
G1 X-0.458 Y0.895 Z0.000 E7.037
G1 X-0.458 Y0.895 Z0.000 E7.037
G1 X-0.458 Y0.895 Z0.000 E7.037
G1 X-0.458 Y0.895 Z0.000 E7.037
G1 X-0.458 Y0.895 Z0.000 E7.037
G1 X-0.458 Y0.895 Z0.000 E7.037
G1 X-0.759 Y0.497 Z0.000 E6.355
G1 X-0.985 Y0.200 Z0.000 E7.037
G1 X-0.985 Y0.200 Z0.000 E7.037
G1 X-0.985 Y0.200 Z0.000 E7.037
G1 X-0.985 Y0.200 Z0.000 E7.037
G1 X-0.985 Y0.200 Z0.000 E7.037
G1 X-0.985 Y0.200 Z0.000 E7.037
G1 X-0.985 Y0.200 Z0.000 E7.037
G1 X-0.985 Y0.200 Z0.000 E7.037
G1 X-0.985 Y0.200 Z0.000 E7.037
G1 X-0.985 Y0.200 Z0.000 E7.037
G1 X-0.985 Y0.200 Z0.000 E7.037
G1 X-0.985 Y0.200 Z0.000 E7.037
G1 X-0.985 Y0.200 Z0.000 E7.037
G1 X-0.985 Y0.200 Z0.000 E7.037
G1 X-0.985 Y0.200 Z0.000 E7.037
G1 X-0.985 Y0.200 Z0.000 E7.037
G1 X-0.985 Y0.200 Z0.000 E7.037
G1 X-0.985 Y0.200 Z0.000 E7.037
G1 X-0.985 Y0.200 Z0.000 E7.037
G1 X-0.985 Y0.200 Z0.000 E7.037
G1 X-0.985 Y0.200 Z0.000 E7.037
G1 X-0.985 Y0.200 Z0.000 E7.037
G1 X-0.985 Y0.200 Z0.000 E7.037
G1 X-0.985 Y0.200 Z0.000 E7.037
G1 X-0.985 Y0.200 Z0.000 E7.037
G1 X-0.985 Y0.200 Z0.000 E7.037
G1 X-0.985 Y0.200 Z0.000 E7.037
G1 X-0.985 Y0.200 Z0.000 E7.037
G1 X-0.985 Y0.200 Z0.000 E7.037
G1 X-0.985 Y0.200 Z0.000 E7.037
G1 X-0.985 Y0.200 Z0.000 E7.037
G1 X-0.893 Y-0.163 Z0.000 E6.355
G1 X-0.770 Y-0.646 Z0.000 E7.037
G1 X-0.770 Y-0.646 Z0.000 E7.037
G1 X-0.770 Y-0.646 Z0.000 E7.037
G1 X-0.770 Y-0.646 Z0.000 E7.037
G1 X-0.770 Y-0.646 Z0.000 E7.037
G1 X-0.770 Y-0.646 Z0.000 E7.037
G1 X-0.770 Y-0.646 Z0.000 E7.037
G1 X-0.770 Y-0.646 Z0.000 E7.037
G1 X-0.770 Y-0.646 Z0.000 E7.037
G1 X-0.770 Y-0.646 Z0.000 E7.037
G1 X-0.770 Y-0.646 Z0.000 E7.037
G1 X-0.770 Y-0.646 Z0.000 E7.037
G1 X-0.770 Y-0.646 Z0.000 E7.037
G1 X-0.770 Y-0.646 Z0.000 E7.037
G1 X-0.770 Y-0.646 Z0.000 E7.037
G1 X-0.770 Y-0.646 Z0.000 E7.037
G1 X-0.770 Y-0.646 Z0.000 E7.037
G1 X-0.770 Y-0.646 Z-0.000 E7.037
G1 X-0.770 Y-0.646 Z0.000 E7.037
G1 X-0.770 Y-0.646 Z0.000 E7.037
G1 X-0.770 Y-0.646 Z0.000 E7.037
G1 X-0.770 Y-0.646 Z0.000 E7.037
G1 X-0.770 Y-0.646 Z0.000 E7.037
G1 X-0.770 Y-0.646 Z-0.000 E7.037
G1 X-0.770 Y-0.646 Z0.000 E7.037
G1 X-0.770 Y-0.646 Z0.000 E7.037
G1 X-0.770 Y-0.646 Z0.000 E7.037
G1 X-0.770 Y-0.646 Z0.000 E7.037
G1 X-0.770 Y-0.646 Z0.000 E7.037
G1 X-0.770 Y-0.646 Z0.000 E7.037
G1 X-0.770 Y-0.646 Z0.000 E7.037
G1 X-0.543 Y-0.749 Z0.000 E6.474
G1 X0.025 Y-1.005 Z0.000 E7.037
G1 X0.025 Y-1.005 Z-0.000 E7.037
G1 X0.025 Y-1.005 Z0.000 E7.037
G1 X0.025 Y-1.005 Z-0.000 E7.037
G1 X0.025 Y-1.005 Z0.000 E7.037
G1 X0.025 Y-1.005 Z0.000 E7.037
G1 X0.025 Y-1.005 Z0.000 E7.037
G1 X0.025 Y-1.005 Z0.000 E7.037
G1 X0.025 Y-1.005 Z-0.000 E7.037
G1 X0.025 Y-1.005 Z0.000 E7.037
G1 X0.025 Y-1.005 Z0.000 E7.037
G1 X0.025 Y-1.005 Z0.000 E7.037
G1 X0.025 Y-1.005 Z-0.000 E7.037
G1 X0.025 Y-1.005 Z0.000 E7.037
G1 X0.025 Y-1.005 Z0.000 E7.037
G1 X0.025 Y-1.005 Z0.000 E7.037
G1 X0.025 Y-1.005 Z0.000 E7.037
G1 X0.025 Y-1.005 Z0.000 E7.037
G1 X0.025 Y-1.005 Z0.000 E7.037
G1 X0.025 Y-1.005 Z0.000 E7.037
G1 X0.025 Y-1.005 Z0.000 E7.037
G1 X0.025 Y-1.005 Z-0.000 E7.037
G1 X0.025 Y-1.005 Z0.000 E7.037
G1 X0.025 Y-1.005 Z0.000 E7.037
G1 X0.025 Y-1.005 Z0.000 E7.037
G1 X0.025 Y-1.005 Z0.000 E7.037
G1 X0.025 Y-1.005 Z-0.000 E7.037
G1 X0.025 Y-1.005 Z0.000 E7.037
G1 X0.025 Y-1.005 Z0.000 E7.037
G1 X0.025 Y-1.005 Z0.000 E7.037
G1 X0.025 Y-1.005 Z0.000 E7.037
G1 X0.136 Y-0.948 Z0.000 E6.705
G1 X0.801 Y-0.607 Z-0.000 E7.037
G1 X0.801 Y-0.607 Z0.000 E7.037
G1 X0.801 Y-0.607 Z0.000 E7.037
G1 X0.801 Y-0.607 Z0.000 E7.037
G1 X0.801 Y-0.607 Z0.000 E7.037
G1 X0.801 Y-0.607 Z0.000 E7.037
G1 X0.801 Y-0.607 Z0.000 E7.037
G1 X0.801 Y-0.607 Z0.000 E7.037
G1 X0.801 Y-0.607 Z0.000 E7.037
G1 X0.801 Y-0.607 Z0.000 E7.037
G1 X0.801 Y-0.607 Z0.000 E7.037
G1 X0.801 Y-0.607 Z0.000 E7.037
G1 X0.801 Y-0.607 Z0.000 E7.037
G1 X0.801 Y-0.607 Z0.000 E7.037
G1 X0.801 Y-0.607 Z0.000 E7.037
G1 X0.801 Y-0.607 Z0.000 E7.037
G1 X0.801 Y-0.607 Z0.000 E7.037
G1 X0.801 Y-0.607 Z0.000 E7.037
G1 X0.801 Y-0.607 Z0.000 E7.037
G1 X0.801 Y-0.607 Z0.000 E7.037
G1 X0.801 Y-0.607 Z0.000 E7.037
G1 X0.801 Y-0.607 Z0.000 E7.037
G1 X0.801 Y-0.607 Z0.000 E7.037
G1 X0.801 Y-0.607 Z0.000 E7.037
G1 X0.801 Y-0.607 Z0.000 E7.037
G1 X0.801 Y-0.607 Z0.000 E7.037
G1 X0.801 Y-0.607 Z0.000 E7.037
G1 X0.801 Y-0.607 Z0.000 E7.037
G1 X0.801 Y-0.607 Z0.000 E7.037
G1 X0.801 Y-0.607 Z0.000 E7.037
G1 X0.801 Y-0.607 Z0.000 E7.037
G1 X0.801 Y-0.607 Z0.000 E7.037
G1 X0.749 Y3.699 Z0.000 E26.416
G1 X0.970 Y0.247 Z-0.000 E7.010
G1 X0.970 Y0.247 Z0.000 E7.010
G1 X0.970 Y0.247 Z0.000 E7.010
G1 X0.970 Y0.247 Z0.000 E7.010
G1 X0.970 Y0.247 Z0.000 E7.010
G1 X0.970 Y0.247 Z0.000 E7.010
G1 X0.970 Y0.247 Z0.000 E7.010
G1 X0.970 Y0.247 Z0.000 E7.010
G1 X0.970 Y0.247 Z0.000 E7.010
G1 X0.970 Y0.247 Z0.000 E7.010
G1 X0.970 Y0.247 Z0.000 E7.010
G1 X0.970 Y0.247 Z0.000 E7.010
G1 X0.970 Y0.247 Z0.000 E7.010
G1 X0.970 Y0.247 Z0.000 E7.010
G1 X0.970 Y0.247 Z0.000 E7.010
G1 X0.970 Y0.247 Z0.000 E7.010
G1 X0.970 Y0.247 Z0.000 E7.010
G1 X0.970 Y0.247 Z0.000 E7.010
G1 X0.970 Y0.247 Z0.000 E7.010
G1 X0.970 Y0.247 Z0.000 E7.010
G1 X0.970 Y0.247 Z0.000 E7.010
G1 X0.970 Y0.247 Z0.000 E7.010
G1 X0.970 Y0.247 Z0.000 E7.010
G1 X0.970 Y0.247 Z0.000 E7.010
G1 X0.970 Y0.247 Z0.000 E7.010
G1 X0.970 Y0.247 Z0.000 E7.010
G1 X0.970 Y0.247 Z0.000 E7.010
G1 X0.970 Y0.247 Z0.000 E7.010
G1 X0.970 Y0.247 Z0.000 E7.010
G1 X0.412 Y0.913 Z0.000 E7.010
G1 X0.412 Y0.913 Z0.000 E7.010
G1 X0.412 Y0.913 Z0.000 E7.010
G1 X0.412 Y0.913 Z0.000 E7.010
G1 X0.412 Y0.913 Z0.000 E7.010
G1 X0.412 Y0.913 Z0.000 E7.010
G1 X0.412 Y0.913 Z0.000 E7.010
G1 X0.412 Y0.913 Z0.000 E7.010
G1 X0.412 Y0.913 Z0.000 E7.010
G1 X0.412 Y0.913 Z0.000 E7.010
G1 X0.412 Y0.913 Z0.000 E7.010
G1 X0.412 Y0.913 Z0.000 E7.010
G1 X0.412 Y0.913 Z0.000 E7.010
G1 X0.412 Y0.913 Z0.000 E7.010
G1 X0.412 Y0.913 Z0.000 E7.010
G1 X0.412 Y0.913 Z0.000 E7.010
G1 X0.412 Y0.913 Z0.000 E7.010
G1 X0.412 Y0.913 Z0.000 E7.010
G1 X0.412 Y0.913 Z0.000 E7.010
G1 X0.412 Y0.913 Z0.000 E7.010
G1 X0.412 Y0.913 Z0.000 E7.010
G1 X0.412 Y0.913 Z0.000 E7.010
G1 X0.412 Y0.913 Z0.000 E7.010
G1 X0.412 Y0.913 Z0.000 E7.010
G1 X0.412 Y0.913 Z0.000 E7.010
G1 X0.412 Y0.913 Z0.000 E7.010
G1 X0.412 Y0.913 Z0.000 E7.010
G1 X0.412 Y0.913 Z0.000 E7.010
G1 X0.412 Y0.913 Z0.000 E7.010
G1 X-0.457 Y0.891 Z0.000 E7.010
G1 X-0.457 Y0.891 Z0.000 E7.010
G1 X-0.457 Y0.891 Z0.000 E7.010
G1 X-0.457 Y0.891 Z0.000 E7.010
G1 X-0.457 Y0.891 Z0.000 E7.010
G1 X-0.457 Y0.891 Z0.000 E7.010
G1 X-0.457 Y0.891 Z0.000 E7.010
G1 X-0.457 Y0.891 Z0.000 E7.010
G1 X-0.457 Y0.891 Z0.000 E7.010
G1 X-0.457 Y0.891 Z0.000 E7.010
G1 X-0.457 Y0.891 Z0.000 E7.010
G1 X-0.457 Y0.891 Z0.000 E7.010
G1 X-0.457 Y0.891 Z0.000 E7.010
G1 X-0.457 Y0.891 Z0.000 E7.010
G1 X-0.457 Y0.891 Z0.000 E7.010
G1 X-0.457 Y0.891 Z0.000 E7.010
G1 X-0.457 Y0.891 Z0.000 E7.010
G1 X-0.457 Y0.891 Z0.000 E7.010
G1 X-0.457 Y0.891 Z0.000 E7.010
G1 X-0.457 Y0.891 Z0.000 E7.010
G1 X-0.457 Y0.891 Z0.000 E7.010
G1 X-0.457 Y0.891 Z0.000 E7.010
G1 X-0.457 Y0.891 Z0.000 E7.010
G1 X-0.457 Y0.891 Z0.000 E7.010
G1 X-0.457 Y0.891 Z0.000 E7.010
G1 X-0.457 Y0.891 Z0.000 E7.010
G1 X-0.457 Y0.891 Z0.000 E7.010
G1 X-0.457 Y0.891 Z0.000 E7.010
G1 X-0.457 Y0.891 Z0.000 E7.010
G1 X-0.981 Y0.199 Z0.000 E7.010
G1 X-0.981 Y0.199 Z0.000 E7.010
G1 X-0.981 Y0.199 Z0.000 E7.010
G1 X-0.981 Y0.199 Z0.000 E7.010
G1 X-0.981 Y0.199 Z0.000 E7.010
G1 X-0.981 Y0.199 Z0.000 E7.010
G1 X-0.981 Y0.199 Z0.000 E7.010
G1 X-0.981 Y0.199 Z0.000 E7.010
G1 X-0.981 Y0.199 Z0.000 E7.010
G1 X-0.981 Y0.199 Z0.000 E7.010
G1 X-0.981 Y0.199 Z0.000 E7.010
G1 X-0.981 Y0.199 Z0.000 E7.010
G1 X-0.981 Y0.199 Z0.000 E7.010
G1 X-0.981 Y0.199 Z0.000 E7.010
G1 X-0.981 Y0.199 Z0.000 E7.010
G1 X-0.981 Y0.199 Z0.000 E7.010
G1 X-0.981 Y0.199 Z0.000 E7.010
