; *************************************************
; *************************************************
; ******* File generated by Extruder Turtle *******
; ******* written by Franklin Pezzuti-Dyer ********
; ******* and Leah Buechley ***********************
; ******* Hand and Machine Lab, UNM, 2022 *********
; *************************************************
; *************************************************
; *************** Printer parameters **************
; Printer: 3Dpotter
; Nozzle size: 3.0
; Extrude width: 3.5
; Layer height: 2.2
; Extrude rate: 3.0
; Speed: 1000
; *************** 3D Potter initialization **************
M82                             ; Absolute extrusion mode
G28                             ; Home all axes
G92 E0                          ; Reset Extruder
G1 F40000 E2000                 ; Prime Extruder, Extrude 2000mm of clay
G90 							; Absolute coordinates for X,Y,Z   
; M208 X0 Y0 Z0 S1              ; Set axis minima
; M208 X415 Y405 Z500 S0        ; Set axis maxima 
G1 X207.5 Y202.5 Z0 F10000 		; Go to the starting position (center of print bed)
M83                             ; Relative extrusion
G91                     		; Relative coordinates for X,Y,Z axes
G1 F1000
; *************** End printer initialization **************
G1 X29.96857 Y0.52288 Z0.0 E149.865655784
G1 X0.00399 Y-0.99952 Z0.0 E4.99763981920
G1 X-0.16566 Y-0.98576 Z0.0 E4.99791459811
G1 X-0.32236 Y-0.94636 Z0.0 E4.99878289987
G1 X-0.45754 Y-0.88915 Z0.0 E4.99982643224
G1 X-0.56861 Y-0.82279 Z0.0 E5.00075173399
G1 X-0.65723 Y-0.7541 Z0.0 E5.00154496856
G1 X-0.72689 Y-0.68738 Z0.0 E5.00215037884
G1 X-0.78129 Y-0.625 Z0.0 E5.00259698582
G1 X-0.82365 Y-0.56812 Z0.0 E5.00289830223
G1 X-0.85653 Y-0.51731 Z0.0 E5.00313221143
G1 X-0.88184 Y-0.47296 Z0.0 E5.00333125827
G1 X-0.90093 Y-0.43557 Z0.0 E5.00348900718
G1 X-0.91466 Y-0.40602 Z0.0 E5.00363656754
G1 X-0.92335 Y-0.3859 Z0.0 E5.00373368721
G1 X-0.9266 Y-0.37805 Z0.0 E5.00377198346
G1 X-0.92269 Y-0.38746 Z0.0 E5.00370384740
G1 X-0.90689 Y-0.42284 Z0.0 E5.00310687898
G1 X-0.86737 Y-0.49806 Z0.0 E5.00098610401
G1 X-0.77836 Y-0.62639 Z0.0 E4.99551979703
G1 X-0.61181 Y-0.78846 Z0.0 E4.98994150191
G1 X-0.40262 Y-0.914 Z0.0 E4.99374324630
G1 X-0.23578 Y-0.9718 Z0.0 E4.99996862090
G1 X-0.13751 Y-0.99106 Z0.0 E5.00277154111
G1 X-0.08972 Y-0.99669 Z0.0 E5.00360029004
G1 X-0.0737 Y-0.99804 Z0.0 E5.00378739456
G1 X-0.07821 Y-0.99769 Z0.0 E5.00375394129
G1 X-0.09707 Y-0.99601 Z0.0 E5.00364493395
G1 X-0.12699 Y-0.99262 Z0.0 E5.00355105025
G1 X-0.16628 Y-0.98676 Z0.0 E5.00335971123
G1 X-0.2142 Y-0.97744 Z0.0 E5.00317547564
G1 X-0.27058 Y-0.96331 Z0.0 E5.00294836197
G1 X-0.3356 Y-0.94257 Z0.0 E5.00266320298
G1 X-0.40952 Y-0.91279 Z0.0 E5.00223003894
G1 X-0.49237 Y-0.87078 Z0.0 E5.00171476921
G1 X-0.58337 Y-0.81244 Z0.0 E5.00094818634
G1 X-0.68006 Y-0.73317 Z0.0 E5.00004963100
G1 X-0.77729 Y-0.62883 Z0.0 E4.99901718591
G1 X-0.86668 Y-0.4981 Z0.0 E4.99809421780
G1 X-0.93806 Y-0.3451 Z0.0 E4.99762587035
G1 X-0.98318 Y-0.18026 Z0.0 E4.99784098386
G1 X-0.99957 Y-0.01717 Z0.0 E4.99858728492
G1 X-0.99108 Y0.13266 Z0.0 E4.99959558865
G1 X-0.96492 Y0.26298 Z0.0 E5.00057268420
G1 X-0.92833 Y0.37251 Z0.0 E5.00140052635
G1 X-0.88688 Y0.46289 Z0.0 E5.00205779280
G1 X-0.84427 Y0.53684 Z0.0 E5.00247193520
G1 X-0.80284 Y0.59714 Z0.0 E5.00281981786
G1 X-0.76403 Y0.64614 Z0.0 E5.00309589279
G1 X-0.72884 Y0.68565 Z0.0 E5.00330807591
G1 X-0.69816 Y0.71691 Z0.0 E5.00346713215
G1 X-0.67303 Y0.74059 Z0.0 E5.00360602216
G1 X-0.65494 Y0.75667 Z0.0 E5.00373833374
G1 X-0.64621 Y0.76415 Z0.0 E5.00378003763
G1 X-0.65065 Y0.76036 Z0.0 E5.00373048860
G1 X-0.67452 Y0.73915 Z0.0 E5.00329879405
G1 X-0.72695 Y0.68715 Z0.0 E5.00157831339
G1 X-0.8151 Y0.57825 Z0.0 E4.99690172132
G1 X-0.92066 Y0.38546 Z0.0 E4.99047654839
G1 X-0.98786 Y0.14521 Z0.0 E4.99237749900
G1 X-0.99867 Y-0.04749 Z0.0 E4.99899257101
G1 X-0.98751 Y-0.16062 Z0.0 E5.00243636766
G1 X-0.97706 Y-0.21626 Z0.0 E5.00353532815
G1 X-0.97227 Y-0.23706 Z0.0 E5.00376457405
G1 X-0.97251 Y-0.23606 Z0.0 E5.00374865401
G1 X-0.97623 Y-0.22011 Z0.0 E5.00368220664
G1 X-0.98199 Y-0.19266 Z0.0 E5.00355432593
G1 X-0.98855 Y-0.15536 Z0.0 E5.00341841170
G1 X-0.99472 Y-0.10877 Z0.0 E5.00324592465
G1 X-0.99921 Y-0.05273 Z0.0 E5.00300179142
G1 X-1.00045 Y0.01339 Z0.0 E5.00269800857
G1 X-0.99636 Y0.09055 Z0.0 E5.00233083697
G1 X-0.98407 Y0.17981 Z0.0 E5.00181317374
G1 X-0.9597 Y0.28184 Z0.0 E5.00114455800
G1 X-0.91826 Y0.3961 Z0.0 E5.00024158816
G1 X-0.85421 Y0.51962 Z0.0 E4.99919910711
G1 X-0.76314 Y0.6457 Z0.0 E4.99827757733
G1 X-0.64466 Y0.76386 Z0.0 E4.99767099557
G1 X-0.50482 Y0.8627 Z0.0 E4.99773579334
G1 X-0.35517 Y0.93446 Z0.0 E4.99840279614
G1 X-0.20826 Y0.97795 Z0.0 E4.99939603877
G1 X-0.0732 Y0.9974 Z0.0 E5.00041248299
G1 X0.04567 Y0.99921 Z0.0 E5.00126577228
G1 X0.1477 Y0.98942 Z0.0 E5.00191769824
G1 X0.2341 Y0.97271 Z0.0 E5.00241830043
G1 X0.30677 Y0.95237 Z0.0 E5.00279034590
G1 X0.36755 Y0.93066 Z0.0 E5.00305166398
G1 X0.41794 Y0.90919 Z0.0 E5.00324969320
G1 X0.45895 Y0.88924 Z0.0 E5.00345600585
G1 X0.49103 Y0.87197 Z0.0 E5.00360405558
G1 X0.51388 Y0.85872 Z0.0 E5.00368037748
G1 X0.52612 Y0.8513 Z0.0 E5.00378342957
G1 X0.52455 Y0.85226 Z0.0 E5.00374812041
G1 X0.50244 Y0.8654 Z0.0 E5.00340662349
G1 X0.4462 Y0.8954 Z0.0 E5.00208856379
G1 X0.33095 Y0.94326 Z0.0 E4.99816798962
G1 X0.1311 Y0.98964 Z0.0 E4.99142900280
G1 X-0.11992 Y0.99101 Z0.0 E4.99119631576
G1 X-0.32365 Y0.94573 Z0.0 E4.99788594158
G1 X-0.4424 Y0.89726 Z0.0 E5.00198277586
G1 X-0.50073 Y0.86639 Z0.0 E5.00340425361
G1 X-0.52405 Y0.85257 Z0.0 E5.00375860579
G1 X-0.52639 Y0.85113 Z0.0 E5.00377035095
G1 X-0.5147 Y0.85824 Z0.0 E5.00372857877
G1 X-0.4923 Y0.87125 Z0.0 E5.00358834363
G1 X-0.46063 Y0.88837 Z0.0 E5.00345194291
G1 X-0.42004 Y0.90823 Z0.0 E5.00328725565
G1 X-0.37011 Y0.92965 Z0.0 E5.00307539070
G1 X-0.30984 Y0.95138 Z0.0 E5.00281103481
G1 X-0.23776 Y0.97182 Z0.0 E5.00240924455
G1 X-0.15204 Y0.98877 Z0.0 E5.00195530393
G1 X-0.05078 Y0.99897 Z0.0 E5.00129900451
G1 X0.06731 Y0.99782 Z0.0 E5.00043845203
G1 X0.20168 Y0.97934 Z0.0 E4.99945411520
G1 X0.34821 Y0.93708 Z0.0 E4.99842257742
G1 X0.49799 Y0.86666 Z0.0 E4.99773347554
G1 X0.63857 Y0.76896 Z0.0 E4.99767727675
G1 X0.75823 Y0.65144 Z0.0 E4.99821669823
G1 X0.85061 Y0.52549 Z0.0 E4.99919271533
G1 X0.91583 Y0.40166 Z0.0 E5.00018835770
G1 X0.9582 Y0.28688 Z0.0 E5.00111831094
G1 X0.98324 Y0.18426 Z0.0 E5.00178129570
G1 X0.996 Y0.09442 Z0.0 E5.00232729937
G1 X1.0004 Y0.01672 Z0.0 E5.00269856777
G1 X0.99936 Y-0.04989 Z0.0 E5.00302264061
G1 X0.99497 Y-0.10638 Z0.0 E5.00320398670
G1 X0.98885 Y-0.1534 Z0.0 E5.00338855802
G1 X0.98229 Y-0.19114 Z0.0 E5.00356908541
G1 X0.97646 Y-0.21907 Z0.0 E5.00366314938
G1 X0.97262 Y-0.23562 Z0.0 E5.0037647047
G1 X0.97218 Y-0.23742 Z0.0 E5.00375411266
G1 X0.9767 Y-0.21786 Z0.0 E5.00351343957
G1 X0.98693 Y-0.16426 Z0.0 E5.00252979127
G1 X0.99837 Y-0.05441 Z0.0 E4.9992577074
G1 X0.98942 Y0.13461 Z0.0 E4.99267410438
G1 X0.92507 Y0.37467 Z0.0 E4.99032091603
G1 X0.81994 Y0.57126 Z0.0 E4.99659782052
G1 X0.73024 Y0.68362 Z0.0 E5.00146668988
G1 X0.67624 Y0.73757 Z0.0 E5.00327403432
G1 X0.65127 Y0.75982 Z0.0 E5.00369624703
G1 X0.64608 Y0.76426 Z0.0 E5.00378035589
G1 X0.6543 Y0.75722 Z0.0 E5.00372515832
G1 X0.67202 Y0.7415 Z0.0 E5.00358154325
G1 X0.69686 Y0.71817 Z0.0 E5.00345382836
G1 X0.72731 Y0.68727 Z0.0 E5.00329863440
G1 X0.76231 Y0.64817 Z0.0 E5.00310125072
G1 X0.80097 Y0.59965 Z0.0 E5.00283185656
G1 X0.84231 Y0.53992 Z0.0 E5.00249873188
G1 X0.8849 Y0.46666 Z0.0 E5.00204849437
G1 X0.92648 Y0.3771 Z0.0 E5.00142379828
G1 X0.96341 Y0.26851 Z0.0 E5.00064107940
G1 X0.9902 Y0.13916 Z0.0 E4.99965385202
G1 X0.99967 Y-0.00985 Z0.0 E4.99859263043
G1 X0.98456 Y-0.17255 Z0.0 E4.99782926904
G1 X0.94078 Y-0.33762 Z0.0 E4.99763512274
G1 X0.87047 Y-0.49144 Z0.0 E4.99807786679
G1 X0.78168 Y-0.62334 Z0.0 E4.99894083282
G1 X0.68461 Y-0.72891 Z0.0 E5.0000016005
G1 X0.58776 Y-0.80927 Z0.0 E5.00094928614
G1 X0.49642 Y-0.86847 Z0.0 E5.0016821103
G1 X0.41317 Y-0.91114 Z0.0 E5.00221338134
G1 X0.33883 Y-0.94141 Z0.0 E5.00264569253
G1 X0.27341 Y-0.96251 Z0.0 E5.00294545293
G1 X0.21663 Y-0.97691 Z0.0 E5.00320323643
G1 X0.16832 Y-0.98642 Z0.0 E5.00338894850
G1 X0.12862 Y-0.99241 Z0.0 E5.00355052063
G1 X0.09823 Y-0.9959 Z0.0 E5.00366351512
G1 X0.0788 Y-0.99765 Z0.0 E5.00378597289
G1 X0.07352 Y-0.99805 Z0.0 E5.00377106016
G1 X0.08838 Y-0.99681 Z0.0 E5.00360170402
G1 X0.13435 Y-0.99151 Z0.0 E5.00285419186
G1 X0.22978 Y-0.97328 Z0.0 E5.00018201369
G1 X0.39343 Y-0.91807 Z0.0 E4.99409573847
G1 X0.60239 Y-0.79566 Z0.0 E4.98986108950
G1 X0.77244 Y-0.63357 Z0.0 E4.99518392679
G1 X0.8646 Y-0.50278 Z0.0 E5.00080215665
G1 X0.90571 Y-0.42532 Z0.0 E5.00301835520
G1 X0.92227 Y-0.38844 Z0.0 E5.00366762111
G1 X0.9266 Y-0.37806 Z0.0 E5.00379087193
G1 X0.92363 Y-0.38524 Z0.0 E5.00375417687
G1 X0.91517 Y-0.40486 Z0.0 E5.00361806221
G1 X0.90168 Y-0.43401 Z0.0 E5.00347754692
G1 X0.88286 Y-0.47106 Z0.0 E5.00334713767
G1 X0.85786 Y-0.5151 Z0.0 E5.00312849525
G1 X0.82537 Y-0.56562 Z0.0 E5.00290321039
G1 X0.78349 Y-0.62223 Z0.0 E5.00256622395
G1 X0.72972 Y-0.68438 Z0.0 E5.00216768711
G1 X0.66085 Y-0.75094 Z0.0 E5.00158376442
G1 X0.57319 Y-0.81961 Z0.0 E5.00076826148
G1 X0.46322 Y-0.88621 Z0.0 E4.99985232907
G1 X0.32915 Y-0.94403 Z0.0 E4.99883077179
G1 X0.1733 Y-0.98446 Z0.0 E4.99798554820
G1 Z0
; printing bottom spiral: 0
G1 X0.0785 Y-4.49932 Z0.0 E22.5000237291
G1 X-4.57447 Y3.48184 Z0.0 E28.7441235588
G1 X-0.10347 Y-0.22202 Z0.0 E1.22473386191
G1 X-0.14425 Y-0.24117 Z0.0 E1.40508924450
G1 X-0.19919 Y-0.28112 Z0.0 E1.72268040057
G1 X-0.2693 Y-0.32343 Z0.0 E2.10433751392
G1 X-0.34763 Y-0.35584 Z0.0 E2.48731141245
G1 X-0.42637 Y-0.3744 Z0.0 E2.83710564176
G1 X-0.50045 Y-0.38062 Z0.0 E3.14373101147
G1 X-0.56767 Y-0.37782 Z0.0 E3.40953509038
G1 X-0.62791 Y-0.36962 Z0.0 E3.64310963498
G1 X-0.6823 Y-0.35929 Z0.0 E3.85558878156
G1 X-0.73273 Y-0.34985 Z0.0 E4.05982843049
G1 X-0.78172 Y-0.3444 Z0.0 E4.27111671112
G1 X-0.83284 Y-0.34691 Z0.0 E4.51101156533
G1 X-0.89129 Y-0.36346 Z0.0 E4.81274619033
G1 X-0.96503 Y-0.40499 Z0.0 E5.23282858739
G1 X-1.06621 Y-0.4934 Z0.0 E5.87419637929
G1 X-1.2066 Y-0.67413 Z0.0 E6.91074311652
G1 X-1.35881 Y-1.02303 Z0.0 E8.50434447356
G1 X-1.34575 Y-1.53553 Z0.0 E10.2089365795
G1 X-0.96555 Y-1.85863 Z0.0 E10.4723353167
G1 X-0.49076 Y-1.72484 Z0.0 E8.96649095689
G1 X-0.22168 Y-1.43363 Z0.0 E7.25333888513
G1 X-0.1143 Y-1.21169 Z0.0 E6.08534540125
G1 X-0.0796 Y-1.07009 Z0.0 E5.36523244627
G1 X-0.07667 Y-0.97741 Z0.0 E4.90206231346
G1 X-0.08961 Y-0.91119 Z0.0 E4.57792848404
G1 X-0.11183 Y-0.85807 Z0.0 E4.32663285304
G1 X-0.1401 Y-0.81005 Z0.0 E4.11038019075
G1 X-0.17245 Y-0.76191 Z0.0 E3.90591170727
G1 X-0.20723 Y-0.70971 Z0.0 E3.69673016665
G1 X-0.24257 Y-0.65006 Z0.0 E3.46921535978
G1 X-0.27593 Y-0.58017 Z0.0 E3.21222117000
G1 X-0.30382 Y-0.49789 Z0.0 E2.91633779122
G1 X-0.32149 Y-0.40268 Z0.0 E2.57636858048
G1 X-0.324 Y-0.2976 Z0.0 E2.19966906602
G1 X-0.30835 Y-0.19058 Z0.0 E1.81246006094
G1 X-0.27869 Y-0.09504 Z0.0 E1.47224928001
G1 X-0.24945 Y-0.02337 Z0.0 E1.25271165278
G1 X-0.24101 Y0.02268 Z0.0 E1.21037393499
G1 X-0.26534 Y0.05595 Z0.0 E1.35587350166
G1 X-0.31677 Y0.09354 Z0.0 E1.65146120527
G1 X-0.37867 Y0.1444 Z0.0 E2.02634109234
G1 X-0.43577 Y0.20719 Z0.0 E2.41258776524
G1 X-0.48056 Y0.27589 Z0.0 E2.77061909011
G1 X-0.51183 Y0.34486 Z0.0 E3.08584821605
G1 X-0.53181 Y0.41054 Z0.0 E3.35918504886
G1 X-0.54382 Y0.47141 Z0.0 E3.59849823016
G1 X-0.55129 Y0.52725 Z0.0 E3.81416185616
G1 X-0.55768 Y0.57884 Z0.0 E4.01890136729
G1 X-0.56664 Y0.6275 Z0.0 E4.22740209703
G1 X-0.58272 Y0.67525 Z0.0 E4.45961085999
G1 X-0.6126 Y0.72487 Z0.0 E4.74530103603
G1 X-0.66766 Y0.78035 Z0.0 E5.13496834971
G1 X-0.76961 Y0.84675 Z0.0 E5.72119986235
G1 X-0.95973 Y0.92405 Z0.0 E6.66136261474
G1 X-1.30256 Y0.97823 Z0.0 E8.14493168556
G1 X-1.78652 Y0.86612 Z0.0 E9.92700554649
G1 X-2.0713 Y0.44649 Z0.0 E10.5943817777
G1 X-1.86686 Y-0.00473 Z0.0 E9.33432996055
G1 X-1.4962 Y-0.21391 Z0.0 E7.55706941893
G1 X-1.2271 Y-0.26423 Z0.0 E6.27612918705
G1 X-1.06576 Y-0.2588 Z0.0 E5.48366168176
G1 X-0.96801 Y-0.23496 Z0.0 E4.98058621474
G1 X-0.90453 Y-0.20333 Z0.0 E4.63550862851
G1 X-0.85857 Y-0.16664 Z0.0 E4.37296048033
G1 X-0.82084 Y-0.12574 Z0.0 E4.15207434062
G1 X-0.78523 Y-0.08087 Z0.0 E3.94691686573
G1 X-0.7472 Y-0.03232 Z0.0 E3.73949335606
G1 X-0.70309 Y0.01924 Z0.0 E3.51676600622
G1 X-0.64929 Y0.07248 Z0.0 E3.26661466391
G1 X-0.58251 Y0.12499 Z0.0 E2.97884373625
G1 X-0.50056 Y0.17279 Z0.0 E2.64771929073
G1 X-0.40389 Y0.21041 Z0.0 E2.27705676368
G1 X-0.29791 Y0.23221 Z0.0 E1.88859638488
G1 X-0.19515 Y0.23645 Z0.0 E1.53290675679
G1 X-0.11234 Y0.23087 Z0.0 E1.28375652384
G1 X-0.05988 Y0.2331 Z0.0 E1.20334143534
G1 X-0.03267 Y0.26052 Z0.0 E1.31280233946
G1 X-0.01336 Y0.31645 Z0.0 E1.58365946545
G1 X0.01342 Y0.38949 Z0.0 E1.94860563288
G1 X0.05305 Y0.46438 Z0.0 E2.33700174850
G1 X0.10307 Y0.53048 Z0.0 E2.70200136612
G1 X0.1585 Y0.58417 Z0.0 E3.02645353054
G1 X0.21496 Y0.62561 Z0.0 E3.30755073166
G1 X0.2697 Y0.65739 Z0.0 E3.55281473659
G1 X0.32122 Y0.68265 Z0.0 E3.77224505732
G1 X0.36907 Y0.7049 Z0.0 E3.97836861948
G1 X0.41325 Y0.72778 Z0.0 E4.18461255943
G1 X0.45424 Y0.756 Z0.0 E4.40984687262
G1 X0.49267 Y0.79631 Z0.0 E4.68196899018
G1 X0.5289 Y0.8593 Z0.0 E5.04512561786
G1 X0.56179 Y0.96467 Z0.0 E5.58165793694
G1 X0.58217 Y1.14778 Z0.0 E6.43490644318
G1 X0.54956 Y1.4605 Z0.0 E7.80236573675
G1 X0.3459 Y1.8885 Z0.0 E9.59958210028
G1 X-0.11354 Y2.12256 Z0.0 E10.6279728608
G1 X-0.53347 Y1.86218 Z0.0 E9.68543312570
G1 X-0.66392 Y1.43023 Z0.0 E7.88407828998
G1 X-0.6407 Y1.12813 Z0.0 E6.48685938436
G1 X-0.58647 Y0.95727 Z0.0 E5.61318295132
G1 X-0.53287 Y0.86165 Z0.0 E5.06554824131
G1 X-0.4827 Y0.80569 Z0.0 E4.69610388008
G1 X-0.43369 Y0.77059 Z0.0 E4.42124406757
G1 X-0.38353 Y0.74601 Z0.0 E4.19412142468
G1 X-0.3306 Y0.72577 Z0.0 E3.98760094825
G1 X-0.27361 Y0.70518 Z0.0 E3.78200100641
G1 X-0.21189 Y0.68041 Z0.0 E3.56319779201
G1 X-0.14548 Y0.64772 Z0.0 E3.31928316358
G1 X-0.07539 Y0.60328 Z0.0 E3.03986188214
G1 X-0.00431 Y0.54351 Z0.0 E2.71763544373
G1 X0.06291 Y0.4665 Z0.0 E2.353613807
G1 X0.11939 Y0.37455 Z0.0 E1.96558944467
G1 X0.15889 Y0.2773 Z0.0 E1.59797780100
G1 X0.18154 Y0.19213 Z0.0 E1.32165340105
G1 X0.19876 Y0.13603 Z0.0 E1.20426013074
G1 X0.22883 Y0.11309 Z0.0 E1.27624955436
G1 X0.28317 Y0.11038 Z0.0 E1.51961338257
G1 X0.35814 Y0.10894 Z0.0 E1.87171167117
G1 X0.44147 Y0.09702 Z0.0 E2.26002567076
G1 X0.52144 Y0.0722 Z0.0 E2.63207386674
G1 X0.59182 Y0.03751 Z0.0 E2.96503757354
G1 X0.65091 Y-0.00274 Z0.0 E3.25457883489
G1 X0.69979 Y-0.04492 Z0.0 E3.50615120360
G1 X0.74094 Y-0.08648 Z0.0 E3.72984877039
G1 X0.77742 Y-0.12571 Z0.0 E3.93759082594
G1 X0.8126 Y-0.16148 Z0.0 E4.14244659109
G1 X0.85089 Y-0.19277 Z0.0 E4.36226450654
G1 X0.89822 Y-0.21827 Z0.0 E4.62179878754
G1 X0.96408 Y-0.23545 Z0.0 E4.96207353054
G1 X1.06461 Y-0.23839 Z0.0 E5.45486994391
G1 X1.22781 Y-0.21114 Z0.0 E6.22916024778
G1 X1.49229 Y-0.1088 Z0.0 E7.48125471445
G1 X1.84093 Y0.16902 Z0.0 E9.24336386996
G1 X2.00773 Y0.6627 Z0.0 E10.5713658565
G1 X1.70307 Y1.04991 Z0.0 E10.0034474470
G1 X1.23321 Y1.09074 Z0.0 E8.23182946206
G1 X0.91774 Y0.9816 Z0.0 E6.71897549408
G1 X0.75104 Y0.87236 Z0.0 E5.75559087149
G1 X0.66599 Y0.78765 Z0.0 E5.15736173494
G1 X0.62268 Y0.72022 Z0.0 E4.76037611644
G1 X0.60143 Y0.66173 Z0.0 E4.47103074749
G1 X0.59203 Y0.60639 Z0.0 E4.23735870856
G1 X0.58846 Y0.55024 Z0.0 E4.02817958016
G1 X0.58659 Y0.49064 Z0.0 E3.82366132686
G1 X0.58291 Y0.4256 Z0.0 E3.60873741113
G1 X0.57384 Y0.35374 Z0.0 E3.37055015242
G1 X0.55558 Y0.27474 Z0.0 E3.09899662794
G1 X0.52384 Y0.18955 Z0.0 E2.78539740477
G1 X0.47508 Y0.10169 Z0.0 E2.42920698223
G1 X0.40832 Y0.01774 Z0.0 E2.04352593573
G1 X0.32907 Y-0.05342 Z0.0 E1.66688902825
G1 X0.25209 Y-0.10521 Z0.0 E1.36581946281
G1 X0.19758 Y-0.14069 Z0.0 E1.21276061632
G1 X0.17815 Y-0.17455 Z0.0 E1.24704776372
G1 X0.18839 Y-0.22303 Z0.0 E1.45973604635
G1 X0.21014 Y-0.29134 Z0.0 E1.79609169588
G1 X0.22683 Y-0.37295 Z0.0 E2.18256472642
G1 X0.23064 Y-0.45719 Z0.0 E2.56035888939
G1 X0.22165 Y-0.53644 Z0.0 E2.90213971106
G1 X0.20305 Y-0.6069 Z0.0 E3.19983168503
G1 X0.17877 Y-0.6682 Z0.0 E3.45850384162
G1 X0.15209 Y-0.7215 Z0.0 E3.68677914344
G1 X0.12572 Y-0.76914 Z0.0 E3.89673535796
G1 X0.10182 Y-0.81386 Z0.0 E4.10102247007
G1 X0.08264 Y-0.85923 Z0.0 E4.31597486815
G1 X0.07104 Y-0.91027 Z0.0 E4.56518935670
G1 X0.07171 Y-0.97431 Z0.0 E4.88472696320
G1 X0.0938 Y-1.06364 Z0.0 E5.33883997138
G1 X0.15752 Y-1.19832 Z0.0 E6.04314357930
G1 X0.30943 Y-1.40302 Z0.0 E7.18368297828
G1 X0.63683 Y-1.65663 Z0.0 E8.87408503143
G1 X1.15084 Y-1.73939 Z0.0 E10.4282192604
G1 X1.50638 Y-1.39664 Z0.0 E10.2710564135
G1 X1.45626 Y-0.91353 Z0.0 E8.59539156831
G1 X1.25507 Y-0.60848 Z0.0 E6.97396697601
G1 X1.08836 Y-0.46237 Z0.0 E5.91251534142
G1 X0.97332 Y-0.39743 Z0.0 E5.25666821119
G1 X0.89133 Y-0.37192 Z0.0 E4.82906216387
G1 X0.8269 Y-0.36693 Z0.0 E4.52327656379
G1 X0.77054 Y-0.37346 Z0.0 E4.28136737270
G1 X0.7162 Y-0.38653 Z0.0 E4.0692378921
G1 X0.65971 Y-0.40285 Z0.0 E3.86492369459
G1 X0.59806 Y-0.41967 Z0.0 E3.65307634912
G1 X0.5287 Y-0.43412 Z0.0 E3.42046730872
G1 X0.44994 Y-0.4428 Z0.0 E3.15641348527
G1 X0.36107 Y-0.4415 Z0.0 E2.85172664758
G1 X0.26367 Y-0.42569 Z0.0 E2.50366653630
G1 X0.16284 Y-0.3918 Z0.0 E2.12146238241
G1 X0.06808 Y-0.341 Z0.0 E1.73864808400
; printing bottom spiral: 1
G1 X0.00567 Y-4.20867 Z0.0 E21.0433690968
G1 X5.87479 Y4.8065 Z0.0 E37.9524702075
G1 X-1.3724 Y1.02312 Z0.0 E8.55899569809
G1 X-1.44504 Y1.03048 Z0.0 E8.87416141390
G1 X-5.51096 Y0.00241 Z0.0 E27.5548026348
G1 X-2.52544 Y-1.92604 Z0.0 E15.8803945757
G1 X-0.80235 Y-0.42393 Z0.0 E4.53729591111
G1 X-1.10139 Y-0.51484 Z0.0 E6.07889825071
G1 X-1.31964 Y-0.55377 Z0.0 E7.15561133395
G1 X-1.51991 Y-0.63396 Z0.0 E8.23412364751
G1 X-1.72367 Y-0.81892 Z0.0 E9.54157774598
G1 X-1.87454 Y-1.14659 Z0.0 E10.9870023661
G1 X-1.84171 Y-1.55714 Z0.0 E12.0587942014
G1 X-1.58647 Y-1.91153 Z0.0 E12.4205817112
G1 X-1.21853 Y-2.17272 Z0.0 E12.4554481647
G1 X-0.80858 Y-2.29007 Z0.0 E12.1431279139
G1 X-0.44408 Y-2.24479 Z0.0 E11.4414697379
G1 X-0.21141 Y-2.02723 Z0.0 E10.1911182667
G1 X-0.13996 Y-1.75004 Z0.0 E8.77813875944
G1 X-0.17678 Y-1.50739 Z0.0 E7.58860293549
G1 X-0.2709 Y-1.27858 Z0.0 E6.53481756899
G1 X-0.38804 Y-0.97016 Z0.0 E5.22442692360
G1 X-0.4105 Y-0.32915 Z0.0 E2.63082673555
G1 X1.11839 Y1.46408 Z0.0 E9.21184894375
G1 X1.37131 Y0.41501 Z0.0 E7.16366598921
G1 X-0.50669 Y0.50686 Z0.0 E3.58344044076
G1 X-0.77609 Y0.79435 Z0.0 E5.55271917757
G1 X-0.89283 Y1.01004 Z0.0 E6.74041209886
G1 X-1.00794 Y1.18522 Z0.0 E7.77928256975
G1 X-1.2003 Y1.33719 Z0.0 E8.98442706312
G1 X-1.51438 Y1.43013 Z0.0 E10.4146754646
G1 X-1.90369 Y1.36147 Z0.0 E11.7021752006
G1 X-2.22017 Y1.07639 Z0.0 E12.3367036329
G1 X-2.41022 Y0.66528 Z0.0 E12.5017578032
G1 X-2.44528 Y0.22686 Z0.0 E12.2789044076
G1 X-2.3543 Y-0.15415 Z0.0 E11.7967058034
G1 X-2.11591 Y-0.38794 Z0.0 E10.7558967219
G1 X-1.81513 Y-0.43005 Z0.0 E9.32689648195
G1 X-1.56939 Y-0.3492 Z0.0 E8.03885192689
G1 X-1.37703 Y-0.20752 Z0.0 E6.96289482058
G1 X-1.16438 Y-0.01977 Z0.0 E5.82273912626
G1 X-0.76545 Y0.20886 Z0.0 E3.96716587156
G1 X0.62244 Y0.15488 Z0.0 E3.20709903184
G1 X1.77334 Y-1.76635 Z0.0 E12.5147184128
G1 X0.2807 Y0.28088 Z0.0 E1.98548523288
G1 X0.43786 Y0.87849 Z0.0 E4.90781534825
G1 X0.62114 Y1.09721 Z0.0 E6.30413492023
G1 X0.76748 Y1.25473 Z0.0 E7.35420444933
G1 X0.87374 Y1.45006 Z0.0 E8.46477346301
G1 X0.91246 Y1.74057 Z0.0 E9.82619862472
G1 X0.80648 Y2.09765 Z0.0 E11.2367093859
G1 X0.50296 Y2.38007 Z0.0 E12.1631636165
G1 X0.0708 Y2.4986 Z0.0 E12.4980144423
G1 X-0.37311 Y2.44536 Z0.0 E12.3683028360
G1 X-0.75684 Y2.28987 Z0.0 E12.0585150438
G1 X-0.99007 Y2.02037 Z0.0 E11.2495928169
G1 X-1.00972 Y1.70573 Z0.0 E9.91091483076
G1 X-0.88488 Y1.45718 Z0.0 E8.52406324296
G1 X-0.70568 Y1.29724 Z0.0 E7.38379286004
G1 X-0.4855 Y1.16673 Z0.0 E6.31856222352
G1 X-0.19096 Y0.9571 Z0.0 E4.87982103053
G1 X0.22709 Y0.28823 Z0.0 E1.83470979313
G1 X-0.43267 Y-2.27112 Z0.0 E11.5598328095
G1 X-0.46639 Y-0.67489 Z0.0 E4.10181711014
G1 X0.80682 Y-0.11611 Z0.0 E4.07565959232
G1 X1.14459 Y-0.20776 Z0.0 E5.81646474609
G1 X1.35302 Y-0.31005 Z0.0 E6.94045049492
G1 X1.55411 Y-0.37458 Z0.0 E7.9930721073
G1 X1.81232 Y-0.3667 Z0.0 E9.24523211228
G1 X2.12707 Y-0.22634 Z0.0 E10.6953922094
G1 X2.37362 Y0.09062 Z0.0 E11.8767460704
G1 X2.43062 Y0.52485 Z0.0 E12.4332026314
G1 X2.29476 Y0.95245 Z0.0 E12.4228463527
G1 X2.0643 Y1.31764 Z0.0 E12.2449067571
G1 X1.7505 Y1.53675 Z0.0 E11.6467278801
G1 X1.42307 Y1.54032 Z0.0 E10.4853635217
G1 X1.17797 Y1.37688 Z0.0 E9.06009361886
G1 X1.04595 Y1.16226 Z0.0 E7.81802358352
G1 X0.98187 Y0.92952 Z0.0 E6.76031827524
G1 X0.91121 Y0.63483 Z0.0 E5.55273084392
G1 X0.65764 Y0.16729 Z0.0 E3.39292025289
G1 X-1.03999 Y-0.59653 Z0.0 E5.99463768922
G1 X-2.01825 Y0.5415 Z0.0 E10.4481521243
G1 X0.05756 Y-0.57964 Z0.0 E2.91245464857
G1 X0.16357 Y-1.03427 Z0.0 E5.23562216408
G1 X0.13554 Y-1.29648 Z0.0 E6.51772867263
G1 X0.11634 Y-1.50656 Z0.0 E7.55522671599
G1 X0.16192 Y-1.73399 Z0.0 E8.70766818169
G1 X0.32887 Y-1.99412 Z0.0 E10.1052833351
G1 X0.65464 Y-2.19947 Z0.0 E11.4741250325
G1 X1.07949 Y-2.20818 Z0.0 E12.2895866209
G1 X1.47485 Y-2.00441 Z0.0 E12.4427106880
G1 X1.79854 Y-1.69999 Z0.0 E12.3740778765
G1 X1.98068 Y-1.33542 Z0.0 E11.9440778619
G1 X1.9666 Y-0.99041 Z0.0 E11.0095725713
G1 X1.77405 Y-0.75164 Z0.0 E9.63355605696
G1 X1.52543 Y-0.64792 Z0.0 E8.28664137528
G1 X1.28722 Y-0.63719 Z0.0 E7.18148039143
G1 X1.02117 Y-0.66389 Z0.0 E6.09002894287
G1 X0.61958 Y-0.64765 Z0.0 E4.48143364031
G1 X-0.23841 Y-0.18229 Z0.0 E1.50057465826
G1 Z2.2
G1 X24.25155 Y2.8307 Z0.0 E122.080971070
G1 X0.07434 Y-1.00051 Z0.0 E5.01634003956
G1 X-0.17166 Y-0.98863 Z0.0 E5.01711179988
G1 X-0.38476 Y-0.9275 Z0.0 E5.02069842651
G1 X-0.5432 Y-0.84533 Z0.0 E5.02406471122
G1 X-0.65296 Y-0.76431 Z0.0 E5.02624745138
G1 X-0.72795 Y-0.69362 Z0.0 E5.02747428362
G1 X-0.77968 Y-0.63514 Z0.0 E5.02817989436
G1 X-0.81574 Y-0.58825 Z0.0 E5.02859277060
G1 X-0.84079 Y-0.55194 Z0.0 E5.02883084747
G1 X-0.85753 Y-0.52562 Z0.0 E5.02900110683
G1 X-0.86729 Y-0.50939 Z0.0 E5.02909066383
G1 X-0.87023 Y-0.50437 Z0.0 E5.02913846946
G1 X-0.86505 Y-0.51317 Z0.0 E5.02905297099
G1 X-0.84797 Y-0.54078 Z0.0 E5.02865819404
G1 X-0.80981 Y-0.59599 Z0.0 E5.02741562883
G1 X-0.72876 Y-0.69159 Z0.0 E5.02341483878
G1 X-0.56147 Y-0.83079 Z0.0 E5.01363287697
G1 X-0.28294 Y-0.96055 Z0.0 E5.00677377684
G1 X0.00751 Y-1.00321 Z0.0 E5.01619054712
G1 X0.20158 Y-0.98452 Z0.0 E5.02472418845
G1 X0.30743 Y-0.95743 Z0.0 E5.02788576292
G1 X0.36108 Y-0.93871 Z0.0 E5.02880510285
G1 X0.38441 Y-0.92946 Z0.0 E5.02908276851
G1 X0.38814 Y-0.92792 Z0.0 E5.02913557682
G1 X0.37718 Y-0.93241 Z0.0 E5.02904851960
G1 X0.35336 Y-0.94167 Z0.0 E5.02893049887
G1 X0.31644 Y-0.95466 Z0.0 E5.02869264621
G1 X0.26452 Y-0.97025 Z0.0 E5.02830958897
G1 X0.19381 Y-0.98669 Z0.0 E5.02772183051
G1 X0.09835 Y-1.0005 Z0.0 E5.02661161345
G1 X-0.02976 Y-1.00449 Z0.0 E5.02465376344
G1 X-0.19742 Y-0.9847 Z0.0 E5.02147574524
G1 X-0.40042 Y-0.92021 Z0.0 E5.01777495634
G1 X-0.60978 Y-0.79666 Z0.0 E5.01622069889
G1 X-0.78143 Y-0.62991 Z0.0 E5.01851435437
G1 X-0.8935 Y-0.45887 Z0.0 E5.02221048668
G1 X-0.95557 Y-0.3114 Z0.0 E5.02514672646
G1 X-0.98641 Y-0.19436 Z0.0 E5.02687899621
G1 X-1.00014 Y-0.10433 Z0.0 E5.02783444561
G1 X-1.00504 Y-0.03598 Z0.0 E5.02841914025
G1 X-1.00564 Y0.01499 Z0.0 E5.02875856872
G1 X-1.00448 Y0.05129 Z0.0 E5.02894306614
G1 X-1.00308 Y0.07411 Z0.0 E5.02906994011
G1 X-1.0024 Y0.08298 Z0.0 E5.02914366568
G1 X-1.00299 Y0.07526 Z0.0 E5.02904813981
G1 X-1.00474 Y0.04491 Z0.0 E5.02871597851
G1 X-1.00529 Y-0.02039 Z0.0 E5.02748380455
G1 X-0.99441 Y-0.14351 Z0.0 E5.02356041120
G1 X-0.93885 Y-0.35225 Z0.0 E5.01377947511
G1 X-0.78729 Y-0.61878 Z0.0 E5.00678098308
G1 X-0.57451 Y-0.82241 Z0.0 E5.01602419302
G1 X-0.40388 Y-0.92019 Z0.0 E5.02461115535
G1 X-0.30017 Y-0.95971 Z0.0 E5.02778607590
G1 X-0.24374 Y-0.97578 Z0.0 E5.02880650851
G1 X-0.21724 Y-0.98207 Z0.0 E5.02905235233
G1 X-0.21078 Y-0.98349 Z0.0 E5.02911719017
G1 X-0.2192 Y-0.98164 Z0.0 E5.02907976075
G1 X-0.24006 Y-0.97673 Z0.0 E5.02899168944
G1 X-0.27264 Y-0.9681 Z0.0 E5.02879254792
G1 X-0.31748 Y-0.95428 Z0.0 E5.02852828569
G1 X-0.3762 Y-0.93259 Z0.0 E5.02804770289
G1 X-0.45136 Y-0.89845 Z0.0 E5.02727125810
G1 X-0.54586 Y-0.84405 Z0.0 E5.02589181663
G1 X-0.66079 Y-0.75681 Z0.0 E5.02345697752
G1 X-0.78944 Y-0.6203 Z0.0 E5.01992929133
G1 X-0.90888 Y-0.42499 Z0.0 E5.01667059537
G1 X-0.98518 Y-0.18997 Z0.0 E5.01664288469
G1 X-1.00326 Y0.03819 Z0.0 E5.01993302669
G1 X-0.97937 Y0.22416 Z0.0 E5.02347813397
G1 X-0.93765 Y0.36221 Z0.0 E5.02589197705
G1 X-0.89318 Y0.46171 Z0.0 E5.02729210535
G1 X-0.85245 Y0.53347 Z0.0 E5.02807429191
G1 X-0.8177 Y0.5855 Z0.0 E5.02852746835
G1 X-0.78956 Y0.62302 Z0.0 E5.02881425885
G1 X-0.76828 Y0.64913 Z0.0 E5.02897582839
G1 X-0.75431 Y0.66534 Z0.0 E5.02906773592
G1 X-0.74861 Y0.67177 Z0.0 E5.02914472102
G1 X-0.75302 Y0.6668 Z0.0 E5.0290689009
G1 X-0.77078 Y0.6461 Z0.0 E5.02878469016
G1 X-0.80703 Y0.59988 Z0.0 E5.02780626939
G1 X-0.86775 Y0.50683 Z0.0 E5.02460623184
G1 X-0.94833 Y0.32724 Z0.0 E5.01601387184
G1 X-1.00066 Y0.03727 Z0.0 E5.00676913913
G1 X-0.96647 Y-0.26733 Z0.0 E5.01380491693
G1 X-0.88871 Y-0.46865 Z0.0 E5.02354030192
G1 X-0.82519 Y-0.57453 Z0.0 E5.02748261310
G1 X-0.7864 Y-0.62697 Z0.0 E5.02870843483
G1 X-0.76718 Y-0.65046 Z0.0 E5.02907388094
G1 X-0.76219 Y-0.65632 Z0.0 E5.02913893848
G1 X-0.76796 Y-0.64953 Z0.0 E5.02904509450
G1 X-0.78253 Y-0.63188 Z0.0 E5.02897985505
G1 X-0.80482 Y-0.60316 Z0.0 E5.02876032935
G1 X-0.8343 Y-0.56155 Z0.0 E5.02840653811
G1 X-0.87052 Y-0.50335 Z0.0 E5.02783823551
G1 X-0.91234 Y-0.42238 Z0.0 E5.02685075370
G1 X-0.95618 Y-0.3095 Z0.0 E5.02511303952
G1 X-0.99263 Y-0.15363 Z0.0 E5.02224176489
G1 X-1.00241 Y0.0507 Z0.0 E5.01845668035
G1 X-0.96146 Y0.28652 Z0.0 E5.01622129197
G1 X-0.86463 Y0.50946 Z0.0 E5.01780462080
G1 X-0.73828 Y0.68086 Z0.0 E5.02152292139
G1 X-0.61429 Y0.79532 Z0.0 E5.02465448190
G1 X-0.50834 Y0.86733 Z0.0 E5.02660642109
G1 X-0.42303 Y0.91222 Z0.0 E5.02767269544
G1 X-0.35619 Y0.94047 Z0.0 E5.02830770986
G1 X-0.30505 Y0.95836 Z0.0 E5.02869116197
G1 X-0.26757 Y0.96954 Z0.0 E5.02892015372
G1 X-0.24288 Y0.97605 Z0.0 E5.02907619971
G1 X-0.2314 Y0.97885 Z0.0 E5.02914824424
G1 X-0.23535 Y0.9779 Z0.0 E5.02911034006
G1 X-0.25971 Y0.97165 Z0.0 E5.02879957495
G1 X-0.31418 Y0.95523 Z0.0 E5.02785596776
G1 X-0.41584 Y0.91487 Z0.0 E5.02471397818
G1 X-0.58396 Y0.81577 Z0.0 E5.01619869647
G1 X-0.79385 Y0.61033 Z0.0 E5.00674677660
G1 X-0.94273 Y0.34165 Z0.0 E5.01364282583
G1 X-0.99613 Y0.13086 Z0.0 E5.02344333227
G1 X-1.00547 Y0.00601 Z0.0 E5.02743980819
G1 X-1.00388 Y-0.06101 Z0.0 E5.02866104072
G1 X-1.00147 Y-0.09333 Z0.0 E5.02904725023
G1 X-1.00049 Y-0.10346 Z0.0 E5.02912569862
G1 X-1.00107 Y-0.09766 Z0.0 E5.02911180155
G1 X-1.00271 Y-0.07877 Z0.0 E5.02899606532
G1 X-1.00464 Y-0.04761 Z0.0 E5.02883744443
G1 X-1.00571 Y-0.00349 Z0.0 E5.02858027728
G1 X-1.00409 Y0.05568 Z0.0 E5.02816315989
G1 X-0.9966 Y0.13343 Z0.0 E5.02746239394
G1 X-0.97746 Y0.23474 Z0.0 E5.02625834792
G1 X-0.93623 Y0.36486 Z0.0 E5.02406566562
G1 X-0.85625 Y0.52451 Z0.0 E5.02064438743
G1 X-0.71968 Y0.69923 Z0.0 E5.01712541028
G1 X-0.52757 Y0.85335 Z0.0 E5.01631420318
G1 X-0.31471 Y0.95322 Z0.0 E5.01914024635
G1 X-0.12316 Y0.99699 Z0.0 E5.02284144111
G1 X0.02901 Y1.00468 Z0.0 E5.02549371331
G1 X0.1439 Y0.99506 Z0.0 E5.02705583219
G1 X0.22961 Y0.97902 Z0.0 E5.02792430457
G1 X0.2935 Y0.96191 Z0.0 E5.02845179479
G1 X0.34076 Y0.94626 Z0.0 E5.02873086673
G1 X0.37462 Y0.93342 Z0.0 E5.02894879871
G1 X0.39666 Y0.9243 Z0.0 E5.02908949413
G1 X0.407 Y0.9198 Z0.0 E5.02911781528
G1 X0.40399 Y0.92112 Z0.0 E5.02909031163
G1 X0.38326 Y0.92989 Z0.0 E5.02887571854
G1 X0.33541 Y0.94804 Z0.0 E5.02812019969
G1 X0.2411 Y0.97577 Z0.0 E5.02557534741
G1 X0.06606 Y1.00147 Z0.0 E5.01823197077
G1 X-0.21131 Y0.97897 Z0.0 E5.00757969732
G1 X-0.50504 Y0.86575 Z0.0 E5.01145803160
G1 X-0.69548 Y0.72469 Z0.0 E5.02212113180
G1 X-0.7897 Y0.62227 Z0.0 E5.02704198038
G1 X-0.83388 Y0.56223 Z0.0 E5.02856447532
G1 X-0.85359 Y0.53201 Z0.0 E5.02904197686
G1 X-0.85969 Y0.52214 Z0.0 E5.02915767226
G1 X-0.85661 Y0.52715 Z0.0 E5.02908494311
G1 X-0.84584 Y0.54423 Z0.0 E5.02899492568
G1 X-0.82715 Y0.57217 Z0.0 E5.02880609936
G1 X-0.79892 Y0.61086 Z0.0 E5.02847667291
G1 X-0.7579 Y0.66092 Z0.0 E5.02799079255
G1 X-0.69846 Y0.72321 Z0.0 E5.02712411748
G1 X-0.61158 Y0.79763 Z0.0 E5.02554403349
G1 X-0.48437 Y0.88009 Z0.0 E5.02287941573
G1 X-0.30422 Y0.95664 Z0.0 E5.01923773595
G1 X-0.07407 Y1.00054 Z0.0 E5.01638977877
G1 X0.17104 Y0.98876 Z0.0 E5.01722288522
G1 X0.38338 Y0.92808 Z0.0 E5.02073876735
G1 X0.54125 Y0.84659 Z0.0 E5.02410736002
G1 X0.65053 Y0.76639 Z0.0 E5.02628817568
G1 X0.72504 Y0.69667 Z0.0 E5.02750457608
G1 X0.77622 Y0.63938 Z0.0 E5.02823098316
G1 X0.81158 Y0.59399 Z0.0 E5.02863355321
G1 X0.83568 Y0.55966 Z0.0 E5.02886761110
G1 X0.85108 Y0.53603 Z0.0 E5.02907876082
G1 X0.85881 Y0.52357 Z0.0 E5.02911563051
G1 X0.8585 Y0.52408 Z0.0 E5.02912044099
G1 X0.84771 Y0.54128 Z0.0 E5.02890714395
G1 X0.82005 Y0.58207 Z0.0 E5.02813953516
G1 X0.76006 Y0.65772 Z0.0 E5.02565120656
G1 X0.63327 Y0.77868 Z0.0 E5.01839973323
G1 X0.39515 Y0.92029 Z0.0 E5.00768710734
G1 X0.08976 Y0.99823 Z0.0 E5.01128723608
G1 X-0.14868 Y0.99333 Z0.0 E5.02197727817
G1 X-0.28644 Y0.96372 Z0.0 E5.02693771595
G1 X-0.35883 Y0.93951 Z0.0 E5.02851371928
G1 X-0.39417 Y0.92535 Z0.0 E5.02902229912
G1 X-0.40701 Y0.9198 Z0.0 E5.02913804767
G1 X-0.40431 Y0.92098 Z0.0 E5.02909220561
G1 X-0.38918 Y0.92746 Z0.0 E5.02902357322
G1 X-0.36249 Y0.93818 Z0.0 E5.02886844255
G1 X-0.32353 Y0.95227 Z0.0 E5.02864249525
G1 X-0.27007 Y0.96871 Z0.0 E5.02826229676
G1 X-0.19816 Y0.98581 Z0.0 E5.02764542729
G1 X-0.10172 Y1.00015 Z0.0 E5.02654697805
G1 X0.02727 Y1.00455 Z0.0 E5.02460037068
G1 X0.19579 Y0.98502 Z0.0 E5.02144930399
G1 X0.39968 Y0.92052 Z0.0 E5.01772152675
G1 X0.60984 Y0.79659 Z0.0 E5.01612513226
G1 X0.78203 Y0.62913 Z0.0 E5.01840482076
G1 X0.89432 Y0.45724 Z0.0 E5.02214267022
G1 X0.95638 Y0.30887 Z0.0 E5.02509547496
G1 X0.98709 Y0.19084 Z0.0 E5.02684437222
G1 X1.00061 Y0.09967 Z0.0 E5.02780886918
G1 X1.00523 Y0.02991 Z0.0 E5.02837439189
G1 X1.00548 Y-0.02287 Z0.0 E5.02870029754
G1 X1.00389 Y-0.06162 Z0.0 E5.02889688824
G1 X1.00197 Y-0.08784 Z0.0 E5.02906488947
G1 X1.00067 Y-0.10167 Z0.0 E5.02910836481
G1 X1.00068 Y-0.10156 Z0.0 E5.02910254419
G1 X1.00232 Y-0.08353 Z0.0 E5.02897266671
G1 X1.0049 Y-0.03927 Z0.0 E5.02833506963
G1 X1.00414 Y0.0475 Z0.0 E5.02631423013
G1 X0.98303 Y0.20436 Z0.0 E5.02023652456
G1 X0.89584 Y0.44848 Z0.0 E5.00915066653
G1 X0.71032 Y0.70652 Z0.0 E5.00930387579
G1 X0.50802 Y0.86608 Z0.0 E5.02040557824
G1 X0.3679 Y0.93555 Z0.0 E5.02644062061
G1 X0.28777 Y0.96363 Z0.0 E5.02840518902
G1 X0.24699 Y0.975 Z0.0 E5.02898861626
G1 X0.23167 Y0.97878 Z0.0 E5.02911840510
G1 X0.23433 Y0.97814 Z0.0 E5.02908641927
G1 X0.25127 Y0.97391 Z0.0 E5.02900909971
G1 X0.28107 Y0.9657 Z0.0 E5.02885880419
G1 X0.32386 Y0.95214 Z0.0 E5.02855814126
G1 X0.38102 Y0.93065 Z0.0 E5.02813499943
G1 X0.45493 Y0.89666 Z0.0 E5.02732647761
G1 X0.5484 Y0.84242 Z0.0 E5.02596760933
G1 X0.66242 Y0.7554 Z0.0 E5.02351823028
G1 X0.79027 Y0.61926 Z0.0 E5.01998411477
G1 X0.90908 Y0.42459 Z0.0 E5.01672979764
G1 X0.98511 Y0.19042 Z0.0 E5.01672574619
G1 X1.00332 Y-0.03686 Z0.0 E5.01998426790
G1 X0.97986 Y-0.22206 Z0.0 E5.02353526712
G1 X0.93874 Y-0.3594 Z0.0 E5.02593560345
G1 X0.89501 Y-0.45816 Z0.0 E5.02730913536
G1 X0.8552 Y-0.52906 Z0.0 E5.02809984885
G1 X0.82161 Y-0.58001 Z0.0 E5.02855494203
G1 X0.79497 Y-0.61611 Z0.0 E5.02883891420
G1 X0.7757 Y-0.64025 Z0.0 E5.02899232575
G1 X0.7645 Y-0.65362 Z0.0 E5.02911362568
G1 X0.76274 Y-0.65567 Z0.0 E5.02910393733
G1 X0.77294 Y-0.64358 Z0.0 E5.02899458142
G1 X0.79928 Y-0.61036 Z0.0 E5.02838902632
G1 X0.84765 Y-0.54045 Z0.0 E5.02642200029
G1 X0.92021 Y-0.40173 Z0.0 E5.02039200910
G1 X0.99002 Y-0.15353 Z0.0 E5.0092690617
G1 X0.98828 Y0.16428 Z0.0 E5.00920471931
G1 X0.91526 Y0.41282 Z0.0 E5.02026199516
G1 X0.84018 Y0.55196 Z0.0 E5.0263363248
G1 X0.78983 Y0.62252 Z0.0 E5.02832621083
G1 X0.76176 Y0.65677 Z0.0 E5.02897884888
G1 X0.74986 Y0.67036 Z0.0 E5.02909671114
G1 X0.74981 Y0.67042 Z0.0 E5.02911029035
G1 X0.759 Y0.65998 Z0.0 E5.02905209856
G1 X0.77599 Y0.63988 Z0.0 E5.02893352138
G1 X0.80006 Y0.60945 Z0.0 E5.02873071982
G1 X0.83089 Y0.56657 Z0.0 E5.02836891298
G1 X0.86816 Y0.50739 Z0.0 E5.02778877266
G1 X0.91083 Y0.42563 Z0.0 E5.02685832752
G1 X0.95535 Y0.31203 Z0.0 E5.02507796805
G1 X0.99233 Y0.15543 Z0.0 E5.02214424773
G1 X1.00245 Y-0.04972 Z0.0 E5.01841130464
G1 X0.96147 Y-0.28643 Z0.0 E5.01614071224
G1 X0.8642 Y-0.51015 Z0.0 E5.01770530846
G1 X0.73714 Y-0.68207 Z0.0 E5.02144118879
G1 X0.61231 Y-0.79683 Z0.0 E5.02459347858
G1 X0.50541 Y-0.86903 Z0.0 E5.02656047661
G1 X0.41899 Y-0.91408 Z0.0 E5.02766065507
G1 X0.35079 Y-0.94249 Z0.0 E5.02827262636
G1 X0.29791 Y-0.9606 Z0.0 E5.02867459700
G1 X0.25813 Y-0.97209 Z0.0 E5.02889168953
G1 X0.23026 Y-0.9791 Z0.0 E5.02905676444
G1 X0.21423 Y-0.98274 Z0.0 E5.02909634154
G1 X0.21138 Y-0.98336 Z0.0 E5.02911123858
G1 X0.22506 Y-0.9803 Z0.0 E5.02901604094
G1 X0.26203 Y-0.97097 Z0.0 E5.02852478815
G1 X0.3349 Y-0.94797 Z0.0 E5.02694024955
G1 X0.46388 Y-0.89086 Z0.0 E5.02199211967
G1 X0.65975 Y-0.75448 Z0.0 E5.01126264753
G1 X0.86091 Y-0.51178 Z0.0 E5.00770605292
G1 X0.97013 Y-0.25735 Z0.0 E5.01841917191
G1 X1.00152 Y-0.08513 Z0.0 E5.02565773631
G1 X1.00557 Y0.01123 Z0.0 E5.02816352608
G1 X1.00397 Y0.06043 Z0.0 E5.02893514027
G1 X1.00259 Y0.08064 Z0.0 E5.02913888678
G1 X1.00254 Y0.0812 Z0.0 E5.02911496091
G1 X1.0036 Y0.06656 Z0.0 E5.02902374622
G1 X1.00504 Y0.03836 Z0.0 E5.02885894413
G1 X1.00572 Y-0.00361 Z0.0 E5.02863239485
G1 X1.00378 Y-0.06114 Z0.0 E5.02820143789
G1 X0.99604 Y-0.1376 Z0.0 E5.02749799005
G1 X0.97671 Y-0.23785 Z0.0 E5.0262686125
G1 X0.93539 Y-0.36702 Z0.0 E5.02408731139
G1 X0.85549 Y-0.52579 Z0.0 E5.02075259349
G1 X0.71925 Y-0.69969 Z0.0 E5.01718710684
G1 X0.52781 Y-0.85322 Z0.0 E5.01639253971
G1 X0.31581 Y-0.95287 Z0.0 E5.01920609509
G1 X0.12513 Y-0.99676 Z0.0 E5.02291751500
G1 X-0.02618 Y-1.00477 Z0.0 E5.02555505716
G1 X-0.14015 Y-0.99561 Z0.0 E5.02712963479
G1 X-0.2248 Y-0.98015 Z0.0 E5.02799428823
G1 X-0.28738 Y-0.96376 Z0.0 E5.02847044836
G1 X-0.33293 Y-0.94906 Z0.0 E5.02881016867
G1 X-0.36445 Y-0.93744 Z0.0 E5.02896002196
G1 X-0.38318 Y-0.92997 Z0.0 E5.02909314216
G1 X-0.38859 Y-0.92773 Z0.0 E5.02912800841
G1 X-0.37782 Y-0.93215 Z0.0 E5.02904457850
G1 X-0.34407 Y-0.94503 Z0.0 E5.02858296591
G1 X-0.27294 Y-0.96764 Z0.0 E5.02698571014
G1 X-0.13637 Y-0.99512 Z0.0 E5.02210262564
G1 X0.1008 Y-0.9972 Z0.0 E5.01140818533
G1 X0.40499 Y-0.91598 Z0.0 E5.00758489818
G1 X0.64241 Y-0.77112 Z0.0 E5.01825831963
G1 X0.76875 Y-0.64752 Z0.0 E5.02558134175
G1 X0.82866 Y-0.56973 Z0.0 E5.02809523702
G1 X0.85668 Y-0.52697 Z0.0 E5.02891142122
G1 X0.86827 Y-0.50772 Z0.0 E5.02909631867
G1 X0.86991 Y-0.50491 Z0.0 E5.02910905678
G1 X0.86417 Y-0.51465 Z0.0 E5.02905162879
G1 X0.85169 Y-0.53501 Z0.0 E5.02894510857
G1 X0.83184 Y-0.56531 Z0.0 E5.02875029630
G1 X0.80278 Y-0.60576 Z0.0 E5.02842148691
G1 X0.76113 Y-0.65719 Z0.0 E5.02796572433
G1 X0.70117 Y-0.72057 Z0.0 E5.02707791316
G1 X0.61382 Y-0.7959 Z0.0 E5.02551440750
G1 X0.48611 Y-0.87912 Z0.0 E5.02283512197
G1 X0.30531 Y-0.95627 Z0.0 E5.01912967804
G1 Z0
G1 Z2.2
G1 X3.9089 Y0.06815 Z0.0 E19.5474701896
G1 X0.08459 Y-1.00246 Z0.0 E5.03011311925
G1 X-0.14571 Y-0.9955 Z0.0 E5.03053589118
G1 X-0.35096 Y-0.94349 Z0.0 E5.03325516366
G1 X-0.5095 Y-0.86886 Z0.0 E5.03613926932
G1 X-0.62312 Y-0.79187 Z0.0 E5.03819568720
G1 X-0.70278 Y-0.72245 Z0.0 E5.03942886372
G1 X-0.75886 Y-0.66351 Z0.0 E5.04012405527
G1 X-0.79875 Y-0.61505 Z0.0 E5.04055568613
G1 X-0.82722 Y-0.57628 Z0.0 E5.04081235219
G1 X-0.84721 Y-0.54654 Z0.0 E5.04100871776
G1 X-0.86041 Y-0.52556 Z0.0 E5.04112755666
G1 X-0.86753 Y-0.51373 Z0.0 E5.04114772101
G1 X-0.86837 Y-0.51232 Z0.0 E5.04117605153
G1 X-0.86141 Y-0.52389 Z0.0 E5.04105127974
G1 X-0.84286 Y-0.55311 Z0.0 E5.04069353289
G1 X-0.80405 Y-0.60776 Z0.0 E5.03951540354
G1 X-0.72555 Y-0.69862 Z0.0 E5.03610143588
G1 X-0.57006 Y-0.8284 Z0.0 E5.02795923711
G1 X-0.31153 Y-0.95462 Z0.0 E5.02083231472
G1 X-0.02523 Y-1.00516 Z0.0 E5.02738296358
G1 X0.18227 Y-0.99052 Z0.0 E5.03575273246
G1 X0.30327 Y-0.96117 Z0.0 E5.03939595041
G1 X0.36969 Y-0.9379 Z0.0 E5.04065250265
G1 X0.40434 Y-0.92357 Z0.0 E5.04101274671
G1 X0.41928 Y-0.91692 Z0.0 E5.04117547007
G1 X0.4206 Y-0.91631 Z0.0 E5.04115159487
G1 X0.41129 Y-0.92052 Z0.0 E5.04112223245
G1 X0.39258 Y-0.92864 Z0.0 E5.04105967531
G1 X0.36448 Y-0.93999 Z0.0 E5.0408998961
G1 X0.32603 Y-0.95397 Z0.0 E5.04071999272
G1 X0.27519 Y-0.9698 Z0.0 E5.04044039767
G1 X0.20866 Y-0.98615 Z0.0 E5.03991770295
G1 X0.12159 Y-1.00046 Z0.0 E5.03910790642
G1 X0.00757 Y-1.00751 Z0.0 E5.03769219236
G1 X-0.13982 Y-0.99733 Z0.0 E5.03541647061
G1 X-0.32117 Y-0.95386 Z0.0 E5.03239274227
G1 X-0.52056 Y-0.86086 Z0.0 E5.03006623515
G1 X-0.70335 Y-0.71939 Z0.0 E5.03046517382
G1 X-0.83916 Y-0.556 Z0.0 E5.03320351665
G1 X-0.92366 Y-0.40168 Z0.0 E5.03610617938
G1 X-0.97028 Y-0.2718 Z0.0 E5.03815074804
G1 X-0.99379 Y-0.1679 Z0.0 E5.03936745559
G1 X-1.00432 Y-0.0862 Z0.0 E5.04006225755
G1 X-1.00786 Y-0.02227 Z0.0 E5.04053006265
G1 X-1.00778 Y0.02742 Z0.0 E5.04076478523
G1 X-1.00607 Y0.06532 Z0.0 E5.04094124966
G1 X-1.00393 Y0.09284 Z0.0 E5.04106811722
G1 X-1.00216 Y0.11047 Z0.0 E5.04115137270
G1 X-1.00134 Y0.1177 Z0.0 E5.04116823167
G1 X-1.00191 Y0.11268 Z0.0 E5.04113189299
G1 X-1.00403 Y0.09153 Z0.0 E5.04096712398
G1 X-1.007 Y0.04674 Z0.0 E5.04042068582
G1 X-1.00712 Y-0.03565 Z0.0 E5.03875385611
G1 X-0.99078 Y-0.17888 Z0.0 E5.03399211064
G1 X-0.92115 Y-0.40173 Z0.0 E5.02469978058
G1 X-0.76016 Y-0.65637 Z0.0 E5.02161528420
G1 X-0.55984 Y-0.83598 Z0.0 E5.03061473878
G1 X-0.40472 Y-0.92261 Z0.0 E5.03737900723
G1 X-0.3085 Y-0.95962 Z0.0 E5.03994740647
G1 X-0.25408 Y-0.97563 Z0.0 E5.04085940912
G1 X-0.22681 Y-0.98238 Z0.0 E5.04111406462
G1 X-0.21804 Y-0.98438 Z0.0 E5.04119387150
G1 X-0.22304 Y-0.98325 Z0.0 E5.04114918471
G1 X-0.23941 Y-0.97938 Z0.0 E5.04108701695
G1 X-0.26623 Y-0.9724 Z0.0 E5.04093288217
G1 X-0.3036 Y-0.96135 Z0.0 E5.04075089272
G1 X-0.35251 Y-0.94445 Z0.0 E5.04045906292
G1 X-0.41472 Y-0.91872 Z0.0 E5.03993828534
G1 X-0.49256 Y-0.87926 Z0.0 E5.03913063236
G1 X-0.58808 Y-0.81811 Z0.0 E5.03771291982
G1 X-0.70058 Y-0.72348 Z0.0 E5.03546335207
G1 X-0.82108 Y-0.58209 Z0.0 E5.03239787403
G1 X-0.92726 Y-0.39023 Z0.0 E5.03013558590
G1 X-0.9918 Y-0.16904 Z0.0 E5.03051131000
G1 X-1.00577 Y0.04223 Z0.0 E5.03328090265
G1 X-0.98378 Y0.21607 Z0.0 E5.03614270375
G1 X-0.94567 Y0.34792 Z0.0 E5.03820423192
G1 X-0.90426 Y0.44513 Z0.0 E5.039411832
G1 X-0.86553 Y0.51668 Z0.0 E5.04009028515
G1 X-0.83177 Y0.5696 Z0.0 E5.04054930762
G1 X-0.8037 Y0.60865 Z0.0 E5.04080477826
G1 X-0.78159 Y0.63685 Z0.0 E5.04098415639
G1 X-0.76571 Y0.65589 Z0.0 E5.04108990249
G1 X-0.75666 Y0.66632 Z0.0 E5.04112263787
G1 X-0.75558 Y0.66756 Z0.0 E5.04117419358
G1 X-0.76444 Y0.65736 Z0.0 E5.04105813099
G1 X-0.7865 Y0.63069 Z0.0 E5.04071454781
G1 X-0.82648 Y0.57689 Z0.0 E5.03952195774
G1 X-0.88864 Y0.47415 Z0.0 E5.03611773120
G1 X-0.96401 Y0.28617 Z0.0 E5.02794328976
G1 X-1.00417 Y0.00129 Z0.0 E5.02085414297
G1 X-0.96376 Y-0.28662 Z0.0 E5.02738590621
G1 X-0.88572 Y-0.47944 Z0.0 E5.03577856940
G1 X-0.82041 Y-0.58544 Z0.0 E5.03937635452
G1 X-0.77775 Y-0.64142 Z0.0 E5.04062168512
G1 X-0.75342 Y-0.66995 Z0.0 E5.04101849555
G1 X-0.74248 Y-0.6821 Z0.0 E5.04117288039
G1 X-0.74149 Y-0.68317 Z0.0 E5.04115232115
G1 X-0.74837 Y-0.67562 Z0.0 E5.04113092793
G1 X-0.76187 Y-0.66033 Z0.0 E5.04103562227
G1 X-0.78135 Y-0.63712 Z0.0 E5.04090695436
G1 X-0.80653 Y-0.60487 Z0.0 E5.0407300012
G1 X-0.83729 Y-0.5614 Z0.0 E5.04039805993
G1 X-0.87341 Y-0.50319 Z0.0 E5.03995338322
G1 X-0.91392 Y-0.4248 Z0.0 E5.03910906411
G1 X-0.95586 Y-0.31854 Z0.0 E5.0376980636
G1 X-0.99172 Y-0.17521 Z0.0 E5.03539249339
G1 X-1.00642 Y0.01069 Z0.0 E5.03238385981
G1 X-0.97958 Y0.22906 Z0.0 E5.03002350889
G1 X-0.90152 Y0.44663 Z0.0 E5.03044895437
G1 X-0.7881 Y0.62627 Z0.0 E5.03317922118
G1 X-0.66745 Y0.75432 Z0.0 E5.03609016227
G1 X-0.55833 Y0.8388 Z0.0 E5.03814903734
G1 X-0.46678 Y0.89326 Z0.0 E5.03933774419
G1 X-0.39234 Y0.92853 Z0.0 E5.04008590329
G1 X-0.33263 Y0.95165 Z0.0 E5.04053677548
G1 X-0.28534 Y0.96693 Z0.0 E5.04076517133
G1 X-0.24877 Y0.97702 Z0.0 E5.04096864030
G1 X-0.22194 Y0.98348 Z0.0 E5.04105711632
G1 X-0.20462 Y0.98724 Z0.0 E5.04111139036
G1 X-0.19749 Y0.9887 Z0.0 E5.04115559693
G1 X-0.20244 Y0.98769 Z0.0 E5.04111468254
G1 X-0.22322 Y0.98317 Z0.0 E5.04095828514
G1 X-0.26673 Y0.97216 Z0.0 E5.04043638612
G1 X-0.34512 Y0.94681 Z0.0 E5.03874237906
G1 X-0.47629 Y0.88701 Z0.0 E5.03398178433
G1 X-0.66672 Y0.75193 Z0.0 E5.02472457778
G1 X-0.85915 Y0.52012 Z0.0 E5.02161213382
G1 X-0.96807 Y0.27411 Z0.0 E5.03064562705
G1 X-1.00252 Y0.09981 Z0.0 E5.03738123061
G1 X-1.00799 Y-0.00313 Z0.0 E5.03997429805
G1 X-1.00639 Y-0.05984 Z0.0 E5.04083737513
G1 X-1.00439 Y-0.08787 Z0.0 E5.04113183968
G1 X-1.00357 Y-0.09682 Z0.0 E5.04114782887
G1 X-1.00405 Y-0.09172 Z0.0 E5.04115304494
G1 X-1.00543 Y-0.07495 Z0.0 E5.04109855934
G1 X-1.00708 Y-0.04729 Z0.0 E5.04094849830
G1 X-1.00812 Y-0.00833 Z0.0 E5.04077207206
G1 X-1.00716 Y0.04341 Z0.0 E5.04047540838
G1 X-1.00192 Y0.11053 Z0.0 E5.03999148635
G1 X-0.98844 Y0.19675 Z0.0 E5.03915716192
G1 X-0.9598 Y0.30649 Z0.0 E5.03773798470
G1 X-0.90456 Y0.44272 Z0.0 E5.03544881813
G1 X-0.80733 Y0.60102 Z0.0 E5.03241187032
G1 X-0.65767 Y0.76129 Z0.0 E5.03013989120
G1 X-0.46725 Y0.89102 Z0.0 E5.03050495204
G1 X-0.27063 Y0.96959 Z0.0 E5.03325283738
G1 X-0.09851 Y1.0024 Z0.0 E5.03614430914
G1 X0.03866 Y1.00689 Z0.0 E5.03815955409
G1 X0.14392 Y0.99755 Z0.0 E5.03939224733
G1 X0.22393 Y0.98284 Z0.0 E5.04013668093
G1 X0.28469 Y0.96708 Z0.0 E5.04056574826
G1 X0.3305 Y0.95245 Z0.0 E5.04081157280
G1 X0.36416 Y0.94013 Z0.0 E5.04097441597
G1 X0.38717 Y0.93092 Z0.0 E5.04111261355
G1 X0.39989 Y0.92553 Z0.0 E5.04112535303
G1 X0.4014 Y0.92489 Z0.0 E5.04118902666
G1 X0.38896 Y0.93016 Z0.0 E5.04105025565
G1 X0.35678 Y0.9429 Z0.0 E5.04071517346
G1 X0.29326 Y0.9643 Z0.0 E5.03953350420
G1 X0.17634 Y0.99166 Z0.0 E5.03608317842
G1 X-0.02573 Y1.00526 Z0.0 E5.02794615251
G1 X-0.30908 Y0.95542 Z0.0 E5.02085108025
G1 X-0.57041 Y0.82802 Z0.0 E5.02738671802
G1 X-0.72967 Y0.69422 Z0.0 E5.03577133441
G1 X-0.81031 Y0.59935 Z0.0 E5.03940154830
G1 X-0.85037 Y0.54148 Z0.0 E5.04065900280
G1 X-0.86998 Y0.50952 Z0.0 E5.04102130228
G1 X-0.87815 Y0.49536 Z0.0 E5.04115302312
G1 X-0.87887 Y0.49409 Z0.0 E5.04117398281
G1 X-0.87381 Y0.50296 Z0.0 E5.04111266909
G1 X-0.86344 Y0.52053 Z0.0 E5.04103192437
G1 X-0.84739 Y0.54623 Z0.0 E5.04092507631
G1 X-0.82449 Y0.58014 Z0.0 E5.04069980186
G1 X-0.79266 Y0.62283 Z0.0 E5.04040445922
G1 X-0.74846 Y0.67516 Z0.0 E5.03992409963
G1 X-0.68643 Y0.73792 Z0.0 E5.03912708537
G1 X-0.59832 Y0.81064 Z0.0 E5.03766819074
G1 X-0.4731 Y0.88904 Z0.0 E5.03541391447
G1 X-0.30083 Y0.96046 Z0.0 E5.03235059515
G1 X-0.08486 Y1.00242 Z0.0 E5.03002752478
G1 X0.14618 Y0.99542 Z0.0 E5.03048101279
G1 X0.35208 Y0.94306 Z0.0 E5.03319602738
G1 X0.51115 Y0.86788 Z0.0 E5.03609475909
G1 X0.62521 Y0.7902 Z0.0 E5.03811369488
G1 X0.7053 Y0.71997 Z0.0 E5.03935732733
G1 X0.76185 Y0.66007 Z0.0 E5.04010869774
G1 X0.80228 Y0.61042 Z0.0 E5.04050040869
G1 X0.83143 Y0.57017 Z0.0 E5.04075806253
G1 X0.85232 Y0.53851 Z0.0 E5.04093841090
G1 X0.86677 Y0.51499 Z0.0 E5.04109346521
G1 X0.8757 Y0.49968 Z0.0 E5.04115709039
G1 X0.87928 Y0.49335 Z0.0 E5.04114952392
G1 X0.8768 Y0.49775 Z0.0 E5.04116381032
G1 X0.86607 Y0.51611 Z0.0 E5.04094925832
G1 X0.84215 Y0.55408 Z0.0 E5.04039003674
G1 X0.79383 Y0.62081 Z0.0 E5.03877744349
G1 X0.69642 Y0.72709 Z0.0 E5.03403586722
G1 X0.5091 Y0.86644 Z0.0 E5.02469174079
G1 X0.22918 Y0.97783 Z0.0 E5.0216406216
G1 X-0.03846 Y1.00539 Z0.0 E5.03062675941
G1 X-0.21487 Y0.9843 Z0.0 E5.03739914763
G1 X-0.31447 Y0.95769 Z0.0 E5.03999384176
G1 X-0.36791 Y0.93864 Z0.0 E5.04084025163
G1 X-0.39394 Y0.92808 Z0.0 E5.04113382584
G1 X-0.40221 Y0.92454 Z0.0 E5.04119801163
G1 X-0.3975 Y0.92656 Z0.0 E5.04113004097
G1 X-0.38197 Y0.93306 Z0.0 E5.04108630282
G1 X-0.35618 Y0.94318 Z0.0 E5.04096395742
G1 X-0.31945 Y0.9562 Z0.0 E5.04075079353
G1 X-0.26994 Y0.97128 Z0.0 E5.04046734440
G1 X-0.20449 Y0.98703 Z0.0 E5.03995134153
G1 X-0.11833 Y1.00086 Z0.0 E5.03915352143
G1 X-0.0051 Y1.00753 Z0.0 E5.03771453861
G1 X0.14153 Y0.9971 Z0.0 E5.03547205061
G1 X0.32212 Y0.95355 Z0.0 E5.03244199395
G1 X0.5208 Y0.86073 Z0.0 E5.03013114367
G1 X0.70302 Y0.71973 Z0.0 E5.03052778866
G1 X0.8385 Y0.55701 Z0.0 E5.03324544926
G1 X0.9229 Y0.40345 Z0.0 E5.03616002650
G1 X0.96956 Y0.27438 Z0.0 E5.03818166108
G1 X0.9932 Y0.17139 Z0.0 E5.03939672009
G1 X1.00393 Y0.09074 Z0.0 E5.04011208333
G1 X1.00772 Y0.02809 Z0.0 E5.04055712819
G1 X1.00796 Y-0.02 Z0.0 E5.04079200523
G1 X1.00665 Y-0.05582 Z0.0 E5.04098228250
G1 X1.005 Y-0.08055 Z0.0 E5.04111421835
G1 X1.00381 Y-0.09431 Z0.0 E5.04115287459
G1 X1.00366 Y-0.09594 Z0.0 E5.04117515863
G1 X1.00483 Y-0.08248 Z0.0 E5.04104721090
G1 X1.007 Y-0.04794 Z0.0 E5.04070244014
G1 X1.00772 Y0.01908 Z0.0 E5.03950306280
G1 X0.99762 Y0.13873 Z0.0 E5.03609888033
G1 X0.94811 Y0.33512 Z0.0 E5.02796675233
G1 X0.81314 Y0.58919 Z0.0 E5.02081048164
G1 X0.61123 Y0.79837 Z0.0 E5.02741675665
G1 X0.43476 Y0.90849 Z0.0 E5.03579769674
G1 X0.31961 Y0.95586 Z0.0 E5.03939205584
G1 X0.2522 Y0.97607 Z0.0 E5.04062864358
G1 X0.21575 Y0.98485 Z0.0 E5.04102565209
G1 X0.19975 Y0.98825 Z0.0 E5.04117576811
G1 X0.19832 Y0.98853 Z0.0 E5.04113673515
G1 X0.20832 Y0.98647 Z0.0 E5.04113152799
G1 X0.22824 Y0.98203 Z0.0 E5.04102275957
G1 X0.25764 Y0.97471 Z0.0 E5.04092737921
G1 X0.29697 Y0.96341 Z0.0 E5.04070929781
G1 X0.3474 Y0.94633 Z0.0 E5.04040481732
G1 X0.41083 Y0.92046 Z0.0 E5.03991046671
G1 X0.48968 Y0.88086 Z0.0 E5.03909923002
G1 X0.58607 Y0.81954 Z0.0 E5.03766775527
G1 X0.69933 Y0.72467 Z0.0 E5.03539734728
G1 X0.82049 Y0.58291 Z0.0 E5.03236502104
G1 X0.92714 Y0.39047 Z0.0 E5.03004821175
G1 X0.99187 Y0.16858 Z0.0 E5.03047043849
G1 X1.0057 Y-0.04343 Z0.0 E5.03318650285
G1 X0.98336 Y-0.21794 Z0.0 E5.03610646532
G1 X0.94473 Y-0.35043 Z0.0 E5.03814439501
G1 X0.90268 Y-0.4483 Z0.0 E5.03935529706
G1 X0.86318 Y-0.52059 Z0.0 E5.04007356221
G1 X0.82847 Y-0.57438 Z0.0 E5.04052310108
G1 X0.79919 Y-0.61455 Z0.0 E5.04077463938
G1 X0.77554 Y-0.6442 Z0.0 E5.04097195886
G1 X0.75763 Y-0.6652 Z0.0 E5.04106699246
G1 X0.74583 Y-0.67843 Z0.0 E5.04115476305
G1 X0.74092 Y-0.6838 Z0.0 E5.04119253352
G1 X0.74433 Y-0.68007 Z0.0 E5.04113666200
G1 X0.75848 Y-0.6642 Z0.0 E5.04096605424
G1 X0.78721 Y-0.62971 Z0.0 E5.04042227447
G1 X0.83573 Y-0.56313 Z0.0 E5.03874991888
G1 X0.9067 Y-0.43765 Z0.0 E5.03399049587
G1 X0.98136 Y-0.21644 Z0.0 E5.02472318442
G1 X1.00079 Y0.08421 Z0.0 E5.02163307152
G1 X0.9443 Y0.34726 Z0.0 E5.03063613671
G1 X0.86973 Y0.50852 Z0.0 E5.03741715391
G1 X0.81364 Y0.59502 Z0.0 E5.03998722717
G1 X0.77901 Y0.63995 Z0.0 E5.04081487113
G1 X0.76092 Y0.66145 Z0.0 E5.04111929263
G1 X0.755 Y0.66822 Z0.0 E5.04118777770
G1 X0.75838 Y0.66437 Z0.0 E5.04114997124
G1 X0.76935 Y0.65161 Z0.0 E5.04106887128
G1 X0.78695 Y0.63021 Z0.0 E5.04096951637
G1 X0.81068 Y0.5993 Z0.0 E5.04074040296
G1 X0.84032 Y0.55687 Z0.0 E5.04044119919
G1 X0.87553 Y0.49949 Z0.0 E5.03994801809
G1 X0.91531 Y0.42182 Z0.0 E5.03915793685
G1 X0.95664 Y0.3162 Z0.0 E5.03771408875
G1 X0.99203 Y0.17352 Z0.0 E5.03545606500
G1 X1.00642 Y-0.0117 Z0.0 E5.03244003044
G1 X0.97954 Y-0.22933 Z0.0 E5.03013633140
G1 X0.90175 Y-0.44621 Z0.0 E5.03054775000
G1 X0.78886 Y-0.62534 Z0.0 E5.03326488276
G1 X0.66889 Y-0.75306 Z0.0 E5.03615229044
G1 X0.56056 Y-0.83732 Z0.0 E5.03818493110
G1 X0.46992 Y-0.89163 Z0.0 E5.03941678992
G1 X0.39653 Y-0.92675 Z0.0 E5.04009326154
G1 X0.33812 Y-0.94972 Z0.0 E5.04056845207
G1 X0.29246 Y-0.96481 Z0.0 E5.04081141211
G1 X0.25799 Y-0.97463 Z0.0 E5.04098818933
G1 X0.23395 Y-0.9807 Z0.0 E5.04109386071
G1 X0.2205 Y-0.98382 Z0.0 E5.04113588986
G1 X0.2189 Y-0.98419 Z0.0 E5.04119818620
G1 X0.23206 Y-0.98114 Z0.0 E5.04105034492
G1 X0.26558 Y-0.97253 Z0.0 E5.04070267250
G1 X0.32955 Y-0.95251 Z0.0 E5.03953991600
G1 X0.44022 Y-0.90593 Z0.0 E5.0361265207
G1 X0.6117 Y-0.79815 Z0.0 E5.02797253498
G1 X0.81163 Y-0.59128 Z0.0 E5.02084478773
G1 X0.94817 Y-0.3346 Z0.0 E5.02738378508
G1 X0.99837 Y-0.13274 Z0.0 E5.03577840185
G1 X1.00784 Y-0.00859 Z0.0 E5.03938303193
G1 X1.00623 Y0.06177 Z0.0 E5.04062085908
G1 X1.00332 Y0.09915 Z0.0 E5.04103596719
G1 X1.00161 Y0.11541 Z0.0 E5.04118552575
G1 X1.00144 Y0.11686 Z0.0 E5.04117628436
G1 X1.00256 Y0.10671 Z0.0 E5.04111490074
G1 X1.0045 Y0.0864 Z0.0 E5.04104455941
G1 X1.00662 Y0.05617 Z0.0 E5.04092970914
G1 X1.00803 Y0.01528 Z0.0 E5.040729013
G1 X1.00737 Y-0.03796 Z0.0 E5.04042477997
G1 X1.00237 Y-0.10629 Z0.0 E5.03994836531
G1 X0.98907 Y-0.19352 Z0.0 E5.03912059615
G1 X0.96054 Y-0.30414 Z0.0 E5.03770342319
G1 X0.90531 Y-0.44117 Z0.0 E5.03541747276
G1 X0.80792 Y-0.60021 Z0.0 E5.03236219508
G1 X0.65786 Y-0.7611 Z0.0 E5.03004222050
G1 X0.46683 Y-0.89123 Z0.0 E5.03046012259
G1 X0.26947 Y-0.9699 Z0.0 E5.03319006918
G1 X0.0966 Y-1.00258 Z0.0 E5.03611511088
G1 X-0.04134 Y-1.00678 Z0.0 E5.03814192932
G1 X-0.14741 Y-0.99704 Z0.0 E5.03939100909
G1 X-0.22837 Y-0.98181 Z0.0 E5.04009854318
G1 X-0.29026 Y-0.96541 Z0.0 E5.04050427958
G1 X-0.3375 Y-0.94998 Z0.0 E5.04075453281
G1 X-0.37302 Y-0.93665 Z0.0 E5.04097496249
G1 X-0.39853 Y-0.9261 Z0.0 E5.04104991768
G1 X-0.41475 Y-0.91897 Z0.0 E5.04113931418
G1 X-0.42137 Y-0.91596 Z0.0 E5.04116900753
G1 X-0.41677 Y-0.91805 Z0.0 E5.04111355605
G1 X-0.39731 Y-0.92661 Z0.0 E5.04098534068
G1 X-0.35563 Y-0.94327 Z0.0 E5.04041414419
G1 X-0.27731 Y-0.96885 Z0.0 E5.03877752684
G1 X-0.13604 Y-0.99757 Z0.0 E5.03401625568
G1 X0.09741 Y-1.00021 Z0.0 E5.02471081805
G1 X0.38934 Y-0.92578 Z0.0 E5.02158900150
G1 X0.62207 Y-0.79077 Z0.0 E5.03062689384
G1 X0.75239 Y-0.67002 Z0.0 E5.03740387625
G1 X0.81732 Y-0.58994 Z0.0 E5.03994341734
G1 X0.84936 Y-0.54313 Z0.0 E5.04083972791
G1 X0.86421 Y-0.51928 Z0.0 E5.04110762259
G1 X0.86882 Y-0.51155 Z0.0 E5.04115957618
G1 X0.8662 Y-0.51596 Z0.0 E5.04112378741
G1 X0.85746 Y-0.53034 Z0.0 E5.04107668857
G1 X0.84254 Y-0.55369 Z0.0 E5.04094799542
G1 X0.82048 Y-0.58581 Z0.0 E5.04073602389
G1 X0.78929 Y-0.62711 Z0.0 E5.04045051607
G1 X0.7456 Y-0.67833 Z0.0 E5.03996763110
G1 X0.68402 Y-0.74016 Z0.0 E5.03914721456
G1 X0.59634 Y-0.81211 Z0.0 E5.03771785559
G1 X0.47158 Y-0.88986 Z0.0 E5.03547047454
G1 X0.29988 Y-0.96077 Z0.0 E5.03241246148
G1 Z0
G1 Z2.2
G1 X-0.48994 Y-0.00843 Z0.0 E2.45006259359
G1 X0.07405 Y-0.99909 Z0.0 E5.00915220022
G1 X-0.13089 Y-0.99329 Z0.0 E5.00938423412
G1 X-0.3172 Y-0.95074 Z0.0 E5.01129321533
G1 X-0.4671 Y-0.88724 Z0.0 E5.01342504581
G1 X-0.57926 Y-0.81884 Z0.0 E5.01507999238
G1 X-0.6607 Y-0.75496 Z0.0 E5.01619649635
G1 X-0.71943 Y-0.69941 Z0.0 E5.01685626912
G1 X-0.7618 Y-0.65313 Z0.0 E5.01726528325
G1 X-0.79217 Y-0.61603 Z0.0 E5.01753492713
G1 X-0.81332 Y-0.58789 Z0.0 E5.01772875537
G1 X-0.82684 Y-0.56877 Z0.0 E5.01787728651
G1 X-0.83327 Y-0.55932 Z0.0 E5.01791230319
G1 X-0.83211 Y-0.56103 Z0.0 E5.01787234044
G1 X-0.82137 Y-0.5766 Z0.0 E5.01775905385
G1 X-0.79644 Y-0.6104 Z0.0 E5.01723238848
G1 X-0.74788 Y-0.66863 Z0.0 E5.01595098486
G1 X-0.65787 Y-0.75652 Z0.0 E5.01277230507
G1 X-0.50282 Y-0.86615 Z0.0 E5.00760365569
G1 X-0.28413 Y-0.9599 Z0.0 E5.00534181375
G1 X-0.06208 Y-0.99999 Z0.0 E5.00957564695
G1 X0.10334 Y-0.99752 Z0.0 E5.01429283648
G1 X0.20605 Y-0.98194 Z0.0 E5.01662926201
G1 X0.26364 Y-0.96826 Z0.0 E5.01755288263
G1 X0.29135 Y-0.96035 Z0.0 E5.01786046289
G1 X0.29826 Y-0.95824 Z0.0 E5.01792518179
G1 X0.28909 Y-0.96103 Z0.0 E5.01784736964
G1 X0.26584 Y-0.96769 Z0.0 E5.01770575487
G1 X0.22862 Y-0.97711 Z0.0 E5.01749702666
G1 X0.17603 Y-0.98786 Z0.0 E5.01710559113
G1 X0.10529 Y-0.99777 Z0.0 E5.01655000224
G1 X0.0124 Y-1.00304 Z0.0 E5.01558322032
G1 X-0.10694 Y-0.99711 Z0.0 E5.01414129164
G1 X-0.25456 Y-0.96957 Z0.0 E5.01215217871
G1 X-0.42395 Y-0.90792 Z0.0 E5.01012057964
G1 X-0.59549 Y-0.80566 Z0.0 E5.0092324155
G1 X-0.743 Y-0.67236 Z0.0 E5.01028185235
G1 X-0.8506 Y-0.53048 Z0.0 E5.01230832651
G1 X-0.91963 Y-0.40001 Z0.0 E5.01429789951
G1 X-0.96027 Y-0.29011 Z0.0 E5.01568112274
G1 X-0.98281 Y-0.20182 Z0.0 E5.01658950010
G1 X-0.99458 Y-0.13295 Z0.0 E5.01713334211
G1 X-1.00023 Y-0.08089 Z0.0 E5.01747756597
G1 X-1.00259 Y-0.04373 Z0.0 E5.01771616625
G1 X-1.00336 Y-0.0207 Z0.0 E5.01786752416
G1 X-1.00351 Y-0.01237 Z0.0 E5.01793118974
G1 X-1.00334 Y-0.02111 Z0.0 E5.01781024875
G1 X-1.00215 Y-0.05196 Z0.0 E5.01748060310
G1 X-0.99681 Y-0.11392 Z0.0 E5.01649265548
G1 X-0.97824 Y-0.22059 Z0.0 E5.0140139751
G1 X-0.92567 Y-0.38314 Z0.0 E5.00914465877
G1 X-0.81377 Y-0.583 Z0.0 E5.00527375101
G1 X-0.65516 Y-0.75761 Z0.0 E5.00801242436
G1 X-0.50553 Y-0.86585 Z0.0 E5.01312478251
G1 X-0.39772 Y-0.92101 Z0.0 E5.01607570343
G1 X-0.3302 Y-0.94758 Z0.0 E5.01731974365
G1 X-0.29238 Y-0.96001 Z0.0 E5.01773171986
G1 X-0.27573 Y-0.96496 Z0.0 E5.01790502725
G1 X-0.27488 Y-0.9652 Z0.0 E5.01789311963
G1 X-0.28682 Y-0.96171 Z0.0 E5.01784773708
G1 X-0.31006 Y-0.95444 Z0.0 E5.01770096060
G1 X-0.34426 Y-0.94261 Z0.0 E5.01754063187
G1 X-0.38988 Y-0.92461 Z0.0 E5.01724542578
G1 X-0.44805 Y-0.89777 Z0.0 E5.01682114341
G1 X-0.52021 Y-0.85781 Z0.0 E5.01611513076
G1 X-0.60734 Y-0.79821 Z0.0 E5.01498025844
G1 X-0.70797 Y-0.70999 Z0.0 E5.01325074428
G1 X-0.81469 Y-0.58371 Z0.0 E5.01108062248
G1 X-0.91113 Y-0.41663 Z0.0 E5.00933736586
G1 X-0.97688 Y-0.22224 Z0.0 E5.00920440789
G1 X-1.00176 Y-0.02841 Z0.0 E5.01081387027
G1 X-0.99273 Y0.14038 Z0.0 E5.01303151122
G1 X-0.96453 Y0.27496 Z0.0 E5.01478095858
G1 X-0.92935 Y0.37777 Z0.0 E5.01597845739
G1 X-0.89419 Y0.45512 Z0.0 E5.01674688045
G1 X-0.86239 Y0.51302 Z0.0 E5.01723537543
G1 X-0.83542 Y0.55596 Z0.0 E5.01751456899
G1 X-0.81401 Y0.58692 Z0.0 E5.01768713278
G1 X-0.79871 Y0.60763 Z0.0 E5.01784784793
G1 X-0.79022 Y0.61864 Z0.0 E5.01787579061
G1 X-0.78971 Y0.6193 Z0.0 E5.01790388036
G1 X-0.79896 Y0.60728 Z0.0 E5.01778357445
G1 X-0.82056 Y0.57762 Z0.0 E5.01737874293
G1 X-0.85757 Y0.52067 Z0.0 E5.01628237293
G1 X-0.91078 Y0.41944 Z0.0 E5.01360679053
G1 X-0.96937 Y0.25258 Z0.0 E5.00867959970
G1 X-1.00079 Y0.02259 Z0.0 E5.00522460085
G1 X-0.97947 Y-0.20986 Z0.0 E5.00849952705
G1 X-0.92751 Y-0.38096 Z0.0 E5.01349509250
G1 X-0.87832 Y-0.48486 Z0.0 E5.01631149850
G1 X-0.8443 Y-0.54235 Z0.0 E5.01743463460
G1 X-0.82549 Y-0.57071 Z0.0 E5.01782732913
G1 X-0.81917 Y-0.57978 Z0.0 E5.01792869942
G1 X-0.82288 Y-0.57448 Z0.0 E5.01786499619
G1 X-0.83489 Y-0.55684 Z0.0 E5.01774874246
G1 X-0.85404 Y-0.52693 Z0.0 E5.01756800278
G1 X-0.87939 Y-0.48329 Z0.0 E5.01721037081
G1 X-0.90985 Y-0.42292 Z0.0 E5.01669300660
G1 X-0.94336 Y-0.34118 Z0.0 E5.01580472606
G1 X-0.97568 Y-0.23207 Z0.0 E5.01449884659
G1 X-0.99847 Y-0.09005 Z0.0 E5.01261245111
G1 X-0.99851 Y0.08467 Z0.0 E5.01046711645
G1 X-0.96235 Y0.27857 Z0.0 E5.00928829126
G1 X-0.8876 Y0.46492 Z0.0 E5.00995101373
G1 X-0.78833 Y0.6191 Z0.0 E5.01185843500
G1 X-0.68455 Y0.73279 Z0.0 E5.01395524162
G1 X-0.5899 Y0.8113 Z0.0 E5.01545037858
G1 X-0.50982 Y0.8641 Z0.0 E5.01643609149
G1 X-0.445 Y0.89934 Z0.0 E5.01706446939
G1 X-0.3945 Y0.92269 Z0.0 E5.01743730927
G1 X-0.3573 Y0.93778 Z0.0 E5.01770519859
G1 X-0.33302 Y0.9467 Z0.0 E5.01782624849
G1 X-0.32225 Y0.95043 Z0.0 E5.01787367169
G1 X-0.32701 Y0.9488 Z0.0 E5.01786055032
G1 X-0.35134 Y0.94001 Z0.0 E5.01761545881
G1 X-0.40218 Y0.91923 Z0.0 E5.01680312874
G1 X-0.48943 Y0.87541 Z0.0 E5.01468940464
G1 X-0.61993 Y0.78726 Z0.0 E5.01021833980
G1 X-0.77613 Y0.63234 Z0.0 E5.00557602205
G1 X-0.90464 Y0.42948 Z0.0 E5.00706151350
G1 X-0.97231 Y0.24398 Z0.0 E5.01226739236
G1 X-0.99671 Y0.1133 Z0.0 E5.01564480924
G1 X-1.0029 Y0.03268 Z0.0 E5.01716152919
G1 X-1.00346 Y-0.01268 Z0.0 E5.01770055404
G1 X-1.003 Y-0.03394 Z0.0 E5.01787037397
G1 X-1.00287 Y-0.03779 Z0.0 E5.01790873024
G1 X-1.00318 Y-0.02787 Z0.0 E5.01783531341
G1 X-1.00353 Y-0.00586 Z0.0 E5.01773554629
G1 X-1.00313 Y0.02791 Z0.0 E5.01759096828
G1 X-1.00072 Y0.07419 Z0.0 E5.01733164765
G1 X-0.9943 Y0.13468 Z0.0 E5.01689942195
G1 X-0.98061 Y0.21195 Z0.0 E5.01627046370
G1 X-0.95428 Y0.30896 Z0.0 E5.01524326429
G1 X-0.90695 Y0.42767 Z0.0 E5.01363124741
G1 X-0.82757 Y0.56546 Z0.0 E5.01152949832
G1 X-0.70693 Y0.70998 Z0.0 E5.00954495264
G1 X-0.54802 Y0.83863 Z0.0 E5.0090572898
G1 X-0.37153 Y0.93066 Z0.0 E5.01039563433
G1 X-0.20401 Y0.98154 Z0.0 E5.01258628779
G1 X-0.06158 Y1.00101 Z0.0 E5.01451173221
G1 X0.05245 Y1.00179 Z0.0 E5.01581051925
G1 X0.14135 Y0.99332 Z0.0 E5.0166334451
G1 X0.20981 Y0.98125 Z0.0 E5.01715008396
G1 X0.26187 Y0.96872 Z0.0 E5.01745536926
G1 X0.30041 Y0.95752 Z0.0 E5.01769548324
G1 X0.32709 Y0.94876 Z0.0 E5.01780182376
G1 X0.34248 Y0.94333 Z0.0 E5.01787813548
G1 X0.34588 Y0.9421 Z0.0 E5.01793130782
G1 X0.33494 Y0.94602 Z0.0 E5.01781487303
G1 X0.30481 Y0.95609 Z0.0 E5.01751239211
G1 X0.24646 Y0.97258 Z0.0 E5.01660838615
G1 X0.14474 Y0.99237 Z0.0 E5.01434912152
G1 X-0.01864 Y1.00178 Z0.0 E5.00976700556
G1 X-0.24062 Y0.97174 Z0.0 E5.00543857219
G1 X-0.46399 Y0.88752 Z0.0 E5.00744063994
G1 X-0.62538 Y0.78357 Z0.0 E5.01268912187
G1 X-0.71968 Y0.69888 Z0.0 E5.01590609162
G1 X-0.7701 Y0.64332 Z0.0 E5.01725680128
G1 X-0.79498 Y0.61248 Z0.0 E5.01778076145
G1 X-0.80413 Y0.60046 Z0.0 E5.01791109053
G1 X-0.80218 Y0.60305 Z0.0 E5.01787319215
G1 X-0.79092 Y0.61771 Z0.0 E5.01776865374
G1 X-0.77037 Y0.6431 Z0.0 E5.01758793371
G1 X-0.73913 Y0.67868 Z0.0 E5.01726942495
G1 X-0.69434 Y0.72431 Z0.0 E5.01680429083
G1 X-0.63134 Y0.77964 Z0.0 E5.01604606538
G1 X-0.54347 Y0.80.0 E4.99977596798
G1 X0.22868 Y0.97343 Z0.0 E4.99965125609
G1 X0.19501 Y0.98067 Z0.0 E4.99935633107
G1 X0.13719 Y0.99028 Z0.0 E4.99868876432
G1 X0.05035 Y0.99825 Z0.0 E4.99759488404
G1 X-0.06533 Y0.99714 Z0.0 E4.99638916744
G1 X-0.19745 Y0.97948 Z0.0 E4.99591726538
G1 X-0.32222 Y0.94599 Z0.0 E4.99680600109
G1 X-0.41872 Y0.90773 Z0.0 E4.99825017206
G1 X-0.47999 Y0.8771 Z0.0 E4.99923696703
G1 X-0.50901 Y0.86069 Z0.0 E4.99969613127
G1 X-0.51081 Y0.85964 Z0.0 E4.99976945894
G1 X-0.48867 Y0.87235 Z0.0 E4.99948220169
G1 X-0.44363 Y0.89598 Z0.0 E4.99896923700
G1 X-0.37525 Y0.92654 Z0.0 E4.99822201913
G1 X-0.28319 Y0.95851 Z0.0 E4.99734428522
G1 X-0.16944 Y0.98484 Z0.0 E4.99654815648
G1 X-0.0405 Y0.99839 Z0.0 E4.99605554938
G1 X0.09234 Y0.99497 Z0.0 E4.99622851884
G1 X0.21643 Y0.97565 Z0.0 E4.99683616752
G1 X0.32216 Y0.9462 Z0.0 E4.99770323649
G1 X0.40495 Y0.91402 Z0.0 E4.99854244480
G1 X0.46407 Y0.88562 Z0.0 E4.99920931073
G1 X0.50012 Y0.86587 Z0.0 E4.99962716435
G1 X0.51309 Y0.85829 Z0.0 E4.99980767680
G1 X0.50111 Y0.86529 Z0.0 E4.99959502410
G1 X0.46004 Y0.88766 Z0.0 E4.99894258119
G1 X0.38493 Y0.92244 Z0.0 E4.99766610154
G1 X0.27567 Y0.96049 Z0.0 E4.99633613011
G1 X0.14496 Y0.98862 Z0.0 E4.99595562931
G1 X0.01687 Y0.99922 Z0.0 E4.99681199691
G1 X-0.08812 Y0.99572 Z0.0 E4.99805825496
G1 X-0.16315 Y0.9864 Z0.0 E4.99900710767
G1 X-0.21083 Y0.97742 Z0.0 E4.99949783803
G1 X-0.23642 Y0.97159 Z0.0 E4.99970385248
G1 X-0.24443 Y0.96962 Z0.0 E4.99977241807
G1 X-0.23781 Y0.97126 Z0.0 E4.99974895295
G1 X-0.21812 Y0.97585 Z0.0 E4.99964887992
G1 X-0.1857 Y0.9825 Z0.0 E4.99947682263
G1 X-0.13995 Y0.99 Z0.0 E4.99921494462
G1 X-0.07941 Y0.9966 Z0.0 E4.99879362472
G1 X-0.00198 Y0.99964 Z0.0 E4.99820980452
G1 X0.09451 Y0.995 Z0.0 E4.99739217017
G1 X0.21106 Y0.97672 Z0.0 E4.99631935028
G1 X0.34521 Y0.93748 Z0.0 E4.99509432969
G1 X0.48847 Y0.87124 Z0.0 E4.99415177608
G1 X0.6265 Y0.77786 Z0.0 E4.99391737417
G1 X0.74466 Y0.66583 Z0.0 E4.99461736397
G1 X0.83499 Y0.54874 Z0.0 E4.99580796193
G1 X0.89805 Y0.43853 Z0.0 E4.99700501150
G1 X0.9393 Y0.34188 Z0.0 E4.99791562654
G1 X0.96507 Y0.26093 Z0.0 E4.99861123163
G1 X0.98054 Y0.19536 Z0.0 E4.99906046473
G1 X0.98944 Y0.14405 Z0.0 E4.99935474862
G1 X0.99428 Y0.10596 Z0.0 E4.99955057980
G1 X0.99669 Y0.08061 Z0.0 E4.99972231279
G1 X0.99763 Y0.06824 Z0.0 E4.99980578248
G1 X0.9975 Y0.07007 Z0.0 E4.99979013285
G1 X0.996 Y0.08849 Z0.0 E4.99961618552
G1 X0.99173 Y0.12713 Z0.0 E4.99922601459
G1 X0.98142 Y0.19033 Z0.0 E4.99852659616
G1 X0.9592 Y0.28082 Z0.0 E4.99731055769
G1 X0.91823 Y0.39412 Z0.0 E4.99619081726
G1 X0.85698 Y0.5138 Z0.0 E4.99601131004
G1 X0.78598 Y0.61731 Z0.0 E4.99708964423
G1 X0.72255 Y0.69088 Z0.0 E4.99848396241
G1 X0.67902 Y0.73396 Z0.0 E4.99941357061
G1 X0.65919 Y0.75191 Z0.0 E4.99975025426
G1 X0.66195 Y0.74947 Z0.0 E4.99970769996
G1 X0.68463 Y0.72872 Z0.0 E4.99937764952
G1 X0.72411 Y0.68935 Z0.0 E4.99884665348
G1 X0.77651 Y0.62948 Z0.0 E4.99803173884
G1 X0.83629 Y0.54726 Z0.0 E4.99718538705
G1 X0.89571 Y0.44303 Z0.0 E4.99642868707
G1 X0.94594 Y0.32189 Z0.0 E4.99603756916
G1 X0.98021 Y0.19417 Z0.0 E4.99628270067
G1 X0.99678 Y0.07229 Z0.0 E4.99698962501
G1 X0.99901 Y-0.03354 Z0.0 E4.99786432314
G1 X0.99279 Y-0.11762 Z0.0 E4.99866594328
G1 X0.98393 Y-0.17776 Z0.0 E4.99929210614
G1 X0.97696 Y-0.21312 Z0.0 E4.99967742959
G1 X0.97491 Y-0.22241 Z0.0 E4.99978928606
G1 X0.97913 Y-0.20275 Z0.0 E4.99950777427
G1 X0.98846 Y-0.14974 Z0.0 E4.99868792585
G1 X0.99766 Y-0.06028 Z0.0 E4.99739720755
G1 X0.99739 Y0.0606 Z0.0 E4.99614644526
G1 X0.98018 Y0.19408 Z0.0 E4.99604813528
G1 X0.94851 Y0.3149 Z0.0 E4.99708222391
G1 X0.91281 Y0.40755 Z0.0 E4.99829745663
G1 X0.88227 Y0.47037 Z0.0 E4.99912064717
G1 X0.86097 Y0.50849 Z0.0 E4.99957853474
G1 X0.84942 Y0.52762 Z0.0 E4.99974299539
G1 X0.84675 Y0.5319 Z0.0 E4.99975792539
G1 X0.85181 Y0.52375 Z0.0 E4.99973583952
G1 X0.86351 Y0.50417 Z0.0 E4.99959225587
G1 X0.88092 Y0.47303 Z0.0 E4.99944353728
G1 X0.90304 Y0.42915 Z0.0 E4.99912733410
G1 X0.92858 Y0.37042 Z0.0 E4.99867930758
G1 X0.95544 Y0.2939 Z0.0 E4.99810665052
G1 X0.97999 Y0.19621 Z0.0 E4.99719612433
G1 X0.9964 Y0.07491 Z0.0 E4.99605961759
G1 X0.99659 Y-0.06894 Z0.0 E4.99485823548
G1 X0.97252 Y-0.22762 Z0.0 E4.99401145073
G1 X0.92103 Y-0.38642 Z0.0 E4.99403813887
G1 X0.84735 Y-0.5291 Z0.0 E4.99486944899
G1 X0.76267 Y-0.64556 Z0.0 E4.99603153138
G1 X0.67807 Y-0.73423 Z0.0 E4.99718074968
G1 X0.60072 Y-0.79898 Z0.0 E4.99808352971
G1 X0.53394 Y-0.84522 Z0.0 E4.99872176661
G1 X0.47867 Y-0.87779 Z0.0 E4.99910055160
G1 X0.43491 Y-0.90035 Z0.0 E4.99944204537
G1 X0.40244 Y-0.91536 Z0.0 E4.99960469237
G1 X0.38138 Y-0.92436 Z0.0 E4.99973027772
G1 X0.37241 Y-0.92802 Z0.0 E4.99977581622
G1 X0.37699 Y-0.92617 Z0.0 E4.99978081770
G1 X0.39745 Y-0.91753 Z0.0 E4.99956948997
G1 X0.43695 Y-0.8993 Z0.0 E4.99916441143
G1 X0.49842 Y-0.86655 Z0.0 E4.99832821776
G1 X0.58162 Y-0.81275 Z0.0 E4.99711013212
G1 X0.67822 Y-0.73379 Z0.0 E4.99607378974
G1 X0.7707 Y-0.63599 Z0.0 E4.99615294527
G1 X0.84215 Y-0.53827 Z0.0 E4.99737735067
G1 X0.88746 Y-0.46031 Z0.0 E4.99867619400
G1 X0.9112 Y-0.41173 Z0.0 E4.99951755898
G1 X0.91943 Y-0.39313 Z0.0 E4.99975679859
G1 X0.91571 Y-0.40168 Z0.0 E4.99967905595
G1 X0.90065 Y-0.43423 Z0.0 E4.99931524161
G1 X0.87257 Y-0.48795 Z0.0 E4.99868384527
G1 X0.82831 Y-0.55952 Z0.0 E4.99789977516
G1 X0.76444 Y-0.64377 Z0.0 E4.99701992817
G1 X0.67954 Y-0.73263 Z0.0 E4.99630195370
G1 X0.57684 Y-0.81589 Z0.0 E4.99605063450
G1 X0.46502 Y-0.88449 Z0.0 E4.99641411539
G1 X0.35563 Y-0.93402 Z0.0 E4.99716433915
G1 X0.25883 Y-0.96552 Z0.0 E4.99805421964
G1 X0.1811 Y-0.98322 Z0.0 E4.99879680123
G1 X0.12585 Y-0.99193 Z0.0 E4.99940833349
G1 X0.09513 Y-0.99541 Z0.0 E4.99972695504
G1 X0.09126 Y-0.99578 Z0.0 E4.9997654845
G1 X0.11763 Y-0.99294 Z0.0 E4.99941661722
G1 X0.17792 Y-0.98373 Z0.0 E4.99845035811
G1 X0.27226 Y-0.96162 Z0.0 E4.99709548638
G1 X0.39045 Y-0.91976 Z0.0 E4.99602256825
G1 X0.51042 Y-0.85904 Z0.0 E4.99619429666
G1 X0.61035 Y-0.79146 Z0.0 E4.99733942739
G1 X0.68171 Y-0.73122 Z0.0 E4.99852781452
G1 X0.72736 Y-0.68603 Z0.0 E4.99922426607
G1 X0.75364 Y-0.65717 Z0.0 E4.99961413136
G1 X0.76576 Y-0.64306 Z0.0 E4.99978634844
G1 X0.76701 Y-0.64157 Z0.0 E4.99979100813
G1 X0.75904 Y-0.65095 Z0.0 E4.99969405089
G1 X0.74226 Y-0.66999 Z0.0 E4.99959125254
G1 X0.71603 Y-0.69789 Z0.0 E4.99937349325
G1 X0.67875 Y-0.73411 Z0.0 E4.99904754578
G1 X0.6278 Y-0.77802 Z0.0 E4.99861971048
G1 X0.55951 Y-0.82832 Z0.0 E4.99791322079
G1 X0.46949 Y-0.88225 Z0.0 E4.9969638847
G1 X0.35388 Y-0.9344 Z0.0 E4.99583430069
G1 Z0
G1 Z2.2

G1 Z0
G1 Z2.2
 Y-0.59874 Z0.0 E5.01746369593
G1 X0.82555 Y-0.57061 Z0.0 E5.01778978884
G1 X0.83329 Y-0.5593 Z0.0 E5.01793960232
G1 X0.83218 Y-0.56093 Z0.0 E5.01788306286
G1 X0.82376 Y-0.5732 Z0.0 E5.01781520584
G1 X0.80821 Y-0.59488 Z0.0 E5.01768277819
G1 X0.78467 Y-0.62554 Z0.0 E5.01748766939
G1 X0.75128 Y-0.66519 Z0.0 E5.01721878759
G1 X0.70483 Y-0.71407 Z0.0 E5.01667542751
G1 X0.64045 Y-0.77214 Z0.0 E5.01591562454
G1 X0.55124 Y-0.83786 Z0.0 E5.01466578448
G1 X0.42901 Y-0.90614 Z0.0 E5.01283173391
G1 X0.26815 Y-0.96559 Z0.0 E5.01065981334
G1 Z0
G1 Z2.2
G1 X-3.2921 Y-0.05721 Z0.0 E16.4629852959
G1 X0.0508 Y-0.9975 Z0.0 E4.99396358116
G1 X-0.11578 Y-0.99209 Z0.0 E4.99411547849
G1 X-0.27074 Y-0.96163 Z0.0 E4.99507858922
G1 X-0.40252 Y-0.9146 Z0.0 E4.99628739766
G1 X-0.50774 Y-0.8609 Z0.0 E4.99737110289
G1 X-0.58869 Y-0.80792 Z0.0 E4.99822629165
G1 X-0.64966 Y-0.7599 Z0.0 E4.99876516152
G1 X-0.69486 Y-0.71892 Z0.0 E4.99919089954
G1 X-0.72754 Y-0.6859 Z0.0 E4.99943312186
G1 X-0.74993 Y-0.66141 Z0.0 E4.99964546993
G1 X-0.76323 Y-0.64605 Z0.0 E4.99975158233
G1 X-0.76768 Y-0.64077 Z0.0 E4.99979693413
G1 X-0.76243 Y-0.64698 Z0.0 E4.99970655464
G1 X-0.74525 Y-0.66664 Z0.0 E4.99951610683
G1 X-0.71208 Y-0.70182 Z0.0 E4.99902300155
G1 X-0.65704 Y-0.75335 Z0.0 E4.99809409700
G1 X-0.57436 Y-0.81783 Z0.0 E4.99683729598
G1 X-0.46466 Y-0.88458 Z0.0 E4.99597511003
G1 X-0.34239 Y-0.93878 Z0.0 E4.99634566583
G1 X-0.23147 Y-0.97236 Z0.0 E4.99765527648
G1 X-0.15002 Y-0.98846 Z0.0 E4.99889780852
G1 X-0.1034 Y-0.99456 Z0.0 E4.99960286823
G1 X-0.08938 Y-0.99595 Z0.0 E4.99976296163
G1 X-0.10415 Y-0.99449 Z0.0 E4.99964394382
G1 X-0.14474 Y-0.98931 Z0.0 E4.99920974.99638916744
G1 X-0.19745 Y0.97948 Z0.0 E4.99591726538
G1 X-0.32222 Y0.94599 Z0.0 E4.99680600109
G1 X-0.41872 Y0.90773 Z0.0 E4.99825017206
G1 X-0.47999 Y0.8771 Z0.0 E4.99923696703
G1 X-0.50901 Y0.86069 Z0.0 E4.99969613127
G1 X-0.51081 Y0.85964 Z0.0 E4.99976945894
G1 X-0.48867 Y0.87235 Z0.0 E4.99948220169
G1 X-0.44363 Y0.89598 Z0.0 E4.99896923700
G1 X-0.37525 Y0.92654 Z0.0 E4.99822201913
G1 X-0.28319 Y0.95851 Z0.0 E4.99734428522
G1 X-0.16944 Y0.98484 Z0.0 E4.99654815648
G1 X-0.0405 Y0.99839 Z0.0 E4.99605554938
G1 X0.09234 Y0.99497 Z0.0 E4.99622851884
G1 X0.21643 Y0.97565 Z0.0 E4.99683616752
G1 X0.32216 Y0.9462 Z0.0 E4.99770323649
G1 X0.40495 Y0.91402 Z0.0 E4.99854244480
G1 X0.46407 Y0.88562 Z0.0 E4.99920931073
G1 X0.50012 Y0.86587 Z0.0 E4.99962716435
G1 X0.51309 Y0.85829 Z0.0 E4.99980767680
G1 X0.50111 Y0.86529 Z0.0 E4.99959502410
G1 X0.46004 Y0.88766 Z0.0 E4.99894258119
G1 X0.38493 Y0.92244 Z0.0 E4.99766610154
G1 X0.27567 Y0.96049 Z0.0 E4.99633613011
G1 X0.14496 Y0.98862 Z0.0 E4.99595562931
G1 X0.01687 Y0.99922 Z0.0 E4.99681199691
G1 X-0.08812 Y0.99572 Z0.0 E4.99805825496
G1 X-0.16315 Y0.9864 Z0.0 E4.99900710767
G1 X-0.21083 Y0.97742 Z0.0 E4.99949783803
G1 X-0.23642 Y0.97159 Z0.0 E4.99970385248
G1 X-0.24443 Y0.96962 Z0.0 E4.99977241807
G1 X-0.23781 Y0.97126 Z0.0 E4.99974895295
G1 X-0.21812 Y0.97585 Z0.0 E4.99964887992
G1 X-0.1857 Y0.9825 Z0.0 E4.99947682263
G1 X-0.13995 Y0.99 Z0.0 E4.99921494462
G1 X-0.07941 Y0.9966 Z0.0 E4.99879362472
G1 X-0.00198 Y0.99964 Z0.0 E4.99820980452
G1 X0.09451 Y0.995 Z0.0 E4.99739217017
G1 X0.21106 Y0.97672 Z0.0 E4.99631935028
G1 X0.34521 Y0.93748 Z0.0 E4.99509432969
G1 X0.48847 Y0.87124 Z0.0 E4.99415177608
G1 X0.6265 Y0.77786 Z0.0 E4.99391737417
G1 X0.74466 Y0.66583 Z0.0 E4.99461736397
G1 X0.83499 Y0.54874 Z0.0 E4.99580796193
G1 X0.89805 Y0.43853 Z0.0 E4.99700501150
G1 X0.9393 Y0.34188 Z0.0 E4.99791562654
G1 X0.96507 Y0.26093 Z0.0 E4.99861123163
G1 X0.98054 Y0.19536 Z0.0 E4.99906046473
G1 X0.98944 Y0.14405 Z0.0 E4.99935474862
G1 X0.99428 Y0.10596 Z0.0 E4.99955057980
G1 X0.99669 Y0.08061 Z0.0 E4.99972231279
G1 X0.99763 Y0.06824 Z0.0 E4.99980578248
G1 X0.9975 Y0.07007 Z0.0 E4.99979013285
G1 X0.996 Y0.08849 Z0.0 E4.99961618552
G1 X0.99173 Y0.12713 Z0.0 E4.99922601459
G1 X0.98142 Y0.19033 Z0.0 E4.99852659616
G1 X0.9592 Y0.28082 Z0.0 E4.99731055769
G1 X0.91823 Y0.39412 Z0.0 E4.99619081726
G1 X0.85698 Y0.5138 Z0.0 E4.99601131004
G1 X0.78598 Y0.61731 Z0.0 E4.99708964423
G1 X0.72255 Y0.69088 Z0.0 E4.99848396241
G1 X0.67902 Y0.73396 Z0.0 E4.99941357061
G1 X0.65919 Y0.75191 Z0.0 E4.99975025426
G1 X0.66195 Y0.74947 Z0.0 E4.99970769996
G1 X0.68463 Y0.72872 Z0.0 E4.99937764952
G1 X0.72411 Y0.68935 Z0.0 E4.99884665348
G1 X0.77651 Y0.62948 Z0.0 E4.99803173884
G1 X0.83629 Y0.54726 Z0.0 E4.99718538705
G1 X0.89571 Y0.44303 Z0.0 E4.99642868707
G1 X0.94594 Y0.32189 Z0.0 E4.99603756916
G1 X0.98021 Y0.19417 Z0.0 E4.99628270067
G1 X0.99678 Y0.07229 Z0.0 E4.99698962501
G1 X0.99901 Y-0.03354 Z0.0 E4.99786432314
G1 X0.99279 Y-0.11762 Z0.0 E4.99866594328
G1 X0.98393 Y-0.17776 Z0.0 E4.99929210614
G1 X0.97696 Y-0.21312 Z0.0 E4.99967742959
G1 X0.97491 Y-0.22241 Z0.0 E4.99978928606
G1 X0.97913 Y-0.20275 Z0.0 E4.99950777427
G1 X0.98846 Y-0.14974 Z0.0 E4.99868792585
G1 X0.99766 Y-0.06028 Z0.0 E4.99739720755
G1 X0.99739 Y0.0606 Z0.0 E4.99614644526
G1 X0.98018 Y0.19408 Z0.0 E4.99604813528
G1 X0.94851 Y0.3149 Z0.0 E4.99708222391
G1 X0.91281 Y0.40755 Z0.0 E4.99829745663
G1 X0.88227 Y0.47037 Z0.0 E4.99912064717
G1 X0.86097 Y0.50849 Z0.0 E4.99957853474
G1 X0.84942 Y0.52762 Z0.0 E4.99974299539
G1 X0.84675 Y0.5319 Z0.0 E4.99975792539
G1 X0.85181 Y0.52375 Z0.0 E4.99973583952
G1 X0.86351 Y0.50417 Z0.0 E4.99959225587
G1 X0.88092 Y0.47303 Z0.0 E4.99944353728
G1 X0.90304 Y0.42915 Z0.0 E4.99912733410
G1 X0.92858 Y0.37042 Z0.0 E4.99867930758
G1 X0.95544 Y0.2939 Z0.0 E4.99810665052
G1 X0.97999 Y0.19621 Z0.0 E4.99719612433
G1 X0.9964 Y0.07491 Z0.0 E4.99605961759
G1 X0.99659 Y-0.06894 Z0.0 E4.99485823548
G1 X0.97252 Y-0.22762 Z0.0 E4.99401145073
G1 X0.92103 Y-0.38642 Z0.0 E4.99403813887
G1 X0.84735 Y-0.5291 Z0.0 E4.99486944899
G1 X0.76267 Y-0.64556 Z0.0 E4.99603153138
G1 X0.67807 Y-0.73423 Z0.0 E4.99718074968
G1 X0.60072 Y-0.79898 Z0.0 E4.99808352971
G1 X0.53394 Y-0.84522 Z0.0 E4.99872176661
G1 X0.47867 Y-0.87779 Z0.0 E4.99910055160
G1 X0.43491 Y-0.90035 Z0.0 E4.99944204537
G1 X0.40244 Y-0.91536 Z0.0 E4.99960469237
G1 X0.38138 Y-0.92436 Z0.0 E4.99973027772
G1 X0.37241 Y-0.92802 Z0.0 E4.99977581622
G1 X0.37699 Y-0.92617 Z0.0 E4.99978081770
G1 X0.39745 Y-0.91753 Z0.0 E4.99956948997
G1 X0.43695 Y-0.8993 Z0.0 E4.99916441143
G1 X0.49842 Y-0.86655 Z0.0 E4.99832821776
G1 X0.58162 Y-0.81275 Z0.0 E4.99711013212
G1 X0.67822 Y-0.73379 Z0.0 E4.99607378974
G1 X0.7707 Y-0.63599 Z0.0 E4.99615294527
G1 X0.84215 Y-0.53827 Z0.0 E4.99737735067
G1 X0.88746 Y-0.46031 Z0.0 E4.99867619400
G1 X0.9112 Y-0.41173 Z0.0 E4.99951755898
G1 X0.91943 Y-0.39313 Z0.0 E4.99975679859
G1 X0.91571 Y-0.40168 Z0.0 E4.99967905595
G1 X0.90065 Y-0.43423 Z0.0 E4.99931524161
G1 X0.87257 Y-0.48795 Z0.0 E4.99868384527
G1 X0.82831 Y-0.55952 Z0.0 E4.99789977516
G1 X0.76444 Y-0.64377 Z0.0 E4.99701992817
G1 X0.67954 Y-0.73263 Z0.0 E4.99630195370
G1 X0.57684 Y-0.81589 Z0.0 E4.99605063450
G1 X0.46502 Y-0.88449 Z0.0 E4.99641411539
G1 X0.35563 Y-0.93402 Z0.0 E4.99716433915
G1 X0.25883 Y-0.96552 Z0.0 E4.99805421964
G1 X0.1811 Y-0.98322 Z0.0 E4.99879680123
G1 X0.12585 Y-0.99193 Z0.0 E4.99940833349
G1 X0.09513 Y-0.99541 Z0.0 E4.99972695504
G1 X0.09126 Y-0.99578 Z0.0 E4.9997654845
G1 X0.11763 Y-0.99294 Z0.0 E4.99941661722
G1 X0.17792 Y-0.98373 Z0.0 E4.99845035811
G1 X0.27226 Y-0.96162 Z0.0 E4.99709548638
G1 X0.39045 Y-0.91976 Z0.0 E4.99602256825
G1 X0.51042 Y-0.85904 Z0.0 E4.99619429666
G1 X0.61035 Y-0.79146 Z0.0 E4.99733942739
G1 X0.68171 Y-0.73122 Z0.0 E4.99852781452
G1 X0.72736 Y-0.68603 Z0.0 E4.99922426607
G1 X0.75364 Y-0.65717 Z0.0 E4.99961413136
G1 X0.76576 Y-0.64306 Z0.0 E4.99978634844
G1 X0.76701 Y-0.64157 Z0.0 E4.99979100813
G1 X0.75904 Y-0.65095 Z0.0 E4.99969405089
G1 X0.74226 Y-0.66999 Z0.0 E4.99959125254
G1 X0.71603 Y-0.69789 Z0.0 E4.99937349325
G1 X0.67875 Y-0.73411 Z0.0 E4.99904754578
G1 X0.6278 Y-0.77802 Z0.0 E4.99861971048
G1 X0.55951 Y-0.82832 Z0.0 E4.99791322079
G1 X0.46949 Y-0.88225 Z0.0 E4.9969638847
G1 X0.35388 Y-0.9344 Z0.0 E4.99583430069
G1 Z0
G1 Z2.2
0.77802 Z0.0 E4.99861971048
G1 X0.55951 Y-0.82832 Z0.0 E4.99791322079
G1 X0.46949 Y-0.88225 Z0.0 E4.9969638847
G1 X0.35388 Y-0.9344 Z0.0 E4.99583430069
G1 X0.21215 Y-0.97614 Z0.0 E4.99463943168
G1 Z0
G1 Z2.2
 X0.99763 Y0.06824 Z0.0 E4.99980578248
G1 X0.9975 Y0.07007 Z0.0 E4.99979013285
G1 X0.996 Y0.08849 Z0.0 E4.99961618552
G1 X0.99173 Y0.12713 Z0.0 E4.99922601459
G1 X0.98142 Y0.19033 Z0.0 E4.99852659616
G1 X0.9592 Y0.28082 Z0.0 E4.99731055769
G1 X0.91823 Y0.39412 Z0.0 E4.99619081726
G1 X0.85698 Y0.5138 Z0.0 E4.99601131004
G1 X0.78598 Y0.61731 Z0.0 E4.99708964423
G1 X0.72255 Y0.69088 Z0.0 E4.99848396241
G1 X0.67902 Y0.73396 Z0.0 E4.99941357061
G1 X0.65919 Y0.75191 Z0.0 E4.99975025426
G1 X0.66195 Y0.74947 Z0.0 E4.99970769996
G1 X0.68463 Y0.72872 Z0.0 E4.99937764952
G1 X0.72411 Y0.68935 Z0.0 E4.99884665348
G1 X0.77651 Y0.62948 Z0.0 E4.99803173884
G1 X0.83629 Y0.54726 Z0.0 E4.99718538705
G1 X0.89571 Y0.44303 Z0.0 E4.99642868707
G1 X0.94594 Y0.32189 Z0.0 E4.99603756916
G1 X0.98021 Y0.19417 Z0.0 E4.99628270067
G1 X0.99678 Y0.07229 Z0.0 E4.99698962501
G1 X0.99901 Y-0.03354 Z0.0 E4.99786432314
G1 X0.99279 Y-0.11762 Z0.0 E4.99866594328
G1 X0.98393 Y-0.17776 Z0.0 E4.99929210614
G1 X0.97696 Y-0.21312 Z0.0 E4.99967742959
G1 X0.97491 Y-0.22241 Z0.0 E4.99978928606
G1 X0.97913 Y-0.20275 Z0.0 E4.99950777427
G1 X0.98846 Y-0.14974 Z0.0 E4.99868792585
G1 X0.99766 Y-0.06028 Z0.0 E4.99739720755
G1 X0.99739 Y0.0606 Z0.0 E4.99614644526
G1 X0.98018 Y0.19408 Z0.0 E4.99604813528
G1 X0.94851 Y0.3149 Z0.0 E4.99708222391
G1 X0.91281 Y0.40755 Z0.0 E4.99829745663
G1 X0.88227 Y0.47037 Z0.0 E4.99912064717
G1 X0.86097 Y0.50849 Z0.0 E4.99957853474
G1 X0.84942 Y0.52762 Z0.0 E4.99974299539
G1 X0.84675 Y0.5319 Z0.0 E4.99975792539
G1 X0.85181 Y0.52375 Z0.0 E4.99973583952
G1 X0.86351 Y0.50417 Z0.0 E4.99959225587
G1 X0.88092 Y0.47303 Z0.0 E4.99944353728
G1 X0.90304 Y0.42915 Z0.0 E4.99.95544 Y0.2939 Z0.0 E4.99810665052
G1 X0.97999 Y0.19621 Z0.0 E4.99719612433
G1 X0.9964 Y0.07491 Z0.0 E4.99605961759
G1 X0.99659 Y-0.06894 Z0.0 E4.99485823548
G1 X0.97252 Y-0.22762 Z0.0 E4.99401145073
G1 X0.92103 Y-0.38642 Z0.0 E4.99403813887
G1 X0.84735 Y-0.5291 Z0.0 E4.99486944899
G1 X0.76267 Y-0.64556 Z0.0 E4.99603153138
G1 X0.67807 Y-0.73423 Z0.0 E4.99718074968
G1 X0.60072 Y-0.79898 Z0.0 E4.99808352971
G1 X0.53394 Y-0.84522 Z0.0 E4.99872176661
G1 X0.47867 Y-0.87779 Z0.0 E4.99910055160
G1 X0.43491 Y-0.90035 Z0.0 E4.99944204537
G1 X0.40244 Y-0.91536 Z0.0 E4.99960469237
G1 X0.38138 Y-0.92436 Z0.0 E4.99973027772
G1 X0.37241 Y-0.92802 Z0.0 E4.99977581622
G1 X0.37699 Y-0.92617 Z0.0 E4.99978081770
G1 X0.39745 Y-0.91753 Z0.0 E4.99956948997
G1 X0.43695 Y-0.8993 Z0.0 E4.99916441143
G1 X0.49842 Y-0.86655 Z0.0 E4.99832821776
G1 X0.58162 Y-0.81275 Z0.0 E4.99711013212
G1 X0.67822 Y-0.73379 Z0.0 E4.99607378974
G1 X0.7707 Y-0.63599 Z0.0 E4.99615294527
G1 X0.84215 Y-0.53827 Z0.0 E4.99737735067
G1 X0.88746 Y-0.46031 Z0.0 E4.99867619400
G1 X0.9112 Y-0.41173 Z0.0 E4.99951755898
G1 X0.91943 Y-0.39313 Z0.0 E4.99975679859
G1 X0.91571 Y-0.40168 Z0.0 E4.99967905595
G1 X0.90065 Y-0.43423 Z0.0 E4.99931524161
G1 X0.87257 Y-0.48795 Z0.0 E4.99868384527
G1 X0.82831 Y-0.55952 Z0.0 E4.99789977516
G1 X0.76444 Y-0.64377 Z0.0 E4.99701992817
G1 X0.67954 Y-0.73263 Z0.0 E4.99630195370
G1 X0.57684 Y-0.81589 Z0.0 E4.99605063450
G1 X0.46502 Y-0.88449 Z0.0 E4.99641411539
G1 X0.35563 Y-0.93402 Z0.0 E4.99716433915
G1 X0.25883 Y-0.96552 Z0.0 E4.99805421964
G1 X0.1811 Y-0.98322 Z0.0 E4.99879680123
G1 X0.12585 Y-0.99193 Z0.0 E4.99940833349
G1 X0.09513 Y-0.99541 Z0.0 E4.99972695504
G1 X0.09126 Y-0.99578 Z0.0 E4.9997654845
G1 X0.11763 Y-0.99294 Z0.0 E4.99941661722
G1 X0.17792 Y-0.98373 Z0.0 E4.99845035811
G1 X0.27226 Y-0.96162 Z0.0 E4.99709548638
G1 X0.39045 Y-0.91976 Z0.0 E4.99602256825
G1 X0.51042 Y-0.85904 Z0.0 E4.99619429666
G1 X0.61035 Y-0.79146 Z0.0 E4.99733942739
G1 X0.68171 Y-0.73122 Z0.0 E4.99852781452
G1 X0.72736 Y-0.68603 Z0.0 E4.99922426607
G1 X0.75364 Y-0.65717 Z0.0 E4.99961413136
G1 X0.76576 Y-0.64306 Z0.0 E4.99978634844
G1 X0.76701 Y-0.64157 Z0.0 E4.99979100813
G1 X0.75904 Y-0.65095 Z0.0 E4.99969405089
G1 X0.74226 Y-0.66999 Z0.0 E4.99959125254
G1 X0.71603 Y-0.69789 Z0.0 E4.99937349325
G1 X0.67875 Y-0.73411 Z0.0 E4.99904754578
G1 X0.6278 Y-0.77802 Z0.0 E4.99861971048
G1 X0.55951 Y-0.82832 Z0.0 E4.99791322079
G1 X0.46949 Y-0.88225 Z0.0 E4.9969638847
G1 X0.35388 Y-0.9344 Z0.0 E4.99583430069
G1 X0.21215 Y-0.97614 Z0.0 E4.99463943168
G1 Z0
G1 Z2.2
G1 X0.21215 Y-0.97614 Z0.0 E4.99463943168
G1 Z0
G1 Z2.2
