; *************************************************
; *************************************************
; ******* File generated by Extruder Turtle *******
; ******* written by Franklin Pezzuti-Dyer ********
; ******* and Leah Buechley ***********************
; ******* Hand and Machine Lab, UNM, 2022 *********
; *************************************************
; *************************************************
; *************** Printer parameters **************
; Printer: 3Dpotter
; Nozzle size: 3.0
; Extrude width: 3.5
; Layer height: 2.2
; Extrude rate: 3.0
; Speed: 1000
; *************** 3D Potter initialization **************
M82                             ; Absolute extrusion mode
G28                             ; Home all axes
G92 E0                          ; Reset Extruder
G1 F40000 E2000                 ; Prime Extruder, Extrude 2000mm of clay
G90 							; Absolute coordinates for X,Y,Z   
; M208 X0 Y0 Z0 S1              ; Set axis minima
; M208 X415 Y405 Z500 S0        ; Set axis maxima 
G1 X207.5 Y202.5 Z0 F10000 		; Go to the starting position (center of print bed)
M83                             ; Relative extrusion
G91                     		; Relative coordinates for X,Y,Z axes
G1 F1000
; *************** End printer initialization **************
G1 X29.96857 Y0.52288 Z0.0 E149.865655784
G1 X0.00399 Y-0.99952 Z0.0 E4.99763981920
G1 X-0.16566 Y-0.98576 Z0.0 E4.99791459811
G1 X-0.32236 Y-0.94636 Z0.0 E4.99878289987
G1 X-0.45754 Y-0.88915 Z0.0 E4.99982643224
G1 X-0.56861 Y-0.82279 Z0.0 E5.00075173399
G1 X-0.65723 Y-0.7541 Z0.0 E5.00154496856
G1 X-0.72689 Y-0.68738 Z0.0 E5.00215037884
G1 X-0.78129 Y-0.625 Z0.0 E5.00259698582
G1 X-0.82365 Y-0.56812 Z0.0 E5.00289830223
G1 X-0.85653 Y-0.51731 Z0.0 E5.00313221143
G1 X-0.88184 Y-0.47296 Z0.0 E5.00333125827
G1 X-0.90093 Y-0.43557 Z0.0 E5.00348900718
G1 X-0.91466 Y-0.40602 Z0.0 E5.00363656754
G1 X-0.92335 Y-0.3859 Z0.0 E5.00373368721
G1 X-0.9266 Y-0.37805 Z0.0 E5.00377198346
G1 X-0.92269 Y-0.38746 Z0.0 E5.00370384740
G1 X-0.90689 Y-0.42284 Z0.0 E5.00310687898
G1 X-0.86737 Y-0.49806 Z0.0 E5.00098610401
G1 X-0.77836 Y-0.62639 Z0.0 E4.99551979703
G1 X-0.61181 Y-0.78846 Z0.0 E4.98994150191
G1 X-0.40262 Y-0.914 Z0.0 E4.99374324630
G1 X-0.23578 Y-0.9718 Z0.0 E4.99996862090
G1 X-0.13751 Y-0.99106 Z0.0 E5.00277154111
G1 X-0.08972 Y-0.99669 Z0.0 E5.00360029004
G1 X-0.0737 Y-0.99804 Z0.0 E5.00378739456
G1 X-0.07821 Y-0.99769 Z0.0 E5.00375394129
G1 X-0.09707 Y-0.99601 Z0.0 E5.00364493395
G1 X-0.12699 Y-0.99262 Z0.0 E5.00355105025
G1 X-0.16628 Y-0.98676 Z0.0 E5.00335971123
G1 X-0.2142 Y-0.97744 Z0.0 E5.00317547564
G1 X-0.27058 Y-0.96331 Z0.0 E5.00294836197
G1 X-0.3356 Y-0.94257 Z0.0 E5.00266320298
G1 X-0.40952 Y-0.91279 Z0.0 E5.00223003894
G1 X-0.49237 Y-0.87078 Z0.0 E5.00171476921
G1 X-0.58337 Y-0.81244 Z0.0 E5.00094818634
G1 X-0.68006 Y-0.73317 Z0.0 E5.00004963100
G1 X-0.77729 Y-0.62883 Z0.0 E4.99901718591
G1 X-0.86668 Y-0.4981 Z0.0 E4.99809421780
G1 X-0.93806 Y-0.3451 Z0.0 E4.99762587035
G1 X-0.98318 Y-0.18026 Z0.0 E4.99784098386
G1 X-0.99957 Y-0.01717 Z0.0 E4.99858728492
G1 X-0.99108 Y0.13266 Z0.0 E4.99959558865
G1 X-0.96492 Y0.26298 Z0.0 E5.00057268420
G1 X-0.92833 Y0.37251 Z0.0 E5.00140052635
G1 X-0.88688 Y0.46289 Z0.0 E5.00205779280
G1 X-0.84427 Y0.53684 Z0.0 E5.00247193520
G1 X-0.80284 Y0.59714 Z0.0 E5.00281981786
G1 X-0.76403 Y0.64614 Z0.0 E5.00309589279
G1 X-0.72884 Y0.68565 Z0.0 E5.00330807591
G1 X-0.69816 Y0.71691 Z0.0 E5.00346713215
G1 X-0.67303 Y0.74059 Z0.0 E5.00360602216
G1 X-0.65494 Y0.75667 Z0.0 E5.00373833374
G1 X-0.64621 Y0.76415 Z0.0 E5.00378003763
G1 X-0.65065 Y0.76036 Z0.0 E5.00373048860
G1 X-0.67452 Y0.73915 Z0.0 E5.00329879405
G1 X-0.72695 Y0.68715 Z0.0 E5.00157831339
G1 X-0.8151 Y0.57825 Z0.0 E4.99690172132
G1 X-0.92066 Y0.38546 Z0.0 E4.99047654839
G1 X-0.98786 Y0.14521 Z0.0 E4.99237749900
G1 X-0.99867 Y-0.04749 Z0.0 E4.99899257101
G1 X-0.98751 Y-0.16062 Z0.0 E5.00243636766
G1 X-0.97706 Y-0.21626 Z0.0 E5.00353532815
G1 X-0.97227 Y-0.23706 Z0.0 E5.00376457405
G1 X-0.97251 Y-0.23606 Z0.0 E5.00374865401
G1 X-0.97623 Y-0.22011 Z0.0 E5.00368220664
G1 X-0.98199 Y-0.19266 Z0.0 E5.00355432593
G1 X-0.98855 Y-0.15536 Z0.0 E5.00341841170
G1 X-0.99472 Y-0.10877 Z0.0 E5.00324592465
G1 X-0.99921 Y-0.05273 Z0.0 E5.00300179142
G1 X-1.00045 Y0.01339 Z0.0 E5.00269800857
G1 X-0.99636 Y0.09055 Z0.0 E5.00233083697
G1 X-0.98407 Y0.17981 Z0.0 E5.00181317374
G1 X-0.9597 Y0.28184 Z0.0 E5.00114455800
G1 X-0.91826 Y0.3961 Z0.0 E5.00024158816
G1 X-0.85421 Y0.51962 Z0.0 E4.99919910711
G1 X-0.76314 Y0.6457 Z0.0 E4.99827757733
G1 X-0.64466 Y0.76386 Z0.0 E4.99767099557
G1 X-0.50482 Y0.8627 Z0.0 E4.99773579334
G1 X-0.35517 Y0.93446 Z0.0 E4.99840279614
G1 X-0.20826 Y0.97795 Z0.0 E4.99939603877
G1 X-0.0732 Y0.9974 Z0.0 E5.00041248299
G1 X0.04567 Y0.99921 Z0.0 E5.00126577228
G1 X0.1477 Y0.98942 Z0.0 E5.00191769824
G1 X0.2341 Y0.97271 Z0.0 E5.00241830043
G1 X0.30677 Y0.95237 Z0.0 E5.00279034590
G1 X0.36755 Y0.93066 Z0.0 E5.00305166398
G1 X0.41794 Y0.90919 Z0.0 E5.00324969320
G1 X0.45895 Y0.88924 Z0.0 E5.00345600585
G1 X0.49103 Y0.87197 Z0.0 E5.00360405558
G1 X0.51388 Y0.85872 Z0.0 E5.00368037748
G1 X0.52612 Y0.8513 Z0.0 E5.00378342957
G1 X0.52455 Y0.85226 Z0.0 E5.00374812041
G1 X0.50244 Y0.8654 Z0.0 E5.00340662349
G1 X0.4462 Y0.8954 Z0.0 E5.00208856379
G1 X0.33095 Y0.94326 Z0.0 E4.99816798962
G1 X0.1311 Y0.98964 Z0.0 E4.99142900280
G1 X-0.11992 Y0.99101 Z0.0 E4.99119631576
G1 X-0.32365 Y0.94573 Z0.0 E4.99788594158
G1 X-0.4424 Y0.89726 Z0.0 E5.00198277586
G1 X-0.50073 Y0.86639 Z0.0 E5.00340425361
G1 X-0.52405 Y0.85257 Z0.0 E5.00375860579
G1 X-0.52639 Y0.85113 Z0.0 E5.00377035095
G1 X-0.5147 Y0.85824 Z0.0 E5.00372857877
G1 X-0.4923 Y0.87125 Z0.0 E5.00358834363
G1 X-0.46063 Y0.88837 Z0.0 E5.00345194291
G1 X-0.42004 Y0.90823 Z0.0 E5.00328725565
G1 X-0.37011 Y0.92965 Z0.0 E5.00307539070
G1 X-0.30984 Y0.95138 Z0.0 E5.00281103481
G1 X-0.23776 Y0.97182 Z0.0 E5.00240924455
G1 X-0.15204 Y0.98877 Z0.0 E5.00195530393
G1 X-0.05078 Y0.99897 Z0.0 E5.00129900451
G1 X0.06731 Y0.99782 Z0.0 E5.00043845203
G1 X0.20168 Y0.97934 Z0.0 E4.99945411520
G1 X0.34821 Y0.93708 Z0.0 E4.99842257742
G1 X0.49799 Y0.86666 Z0.0 E4.99773347554
G1 X0.63857 Y0.76896 Z0.0 E4.99767727675
G1 X0.75823 Y0.65144 Z0.0 E4.99821669823
G1 X0.85061 Y0.52549 Z0.0 E4.99919271533
G1 X0.91583 Y0.40166 Z0.0 E5.00018835770
G1 X0.9582 Y0.28688 Z0.0 E5.00111831094
G1 X0.98324 Y0.18426 Z0.0 E5.00178129570
G1 X0.996 Y0.09442 Z0.0 E5.00232729937
G1 X1.0004 Y0.01672 Z0.0 E5.00269856777
G1 X0.99936 Y-0.04989 Z0.0 E5.00302264061
G1 X0.99497 Y-0.10638 Z0.0 E5.00320398670
G1 X0.98885 Y-0.1534 Z0.0 E5.00338855802
G1 X0.98229 Y-0.19114 Z0.0 E5.00356908541
G1 X0.97646 Y-0.21907 Z0.0 E5.00366314938
G1 X0.97262 Y-0.23562 Z0.0 E5.0037647047
G1 X0.97218 Y-0.23742 Z0.0 E5.00375411266
G1 X0.9767 Y-0.21786 Z0.0 E5.00351343957
G1 X0.98693 Y-0.16426 Z0.0 E5.00252979127
G1 X0.99837 Y-0.05441 Z0.0 E4.9992577074
G1 X0.98942 Y0.13461 Z0.0 E4.99267410438
G1 X0.92507 Y0.37467 Z0.0 E4.99032091603
G1 X0.81994 Y0.57126 Z0.0 E4.99659782052
G1 X0.73024 Y0.68362 Z0.0 E5.00146668988
G1 X0.67624 Y0.73757 Z0.0 E5.00327403432
G1 X0.65127 Y0.75982 Z0.0 E5.00369624703
G1 X0.64608 Y0.76426 Z0.0 E5.00378035589
G1 X0.6543 Y0.75722 Z0.0 E5.00372515832
G1 X0.67202 Y0.7415 Z0.0 E5.00358154325
G1 X0.69686 Y0.71817 Z0.0 E5.00345382836
G1 X0.72731 Y0.68727 Z0.0 E5.00329863440
G1 X0.76231 Y0.64817 Z0.0 E5.00310125072
G1 X0.80097 Y0.59965 Z0.0 E5.00283185656
G1 X0.84231 Y0.53992 Z0.0 E5.00249873188
G1 X0.8849 Y0.46666 Z0.0 E5.00204849437
G1 X0.92648 Y0.3771 Z0.0 E5.00142379828
G1 X0.96341 Y0.26851 Z0.0 E5.00064107940
G1 X0.9902 Y0.13916 Z0.0 E4.99965385202
G1 X0.99967 Y-0.00985 Z0.0 E4.99859263043
G1 X0.98456 Y-0.17255 Z0.0 E4.99782926904
G1 X0.94078 Y-0.33762 Z0.0 E4.99763512274
G1 X0.87047 Y-0.49144 Z0.0 E4.99807786679
G1 X0.78168 Y-0.62334 Z0.0 E4.99894083282
G1 X0.68461 Y-0.72891 Z0.0 E5.0000016005
G1 X0.58776 Y-0.80927 Z0.0 E5.00094928614
G1 X0.49642 Y-0.86847 Z0.0 E5.0016821103
G1 X0.41317 Y-0.91114 Z0.0 E5.00221338134
G1 X0.33883 Y-0.94141 Z0.0 E5.00264569253
G1 X0.27341 Y-0.96251 Z0.0 E5.00294545293
G1 X0.21663 Y-0.97691 Z0.0 E5.00320323643
G1 X0.16832 Y-0.98642 Z0.0 E5.00338894850
G1 X0.12862 Y-0.99241 Z0.0 E5.00355052063
G1 X0.09823 Y-0.9959 Z0.0 E5.00366351512
G1 X0.0788 Y-0.99765 Z0.0 E5.00378597289
G1 X0.07352 Y-0.99805 Z0.0 E5.00377106016
G1 X0.08838 Y-0.99681 Z0.0 E5.00360170402
G1 X0.13435 Y-0.99151 Z0.0 E5.00285419186
G1 X0.22978 Y-0.97328 Z0.0 E5.00018201369
G1 X0.39343 Y-0.91807 Z0.0 E4.99409573847
G1 X0.60239 Y-0.79566 Z0.0 E4.98986108950
G1 X0.77244 Y-0.63357 Z0.0 E4.99518392679
G1 X0.8646 Y-0.50278 Z0.0 E5.00080215665
G1 X0.90571 Y-0.42532 Z0.0 E5.00301835520
G1 X0.92227 Y-0.38844 Z0.0 E5.00366762111
G1 X0.9266 Y-0.37806 Z0.0 E5.00379087193
G1 X0.92363 Y-0.38524 Z0.0 E5.00375417687
G1 X0.91517 Y-0.40486 Z0.0 E5.00361806221
G1 X0.90168 Y-0.43401 Z0.0 E5.00347754692
G1 X0.88286 Y-0.47106 Z0.0 E5.00334713767
G1 X0.85786 Y-0.5151 Z0.0 E5.00312849525
G1 X0.82537 Y-0.56562 Z0.0 E5.00290321039
G1 X0.78349 Y-0.62223 Z0.0 E5.00256622395
G1 X0.72972 Y-0.68438 Z0.0 E5.00216768711
G1 X0.66085 Y-0.75094 Z0.0 E5.00158376442
G1 X0.57319 Y-0.81961 Z0.0 E5.00076826148
G1 X0.46322 Y-0.88621 Z0.0 E4.99985232907
G1 X0.32915 Y-0.94403 Z0.0 E4.99883077179
G1 X0.1733 Y-0.98446 Z0.0 E4.99798554820
G1 Z0
G1 Z2.2
ng bottom spiral: 0
G1 X0.0785 Y-4.49932 Z0.0 E22.5000237291
G1 X-4.57447 Y3.48184 Z0.0 E28.7441235588
G1 X-0.10347 Y-0.22202 Z0.0 E1.22473386191
G1 X-0.14425 Y-0.24117 Z0.0 E1.40508924450
G1 X-0.19919 Y-0.28112 Z0.0 E1.72268040057
G1 X-0.2693 Y-0.32343 Z0.0 E2.10433751392
G1 X-0.34763 Y-0.35584 Z0.0 E2.48731141245
G1 X-0.42637 Y-0.3744 Z0.0 E2.83710564176
G1 X-0.50045 Y-0.38062 Z0.0 E3.14373101147
G1 X-0.56767 Y-0.37782 Z0.0 E3.40953509038
G1 X-0.62791 Y-0.36962 Z0.0 E3.64310963498
G1 X-0.6823 Y-0.35929 Z0.0 E3.85558878156
G1 X-0.73273 Y-0.34985 Z0.0 E4.05982843049
G1 X-0.78172 Y-0.3444 Z0.0 E4.27111671112
G1 X-0.83284 Y-0.34691 Z0.0 E4.51101156533
G1 X-0.89129 Y-0.36346 Z0.0 E4.81274619033
G1 X-0.96503 Y-0.40499 Z0.0 E5.23282858739
G1 X-1.06621 Y-0.4934 Z0.0 E5.87419637929
G1 X-1.2066 Y-0.67413 Z0.0 E6.91074311652
G1 X-1.35881 Y-1.02303 Z0.0 E8.50434447356
G1 X-1.34575 Y-1.53553 Z0.0 E10.2089365795
G1 X-0.96555 Y-1.85863 Z0.0 E10.4723353167
G1 X-0.49076 Y-1.72484 Z0.0 E8.96649095689
G1 X-0.22168 Y-1.43363 Z0.0 E7.25333888513
G1 X-0.1143 Y-1.21169 Z0.0 E6.08534540125
G1 X-0.0796 Y-1.07009 Z0.0 E5.36523244627
G1 X-0.07667 Y-0.97741 Z0.0 E4.90206231346
G1 X-0.08961 Y-0.91119 Z0.0 E4.57792848404
G1 X-0.11183 Y-0.85807 Z0.0 E4.32663285304
G1 X-0.1401 Y-0.81005 Z0.0 E4.11038019075
G1 X-0.17245 Y-0.76191 Z0.0 E3.90591170727
G1 X-0.20723 Y-0.70971 Z0.0 E3.69673016665
G1 X-0.24257 Y-0.65006 Z0.0 E3.46921535978
G1 X-0.27593 Y-0.58017 Z0.0 E3.21222117000
G1 X-0.30382 Y-0.49789 Z0.0 E2.91633779122
G1 X-0.32149 Y-0.40268 Z0.0 E2.57636858048
G1 X-0.324 Y-0.2976 Z0.0 E2.19966906602
G1 X-0.30835 Y-0.19058 Z0.0 E1.81246006094
G1 X-0.27869 Y-0.09504 Z0.0 E1.47224928001
G1 X-0.24945 Y-0.02337 Z0.0 E1.25271165278
G1 X-0.24101 Y0.02268 Z0.0 E1.21037393499
G1 X-0.26534 Y0.05595 Z0.0 E1.35587350166
G1 X-0.31677 Y0.09354 Z0.0 E1.65146120527
G1 X-0.37867 Y0.1444 Z0.0 E2.02634109234
G1 X-0.43577 Y0.20719 Z0.0 E2.41258776524
G1 X-0.48056 Y0.27589 Z0.0 E2.77061909011
G1 X-0.51183 Y0.34486 Z0.0 E3.08584821605
G1 X-0.53181 Y0.41054 Z0.0 E3.35918504886
G1 X-0.54382 Y0.47141 Z0.0 E3.59849823016
G1 X-0.55129 Y0.52725 Z0.0 E3.81416185616
G1 X-0.55768 Y0.57884 Z0.0 E4.01890136729
G1 X-0.56664 Y0.6275 Z0.0 E4.22740209703
G1 X-0.58272 Y0.67525 Z0.0 E4.45961085999
G1 X-0.6126 Y0.72487 Z0.0 E4.74530103603
G1 X-0.66766 Y0.78035 Z0.0 E5.13496834971
G1 X-0.76961 Y0.84675 Z0.0 E5.72119986235
G1 X-0.95973 Y0.92405 Z0.0 E6.66136261474
G1 X-1.30256 Y0.97823 Z0.0 E8.14493168556
G1 X-1.78652 Y0.86612 Z0.0 E9.92700554649
G1 X-2.0713 Y0.44649 Z0.0 E10.5943817777
G1 X-1.86686 Y-0.00473 Z0.0 E9.33432996055
G1 X-1.4962 Y-0.21391 Z0.0 E7.55706941893
G1 X-1.2271 Y-0.26423 Z0.0 E6.27612918705
G1 X-1.06576 Y-0.2588 Z0.0 E5.48366168176
G1 X-0.96801 Y-0.23496 Z0.0 E4.98058621474
G1 X-0.90453 Y-0.20333 Z0.0 E4.63550862851
G1 X-0.85857 Y-0.16664 Z0.0 E4.37296048033
G1 X-0.82084 Y-0.12574 Z0.0 E4.15207434062
G1 X-0.78523 Y-0.08087 Z0.0 E3.94691686573
G1 X-0.7472 Y-0.03232 Z0.0 E3.73949335606
G1 X-0.70309 Y0.01924 Z0.0 E3.51676600622
G1 X-0.64929 Y0.07248 Z0.0 E3.26661466391
G1 X-0.58251 Y0.12499 Z0.0 E2.97884373625
G1 X-0.50056 Y0.17279 Z0.0 E2.64771929073
G1 X-0.40389 Y0.21041 Z0.0 E2.27705676368
G1 X-0.29791 Y0.23221 Z0.0 E1.88859638488
G1 X-0.19515 Y0.23645 Z0.0 E1.53290675679
G1 X-0.11234 Y0.23087 Z0.0 E1.28375652384
G1 X-0.05988 Y0.2331 Z0.0 E1.20334143534
G1 X-0.03267 Y0.26052 Z0.0 E1.31280233946
G1 X-0.01336 Y0.31645 Z0.0 E1.58365946545
G1 X0.01342 Y0.38949 Z0.0 E1.94860563288
G1 X0.05305 Y0.46438 Z0.0 E2.33700174850
G1 X0.10307 Y0.53048 Z0.0 E2.70200136612
G1 X0.1585 Y0.58417 Z0.0 E3.02645353054
G1 X0.21496 Y0.62561 Z0.0 E3.30755073166
G1 X0.2697 Y0.65739 Z0.0 E3.55281473659
G1 X0.32122 Y0.68265 Z0.0 E3.77224505732
G1 X0.36907 Y0.7049 Z0.0 E3.97836861948
G1 X0.41325 Y0.72778 Z0.0 E4.18461255943
G1 X0.45424 Y0.756 Z0.0 E4.40984687262
G1 X0.49267 Y0.79631 Z0.0 E4.68196899018
G1 X0.5289 Y0.8593 Z0.0 E5.04512561786
G1 X0.56179 Y0.96467 Z0.0 E5.58165793694
G1 X0.58217 Y1.14778 Z0.0 E6.43490644318
G1 X0.54956 Y1.4605 Z0.0 E7.80236573675
G1 X0.3459 Y1.8885 Z0.0 E9.59958210028
G1 X-0.11354 Y2.12256 Z0.0 E10.6279728608
G1 X-0.53347 Y1.86218 Z0.0 E9.68543312570
G1 X-0.66392 Y1.43023 Z0.0 E7.88407828998
G1 X-0.6407 Y1.12813 Z0.0 E6.48685938436
G1 X-0.58647 Y0.95727 Z0.0 E5.61318295132
G1 X-0.53287 Y0.86165 Z0.0 E5.06554824131
G1 X-0.4827 Y0.80569 Z0.0 E4.69610388008
G1 X-0.43369 Y0.77059 Z0.0 E4.42124406757
G1 X-0.38353 Y0.74601 Z0.0 E4.19412142468
G1 X-0.3306 Y0.72577 Z0.0 E3.98760094825
G1 X-0.27361 Y0.70518 Z0.0 E3.78200100641
G1 X-0.21189 Y0.68041 Z0.0 E3.56319779201
G1 X-0.14548 Y0.64772 Z0.0 E3.31928316358
G1 X-0.07539 Y0.60328 Z0.0 E3.03986188214
G1 X-0.00431 Y0.54351 Z0.0 E2.71763544373
G1 X0.06291 Y0.4665 Z0.0 E2.353613807
G1 X0.11939 Y0.37455 Z0.0 E1.96558944467
G1 X0.15889 Y0.2773 Z0.0 E1.59797780100
G1 X0.18154 Y0.19213 Z0.0 E1.32165340105
G1 X0.19876 Y0.13603 Z0.0 E1.20426013074
G1 X0.22883 Y0.11309 Z0.0 E1.27624955436
G1 X0.28317 Y0.11038 Z0.0 E1.51961338257
G1 X0.35814 Y0.10894 Z0.0 E1.87171167117
G1 X0.44147 Y0.09702 Z0.0 E2.26002567076
G1 X0.52144 Y0.0722 Z0.0 E2.63207386674
G1 X0.59182 Y0.03751 Z0.0 E2.96503757354
G1 X0.65091 Y-0.00274 Z0.0 E3.25457883489
G1 X0.69979 Y-0.04492 Z0.0 E3.50615120360
G1 X0.74094 Y-0.08648 Z0.0 E3.72984877039
G1 X0.77742 Y-0.12571 Z0.0 E3.93759082594
G1 X0.8126 Y-0.16148 Z0.0 E4.14244659109
G1 X0.85089 Y-0.19277 Z0.0 E4.36226450654
G1 X0.89822 Y-0.21827 Z0.0 E4.62179878754
G1 X0.96408 Y-0.23545 Z0.0 E4.96207353054
G1 X1.06461 Y-0.23839 Z0.0 E5.45486994391
G1 X1.22781 Y-0.21114 Z0.0 E6.22916024778
G1 X1.49229 Y-0.1088 Z0.0 E7.48125471445
G1 X1.84093 Y0.16902 Z0.0 E9.24336386996
G1 X2.00773 Y0.6627 Z0.0 E10.5713658565
G1 X1.70307 Y1.04991 Z0.0 E10.0034474470
G1 X1.23321 Y1.09074 Z0.0 E8.23182946206
G1 X0.91774 Y0.9816 Z0.0 E6.71897549408
G1 X0.75104 Y0.87236 Z0.0 E5.75559087149
G1 X0.66599 Y0.78765 Z0.0 E5.15736173494
G1 X0.62268 Y0.72022 Z0.0 E4.76037611644
G1 X0.60143 Y0.66173 Z0.0 E4.47103074749
G1 X0.59203 Y0.60639 Z0.0 E4.23735870856
G1 X0.58846 Y0.55024 Z0.0 E4.02817958016
G1 X0.58659 Y0.49064 Z0.0 E3.82366132686
G1 X0.58291 Y0.4256 Z0.0 E3.60873741113
G1 X0.57384 Y0.35374 Z0.0 E3.37055015242
G1 X0.55558 Y0.27474 Z0.0 E3.09899662794
G1 X0.52384 Y0.18955 Z0.0 E2.78539740477
G1 X0.47508 Y0.10169 Z0.0 E2.42920698223
G1 X0.40832 Y0.01774 Z0.0 E2.04352593573
G1 X0.32907 Y-0.05342 Z0.0 E1.66688902825
G1 X0.25209 Y-0.10521 Z0.0 E1.36581946281
G1 X0.19758 Y-0.14069 Z0.0 E1.21276061632
G1 X0.17815 Y-0.17455 Z0.0 E1.24704776372
G1 X0.18839 Y-0.22303 Z0.0 E1.45973604635
G1 X0.21014 Y-0.29134 Z0.0 E1.79609169588
G1 X0.22683 Y-0.37295 Z0.0 E2.18256472642
G1 X0.23064 Y-0.45719 Z0.0 E2.56035888939
G1 X0.22165 Y-0.53644 Z0.0 E2.90213971106
G1 X0.20305 Y-0.6069 Z0.0 E3.19983168503
G1 X0.17877 Y-0.6682 Z0.0 E3.45850384162
G1 X0.15209 Y-0.7215 Z0.0 E3.68677914344
G1 X0.12572 Y-0.76914 Z0.0 E3.89673535796
G1 X0.10182 Y-0.81386 Z0.0 E4.10102247007
G1 X0.08264 Y-0.85923 Z0.0 E4.31597486815
G1 X0.07104 Y-0.91027 Z0.0 E4.56518935670
G1 X0.07171 Y-0.97431 Z0.0 E4.88472696320
G1 X0.0938 Y-1.06364 Z0.0 E5.33883997138
G1 X0.15752 Y-1.19832 Z0.0 E6.04314357930
G1 X0.30943 Y-1.40302 Z0.0 E7.18368297828
G1 X0.63683 Y-1.65663 Z0.0 E8.87408503143
G1 X1.15084 Y-1.73939 Z0.0 E10.4282192604
G1 X1.50638 Y-1.39664 Z0.0 E10.2710564135
G1 X1.45626 Y-0.91353 Z0.0 E8.59539156831
G1 X1.25507 Y-0.60848 Z0.0 E6.97396697601
G1 X1.08836 Y-0.46237 Z0.0 E5.91251534142
G1 X0.97332 Y-0.39743 Z0.0 E5.25666821119
G1 X0.89133 Y-0.37192 Z0.0 E4.82906216387
G1 X0.8269 Y-0.36693 Z0.0 E4.52327656379
G1 X0.77054 Y-0.37346 Z0.0 E4.28136737270
G1 X0.7162 Y-0.38653 Z0.0 E4.0692378921
G1 X0.65971 Y-0.40285 Z0.0 E3.86492369459
G1 X0.59806 Y-0.41967 Z0.0 E3.65307634912
G1 X0.5287 Y-0.43412 Z0.0 E3.42046730872
G1 X0.44994 Y-0.4428 Z0.0 E3.15641348527
G1 X0.36107 Y-0.4415 Z0.0 E2.85172664758
G1 X0.26367 Y-0.42569 Z0.0 E2.50366653630
G1 X0.16284 Y-0.3918 Z0.0 E2.12146238241
G1 X0.06808 Y-0.341 Z0.0 E1.73864808400
G1 X-0.00943 Y-0.2831 Z0.0 E1.41628506047
G1 Z2.2
6371
G1 X0.81802 Y-0.57285 Z0.0 E4.99328009153
G1 X0.80319 Y-0.59342 Z0.0 E4.99314898761
G1 X0.77872 Y-0.6251 Z0.0 E4.99288205449
G1 X0.74263 Y-0.66747 Z0.0 E4.99253321922
G1 X0.69144 Y-0.72019 Z0.0 E4.99190071441
G1 X0.61989 Y-0.78238 Z0.0 E4.99094699556
G1 X0.52086 Y-0.85119 Z0.0 E4.98953794379
G1 X0.3869 Y-0.91943 Z0.0 E4.98759244250
G1 X0.2153 Y-0.97359 Z0.0 E4.98555808837
G1 Z0
G1 Z2.2
G1 X2.8202 Y0.04912 Z0.0 E14.1031386705
G1 X0.02867 Y-0.99793 Z0.0 E4.99170876003
G1 X-0.19084 Y-0.98014 Z0.0 E4.99273052848
G1 X-0.3805 Y-0.92378 Z0.0 E4.99537220435
G1 X-0.52519 Y-0.8505 Z0.0 E4.99793653946
G1 X-0.62868 Y-0.77759 Z0.0 E4.99971186795
G1 X-0.70095 Y-0.71343 Z0.0 E5.00078310717
G1 X-0.75093 Y-0.66082 Z0.0 E5.00144713383
G1 X-0.78479 Y-0.62036 Z0.0 E5.00185434039
G1 X-0.80622 Y-0.59233 Z0.0 E5.00211334663
G1 X-0.81692 Y-0.57752 Z0.0 E5.00221859978
G1 X-0.81673 Y-0.57778 Z0.0 E5.00219357207
G1 X-0.80327 Y-0.59628 Z0.0 E5.00198093584
G1 X-0.77093 Y-0.6373 Z0.0 E5.00121074066
G1 X-0.71031 Y-0.70379 Z0.0 E4.99965163836
G1 X-0.61228 Y-0.79005 Z0.0 E4.99766395654
G1 X-0.48408 Y-0.87442 Z0.0 E4.99735875938
G1 X-0.36123 Y-0.93238 Z0.0 E4.99954892290
G1 X-0.28195 Y-0.95977 Z0.0 E5.00163537106
G1 X-0.2598 Y-0.96612 Z0.0 E5.00220924792
G1 X-0.29061 Y-0.95717 Z0.0 E5.00157120563
G1 X-0.36477 Y-0.93114 Z0.0 E5.00019712736
G1 X-0.46901 Y-0.88292 Z0.0 E4.99879512108
G1 X-0.58437 Y-0.81102 Z0.0 E4.99810398376
G1 X-0.68952 Y-0.72391 Z0.0 E4.99870862949
G1 X-0.76926 Y-0.63897 Z0.0 E5.00010902006
G1 X-0.81863 Y-0.57484 Z0.0 E5.00149003423
G1 X-0.83832 Y-0.54599 Z0.0 E5.00221326640
G1 X-0.82731 Y-0.56236 Z0.0 E5.00172621627
G1 X-0.7791 Y-0.62679 Z0.0 E4.99965627344
G1 X-0.68826 Y-0.72476 Z0.0 E4.99744656099
G1 X-0.56904 Y-0.82172 Z0.0 E4.99757511199
G1 X-0.45547 Y-0.89015 Z0.0 E4.99954983824
G1 X-0.37158 Y-0.92865 Z0.0 E5.00115616358
G1 X-0.32085 Y-0.94754 Z0.0 E5.00194155829
G1 X-0.29773 Y-0.95511 Z0.0 E5.00219518062
G1 X-0.29634 Y-0.95555 Z0.0 E5.00223249685
G1 X-0.31279 Y-0.95026 Z0.0 E5.00207869715
G1 X-0.3452 Y-0.93893 Z0.0 E5.00188110839
G1 X-0.39324 Y-0.91975 Z0.0 E5.00144419168
G1 X-0.45776 Y-0.88926 Z0.0 E5.00081884595
G1 X-0.54008 Y-0.84156 Z0.0 E4.99977409490
G1 X-0.64045 Y-0.7675 Z0.0 E4.99808076290
G1 X-0.75441 Y-0.65504 Z0.0 E4.99552762404
G1 X-0.86736 Y-0.49481 Z0.0 E4.99287068153
G1 X-0.95433 Y-0.29317 Z0.0 E4.99172915381
G1 X-0.99547 Y-0.0795 Z0.0 E4.99319729958
G1 X-0.99292 Y0.11174 Z0.0 E4.99593823521
G1 X-0.96422 Y0.26384 Z0.0 E4.99832910581
G1 X-0.92593 Y0.37766 Z0.0 E4.99993360081
G1 X-0.88777 Y0.4607 Z0.0 E5.00095006699
G1 X-0.85434 Y0.5203 Z0.0 E5.00152208233
G1 X-0.82782 Y0.56166 Z0.0 E5.00186942053
G1 X-0.80953 Y0.5878 Z0.0 E5.00211870336
G1 X-0.80079 Y0.59969 Z0.0 E5.00223130263
G1 X-0.80343 Y0.59613 Z0.0 E5.00217638084
G1 X-0.81982 Y0.57327 Z0.0 E5.00185796805
G1 X-0.8521 Y0.52375 Z0.0 E5.00097108695
G1 X-0.89909 Y0.43742 Z0.0 E4.99924765465
G1 X-0.95025 Y0.30981 Z0.0 E4.99739256663
G1 X-0.98654 Y0.16063 Z0.0 E4.99765737246
G1 X-0.99943 Y0.03388 Z0.0 E5.00002044821
G1 X-0.99966 Y-0.03782 Z0.0 E5.00187581813
G1 X-0.99922 Y-0.04919 Z0.0 E5.00215019891
G1 X-1.00024 Y-0.00711 Z0.0 E5.00132634833
G1 X-0.9968 Y0.0796 Z0.0 E4.99986599820
G1 X-0.97973 Y0.19886 Z0.0 E4.99854021815
G1 X-0.943 Y0.33168 Z0.0 E4.99815121420
G1 X-0.89028 Y0.45495 Z0.0 E4.99894484091
G1 X-0.83493 Y0.55051 Z0.0 E5.00042339457
G1 X-0.79308 Y0.60968 Z0.0 E5.00171367833
G1 X-0.77789 Y0.62911 Z0.0 E5.00223011316
G1 X-0.79724 Y0.60414 Z0.0 E5.00144168515
G1 X-0.84923 Y0.5277 Z0.0 E4.99914713451
G1 X-0.91469 Y0.40279 Z0.0 E4.9972431905
G1 X-0.96541 Y0.25913 Z0.0 E4.99791162637
G1 X-0.99063 Y0.13652 Z0.0 E4.99996376812
G1 X-0.99888 Y0.05283 Z0.0 E5.00138046768
G1 X-1.00039 Y0.00535 Z0.0 E5.00202152784
G1 X-1.00035 Y-0.01394 Z0.0 E5.00223561545
G1 X-1.00038 Y-0.01141 Z0.0 E5.00222533604
G1 X-1.00037 Y0.00935 Z0.0 E5.00206847064
G1 X-0.99925 Y0.04706 Z0.0 E5.00178769566
G1 X-0.99503 Y0.10232 Z0.0 E5.00138501642
G1 X-0.98429 Y0.17727 Z0.0 E5.00062860299
G1 X-0.96129 Y0.27516 Z0.0 E4.99947869707
G1 X-0.91655 Y0.39873 Z0.0 E4.99762322359
G1 X-0.83661 Y0.54597 Z0.0 E4.99499632883
G1 X-0.70908 Y0.70298 Z0.0 E4.99243259043
G1 X-0.5366 Y0.8419 Z0.0 E4.99183125216
G1 X-0.34511 Y0.93722 Z0.0 E4.99370163431
G1 X-0.16718 Y0.98521 Z0.0 E4.99646849410
G1 X-0.02042 Y0.99954 Z0.0 E4.99874281195
G1 X0.09336 Y0.99567 Z0.0 E5.00018709275
G1 X0.17896 Y0.98408 Z0.0 E5.00110019896
G1 X0.24179 Y0.97066 Z0.0 E5.00160784073
G1 X0.28578 Y0.9587 Z0.0 E5.00193936988
G1 X0.31302 Y0.9502 Z0.0 E5.00215343727
G1 X0.32359 Y0.94667 Z0.0 E5.00223594256
G1 X0.31533 Y0.94944 Z0.0 E5.00217283413
G1 X0.28318 Y0.95943 Z0.0 E5.00174178987
G1 X0.21889 Y0.97589 Z0.0 E5.00068526354
G1 X0.11367 Y0.99328 Z0.0 E4.99881492781
G1 X-0.02968 Y0.999 Z0.0 E4.99720397422
G1 X-0.18062 Y0.98315 Z0.0 E4.99801837457
G1 X-0.2951 Y0.95558 Z0.0 E5.00054283653
G1 X-0.35141 Y0.93666 Z0.0 E5.00205193820
G1 X-0.35142 Y0.93666 Z0.0 E5.00206950172
G1 X-0.30245 Y0.95339 Z0.0 E5.00107112177
G1 X-0.21101 Y0.9774 Z0.0 E4.99958993343
G1 X-0.08693 Y0.99589 Z0.0 E4.99838403136
G1 X0.05186 Y0.9983 Z0.0 E4.99823056091
G1 X0.18177 Y0.98318 Z0.0 E4.99920805053
G1 X0.28278 Y0.95933 Z0.0 E5.00069639475
G1 X0.34328 Y0.93964 Z0.0 E5.00191085486
G1 X0.35648 Y0.93477 Z0.0 E5.00218188219
G1 X0.31525 Y0.94923 Z0.0 E5.00105027819
G1 X0.21487 Y0.97636 Z0.0 E4.99861972573
G1 X0.06948 Y0.99701 Z0.0 E4.99714020841
G1 X-0.07989 Y0.99646 Z0.0 E4.99828706584
G1 X-0.19607 Y0.98065 Z0.0 E5.00029465982
G1 X-0.27017 Y0.96314 Z0.0 E5.00157597288
G1 X-0.30964 Y0.95129 Z0.0 E5.00207355429
G1 X-0.32341 Y0.94673 Z0.0 E5.00222880574
G1 X-0.31736 Y0.94877 Z0.0 E5.00220422039
G1 X-0.29432 Y0.95613 Z0.0 E5.00202168953
G1 X-0.25474 Y0.96737 Z0.0 E5.00174265756
G1 X-0.19704 Y0.98065 Z0.0 E5.00124780455
G1 X-0.11776 Y0.99313 Z0.0 E5.00043651720
G1 X-0.01174 Y0.99977 Z0.0 E4.99919463639
G1 X0.12632 Y0.99141 Z0.0 E4.99712549997
G1 X0.29718 Y0.95365 Z0.0 E4.99440755971
G1 X0.48792 Y0.87108 Z0.0 E4.99210950601
G1 X0.66851 Y0.74156 Z0.0 E4.99203579139
G1 X0.80874 Y0.5862 Z0.0 E4.99422373247
G1 X0.90001 Y0.43449 Z0.0 E4.99699799930
G1 X0.95237 Y0.30433 Z0.0 E4.99906332676
G1 X0.97987 Y0.20003 Z0.0 E5.00039302905
G1 X0.99307 Y0.11953 Z0.0 E5.00118847325
G1 X0.99857 Y0.05949 Z0.0 E5.00170247266
G1 X1.00025 Y0.01741 Z0.0 E5.00200752348
G1 X1.00041 Y-0.00774 Z0.0 E5.00219970538
G1 X1.00033 Y-0.01518 Z0.0 E5.00222585781
G1 X1.00042 Y-0.00198 Z0.0 E5.00210979688
G1 X0.99962 Y0.03752 Z0.0 E5.00161947473
G1 X0.99387 Y0.11125 Z0.0 E5.00038533365
G1 X0.97415 Y0.22449 Z0.0 E4.99840970360
G1 X0.92999 Y0.36602 Z0.0 E4.99712927715
G1 X0.86589 Y0.49963 Z0.0 E4.99848884414
G1 X0.80788 Y0.58968 Z0.0 E5.00098139569
G1 X0.7794 Y0.62722 Z0.0 E5.00217274892
G1 X0.78623 Y0.61857 Z0.0 E5.00196575808
G1 X0.82232 Y0.56931 Z0.0 E5.00081008063
G1 X0.87569 Y0.48259 Z0.0 E4.9993151636
G1 X0.93061 Y0.36506 Z0.0 E4.99825913619
G1 X0.97225 Y0.23252 Z0.0 E4.99833875628
G1 X0.99409 Y0.10769 Z0.0 E4.99953013842
G1 X1.00014 Y0.01124 Z0.0 E5.00101578982
G1 X0.99948 Y-0.04316 Z0.0 E5.00205721679
G1 X0.99935 Y-0.04629 Z0.0 E5.00210752233
G1 X1.00008 Y0.00965 Z0.0 E5.00063278221
G1 X0.99188 Y0.12421 Z0.0 E4.99813479835
G1 X0.96168 Y0.2721 Z0.0 E4.99716627800
G1 X0.9125 Y0.40844 Z0.0 E4.99869853962
G1 X0.86295 Y0.50553 Z0.0 E5.00060817151
G1 X0.82653 Y0.5635 Z0.0 E5.00170993486
G1 X0.80622 Y0.59234 Z0.0 E5.00214295078
G1 X0.8003 Y0.60035 Z0.0 E5.00225002499
G1 X0.80632 Y0.59222 Z0.0 E5.00219069708
G1 X0.8223 Y0.56974 Z0.0 E5.00195201296
G1 X0.84683 Y0.53248 Z0.0 E5.00163972938
G1 X0.87863 Y0.47797 Z0.0 E5.00111487021
G1 X0.91589 Y0.40155 Z0.0 E5.00024223063
G1 X0.95482 Y0.29639 Z0.0 E4.99882052213
G1 X0.98729 Y0.15464 Z0.0 E4.99663655297
G1 X0.9984 Y-0.0273 Z0.0 E4.99386586224
G1 X0.96958 Y-0.23803 Z0.0 E4.99185250508
G1 X0.89319 Y-0.44626 Z0.0 E4.99233503408
G1 X0.78432 Y-0.61868 Z0.0 E4.99480431248
G1 X0.66872 Y-0.74283 Z0.0 E4.99745647130
G1 X0.56413 Y-0.82554 Z0.0 E4.99939733493
G1 X0.47711 Y-0.87898 Z0.0 E5.00059944532
G1 X0.40816 Y-0.91321 Z0.0 E5.00136753723
G1 X0.356 Y-0.93486 Z0.0 E5.00174774354
G1 X0.31961 Y-0.94798 Z0.0 E5.00204116461
G1 X0.29896 Y-0.95473 Z0.0 E5.00221564534
G1 X0.29549 Y-0.95581 Z0.0 E5.00221724888
G1 X0.31255 Y-0.95033 Z0.0 E5.00203611392
G1 X0.35558 Y-0.93495 Z0.0 E5.00142139521
G1 X0.43071 Y-0.9025 Z0.0 E5.00004338506
G1 X0.53804 Y-0.84245 Z0.0 E4.99802221909
G1 X0.6592 Y-0.75122 Z0.0 E4.99718953113
G1 X0.75981 Y-0.64984 Z0.0 E4.99900805585
G1 X0.81886 Y-0.57446 Z0.0 E5.00133979849
G1 X0.83859 Y-0.54558 Z0.0 E5.00222631560
G1 X0.82647 Y-0.56361 Z0.0 E5.00177191853
G1 X0.78481 Y-0.61989 Z0.0 E5.00047584786
G1 X0.71274 Y-0.70115 Z0.0 E4.99902397999
G1 X0.61307 Y-0.78956 Z0.0 E4.99814920371
G1 X0.49838 Y-0.86661 Z0.0 E4.99848856281
G1 X0.38927 Y-0.92108 Z0.0 E4.9997987442
G1 X0.30593 Y-0.95232 Z0.0 E5.00126620792
G1 X0.26299 Y-0.96524 Z0.0 E5.00212954076
G1 X0.27083 Y-0.96303 Z0.0 E5.00193879861
G1 X0.33575 Y-0.94199 Z0.0 E5.00018305315
G1 X0.45027 Y-0.89239 Z0.0 E4.99775695938
G1 X0.58133 Y-0.81301 Z0.0 E4.99732385633
G1 X0.68893 Y-0.72459 Z0.0 E4.99913795819
G1 X0.75854 Y-0.65191 Z0.0 E5.00092386390
G1 X0.79709 Y-0.60447 Z0.0 E5.00184078365
G1 X0.81471 Y-0.58062 Z0.0 E5.00217944625
G1 X0.81796 Y-0.57605 Z0.0 E5.00222991300
G1 X0.80996 Y-0.58722 Z0.0 E5.00215586023
G1 X0.79136 Y-0.61197 Z0.0 E5.00189446735
G1 X0.76096 Y-0.64928 Z0.0 E5.00156135622
G1 X0.71559 Y-0.6988 Z0.0 E5.00097612497
G1 X0.64977 Y-0.76014 Z0.0 E5.00003468113
G1 X0.55527 Y-0.8313 Z0.0 E4.99846092037
G1 X0.42193 Y-0.90577 Z0.0 E4.99610903054
G1 X0.24333 Y-0.96857 Z0.0 E4.99333889747
G1 Z0
G1 Z2.2
G1 X2.52916 Y0.04405 Z0.0 E12.6477178852
G1 X0.04011 Y-0.99895 Z0.0 E4.99877463635
G1 X-0.18933 Y-0.98188 Z0.0 E4.99983545554
G1 X-0.38664 Y-0.92285 Z0.0 E5.00285571474
G1 X-0.53504 Y-0.84617 Z0.0 E5.00567545517
G1 X-0.63953 Y-0.77074 Z0.0 E5.00759115868
G1 X-0.71161 Y-0.70505 Z0.0 E5.00870316200
G1 X-0.7611 Y-0.65152 Z0.0 E5.00937002127
G1 X-0.79458 Y-0.61038 Z0.0 E5.00979321130
G1 X-0.81594 Y-0.5816 Z0.0 E5.01003154581
G1 X-0.82699 Y-0.56582 Z0.0 E5.01015152590
G1 X-0.82765 Y-0.56486 Z0.0 E5.01016801639
G1 X-0.8154 Y-0.58232 Z0.0 E5.00992450642
G1 X-0.78381 Y-0.62393 Z0.0 E5.00910860583
G1 X-0.71969 Y-0.6963 Z0.0 E5.00696361606
G1 X-0.60327 Y-0.79829 Z0.0 E5.00300314061
G1 X-0.42873 Y-0.90355 Z0.0 E5.00053001041
G1 X-0.24067 Y-0.97136 Z0.0 E5.00365441078
G1 X-0.10154 Y-0.99642 Z0.0 E5.00790172627
G1 X-0.03018 Y-1.00151 Z0.0 E5.00982313186
G1 X-0.01635 Y-1.0019 Z0.0 E5.01016699447
G1 X-0.04905 Y-1.00071 Z0.0 E5.00955688310
G1 X-0.12313 Y-0.99407 Z0.0 E5.00833345984
G1 X-0.23639 Y-0.97297 Z0.0 E5.00637307090
G1 X-0.38291 Y-0.92466 Z0.0 E5.00403882804
G1 X-0.545 Y-0.83903 Z0.0 E5.00249023212
G1 X-0.69423 Y-0.72058 Z0.0 E5.00297618748
G1 X-0.80776 Y-0.59124 Z0.0 E5.00509978722
G1 X-0.8813 Y-0.47564 Z0.0 E5.00730241647
G1 X-0.92332 Y-0.38868 Z0.0 E5.00897186257
G1 X-0.94365 Y-0.3369 Z0.0 E5.00993246586
G1 X-0.9478 Y-0.32517 Z0.0 E5.01014063899
G1 X-0.93446 Y-0.36122 Z0.0 E5.00922993084
G1 X-0.89211 Y-0.45455 Z0.0 E5.00618605977
G1 X-0.80025 Y-0.60022 Z0.0 E5.00166000169
G1 X-0.65713 Y-0.75406 Z0.0 E5.00106568768
G1 X-0.50711 Y-0.86304 Z0.0 E5.00499399026
G1 X-0.39384 Y-0.92096 Z0.0 E5.00818646618
G1 X-0.32445 Y-0.94793 Z0.0 E5.00958852452
G1 X-0.28948 Y-0.95929 Z0.0 E5.01007977606
G1 X-0.27962 Y-0.96223 Z0.0 E5.01017444132
G1 X-0.28899 Y-0.95945 Z0.0 E5.01013852753
G1 X-0.31461 Y-0.95131 Z0.0 E5.00991558861
G1 X-0.35558 Y-0.93671 Z0.0 E5.00964759364
G1 X-0.41248 Y-0.91297 Z0.0 E5.00912659877
G1 X-0.48692 Y-0.87534 Z0.0 E5.00827116378
G1 X-0.58056 Y-0.8159 Z0.0 E5.00685211385
G1 X-0.69245 Y-0.72271 Z0.0 E5.00448985062
G1 X-0.81341 Y-0.58216 Z0.0 E5.00136504791
G1 X-0.92056 Y-0.39008 Z0.0 E4.99898269651
G1 X-0.98569 Y-0.16784 Z0.0 E4.99938756674
G1 X-0.99946 Y0.04427 Z0.0 E5.00219982733
G1 X-0.97702 Y0.21797 Z0.0 E5.00519480465
G1 X-0.93885 Y0.34853 Z0.0 E5.00727591461
G1 X-0.89823 Y0.4434 Z0.0 E5.00854443152
G1 X-0.86145 Y0.51148 Z0.0 E5.00926115535
G1 X-0.83119 Y0.55947 Z0.0 E5.00969933479
G1 X-0.80874 Y0.59156 Z0.0 E5.00999905489
G1 X-0.79519 Y0.60969 Z0.0 E5.01011235453
G1 X-0.79213 Y0.61368 Z0.0 E5.01017235058
G1 X-0.80198 Y0.60069 Z0.0 E5.00999100922
G1 X-0.82812 Y0.56388 Z0.0 E5.00934973025
G1 X-0.87338 Y0.49013 Z0.0 E5.00754441144
G1 X-0.93349 Y0.36077 Z0.0 E5.00389491546
G1 X-0.98543 Y0.17078 Z0.0 E5.00059519782
G1 X-0.99994 Y-0.0348 Z0.0 E5.00272686542
G1 X-0.98339 Y-0.18928 Z0.0 E5.00720183960
G1 X-0.96433 Y-0.27189 Z0.0 E5.00963202491
G1 X-0.95756 Y-0.29522 Z0.0 E5.01017964249
G1 X-0.96427 Y-0.27219 Z0.0 E5.00975056515
G1 X-0.97992 Y-0.20788 Z0.0 E5.00863579431
G1 X-0.99615 Y-0.10205 Z0.0 E5.00681791410
G1 X-0.99989 Y0.04479 Z0.0 E5.00446339831
G1 X-0.97558 Y0.22204 Z0.0 E5.00264454564
G1 X-0.91553 Y0.4036 Z0.0 E5.00271961262
G1 X-0.83013 Y0.55922 Z0.0 E5.0046049427
G1 X-0.74116 Y0.67339 Z0.0 E5.00692579758
G1 X-0.667 Y0.74739 Z0.0 E5.00869447087
G1 X-0.61816 Y0.78854 Z0.0 E5.00978322186
G1 X-0.60115 Y0.80168 Z0.0 E5.01017001932
G1 X-0.62272 Y0.78489 Z0.0 E5.00957211371
G1 X-0.68929 Y0.7264 Z0.0 E5.00693934480
G1 X-0.79503 Y0.60739 Z0.0 E5.00248766365
G1 X-0.90285 Y0.43026 Z0.0 E5.00065443242
G1 X-0.96975 Y0.24746 Z0.0 E5.00412708197
G1 X-0.99541 Y0.11061 Z0.0 E5.00768319735
G1 X-1.00152 Y0.02706 Z0.0 E5.00942749723
G1 X-1.00188 Y-0.01617 Z0.0 E5.01005240317
G1 X-1.00155 Y-0.03111 Z0.0 E5.01016525326
G1 X-1.00171 Y-0.02502 Z0.0 E5.01011208582
G1 X-1.002 Y-0.00145 Z0.0 E5.01000524576
G1 X-1.00119 Y0.03865 Z0.0 E5.00967872872
G1 X-0.99721 Y0.09632 Z0.0 E5.00925475121
G1 X-0.98642 Y0.17425 Z0.0 E5.00846153749
G1 X-0.96255 Y0.27635 Z0.0 E5.00717441528
G1 X-0.91498 Y0.40599 Z0.0 E5.00503816294
G1 X-0.8284 Y0.56086 Z0.0 E5.00202583860
G1 X-0.68952 Y0.72406 Z0.0 E4.99925172901
G1 X-0.50425 Y0.86333 Z0.0 E4.99901678183
G1 X-0.30493 Y0.9527 Z0.0 E5.00154874739
G1 X-0.12622 Y0.99294 Z0.0 E5.00465116666
G1 X0.01701 Y1.00124 Z0.0 E5.00692240228
G1 X0.12592 Y0.99372 Z0.0 E5.00833127099
G1 X0.20686 Y0.98024 Z0.0 E5.00914542911
G1 X0.26573 Y0.96605 Z0.0 E5.00965326994
G1 X0.30651 Y0.95396 Z0.0 E5.00996023362
G1 X0.33112 Y0.94574 Z0.0 E5.01015120031
G1 X0.33937 Y0.94282 Z0.0 E5.01019348254
G1 X0.32844 Y0.94666 Z0.0 E5.01008480268
G1 X0.29176 Y0.95849 Z0.0 E5.00955830812
G1 X0.2172 Y0.97778 Z0.0 E5.00806741269
G1 X0.08805 Y0.99707 Z0.0 E5.00475121110
G1 X-0.10012 Y0.99516 Z0.0 E5.00091851563
G1 X-0.30538 Y0.95262 Z0.0 E5.00185417820
G1 X-0.46142 Y0.88863 Z0.0 E5.00642510505
G1 X-0.54682 Y0.83947 Z0.0 E5.00929634105
G1 X-0.57611 Y0.81986 Z0.0 E5.01017253121
G1 X-0.56373 Y0.82836 Z0.0 E5.00991966627
G1 X-0.51478 Y0.8594 Z0.0 E5.00890908382
G1 X-0.42738 Y0.90567 Z0.0 E5.00722431418
G1 X-0.29749 Y0.95576 Z0.0 E5.00494125265
G1 X-0.1277 Y0.9924 Z0.0 E5.00291177716
G1 X0.06304 Y0.99852 Z0.0 E5.00253993487
G1 X0.24309 Y0.97086 Z0.0 E5.00415299451
G1 X0.38766 Y0.92321 Z0.0 E5.00648823952
G1 X0.48931 Y0.87403 Z0.0 E5.00837477881
G1 X0.55102 Y0.8368 Z0.0 E5.00963391976
G1 X0.57611 Y0.81986 Z0.0 E5.01017253121
G1 X0.56229 Y0.8293 Z0.0 E5.00976180596
G1 X0.49828 Y0.86879 Z0.0 E5.00769164012
G1 X0.36689 Y0.93099 Z0.0 E5.00337549111
G1 X0.17237 Y0.98514 Z0.0 E5.0005305631
G1 X-0.02917 Y1.00023 Z0.0 E5.00327628110
G1 X-0.17978 Y0.98516 Z0.0 E5.00714757622
G1 X-0.27122 Y0.96443 Z0.0 E5.00920530948
G1 X-0.31922 Y0.94978 Z0.0 E5.00994874425
G1 X-0.33801 Y0.9433 Z0.0 E5.01015381525
G1 X-0.33588 Y0.94406 Z0.0 E5.01015134003
G1 X-0.31675 Y0.95062 Z0.0 E5.01001234255
G1 X-0.28164 Y0.96156 Z0.0 E5.00978722901
G1 X-0.22933 Y0.97527 Z0.0 E5.00935081073
G1 X-0.15655 Y0.98942 Z0.0 E5.00864212861
G1 X-0.058 Y0.99982 Z0.0 E5.00750444932
G1 X0.07285 Y0.99845 Z0.0 E5.00552076462
G1 X0.23998 Y0.97132 Z0.0 E5.00263166443
G1 X0.43533 Y0.9002 Z0.0 E4.99968061205
G1 X0.62989 Y0.77637 Z0.0 E4.99877932349
G1 X0.78689 Y0.6174 Z0.0 E5.00094649067
G1 X0.89047 Y0.45682 Z0.0 E5.00405169163
G1 X0.94957 Y0.31771 Z0.0 E5.00655277861
G1 X0.98013 Y0.20638 Z0.0 E5.00811222243
G1 X0.99451 Y0.12062 Z0.0 E5.00899022883
G1 X1.00033 Y0.05638 Z0.0 E5.00958784058
G1 X1.00192 Y0.01045 Z0.0 E5.00987247567
G1 X1.00184 Y-0.0188 Z0.0 E5.01008189953
G1 X1.00155 Y-0.03114 Z0.0 E5.01016991254
G1 X1.00173 Y-0.02403 Z0.0 E5.01009090187
G1 X1.00191 Y0.00837 Z0.0 E5.00972480532
G1 X0.99877 Y0.07645 Z0.0 E5.00845813450
G1 X0.98212 Y0.19407 Z0.0 E5.00555406349
G1 X0.93147 Y0.36464 Z0.0 E5.00149650230
G1 X0.83455 Y0.55138 Z0.0 E5.00123386501
G1 X0.72234 Y0.69314 Z0.0 E5.00554226633
G1 X0.64034 Y0.77042 Z0.0 E5.00894772382
G1 X0.60383 Y0.79965 Z0.0 E5.01011674365
G1 X0.60841 Y0.79614 Z0.0 E5.00999408108
G1 X0.647 Y0.76489 Z0.0 E5.00915589720
G1 X0.71333 Y0.703 Z0.0 E5.00761592202
G1 X0.79886 Y0.60331 Z0.0 E5.00539772571
G1 X0.88802 Y0.4612 Z0.0 E5.00321136971
G1 X0.95886 Y0.28559 Z0.0 E5.00243477644
G1 X0.9954 Y0.10327 Z0.0 E5.00371325342
G1 X0.99964 Y-0.05601 Z0.0 E5.00603947672
G1 X0.98598 Y-0.17627 Z0.0 E5.00806268256
G1 X0.96897 Y-0.2547 Z0.0 E5.00942848761
G1 X0.9585 Y-0.29212 Z0.0 E5.01013059810
G1 X0.96037 Y-0.28578 Z0.0 E5.00994197896
G1 X0.97598 Y-0.22539 Z0.0 E5.00833708056
G1 X0.99626 Y-0.09587 Z0.0 E5.00431075299
G1 X0.99531 Y0.09812 Z0.0 E5.00067378085
G1 X0.95403 Y0.30132 Z0.0 E5.00241687412
G1 X0.89304 Y0.45287 Z0.0 E5.00652493877
G1 X0.84147 Y0.54359 Z0.0 E5.00889670736
G1 X0.80894 Y0.59124 Z0.0 E5.00986192724
G1 X0.79391 Y0.61137 Z0.0 E5.01015559888
G1 X0.79286 Y0.61274 Z0.0 E5.01018284896
G1 X0.80301 Y0.59933 Z0.0 E5.01004368494
G1 X0.82255 Y0.57215 Z0.0 E5.00985060905
G1 X0.85024 Y0.52997 Z0.0 E5.00943175046
G1 X0.88497 Y0.46942 Z0.0 E5.00880983194
G1 X0.92474 Y0.38467 Z0.0 E5.00778163586
G1 X0.96483 Y0.26742 Z0.0 E5.00602233640
G1 X0.99471 Y0.10895 Z0.0 E5.00329413137
G1 X0.99581 Y-0.09188 Z0.0 E5.00019872230
G1 X0.94876 Y-0.3152 Z0.0 E4.99874128556
G1 X0.85331 Y-0.52153 Z0.0 E5.00032873169
G1 X0.73383 Y-0.68035 Z0.0 E5.00345528460
G1 X0.61716 Y-0.78839 Z0.0 E5.00610941176
G1 X0.51688 Y-0.85789 Z0.0 E5.00784431293
G1 X0.43598 Y-0.90193 Z0.0 E5.00888282280
G1 X0.37327 Y-0.92977 Z0.0 E5.00949784360
G1 X0.32695 Y-0.94712 Z0.0 E5.00982184539
G1 X0.29604 Y-0.95728 Z0.0 E5.01005159654
G1 X0.28087 Y-0.96187 Z0.0 E5.01019424224
G1 X0.28363 Y-0.96105 Z0.0 E5.01014740152
G1 X0.30909 Y-0.9531 Z0.0 E5.00983093053
G1 X0.36543 Y-0.93273 Z0.0 E5.00880309505
G1 X0.46302 Y-0.88777 Z0.0 E5.00630375951
G1 X0.60343 Y-0.79797 Z0.0 E5.00220922643
G1 X0.75546 Y-0.65542 Z0.0 E5.00073791555
G1 X0.86709 Y-0.5 Z0.0 E5.00461054454
G1 X0.92412 Y-0.38649 Z0.0 E5.00842364048
G1 X0.94552 Y-0.33166 Z0.0 E5.01000605289
G1 X0.9468 Y-0.32805 Z0.0 E5.01010739032
G1 X0.93236 Y-0.36669 Z0.0 E5.00938301016
G1 X0.89874 Y-0.4421 Z0.0 E5.00795865997
G1 X0.83724 Y-0.54898 Z0.0 E5.00587119790
G1 X0.73788 Y-0.676 Z0.0 E5.00360593572
G1 X0.5992 Y-0.8012 Z0.0 E5.00240462178
G1 X0.43815 Y-0.89964 Z0.0 E5.00331777948
G1 X0.28357 Y-0.96011 Z0.0 E5.00555480691
G1 X0.15776 Y-0.98904 Z0.0 E5.00771489604
G1 X0.06996 Y-0.9994 Z0.0 E5.00922838769
G1 X0.02271 Y-1.00175 Z0.0 E5.01003694248
G1 X0.01962 Y-1.00183 Z0.0 E5.01011051101
G1 X0.06968 Y-0.99933 Z0.0 E5.00878166648
G1 X0.18534 Y-0.98375 Z0.0 E5.00528465249
G1 X0.36199 Y-0.93241 Z0.0 E5.00106280754
G1 X0.54884 Y-0.83633 Z0.0 E5.00168275308
G1 X0.68658 Y-0.72864 Z0.0 E5.00576753855
G1 X0.76636 Y-0.64507 Z0.0 E5.00855007587
G1 X0.80723 Y-0.59354 Z0.0 E5.0097654748
G1 X0.82512 Y-0.56854 Z0.0 E5.01014157984
G1 X0.82846 Y-0.56368 Z0.0 E5.01019239651
G1 X0.82086 Y-0.57465 Z0.0 E5.01007425619
G1 X0.80315 Y-0.59909 Z0.0 E5.00988710102
G1 X0.77416 Y-0.636 Z0.0 E5.00954016253
G1 X0.73076 Y-0.68526 Z0.0 E5.00897056589
G1 X0.66739 Y-0.74687 Z0.0 E5.00805403575
G1 X0.57532 Y-0.8195 Z0.0 E5.00642924748
G1 X0.44318 Y-0.8973 Z0.0 E5.00388799435
G1 X0.26221 Y-0.96517 Z0.0 E5.00076797352
G1 Z0
G1 Z2.2
G1 X2.24776 Y0.03915 Z0.0 E11.2405045929
G1 X0.05002 Y-1.00132 Z0.0 E5.01284286309
G1 X-0.18514 Y-0.98553 Z0.0 E5.01384632917
G1 X-0.38756 Y-0.92554 Z0.0 E5.01703858167
G1 X-0.5391 Y-0.847 Z0.0 E5.02005430748
G1 X-0.64514 Y-0.76982 Z0.0 E5.02202263038
G1 X-0.71803 Y-0.70267 Z0.0 E5.02322657711
G1 X-0.76811 Y-0.64776 Z0.0 E5.02390781588
G1 X-0.80228 Y-0.60505 Z0.0 E5.02428776271
G1 X-0.82468 Y-0.57423 Z0.0 E5.02453280241
G1 X-0.83739 Y-0.55558 Z0.0 E5.02466702504
G1 X-0.84076 Y-0.55049 Z0.0 E5.02473038506
G1 X-0.83306 Y-0.56203 Z0.0 E5.02460616491
G1 X-0.80919 Y-0.59568 Z0.0 E5.02400019531
G1 X-0.7575 Y-0.65963 Z0.0 E5.02224548111
G1 X-0.65529 Y-0.76012 Z0.0 E5.01793632507
G1 X-0.47732 Y-0.88149 Z0.0 E5.01213278580
G1 X-0.24724 Y-0.97165 Z0.0 E5.01306129052
G1 X-0.04924 Y-1.00266 Z0.0 E5.01934172278
G1 X0.07249 Y-1.00202 Z0.0 E5.02319340783
G1 X0.12932 Y-0.99655 Z0.0 E5.02452874631
G1 X0.14039 Y-0.99509 Z0.0 E5.02472253015
G1 X0.11653 Y-0.9981 Z0.0 E5.02439760295
G1 X0.0612 Y-1.00287 Z0.0 E5.02367812688
G1 X-0.02707 Y-1.00412 Z0.0 E5.02242411416
G1 X-0.15173 Y-0.99254 Z0.0 E5.02035268806
G1 X-0.3128 Y-0.95351 Z0.0 E5.01753216258
G1 X-0.49673 Y-0.87139 Z0.0 E5.01513017029
G1 X-0.67225 Y-0.74441 Z0.0 E5.01514284592
G1 X-0.80809 Y-0.59497 Z0.0 E5.01746636511
G1 X-0.89583 Y-0.45346 Z0.0 E5.02030218338
G1 X-0.94593 Y-0.33792 Z0.0 E5.02238362558
G1 X-0.97235 Y-0.25301 Z0.0 E5.02364056885
G1 X-0.98511 Y-0.19834 Z0.0 E5.02439167387
G1 X-0.98974 Y-0.17413 Z0.0 E5.02470527618
G1 X-0.98785 Y-0.18438 Z0.0 E5.02454875312
G1 X-0.97577 Y-0.23914 Z0.0 E5.02323360123
G1 X-0.93946 Y-0.35385 Z0.0 E5.01944945711
G1 X-0.85007 Y-0.53165 Z0.0 E5.01315950125
G1 X-0.69418 Y-0.72315 Z0.0 E5.01206493099
G1 X-0.52332 Y-0.85632 Z0.0 E5.01783759402
G1 X-0.39517 Y-0.92344 Z0.0 E5.02220261066
G1 X-0.31753 Y-0.95331 Z0.0 E5.02400551602
G1 X-0.27757 Y-0.96582 Z0.0 E5.02457305972
G1 X-0.2638 Y-0.9697 Z0.0 E5.02471026528
G1 X-0.26936 Y-0.96817 Z0.0 E5.02470884356
G1 X-0.29074 Y-0.96193 Z0.0 E5.02453747249
G1 X-0.3267 Y-0.95027 Z0.0 E5.02430582991
G1 X-0.37759 Y-0.93113 Z0.0 E5.02388615765
G1 X-0.44495 Y-0.90074 Z0.0 E5.02322866815
G1 X-0.53097 Y-0.85259 Z0.0 E5.02204850883
G1 X-0.63679 Y-0.77625 Z0.0 E5.02012342129
G1 X-0.75812 Y-0.65735 Z0.0 E5.01710812346
G1 X-0.87802 Y-0.4844 Z0.0 E5.01388691636
G1 X-0.96658 Y-0.26619 Z0.0 E5.0128185996
G1 X-1.00221 Y-0.03988 Z0.0 E5.01501569913
G1 X-0.99155 Y0.15552 Z0.0 E5.01836096973
G1 X-0.95655 Y0.30566 Z0.0 E5.02099576304
G1 X-0.91465 Y0.4153 Z0.0 E5.02259572457
G1 X-0.87475 Y0.49422 Z0.0 E5.02354698122
G1 X-0.84052 Y0.55062 Z0.0 E5.02408263965
G1 X-0.81343 Y0.59001 Z0.0 E5.02439092080
G1 X-0.79435 Y0.61553 Z0.0 E5.02461218255
G1 X-0.78433 Y0.62828 Z0.0 E5.02471219897
G1 X-0.78513 Y0.62727 Z0.0 E5.02468100928
G1 X-0.79963 Y0.6086 Z0.0 E5.02444548408
G1 X-0.83192 Y0.56333 Z0.0 E5.02352360226
G1 X-0.88528 Y0.47398 Z0.0 E5.02090061344
G1 X-0.9524 Y0.31485 Z0.0 E5.01546678411
G1 X-0.99885 Y0.08266 Z0.0 E5.01132217608
G1 X-0.99122 Y-0.15393 Z0.0 E5.01550479339
G1 X-0.95242 Y-0.3185 Z0.0 E5.02131981256
G1 X-0.91924 Y-0.4057 Z0.0 E5.02392940735
G1 X-0.90386 Y-0.43924 Z0.0 E5.02467580347
G1 X-0.90549 Y-0.43586 Z0.0 E5.02465441523
G1 X-0.92074 Y-0.40239 Z0.0 E5.02414136868
G1 X-0.94577 Y-0.33887 Z0.0 E5.02323045908
G1 X-0.97506 Y-0.2407 Z0.0 E5.02164936450
G1 X-0.99872 Y-0.10145 Z0.0 E5.01929711439
G1 X-1.0001 Y0.07991 Z0.0 E5.01643702766
G1 X-0.96097 Y0.28713 Z0.0 E5.01474570093
G1 X-0.87829 Y0.48474 Z0.0 E5.01589022931
G1 X-0.77203 Y0.64144 Z0.0 E5.01865418838
G1 X-0.66806 Y0.7498 Z0.0 E5.02121549926
G1 X-0.58181 Y0.81897 Z0.0 E5.02298401600
G1 X-0.51886 Y0.86047 Z0.0 E5.02400318596
G1 X-0.48107 Y0.88228 Z0.0 E5.02455556069
G1 X-0.47105 Y0.8877 Z0.0 E5.02468753382
G1 X-0.49464 Y0.87467 Z0.0 E5.02423212665
G1 X-0.56178 Y0.83263 Z0.0 E5.02212476274
G1 X-0.67993 Y0.7379 Z0.0 E5.01697422482
G1 X-0.82688 Y0.56648 Z0.0 E5.01156194414
G1 X-0.93973 Y0.35008 Z0.0 E5.01410131355
G1 X-0.98986 Y0.1679 Z0.0 E5.01999310159
G1 X-1.00333 Y0.05114 Z0.0 E5.02316232193
G1 X-1.00477 Y-0.01337 Z0.0 E5.02429475101
G1 X-1.00402 Y-0.04297 Z0.0 E5.02469546664
G1 X-1.00377 Y-0.0486 Z0.0 E5.02472927853
G1 X-1.00428 Y-0.03598 Z0.0 E5.02462157481
G1 X-1.00486 Y-0.0075 Z0.0 E5.02443994292
G1 X-1.00416 Y0.03669 Z0.0 E5.02415033040
G1 X-0.99992 Y0.09825 Z0.0 E5.02367661404
G1 X-0.98823 Y0.18045 Z0.0 E5.02284962795
G1 X-0.96218 Y0.28772 Z0.0 E5.02138713604
G1 X-0.91007 Y0.42356 Z0.0 E5.01903994430
G1 X-0.81534 Y0.5844 Z0.0 E5.01573193961
G1 X-0.66532 Y0.75006 Z0.0 E5.01308464421
G1 X-0.47068 Y0.88534 Z0.0 E5.01339849304
G1 X-0.26846 Y0.96669 Z0.0 E5.01637400843
G1 X-0.09244 Y0.99964 Z0.0 E5.01952508511
G1 X0.04606 Y1.00329 Z0.0 E5.02173363416
G1 X0.15046 Y0.99327 Z0.0 E5.02300583441
G1 X0.22786 Y0.97858 Z0.0 E5.02379088936
G1 X0.28427 Y0.9638 Z0.0 E5.02424092003
G1 X0.32363 Y0.95136 Z0.0 E5.02449556299
G1 X0.34784 Y0.94281 Z0.0 E5.02464765357
G1 X0.35682 Y0.93946 Z0.0 E5.02470298625
G1 X0.34798 Y0.94276 Z0.0 E5.02465545585
G1 X0.31498 Y0.95419 Z0.0 E5.02416897730
G1 X0.24521 Y0.97417 Z0.0 E5.02278591272
G1 X0.11776 Y0.99688 Z0.0 E5.01905656473
G1 X-0.08422 Y0.99907 Z0.0 E5.01306760701
G1 X-0.32597 Y0.94794 Z0.0 E5.01210206525
G1 X-0.52075 Y0.85796 Z0.0 E5.01815684315
G1 X-0.63331 Y0.77976 Z0.0 E5.02271643063
G1 X-0.68507 Y0.73515 Z0.0 E5.02435674341
G1 X-0.69906 Y0.72196 Z0.0 E5.02471672137
G1 X-0.68636 Y0.73399 Z0.0 E5.0245183095
G1 X-0.64946 Y0.76666 Z0.0 E5.02385769902
G1 X-0.5851 Y0.81656 Z0.0 E5.02272894849
G1 X-0.4856 Y0.87894 Z0.0 E5.02081388721
G1 X-0.34189 Y0.94359 Z0.0 E5.01809440973
G1 X-0.15243 Y0.99145 Z0.0 E5.01549600588
G1 X0.06328 Y1.00098 Z0.0 E5.01489112245
G1 X0.26757 Y0.96705 Z0.0 E5.01691989023
G1 X0.4312 Y0.90664 Z0.0 E5.01978468064
G1 X0.54825 Y0.84157 Z0.0 E5.02199693200
G1 X0.6262 Y0.78567 Z0.0 E5.02345446108
G1 X0.67393 Y0.74536 Z0.0 E5.02429889263
G1 X0.69669 Y0.72424 Z0.0 E5.02469037280
G1 X0.69465 Y0.72618 Z0.0 E5.02462937663
G1 X0.66078 Y0.75687 Z0.0 E5.02365008062
G1 X0.57717 Y0.82164 Z0.0 E5.02050171422
G1 X0.41734 Y0.91191 Z0.0 E5.01436068632
G1 X0.18548 Y0.98499 Z0.0 E5.01150708495
G1 X-0.04208 Y1.00244 Z0.0 E5.01661409718
G1 X-0.20025 Y0.98415 Z0.0 E5.0215816358
G1 X-0.29125 Y0.96162 Z0.0 E5.02379235961
G1 X-0.33765 Y0.94648 Z0.0 E5.02451966087
G1 X-0.35554 Y0.93995 Z0.0 E5.02472559972
G1 X-0.35354 Y0.9407 Z0.0 E5.02470651282
G1 X-0.33557 Y0.94723 Z0.0 E5.02456937906
G1 X-0.30268 Y0.9582 Z0.0 E5.02434677943
G1 X-0.25377 Y0.97222 Z0.0 E5.02396989765
G1 X-0.18578 Y0.98735 Z0.0 E5.02338091055
G1 X-0.09353 Y1.00011 Z0.0 E5.02236964241
G1 X0.02988 Y1.00367 Z0.0 E5.02057338185
G1 X0.19038 Y0.98533 Z0.0 E5.01776781373
G1 X0.38451 Y0.92625 Z0.0 E5.01444663597
G1 X0.58746 Y0.8124 Z0.0 E5.01274129494
G1 X0.75936 Y0.65509 Z0.0 E5.01440554229
G1 X0.87659 Y0.48856 Z0.0 E5.01772085139
G1 X0.9444 Y0.34108 Z0.0 E5.02052518767
G1 X0.97961 Y0.22207 Z0.0 E5.02232724193
G1 X0.99624 Y0.12993 Z0.0 E5.02338516963
G1 X1.00299 Y0.06021 Z0.0 E5.02397796621
G1 X1.00483 Y0.00904 Z0.0 E5.02435331784
G1 X1.00458 Y-0.02593 Z0.0 E5.02457297016
G1 X1.00392 Y-0.04533 Z0.0 E5.02471435830
G1 X1.00381 Y-0.04782 Z0.0 E5.02474195482
G1 X1.00448 Y-0.02924 Z0.0 E5.02452746037
G1 X1.00458 Y0.01889 Z0.0 E5.02378793467
G1 X0.99813 Y0.11138 Z0.0 E5.02162573600
G1 X0.96739 Y0.26618 Z0.0 E5.01671008854
G1 X0.88172 Y0.47664 Z0.0 E5.01152633436
G1 X0.74113 Y0.67559 Z0.0 E5.01421859565
G1 X0.60522 Y0.80117 Z0.0 E5.02037004936
G1 X0.5168 Y0.86162 Z0.0 E5.02362235941
G1 X0.47635 Y0.88485 Z0.0 E5.02461153971
G1 X0.47326 Y0.88652 Z0.0 E5.02467097928
G1 X0.49987 Y0.87171 Z0.0 E5.02431174640
G1 X0.55248 Y0.83915 Z0.0 E5.02346213507
G1 X0.6293 Y0.78283 Z0.0 E5.02205460668
G1 X0.72702 Y0.69237 Z0.0 E5.01979655290
G1 X0.83503 Y0.55635 Z0.0 E5.01697225276
G1 X0.93092 Y0.3733 Z0.0 E5.01489016929
G1 X0.98937 Y0.16532 Z0.0 E5.01543542302
G1 X1.00316 Y-0.0302 Z0.0 E5.01807240283
G1 X0.98646 Y-0.18768 Z0.0 E5.02077462649
G1 X0.95796 Y-0.30235 Z0.0 E5.02270565557
G1 X0.93029 Y-0.37963 Z0.0 E5.02383922165
G1 X0.91043 Y-0.42537 Z0.0 E5.02449604886
G1 X0.90265 Y-0.44173 Z0.0 E5.02469505393
G1 X0.91055 Y-0.42506 Z0.0 E5.02438380824
G1 X0.93663 Y-0.36309 Z0.0 E5.02272362618
G1 X0.97614 Y-0.23339 Z0.0 E5.01826711052
G1 X1.0022 Y-0.02169 Z0.0 E5.01217342103
G1 X0.97718 Y0.22429 Z0.0 E5.01295012069
G1 X0.91299 Y0.4172 Z0.0 E5.01898042460
G1 X0.85169 Y0.53267 Z0.0 E5.02273129134
G1 X0.81073 Y0.59364 Z0.0 E5.02417053477
G1 X0.78933 Y0.62197 Z0.0 E5.02466051042
G1 X0.78321 Y0.62968 Z0.0 E5.02472587934
G1 X0.78897 Y0.62243 Z0.0 E5.02467104844
G1 X0.80442 Y0.60228 Z0.0 E5.02452170560
G1 X0.82825 Y0.56895 Z0.0 E5.02419686368
G1 X0.85961 Y0.5202 Z0.0 E5.02378689860
G1 X0.8974 Y0.45156 Z0.0 E5.02302994616
G1 X0.93916 Y0.35596 Z0.0 E5.02177515227
G1 X0.97863 Y0.2239 Z0.0 E5.01958137423
G1 X1.00218 Y0.04717 Z0.0 E5.01644735171
G1 X0.98821 Y-0.16973 Z0.0 E5.01340023587
G1 X0.92071 Y-0.39688 Z0.0 E5.01303460615
G1 X0.81006 Y-0.59167 Z0.0 E5.01565198279
G1 X0.68633 Y-0.73249 Z0.0 E5.01894029901
G1 X0.57293 Y-0.82481 Z0.0 E5.02135519805
G1 X0.47859 Y-0.88324 Z0.0 E5.02285099744
G1 X0.40367 Y-0.92007 Z0.0 E5.02363980048
G1 X0.34613 Y-0.94333 Z0.0 E5.02413541269
G1 X0.30404 Y-0.95779 Z0.0 E5.02444525719
G1 X0.2765 Y-0.96614 Z0.0 E5.02463617986
G1 X0.26404 Y-0.96964 Z0.0 E5.02473594132
G1 X0.2691 Y-0.96824 Z0.0 E5.02469777101
G1 X0.29698 Y-0.95998 Z0.0 E5.02433757027
G1 X0.35715 Y-0.93901 Z0.0 E5.02318599745
G1 X0.46305 Y-0.89086 Z0.0 E5.02007679747
G1 X0.62003 Y-0.78819 Z0.0 E5.01418158078
G1 X0.79138 Y-0.61508 Z0.0 E5.01150104959
G1 X0.91035 Y-0.42192 Z0.0 E5.01685561109
G1 X0.96487 Y-0.27903 Z0.0 E5.02203110753
G1 X0.98451 Y-0.20108 Z0.0 E5.02417432644
G1 X0.9898 Y-0.1738 Z0.0 E5.02471511630
G1 X0.98786 Y-0.18438 Z0.0 E5.02459790431
G1 X0.97895 Y-0.22648 Z0.0 E5.02403297387
G1 X0.95919 Y-0.29861 Z0.0 E5.02298065943
G1 X0.92053 Y-0.40143 Z0.0 E5.02125862160
G1 X0.85034 Y-0.53331 Z0.0 E5.01870917592
G1 X0.73507 Y-0.68268 Z0.0 E5.01592435973
G1 X0.57341 Y-0.82287 Z0.0 E5.0147633668
G1 X0.38852 Y-0.92499 Z0.0 E5.01635896468
G1 X0.21512 Y-0.98052 Z0.0 E5.01920333519
G1 X0.07467 Y-1.00155 Z0.0 E5.02164816420
G1 X-0.02843 Y-1.00424 Z0.0 E5.02321172782
G1 X-0.09718 Y-1.00012 Z0.0 E5.02415158708
G1 X-0.13431 Y-0.99591 Z0.0 E5.02462910124
G1 X-0.1387 Y-0.99532 Z0.0 E5.02468803111
G1 X-0.10294 Y-0.99951 Z0.0 E5.02398468275
G1 X-0.01101 Y-1.00421 Z0.0 E5.02135177069
G1 X0.15602 Y-0.99092 Z0.0 E5.01563726460
G1 X0.38289 Y-0.92624 Z0.0 E5.01130045422
G1 X0.59052 Y-0.81082 Z0.0 E5.01533384432
G1 X0.72256 Y-0.69732 Z0.0 E5.02082696376
G1 X0.79194 Y-0.61826 Z0.0 E5.02348084300
G1 X0.8255 Y-0.57301 Z0.0 E5.02441715550
G1 X0.83907 Y-0.55305 Z0.0 E5.02469592961
G1 X0.83998 Y-0.55167 Z0.0 E5.02470444230
G1 X0.83112 Y-0.56489 Z0.0 E5.02459243745
G1 X0.81294 Y-0.5907 Z0.0 E5.02443512646
G1 X0.78407 Y-0.62841 Z0.0 E5.02410413158
G1 X0.74131 Y-0.67815 Z0.0 E5.02351455308
G1 X0.67903 Y-0.74026 Z0.0 E5.02261537573
G1 X0.58834 Y-0.8138 Z0.0 E5.02099192292
G1 X0.45725 Y-0.89348 Z0.0 E5.01842622966
G1 X0.27568 Y-0.96438 Z0.0 E5.01504797285
G1 Z0
G1 Z2.2
G1 X1.97662 Y0.03443 Z0.0 E9.88459919433
G1 X0.05852 Y-1.00152 Z0.0 E5.01614119817
G1 X-0.17844 Y-0.98741 Z0.0 E5.01701938829
G1 X-0.38337 Y-0.92798 Z0.0 E5.02025755639
G1 X-0.53705 Y-0.84908 Z0.0 E5.02334437626
G1 X-0.64462 Y-0.77112 Z0.0 E5.02533829409
G1 X-0.71863 Y-0.70301 Z0.0 E5.02655980020
G1 X-0.76967 Y-0.64694 Z0.0 E5.02723401211
G1 X-0.80486 Y-0.60273 Z0.0 E5.02763133220
G1 X-0.82853 Y-0.56985 Z0.0 E5.02789961962
G1 X-0.84302 Y-0.54825 Z0.0 E5.02807314709
G1 X-0.84909 Y-0.53881 Z0.0 E5.02809617102
G1 X-0.84586 Y-0.54386 Z0.0 E5.02807825914
G1 X-0.82988 Y-0.56782 Z0.0 E5.02772405468
G1 X-0.7928 Y-0.61819 Z0.0 E5.02665573742
G1 X-0.71616 Y-0.70463 Z0.0 E5.02341662243
G1 X-0.56796 Y-0.82709 Z0.0 E5.0166134735
G1 X-0.3344 Y-0.945 Z0.0 E5.01210624389
G1 X-0.08697 Y-0.99982 Z0.0 E5.01797721522
G1 X0.08856 Y-1.00098 Z0.0 E5.0244498057
G1 X0.18595 Y-0.98809 Z0.0 E5.02717428234
G1 X0.23002 Y-0.97894 Z0.0 E5.02800339101
G1 X0.23896 Y-0.97682 Z0.0 E5.02811891765
G1 X0.22166 Y-0.98085 Z0.0 E5.02792173293
G1 X0.18098 Y-0.98909 Z0.0 E5.02755603773
G1 X0.11575 Y-0.99868 Z0.0 E5.02682754056
G1 X0.02177 Y-1.00488 Z0.0 E5.02557894003
G1 X-0.10675 Y-0.99902 Z0.0 E5.02353591333
G1 X-0.27267 Y-0.96639 Z0.0 E5.02060395022
G1 X-0.46547 Y-0.88907 Z0.0 E5.01773800083
G1 X-0.65387 Y-0.76117 Z0.0 E5.01728448914
G1 X-0.80211 Y-0.60374 Z0.0 E5.01966741851
G1 X-0.898 Y-0.45026 Z0.0 E5.02279321593
G1 X-0.95225 Y-0.32138 Z0.0 E5.02509991667
G1 X-0.9805 Y-0.22193 Z0.0 E5.02651264521
G1 X-0.99427 Y-0.1497 Z0.0 E5.02738232806
G1 X-1.0004 Y-0.10178 Z0.0 E5.02782092064
G1 X-1.00265 Y-0.07716 Z0.0 E5.02807291141
G1 X-1.00259 Y-0.07798 Z0.0 E5.02809006607
G1 X-0.99934 Y-0.11118 Z0.0 E5.02752779207
G1 X-0.98684 Y-0.19077 Z0.0 E5.02555066261
G1 X-0.94604 Y-0.33633 Z0.0 E5.02023293907
G1 X-0.84073 Y-0.54624 Z0.0 E5.01299578720
G1 X-0.66516 Y-0.75057 Z0.0 E5.01446196142
G1 X-0.48992 Y-0.87677 Z0.0 E5.02182048489
G1 X-0.36789 Y-0.93546 Z0.0 E5.02600354084
G1 X-0.29684 Y-0.96069 Z0.0 E5.02752240597
G1 X-0.26125 Y-0.97107 Z0.0 E5.02799290821
G1 X-0.24985 Y-0.97409 Z0.0 E5.02811184890
G1 X-0.25627 Y-0.97241 Z0.0 E5.02806006577
G1 X-0.27735 Y-0.96659 Z0.0 E5.02796989500
G1 X-0.31201 Y-0.95591 Z0.0 E5.02770864361
G1 X-0.36066 Y-0.93856 Z0.0 E5.02735146275
G1 X-0.42488 Y-0.91117 Z0.0 E5.02681256688
G1 X-0.50696 Y-0.86794 Z0.0 E5.02575438417
G1 X-0.60876 Y-0.7994 Z0.0 E5.02401507163
G1 X-0.72804 Y-0.69172 Z0.0 E5.02125183595
G1 X-0.85146 Y-0.5312 Z0.0 E5.01786202381
G1 X-0.9508 Y-0.32 Z0.0 E5.01602591700
G1 X-0.99945 Y-0.0902 Z0.0 E5.01756002082
G1 X-0.9975 Y0.11571 Z0.0 E5.02094377110
G1 X-0.96584 Y0.27696 Z0.0 E5.02382759258
G1 X-0.92404 Y0.39553 Z0.0 E5.02566886718
G1 X-0.88272 Y0.48117 Z0.0 E5.02672648774
G1 X-0.84634 Y0.54284 Z0.0 E5.02734189508
G1 X-0.81656 Y0.58681 Z0.0 E5.02771371923
G1 X-0.79412 Y0.61692 Z0.0 E5.02796395373
G1 X-0.77974 Y0.63504 Z0.0 E5.02809673037
G1 X-0.77464 Y0.64126 Z0.0 E5.02812469316
G1 X-0.78094 Y0.63354 Z0.0 E5.02802201467
G1 X-0.80212 Y0.60636 Z0.0 E5.02759620495
G1 X-0.84285 Y0.54783 Z0.0 E5.02621585141
G1 X-0.90544 Y0.4349 Z0.0 E5.02234906095
G1 X-0.97443 Y0.23775 Z0.0 E5.01507449446
G1 X-1.00211 Y-0.02868 Z0.0 E5.01260160620
G1 X-0.96769 Y-0.26725 Z0.0 E5.01957791702
G1 X-0.91465 Y-0.41657 Z0.0 E5.02522434176
G1 X-0.87622 Y-0.49319 Z0.0 E5.02741947847
G1 X-0.85771 Y-0.52496 Z0.0 E5.02804496226
G1 X-0.85599 Y-0.52778 Z0.0 E5.02809757388
G1 X-0.86761 Y-0.50837 Z0.0 E5.02789013653
G1 X-0.88998 Y-0.46791 Z0.0 E5.02743515249
G1 X-0.92071 Y-0.40371 Z0.0 E5.02665064481
G1 X-0.95617 Y-0.30964 Z0.0 E5.02528108293
G1 X-0.98885 Y-0.17723 Z0.0 E5.02303393230
G1 X-1.00399 Y-0.00049 Z0.0 E5.01995059786
G1 X-0.98081 Y0.21208 Z0.0 E5.01738523162
G1 X-0.90765 Y0.42804 Z0.0 E5.01758598357
G1 X-0.79886 Y0.60825 Z0.0 E5.02032210645
G1 X-0.68323 Y0.73658 Z0.0 E5.02332889949
G1 X-0.58103 Y0.82013 Z0.0 E5.02545788411
G1 X-0.49947 Y0.8725 Z0.0 E5.02674479882
G1 X-0.43924 Y0.90449 Z0.0 E5.02750916881
G1 X-0.39968 Y0.92274 Z0.0 E5.02790515523
G1 X-0.38135 Y0.93051 Z0.0 E5.02811267425
G1 X-0.38742 Y0.92798 Z0.0 E5.02802430583
G1 X-0.42516 Y0.91114 Z0.0 E5.02726845613
G1 X-0.50699 Y0.86771 Z0.0 E5.02483707248
G1 X-0.64374 Y0.77012 Z0.0 E5.01868011035
G1 X-0.81218 Y0.58761 Z0.0 E5.01228955793
G1 X-0.93835 Y0.35479 Z0.0 E5.01591633353
G1 X-0.99138 Y0.16241 Z0.0 E5.02297549392
G1 X-1.00443 Y0.04177 Z0.0 E5.02649071868
G1 X-1.00524 Y-0.0245 Z0.0 E5.02769258110
G1 X-1.00407 Y-0.0557 Z0.0 E5.02806885121
G1 X-1.00363 Y-0.06339 Z0.0 E5.02814943344
G1 X-1.00418 Y-0.05356 Z0.0 E5.02803675901
G1 X-1.00517 Y-0.02883 Z0.0 E5.02791680967
G1 X-1.00548 Y0.01038 Z0.0 E5.02766788581
G1 X-1.00333 Y0.06535 Z0.0 E5.02727985943
G1 X-0.99568 Y0.1389 Z0.0 E5.02660887776
G1 X-0.97717 Y0.23528 Z0.0 E5.02547979625
G1 X-0.93837 Y0.35903 Z0.0 E5.02354655050
G1 X-0.86435 Y0.51102 Z0.0 E5.02056362100
G1 X-0.7385 Y0.67936 Z0.0 E5.01725088968
G1 X-0.55887 Y0.83312 Z0.0 E5.01603581352
G1 X-0.35357 Y0.9393 Z0.0 E5.01820743618
G1 X-0.16252 Y0.99108 Z0.0 E5.02158420421
G1 X-0.00705 Y1.00483 Z0.0 E5.02427365746
G1 X0.11175 Y0.99895 Z0.0 E5.02590580145
G1 X0.20057 Y0.98517 Z0.0 E5.02689828274
G1 X0.26631 Y0.96958 Z0.0 E5.02744068215
G1 X0.31403 Y0.95526 Z0.0 E5.02776418625
G1 X0.34675 Y0.94392 Z0.0 E5.02797307297
G1 X0.36568 Y0.93677 Z0.0 E5.02807094048
G1 X0.37012 Y0.93503 Z0.0 E5.02809585057
G1 X0.35687 Y0.94015 Z0.0 E5.02801705297
G1 X0.3186 Y0.95368 Z0.0 E5.02745338715
G1 X0.24081 Y0.97587 Z0.0 E5.02571316581
G1 X0.09896 Y0.99933 Z0.0 E5.02108935018
G1 X-0.1258 Y0.99483 Z0.0 E5.01376198303
G1 X-0.38687 Y0.92507 Z0.0 E5.01353892425
G1 X-0.58521 Y0.81607 Z0.0 E5.02105812802
G1 X-0.69508 Y0.72612 Z0.0 E5.02589907579
G1 X-0.74701 Y0.6731 Z0.0 E5.02764246466
G1 X-0.76627 Y0.65123 Z0.0 E5.02809662248
G1 X-0.76478 Y0.65297 Z0.0 E5.02806689817
G1 X-0.74667 Y0.67353 Z0.0 E5.02781948214
G1 X-0.71149 Y0.71045 Z0.0 E5.02731842686
G1 X-0.65521 Y0.76243 Z0.0 E5.02642927186
G1 X-0.57015 Y0.8276 Z0.0 E5.02491985633
G1 X-0.44548 Y0.90031 Z0.0 E5.02247580009
G1 X-0.27207 Y0.96629 Z0.0 E5.01930883937
G1 X-0.05594 Y1.00187 Z0.0 E5.01715253032
G1 X0.17063 Y0.98898 Z0.0 E5.01795784483
G1 X0.36722 Y0.93464 Z0.0 E5.02096220360
G1 X0.51505 Y0.86272 Z0.0 E5.02384887536
G1 X0.61795 Y0.79276 Z0.0 E5.02576019150
G1 X0.68707 Y0.73399 Z0.0 E5.02694366638
G1 X0.73182 Y0.68957 Z0.0 E5.02759211079
G1 X0.75797 Y0.66083 Z0.0 E5.02795885474
G1 X0.76775 Y0.64949 Z0.0 E5.02811426531
G1 X0.7595 Y0.65907 Z0.0 E5.02795563549
G1 X0.7257 Y0.69584 Z0.0 E5.02701152674
G1 X0.64819 Y0.76775 Z0.0 E5.02391863638
G1 X0.49539 Y0.8726 Z0.0 E5.01707587171
G1 X0.25508 Y0.96942 Z0.0 E5.01208774564
G1 X0.00077 Y1.00349 Z0.0 E5.01745147709
G1 X-0.18144 Y0.98827 Z0.0 E5.02393786412
G1 X-0.28691 Y0.96356 Z0.0 E5.02684101027
G1 X-0.34202 Y0.94561 Z0.0 E5.02781252758
G1 X-0.3662 Y0.93657 Z0.0 E5.02808563198
G1 X-0.36978 Y0.93517 Z0.0 E5.02812136215
G1 X-0.3577 Y0.93984 Z0.0 E5.02804264998
G1 X-0.33174 Y0.94928 Z0.0 E5.02788212372
G1 X-0.2916 Y0.96231 Z0.0 E5.02760155566
G1 X-0.23514 Y0.97755 Z0.0 E5.02716327092
G1 X-0.15833 Y0.99274 Z0.0 E5.02643287158
G1 X-0.05509 Y1.00352 Z0.0 E5.02515496900
G1 X0.0819 Y1.00126 Z0.0 E5.02302000195
G1 X0.25674 Y0.97059 Z0.0 E5.01986149137
G1 X0.45934 Y0.89203 Z0.0 E5.01674883889
G1 X0.65661 Y0.75854 Z0.0 E5.01627257957
G1 X0.81022 Y0.59254 Z0.0 E5.01886466245
G1 X0.9078 Y0.4299 Z0.0 E5.02223767359
G1 X0.96159 Y0.29197 Z0.0 E5.02469354538
G1 X0.98848 Y0.18273 Z0.0 E5.02613908308
G1 X1.00055 Y0.09864 Z0.0 E5.02700246693
G1 X1.00489 Y0.03507 Z0.0 E5.02750886871
G1 X1.00549 Y-0.01156 Z0.0 E5.02778224891
G1 X1.00467 Y-0.0433 Z0.0 E5.02801327290
G1 X1.00379 Y-0.06056 Z0.0 E5.02807586881
G1 X1.00371 Y-0.06191 Z0.0 E5.02808763895
G1 X1.00466 Y-0.04321 Z0.0 E5.02794396274
G1 X1.00543 Y0.00405 Z0.0 E5.02719078462
G1 X1.00049 Y0.09534 Z0.0 E5.02511182886
G1 X0.97177 Y0.25208 Z0.0 E5.01966447908
G1 X0.88316 Y0.47448 Z0.0 E5.01274090693
G1 X0.72591 Y0.6921 Z0.0 E5.01484730102
G1 X0.56683 Y0.82926 Z0.0 E5.02237094533
G1 X0.45863 Y0.89457 Z0.0 E5.02642258918
G1 X0.40121 Y0.92205 Z0.0 E5.02778695501
G1 X0.38093 Y0.93068 Z0.0 E5.02810333849
G1 X0.38798 Y0.92775 Z0.0 E5.02804271785
G1 X0.41738 Y0.91483 Z0.0 E5.02772312608
G1 X0.46749 Y0.89014 Z0.0 E5.02716649739
G1 X0.53858 Y0.84878 Z0.0 E5.02617126847
G1 X0.63106 Y0.78204 Z0.0 E5.02449819684
G1 X0.74174 Y0.67719 Z0.0 E5.02186350795
G1 X0.85729 Y0.52207 Z0.0 E5.01872301736
G1 X0.95115 Y0.31962 Z0.0 E5.01707899803
G1 X0.99869 Y0.10014 Z0.0 E5.01849015068
G1 X0.99966 Y-0.09662 Z0.0 E5.02159222757
G1 X0.97316 Y-0.25041 Z0.0 E5.02430481186
G1 X0.93774 Y-0.36207 Z0.0 E5.02605957113
G1 X0.90408 Y-0.43989 Z0.0 E5.02708627960
G1 X0.87731 Y-0.49136 Z0.0 E5.02769202940
G1 X0.86016 Y-0.52092 Z0.0 E5.02800375895
G1 X0.85501 Y-0.52938 Z0.0 E5.02813405872
G1 X0.86485 Y-0.51302 Z0.0 E5.02781026616
G1 X0.89338 Y-0.46102 Z0.0 E5.02659741973
G1 X0.94121 Y-0.35112 Z0.0 E5.02285157679
G1 X0.9911 Y-0.15472 Z0.0 E5.01551963509
G1 X0.99624 Y0.11167 Z0.0 E5.01239545153
G1 X0.94064 Y0.35047 Z0.0 E5.01904580199
G1 X0.87087 Y0.50152 Z0.0 E5.02478075965
G1 X0.81924 Y0.58286 Z0.0 E5.02712630933
G1 X0.78914 Y0.62326 Z0.0 E5.02790952385
G1 X0.77611 Y0.63948 Z0.0 E5.02812440802
G1 X0.77598 Y0.63963 Z0.0 E5.02809978347
G1 X0.78604 Y0.6272 Z0.0 E5..1596 Y0.98704 Z0.0 E4.99930025504
G1 X0.19998 Y0.97971 Z0.0 E4.99955919182
G1 X0.22737 Y0.97375 Z0.0 E4.99971544040
G1 X0.24203 Y0.97022 Z0.0 E4.99976341765
G1 X0.24316 Y0.96994 Z0.0 E4.99977596798
G1 X0.22868 Y0.97343 Z0.0 E4.99965125609
G1 X0.19501 Y0.98067 Z0.0 E4.99935633107
G1 X0.13719 Y0.99028 Z0.0 E4.99868876432
G1 X0.05035 Y0.99825 Z0.0 E4.99759488404
G1 X-0.06533 Y0.99714 Z0.0 E4.99638916744
G1 X-0.19745 Y0.97948 Z0.0 E4.99591726538
G1 X-0.32222 Y0.94599 Z0.0 E4.99680600109
G1 X-0.41872 Y0.90773 Z0.0 E4.99825017206
G1 X-0.47999 Y0.8771 Z0.0 E4.99923696703
G1 X-0.50901 Y0.86069 Z0.0 E4.99969613127
G1 X-0.51081 Y0.85964 Z0.0 E4.99976945894
G1 X-0.48867 Y0.87235 Z0.0 E4.99948220169
G1 X-0.44363 Y0.89598 Z0.0 E4.99896923700
G1 X-0.37525 Y0.92654 Z0.0 E4.99822201913
G1 X-0.28319 Y0.95851 Z0.0 E4.99734428522
G1 X-0.16944 Y0.98484 Z0.0 E4.99654815648
G1 X-0.0405 Y0.99839 Z0.0 E4.99605554938
G1 X0.09234 Y0.99497 Z0.0 E4.99622851884
G1 X0.21643 Y0.97565 Z0.0 E4.99683616752
G1 X0.32216 Y0.9462 Z0.0 E4.99770323649
G1 X0.40495 Y0.91402 Z0.0 E4.99854244480
G1 X0.46407 Y0.88562 Z0.0 E4.99920931073
G1 X0.50012 Y0.86587 Z0.0 E4.99962716435
G1 X0.51309 Y0.85829 Z0.0 E4.99980767680
G1 X0.50111 Y0.86529 Z0.0 E4.99959502410
G1 X0.46004 Y0.88766 Z0.0 E4.99894258119
G1 X0.38493 Y0.92244 Z0.0 E4.99766610154
G1 X0.27567 Y0.96049 Z0.0 E4.99633613011
G1 X0.14496 Y0.98862 Z0.0 E4.99595562931
G1 X0.01687 Y0.99922 Z0.0 E4.99681199691
G1 X-0.08812 Y0.99572 Z0.0 E4.99805825496
G1 X-0.16315 Y0.9864 Z0.0 E4.99900710767
G1 X-0.21083 Y0.97742 Z0.0 E4.99949783803
G1 X-0.23642 Y0.97159 Z0.0 E4.99970385248
G1 X-0.24443 Y0.96962 Z0.0 E4.99977241807
G1 X-0.23781 Y0.97126 Z0.0 E4.99974895295
G1 X-0.21812 Y0.97585 Z0.0 E4.99964887992
G1 X-0.1857 Y0.9825 Z0.0 E4.99947682263
G1 X-0.13995 Y0.99 Z0.0 E4.99921494462
G1 X-0.07941 Y0.9966 Z0.0 E4.99879362472
G1 X-0.00198 Y0.99964 Z0.0 E4.99820980452
G1 X0.09451 Y0.995 Z0.0 E4.99739217017
G1 X0.21106 Y0.97672 Z0.0 E4.99631935028
G1 X0.34521 Y0.93748 Z0.0 E4.99509432969
G1 X0.48847 Y0.87124 Z0.0 E4.99415177608
G1 X0.6265 Y0.77786 Z0.0 E4.99391737417
G1 X0.74466 Y0.66583 Z0.0 E4.99461736397
G1 X0.83499 Y0.54874 Z0.0 E4.99580796193
G1 X0.89805 Y0.43853 Z0.0 E4.99700501150
G1 X0.9393 Y0.34188 Z0.0 E4.99791562654
G1 X0.96507 Y0.26093 Z0.0 E4.99861123163
G1 X0.98054 Y0.19536 Z0.0 E4.99906046473
G1 X0.98944 Y0.14405 Z0.0 E4.99935474862
G1 X0.99428 Y0.10596 Z0.0 E4.99955057980
G1 X0.99669 Y0.08061 Z0.0 E4.99972231279
G1 X0.99763 Y0.06824 Z0.0 E4.99980578248
G1 X0.9975 Y0.07007 Z0.0 E4.99979013285
G1 X0.996 Y0.08849 Z0.0 E4.99961618552
G1 X0.99173 Y0.12713 Z0.0 E4.99922601459
G1 X0.98142 Y0.19033 Z0.0 E4.99852659616
G1 X0.9592 Y0.28082 Z0.0 E4.99731055769
G1 X0.91823 Y0.39412 Z0.0 E4.99619081726
G1 X0.85698 Y0.5138 Z0.0 E4.99601131004
G1 X0.78598 Y0.61731 Z0.0 E4.99708964423
G1 X0.72255 Y0.69088 Z0.0 E4.99848396241
G1 X0.67902 Y0.73396 Z0.0 E4.99941357061
G1 X0.65919 Y0.75191 Z0.0 E4.99975025426
G1 X0.66195 Y0.74947 Z0.0 E4.99970769996
G1 X0.68463 Y0.72872 Z0.0 E4.99937764952
G1 X0.72411 Y0.68935 Z0.0 E4.99884665348
G1 X0.77651 Y0.62948 Z0.0 E4.99803173884
G1 X0.83629 Y0.54726 Z0.0 E4.99718538705
G1 X0.89571 Y0.44303 Z0.0 E4.99642868707
G1 X0.94594 Y0.32189 Z0.0 E4.99603756916
G1 X0.98021 Y0.19417 Z0.0 E4.99628270067
G1 X0.99678 Y0.07229 Z0.0 E4.99698962501
G1 X0.99901 Y-0.03354 Z0.0 E4.99786432314
G1 X0.99279 Y-0.11762 Z0.0 E4.99866594328
G1 X0.98393 Y-0.17776 Z0.0 E4.99929210614
G1 X0.97696 Y-0.21312 Z0.0 E4.99967742959
G1 X0.97491 Y-0.22241 Z0.0 E4.99978928606
G1 X0.97913 Y-0.20275 Z0.0 E4.99950777427
G1 X0.98846 Y-0.14974 Z0.0 E4.99868792585
G1 X0.99766 Y-0.06028 Z0.0 E4.99739720755
G1 X0.99739 Y0.0606 Z0.0 E4.99614644526
G1 X0.98018 Y0.19408 Z0.0 E4.99604813528
G1 X0.94851 Y0.3149 Z0.0 E4.99708222391
G1 X0.91281 Y0.40755 Z0.0 E4.99829745663
G1 X0.88227 Y0.47037 Z0.0 E4.99912064717
G1 X0.86097 Y0.50849 Z0.0 E4.99957853474
G1 X0.84942 Y0.52762 Z0.0 E4.99974299539
G1 X0.84675 Y0.5319 Z0.0 E4.99975792539
G1 X0.85181 Y0.52375 Z0.0 E4.99973583952
G1 X0.86351 Y0.50417 Z0.0 E4.99959225587
G1 X0.88092 Y0.47303 Z0.0 E4.99944353728
G1 X0.90304 Y0.42915 Z0.0 E4.99912733410
G1 X0.92858 Y0.37042 Z0.0 E4.99867930758
G1 X0.95544 Y0.2939 Z0.0 E4.99810665052
G1 X0.97999 Y0.19621 Z0.0 E4.99719612433
G1 X0.9964 Y0.07491 Z0.0 E4.99605961759
G1 X0.99659 Y-0.06894 Z0.0 E4.99485823548
G1 X0.97252 Y-0.22762 Z0.0 E4.99401145073
G1 X0.92103 Y-0.38642 Z0.0 E4.99403813887
G1 X0.84735 Y-0.5291 Z0.0 E4.99486944899
G1 X0.76267 Y-0.64556 Z0.0 E4.99603153138
G1 X0.67807 Y-0.73423 Z0.0 E4.99718074968
G1 X0.60072 Y-0.79898 Z0.0 E4.99808352971
G1 X0.53394 Y-0.84522 Z0.0 E4.99872176661
G1 X0.47867 Y-0.87779 Z0.0 E4.99910055160
G1 X0.43491 Y-0.90035 Z0.0 E4.99944204537
G1 X0.40244 Y-0.91536 Z0.0 E4.99960469237
G1 X0.38138 Y-0.92436 Z0.0 E4.99973027772
G1 X0.37241 Y-0.92802 Z0.0 E4.99977581622
G1 X0.37699 Y-0.92617 Z0.0 E4.99978081770
G1 X0.39745 Y-0.91753 Z0.0 E4.99956948997
G1 X0.43695 Y-0.8993 Z0.0 E4.99916441143
G1 X0.49842 Y-0.86655 Z0.0 E4.99832821776
G1 X0.58162 Y-0.81275 Z0.0 E4.99711013212
G1 X0.67822 Y-0.73379 Z0.0 E4.99607378974
G1 X0.7707 Y-0.63599 Z0.0 E4.99615294527
G1 X0.84215 Y-0.53827 Z0.0 E4.99737735067
G1 X0.88746 Y-0.46031 Z0.0 E4.99867619400
G1 X0.9112 Y-0.41173 Z0.0 E4.99951755898
G1 X0.91943 Y-0.39313 Z0.0 E4.99975679859
G1 X0.91571 Y-0.40168 Z0.0 E4.99967905595
G1 X0.90065 Y-0.43423 Z0.0 E4.99931524161
G1 X0.87257 Y-0.48795 Z0.0 E4.99868384527
G1 X0.82831 Y-0.55952 Z0.0 E4.99789977516
G1 X0.76444 Y-0.64377 Z0.0 E4.99701992817
G1 X0.67954 Y-0.73263 Z0.0 E4.99630195370
G1 X0.57684 Y-0.81589 Z0.0 E4.99605063450
G1 X0.46502 Y-0.88449 Z0.0 E4.99641411539
G1 X0.35563 Y-0.93402 Z0.0 E4.99716433915
G1 X0.25883 Y-0.96552 Z0.0 E4.99805421964
G1 X0.1811 Y-0.98322 Z0.0 E4.99879680123
G1 X0.12585 Y-0.99193 Z0.0 E4.99940833349
G1 X0.09513 Y-0.99541 Z0.0 E4.99972695504
G1 X0.09126 Y-0.99578 Z0.0 E4.9997654845
G1 X0.11763 Y-0.99294 Z0.0 E4.99941661722
G1 X0.17792 Y-0.98373 Z0.0 E4.99845035811
G1 X0.27226 Y-0.96162 Z0.0 E4.99709548638
G1 X0.39045 Y-0.91976 Z0.0 E4.99602256825
G1 X0.51042 Y-0.85904 Z0.0 E4.99619429666
G1 X0.61035 Y-0.79146 Z0.0 E4.99733942739
G1 X0.68171 Y-0.73122 Z0.0 E4.99852781452
G1 X0.72736 Y-0.68603 Z0.0 E4.99922426607
G1 X0.75364 Y-0.65717 Z0.0 E4.99961413136
G1 X0.76576 Y-0.64306 Z0.0 E4.99978634844
G1 X0.76701 Y-0.64157 Z0.0 E4.99979100813
G1 X0.75904 Y-0.65095 Z0.0 E4.99969405089
G1 X0.74226 Y-0.66999 Z0.0 E4.99959125254
G1 X0.71603 Y-0.69789 Z0.0 E4.99937349325
G1 X0.67875 Y-0.73411 Z0.0 E4.99904754578
G1 X0.6278 Y-0.77802 Z0.0 E4.99861971048
G1 X0.55951 Y-0.82832 Z0.0 E4.99791322079
G1 X0.46949 Y-0.88225 Z0.0 E4.9969638847
G1 X0.35388 Y-0.9344 Z0.0 E4.99583430069
G1 X0.21215 Y-0.97614 Z0.0 E4.99463943168
G1 Z0
G1 Z2.2
696 Z0.0 E5.01963812341
G1 X-0.54339 Y0.8446 Z0.0 E5.02150836926
G1 X-0.46221 Y0.89187 Z0.0 E5.02262426676
G1 X-0.4003 Y0.92146 Z0.0 E5.02326741673
G1 X-0.35602 Y0.93954 Z0.0 E5.02365815915
G1 X-0.32858 Y0.94953 Z0.0 E5.02387310076
G1 X-0.31893 Y0.95283 Z0.0 E5.02394604320
G1 X-0.33055 Y0.94884 Z0.0 E5.02384476298
G1 X-0.37082 Y0.93368 Z0.0 E5.02311112459
G1 X-0.45266 Y0.89637 Z0.0 E5.02090692131
G1 X-0.59065 Y0.81064 Z0.0 E5.01498911290
G1 X-0.77121 Y0.63879 Z0.0 E5.00703886594
G1 X-0.91894 Y0.39912 Z0.0 E5.00935998407
G1 X-0.98562 Y0.18861 Z0.0 E5.01752059413
G1 X-1.00295 Y0.05334 Z0.0 E5.02183695997
G1 X-1.00442 Y-0.02247 Z0.0 E5.02335654045
G1 X-1.00295 Y-0.06038 Z0.0 E5.02382933354
G1 X-1.00209 Y-0.07364 Z0.0 E5.02396063306
G1 X-1.0024 Y-0.06921 Z0.0 E5.02393218530
G1 X-1.0035 Y-0.05037 Z0.0 E5.02381674352
G1 X-1.00457 Y-0.01812 Z0.0 E5.02366703539
G1 X-1.00428 Y0.02814 Z0.0 E5.02337082545
G1 X-1.00049 Y0.09052 Z0.0 E5.02288291348
G1 X-0.9895 Y0.17251 Z0.0 E5.02212591962
G1 X-0.96468 Y0.27875 Z0.0 E5.02072969024
G1 X-0.91472 Y0.41311 Z0.0 E5.01839752934
G1 X-0.82326 Y0.57299 Z0.0 E5.0151634263
G1 X-0.67675 Y0.73957 Z0.0 E5.01237056541
G1 X-0.48382 Y0.87801 Z0.0 E5.01244289868
G1 X-0.2806 Y0.96302 Z0.0 E5.01533618115
G1 X-0.10203 Y0.99851 Z0.0 E5.01854645540
G1 X0.0393 Y1.0034 Z0.0 E5.02084666665
G1 X0.14644 Y0.9937 Z0.0 E5.02216179449
G1 X0.22662 Y0.97869 Z0.0 E5.02292429890
G1 X0.28618 Y0.96305 Z0.0 E5.02335618611
G1 X0.32952 Y0.94916 Z0.0 E5.02366433990
G1 X0.3592 Y0.93837 Z0.0 E5.02385035829
G1 X0.37613 Y0.93173 Z0.0 E5.02392916401
G1 X0.37951 Y0.93037 Z0.0 E5.02398292443
G1 X0.36618 Y0.93566 Z0.0 E5.02381186949
G1 X0.32911 Y0.94923 Z0.0 E5.02332306596
G1 X0.25413 Y0.97166 Z0.0 E5.02171587333
G1 X0.11618 Y0.99668 Z0.0 E5.01714264996
G1 X-0.10903 Y0.99584 Z0.0 E5.00895409866
G1 X-0.38251 Y0.92553 Z0.0 E5.00729388243
G1 X-0.59691 Y0.80614 Z0.0 E5.01538445112
G1 X-0.71691 Y0.7032 Z0.0 E5.02108102927
G1 X-0.77541 Y0.63878 Z0.0 E5.02319757849
G1 X-0.80102 Y0.60657 Z0.0 E5.02384366123
G1 X-0.80763 Y0.59778 Z0.0 E5.02396045292
G1 X-0.80089 Y0.60675 Z0.0 E5.02386891399
G1 X-0.7823 Y0.63046 Z0.0 E5.02362693081
G1 X-0.75069 Y0.66767 Z0.0 E5.02324274000
G1 X-0.70245 Y0.71807 Z0.0 E5.02260024141
G1 X-0.63102 Y0.78129 Z0.0 E5.02145473070
G1 X-0.52641 Y0.85481 Z0.0 E5.01948110914
G1 X-0.37687 Y0.92984 Z0.0 E5.01655614565
G1 X-0.17773 Y0.98682 Z0.0 E5.01348597609
G1 X0.05268 Y1.00113 Z0.0 E5.01257533435
G1 X0.27319 Y0.96503 Z0.0 E5.01476738493
G1 X0.4505 Y0.8968 Z0.0 E5.01796893673
G1 X0.57844 Y0.82074 Z0.0 E5.02047552827
G1 X0.66665 Y0.75128 Z0.0 E5.02206098355
G1 X0.7266 Y0.69372 Z0.0 E5.02293489506
G1 X0.76673 Y0.64925 Z0.0 E5.02344616623
G1 X0.79217 Y0.61806 Z0.0 E5.02377216965
G1 X0.80542 Y0.60075 Z0.0 E5.02394749898
G1 X0.80651 Y0.59928 Z0.0 E5.02392998185
G1 X0.7924 Y0.61773 Z0.0 E5.02366428242
G1 X0.75442 Y0.66325 Z0.0 E5.02257428740
G1 X0.67275 Y0.74502 Z0.0 E5.01908199500
G1 X0.51254 Y0.86133 Z0.0 E5.01145343314
G1 X0.26011 Y0.96688 Z0.0 E5.00628142063
G1 X-0.00331 Y1.00256 Z0.0 E5.01282732024
G1 X-0.18818 Y0.98615 Z0.0 E5.01971994961
G1 X-0.29396 Y0.96056 Z0.0 E5.02266860145
G1 X-0.34945 Y0.942 Z0.0 E5.02364236013
G1 X-0.37459 Y0.93235 Z0.0 E5.02392822053
G1 X-0.3798 Y0.93025 Z0.0 E5.02397527487
G1 X-0.37008 Y0.93414 Z0.0 E5.02388481655
G1 X-0.34742 Y0.94278 Z0.0 E5.02378041120
G1 X-0.31179 Y0.95511 Z0.0 E5.02356476071
G1 X-0.26155 Y0.97 Z0.0 E5.02321710286
G1 X-0.19336 Y0.98574 Z0.0 E5.02262739311
G1 X-0.10191 Y0.99914 Z0.0 E5.02161923014
G1 X0.0198 Y1.00379 Z0.0 E5.01992630449
G1 X0.17815 Y0.9875 Z0.0 E5.01720458149
G1 X0.37083 Y0.93169 Z0.0 E5.01388358710
G1 X0.57465 Y0.82132 Z0.0 E5.01195861141
G1 X0.74982 Y0.6657 Z0.0 E5.01344822054
G1 X0.87076 Y0.49847 Z0.0 E5.01671037259
G1 X0.94132 Y0.34896 Z0.0 E5.01960263368
G1 X0.97817 Y0.22754 Z0.0 E5.02143157003
G1 X0.99568 Y0.13284 Z0.0 E5.02251214035
G1 X1.00282 Y0.06021 Z0.0 E5.02312949390
G1 X1.00469 Y0.00545 Z0.0 E5.02352390907
G1 X1.00416 Y-0.03432 Z0.0 E5.02373160111
G1 X1.00295 Y-0.06054 Z0.0 E5.02387747188
G1 X1.00213 Y-0.07313 Z0.0 E5.02397385990
G1 X1.00233 Y-0.07016 Z0.0 E5.02391245570
G1 X1.00364 Y-0.04694 Z0.0 E5.02368543303
G1 X1.00456 Y0.00591 Z0.0 E5.02288692312
G1 X0.99852 Y0.10545 Z0.0 E5.02036326599
G1 X0.96445 Y0.27473 Z0.0 E5.01408111073
G1 X0.86186 Y0.50976 Z0.0 E5.00664038353
G1 X0.68819 Y0.72833 Z0.0 E5.01016483012
G1 X0.52105 Y0.8578 Z0.0 E5.01825154436
G1 X0.40957 Y0.91715 Z0.0 E5.02222985187
G1 X0.34843 Y0.94236 Z0.0 E5.02355908321
G1 X0.32232 Y0.95168 Z0.0 E5.02390536535
G1 X0.32093 Y0.95216 Z0.0 E5.02395444471
G1 X0.33885 Y0.9459 Z0.0 E5.02380864609
G1 X0.37388 Y0.93254 Z0.0 E5.02348759827
G1 X0.42594 Y0.90984 Z0.0 E5.02303122925
G1 X0.49632 Y0.87325 Z0.0 E5.02219848498
G1 X0.58663 Y0.81498 Z0.0 E5.02077473429
G1 X0.69611 Y0.72306 Z0.0 E5.01842827910
G1 X0.81586 Y0.5835 Z0.0 E5.01522629001
G1 X0.92289 Y0.39164 Z0.0 E5.01275333948
G1 X0.98826 Y0.16916 Z0.0 E5.01316500127
G1 X1.00231 Y-0.04256 Z0.0 E5.01606591289
G1 X0.98059 Y-0.21471 Z0.0 E5.01910632533
G1 X0.94388 Y-0.34291 Z0.0 E5.02119687550
G1 X0.90543 Y-0.43496 Z0.0 E5.02243388832
G1 X0.87146 Y-0.49984 Z0.0 E5.02315278784
G1 X0.84464 Y-0.54409 Z0.0 E5.02357108465
G1 X0.82644 Y-0.57146 Z0.0 E5.02386704940
G1 X0.81832 Y-0.58306 Z0.0 E5.02395906134
G1 X0.82253 Y-0.57708 Z0.0 E5.02388526765
G1 X0.84253 Y-0.54728 Z0.0 E5.02337585519
G1 X0.88251 Y-0.4794 Z0.0 E5.02157410604
G1 X0.94169 Y-0.3462 Z0.0 E5.01655882080
G1 X0.99455 Y-0.11894 Z0.0 E5.00818436686
G1 X0.98803 Y0.1642 Z0.0 E5.00790605168
G1 X0.92312 Y0.39281 Z0.0 E5.01609965636
G1 X0.85418 Y0.52811 Z0.0 E5.02126389592
G1 X0.80631 Y0.5993 Z0.0 E5.02318700155
G1 X0.77927 Y0.63425 Z0.0 E5.02378043758
G1 X0.76812 Y0.64776 Z0.0 E5.02394603872
G1 X0.76892 Y0.64681 Z0.0 E5.02394551747
G1 X0.77919 Y0.63437 Z0.0 E5.02384900500
G1 X0.79751 Y0.61113 Z0.0 E5.02369902811
G1 X0.82308 Y0.57614 Z0.0 E5.02344002154
G1 X0.8554 Y0.5268 Z0.0 E5.02301552854
G1 X0.89369 Y0.45854 Z0.0 E5.02230213075
G1 X0.93581 Y0.36429 Z0.0 E5.02107448710
G1 X0.97601 Y0.23453 Z0.0 E5.01896364053
G1 X1.00134 Y0.06056 Z0.0 E5.01584815659
G1 X0.99056 Y-0.15459 Z0.0 E5.01275169368
G1 X0.92651 Y-0.38269 Z0.0 E5.01216623876
G1 X0.81764 Y-0.58081 Z0.0 E5.01466705201
G1 X0.69364 Y-0.72531 Z0.0 E5.01799523141
G1 X0.57882 Y-0.82047 Z0.0 E5.02046714286
G1 X0.48253 Y-0.88089 Z0.0 E5.02195776814
G1 X0.40528 Y-0.91918 Z0.0 E5.02280735944
G1 X0.34483 Y-0.94363 Z0.0 E5.02330893386
G1 X0.2989 Y-0.95923 Z0.0 E5.02360279804
G1 X0.26602 Y-0.96891 Z0.0 E5.02382630198
G1 X0.24582 Y-0.97425 Z0.0 E5.02391912480
G1 X0.23928 Y-0.97588 Z0.0 E5.02393444623
G1 X0.24929 Y-0.97336 Z0.0 E5.02388095425
G1 X0.28169 Y-0.9644 Z0.0 E5.02348637925
G1 X0.34711 Y-0.94255 Z0.0 E5.02216550554
G1 X0.4617 Y-0.89119 Z0.0 E5.01843229032
G1 X0.63441 Y-0.77574 Z0.0 E5.01061023155
G1 X0.82223 Y-0.57144 Z0.0 E5.00651037775
G1 X0.94282 Y-0.34142 Z0.0 E5.01367422356
G1 X0.98919 Y-0.17219 Z0.0 E5.02032432269
G1 X1.00186 Y-0.07404 Z0.0 E5.02296073347
G1 X1.00444 Y-0.02534 Z0.0 E5.02379793881
G1 X1.00475 Y-0.00915 Z0.0 E5.02395831243
G1 X1.00465 Y-0.01631 Z0.0 E5.02391191852
G1 X1.00383 Y-0.04275 Z0.0 E5.02369941229
G1 X1.00084 Y-0.08763 Z0.0 E5.02334480824
G1 X0.99292 Y-0.15243 Z0.0 E5.02276077297
G1 X0.97514 Y-0.24043 Z0.0 E5.02171435991
G1 X0.9389 Y-0.35561 Z0.0 E5.01993944709
G1 X0.87048 Y-0.49916 Z0.0 E5.01721071911
G1 X0.75379 Y-0.66138 Z0.0 E5.01403746620
G1 X0.58443 Y-0.81452 Z0.0 E5.01248754437
G1 X0.3859 Y-0.92561 Z0.0 E5.01416165002
G1 X0.19682 Y-0.98398 Z0.0 E5.01735675630
G1 X0.04107 Y-1.00317 Z0.0 E5.02005177712
G1 X-0.07791 Y-1.00133 Z0.0 E5.02178189739
G1 X-0.16568 Y-0.9908 Z0.0 E5.02278434337
G1 X-0.22862 Y-0.97832 Z0.0 E5.0233881166
G1 X-0.27127 Y-0.96743 Z0.0 E5.02371430766
G1 X-0.29576 Y-0.96027 Z0.0 E5.02392389099
G1 X-0.30158 Y-0.95846 Z0.0 E5.02393289167
G1 X-0.28476 Y-0.96355 Z0.0 E5.02373581138
G1 X-0.23565 Y-0.97654 Z0.0 E5.02285101835
G1 X-0.13513 Y-0.99488 Z0.0 E5.02007552558
G1 X0.04474 Y-1.00165 Z0.0 E5.01324343639
G1 X0.30336 Y-0.95422 Z0.0 E5.00640364433
G1 X0.55244 Y-0.8362 Z0.0 E5.01103879849
G1 X0.71075 Y-0.70876 Z0.0 E5.01873066646
G1 X0.79204 Y-0.61774 Z0.0 E5.02227555297
G1 X0.83152 Y-0.56392 Z0.0 E5.02352285951
G1 X0.84923 Y-0.53702 Z0.0 E5.02389807147
G1 X0.8542 Y-0.52911 Z0.0 E5.02398007585
G1 X0.85021 Y-0.53547 Z0.0 E5.02390576395
G1 X0.8385 Y-0.5536 Z0.0 E5.02383123224
G1 X0.8187 Y-0.58241 Z0.0 E5.02362194562
G1 X0.7891 Y-0.62182 Z0.0 E5.02329304939
G1 X0.74639 Y-0.67233 Z0.0 E5.02276234009
G1 X0.68497 Y-0.73457 Z0.0 E5.02189452747
G1 X0.59608 Y-0.80798 Z0.0 E5.02031634163
G1 X0.46779 Y-0.88788 Z0.0 E5.01786403388
G1 X0.2894 Y-0.96024 Z0.0 E5.01451198423
G1 Z0
G1 Z2.2
G1 X1.46661 Y0.02555 Z0.0 E7.33416269011
G1 X0.07118 Y-0.99967 Z0.0 E5.01100464303
G1 X-0.16343 Y-0.98892 Z0.0 E5.01166671702
G1 X-0.36901 Y-0.93259 Z0.0 E5.01470958332
G1 X-0.52499 Y-0.85528 Z0.0 E5.01776438890
G1 X-0.63515 Y-0.77751 Z0.0 E5.01980408632
G1 X-0.7115 Y-0.70865 Z0.0 E5.02099858718
G1 X-0.76467 Y-0.65114 Z0.0 E5.02171163175
G1 X-0.80192 Y-0.60479 Z0.0 E5.02206787713
G1 X-0.82784 Y-0.5689 Z0.0 E5.02236566670
G1 X-0.84509 Y-0.54301 Z0.0 E5.02254160809
G1 X-0.85497 Y-0.52734 Z0.0 E5.02260185686
G1 X-0.85759 Y-0.52308 Z0.0 E5.02263201544
G1 X-0.85154 Y-0.53284 Z0.0 E5.02254625962
G1 X-0.83284 Y-0.56147 Z0.0 E5.02212859876
G1 X-0.79221 Y-0.61707 Z0.0 E5.02088654771
G1 X-0.70892 Y-0.71015 Z0.0 E5.01717198454
G1 X-0.54616 Y-0.83984 Z0.0 E5.00904674364
G1 X-0.28937 Y-0.95808 Z0.0 E5.00412900338
G1 X-0.02359 Y-1.00201 Z0.0 E5.01143823717
G1 X0.16051 Y-0.99079 Z0.0 E5.01853635087
G1 X0.26441 Y-0.96886 Z0.0 E5.02145981688
G1 X0.31753 Y-0.95297 Z0.0 E5.02239266137
G1 X0.33965 Y-0.94536 Z0.0 E5.02261797298
G1 X0.34093 Y-0.9449 Z0.0 E5.02262201171
G1 X0.326 Y-0.95014 Z0.0 E5.02255417990
G1 X0.29634 Y-0.95976 Z0.0 E5.02234171776
G1 X0.25122 Y-0.97248 Z0.0 E5.02202359313
G1 X0.18797 Y-0.98655 Z0.0 E5.02148788558
G1 X0.1019 Y-0.99893 Z0.0 E5.02056957650
G1 X-0.01347 Y-1.00371 Z0.0 E5.01900190526
G1 X-0.1644 Y-0.98974 Z0.0 E5.01650432971
G1 X-0.34996 Y-0.9396 Z0.0 E5.01328276083
G1 X-0.55038 Y-0.83759 Z0.0 E5.01117539231
G1 X-0.72795 Y-0.68917 Z0.0 E5.01215146270
G1 X-0.85464 Y-0.52506 Z0.0 E5.01522066613
G1 X-0.93073 Y-0.37551 Z0.0 E5.01813235427
G1 X-0.97159 Y-0.25308 Z0.0 E5.02005133066
G1 X-0.99178 Y-0.15768 Z0.0 E5.02118151136
G1 X-1.00075 Y-0.08518 Z0.0 E5.02184277656
G1 X-1.00395 Y-0.03158 Z0.0 E5.02223281743
G1 X-1.00448 Y0.00575 Z0.0 E5.02248228693
G1 X-1.00414 Y0.02781 Z0.0 E5.02262514951
G1 X-1.00396 Y0.03373 Z0.0 E5.02263226431
G1 X-1.0043 Y0.02002 Z0.0 E5.02249761175
G1 X-1.00417 Y-0.0209 Z0.0 E5.02193737242
G1 X-0.99866 Y-0.10359 Z0.0 E5.02009134304
G1 X-0.97112 Y-0.25078 Z0.0 E5.01488948732
G1 X-0.88267 Y-0.47258 Z0.0 E5.00609175231
G1 X-0.70981 Y-0.70601 Z0.0 E5.00569764419
G1 X-0.51933 Y-0.85794 Z0.0 E5.01439102110
G1 X-0.38101 Y-0.92886 Z0.0 E5.01983445867
G1 X-0.29818 Y-0.95908 Z0.0 E5.02181679972
G1 X-0.25378 Y-0.9719 Z0.0 E5.02243441570
G1 X-0.23477 Y-0.97671 Z0.0 E5.02264715315
G1 X-0.23369 Y-0.97697 Z0.0 E5.02265218037
G1 X-0.24661 Y-0.97377 Z0.0 E5.02256036549
G1 X-0.27179 Y-0.96702 Z0.0 E5.02244334089
G1 X-0.30896 Y-0.95575 Z0.0 E5.02223641444
G1 X-0.35894 Y-0.93805 Z0.0 E5.02189139195
G1 X-0.42354 Y-0.91058 Z0.0 E5.02130975942
G1 X-0.50515 Y-0.86774 Z0.0 E5.02033173730
G1 X-0.6057 Y-0.80039 Z0.0 E5.01870661152
G1 X-0.72324 Y-0.69523 Z0.0 E5.01602644157
G1 X-0.84542 Y-0.53886 Z0.0 E5.01274644282
G1 X-0.94547 Y-0.33231 Z0.0 E5.01084687703
G1 X-0.9969 Y-0.10524 Z0.0 E5.01219779039
G1 X-0.99799 Y0.10084 Z0.0 E5.01535827658
G1 X-0.9683 Y0.26403 Z0.0 E5.01825849000
G1 X-0.92725 Y0.38505 Z0.0 E5.02009976245
G1 X-0.88578 Y0.47315 Z0.0 E5.02114810302
G1 X-0.84856 Y0.53729 Z0.0 E5.02178906790
G1 X-0.81725 Y0.58394 Z0.0 E5.02215961042
G1 X-0.79245 Y0.61725 Z0.0 E5.02238629787
G1 X-0.77458 Y0.63958 Z0.0 E5.02254107201
G1 X-0.76434 Y0.65181 Z0.0 E5.02262857401
G1 X-0.76303 Y0.65334 Z0.0 E5.02261868078
G1 X-0.77293 Y0.64156 Z0.0 E5.02249942384
G1 X-0.79774 Y0.61027 Z0.0 E5.02199805979
G1 X-0.84244 Y0.54634 Z0.0 E5.02043959529
G1 X-0.90925 Y0.42382 Z0.0 E5.01587219459
G1 X-0.97945 Y0.20881 Z0.0 E5.00730446098
G1 X-0.99781 Y-0.07943 Z0.0 E5.00483246723
G1 X-0.94694 Y-0.32954 Z0.0 E5.01321248103
G1 X-0.88038 Y-0.48239 Z0.0 E5.01938506318
G1 X-0.83179 Y-0.56287 Z0.0 E5.02169603073
G1 X-0.80415 Y-0.60195 Z0.0 E5.02245215258
G1 X-0.79302 Y-0.6166 Z0.0 E5.02263944655
G1 X-0.79446 Y-0.61474 Z0.0 E5.02262869223
G1 X-0.8059 Y-0.59963 Z0.0 E5.02252662238
G1 X-0.82583 Y-0.57179 Z0.0 E5.02229776347
G1 X-0.85331 Y-0.52976 Z0.0 E5.02191102495
G1 X-0.88749 Y-0.47002 Z0.0 E5.02134767891
G1 X-0.92663 Y-0.38667 Z0.0 E5.02035069940
G1 X-0.96638 Y-0.27124 Z0.0 E5.01861893851
G1 X-0.99662 Y-0.11454 Z0.0 E5.01590180327
G1 X-0.99889 Y0.08543 Z0.0 E5.01268270739
G1 X-0.95321 Y0.30957 Z0.0 E5.01109491279
G1 X-0.85846 Y0.5178 Z0.0 E5.01266000144
G1 X-0.7391 Y0.67831 Z0.0 E5.01590785925
G1 X-0.62251 Y0.78736 Z0.0 E5.0186015724
G1 X-0.52248 Y0.85741 Z0.0 E5.02030192942
G1 X-0.44181 Y0.90186 Z0.0 E5.02132337064
G1 X-0.37903 Y0.93012 Z0.0 E5.02191934249
G1 X-0.33206 Y0.94798 Z0.0 E5.02227519158
G1 X-0.29956 Y0.95879 Z0.0 E5.02248558410
G1 X-0.2814 Y0.9643 Z0.0 E5.02260004878
G1 X-0.27913 Y0.96497 Z0.0 E5.02265034071
G1 X-0.29671 Y0.95967 Z0.0 E5.02245789679
G1 X-0.34201 Y0.94432 Z0.0 E5.02173053464
G1 X-0.42857 Y0.9078 Z0.0 E5.01939509528
G1 X-0.57219 Y0.82335 Z0.0 E5.01324899292
G1 X-0.76034 Y0.65102 Z0.0 E5.00485753044
G1 X-0.91499 Y0.40706 Z0.0 E5.00725609416
G1 X-0.98468 Y0.19177 Z0.0 E5.01590080469
G1 X-1.00266 Y0.0533 Z0.0 E5.02037838614
G1 X-1.00409 Y-0.02476 Z0.0 E5.02197616905
G1 X-1.00242 Y-0.06468 Z0.0 E5.02252266993
G1 X-1.00133 Y-0.08006 Z0.0 E5.02262723209
G1 X-1.00149 Y-0.07807 Z0.0 E5.02264159830
G1 X-1.00258 Y-0.06217 Z0.0 E5.02252865920
G1 X-1.00392 Y-0.03362 Z0.0 E5.02241393854
G1 X-1.0044 Y0.00789 Z0.0 E5.02215494609
G1 X-1.00232 Y0.06402 Z0.0 E5.02181227945
G1 X-0.99474 Y0.13777 Z0.0 E5.02117575997
G1 X-0.97651 Y0.23339 Z0.0 E5.02006641440
G1 X-0.93862 Y0.35539 Z0.0 E5.01824061923
G1 X-0.86678 Y0.50483 Z0.0 E5.01537859314
G1 X-0.74482 Y0.67091 Z0.0 E5.01217782132
G1 X-0.5698 Y0.82442 Z0.0 E5.01083919219
G1 X-0.36747 Y0.93278 Z0.0 E5.01276552738
G1 X-0.17667 Y0.98752 Z0.0 E5.01599451580
G1 X-0.01973 Y1.00354 Z0.0 E5.01866965565
G1 X0.10124 Y0.99895 Z0.0 E5.02033524802
G1 X0.19249 Y0.98564 Z0.0 E5.02130115035
G1 X0.26091 Y0.96989 Z0.0 E5.02185384146
G1 X0.31177 Y0.95483 Z0.0 E5.02220285781
G1 X0.34848 Y0.9421 Z0.0 E5.02242650618
G1 X0.37284 Y0.93276 Z0.0 E5.02257623934
G1 X0.38518 Y0.92774 Z0.0 E5.02261172101
G1 X0.38417 Y0.92816 Z0.0 E5.02261777985
G1 X0.366 Y0.93544 Z0.0 E5.02245954090
G1 X0.32257 Y0.95115 Z0.0 E5.02179680841
G1 X0.23786 Y0.97538 Z0.0 E5.01981952863
G1 X0.08437 Y0.99933 Z0.0 E5.01442605340
G1 X-0.15894 Y0.98845 Z0.0 E5.00573502620
G1 X-0.43603 Y0.90129 Z0.0 E5.00611082828
G1 X-0.63807 Y0.77384 Z0.0 E5.01488202877
G1 X-0.74695 Y0.6709 Z0.0 E5.02006253074
G1 X-0.80007 Y0.6072 Z0.0 E5.02196138202
G1 X-0.82425 Y0.57414 Z0.0 E5.02251132926
G1 X-0.83204 Y0.56283 Z0.0 E5.02261926314
G1 X-0.82872 Y0.5677 Z0.0 E5.02259924840
G1 X-0.81604 Y0.58573 Z0.0 E5.02245187757
G1 X-0.79368 Y0.61561 Z0.0 E5.02220970913
G1 X-0.75961 Y0.65708 Z0.0 E5.02185592809
G1 X-0.70975 Y0.71045 Z0.0 E5.02116586312
G1 X-0.63737 Y0.77575 Z0.0 E5.02003132311
G1 X-0.5324 Y0.85077 Z0.0 E5.01811556488
G1 X-0.383 Y0.92704 Z0.0 E5.01520727787
G1 X-0.1841 Y0.98538 Z0.0 E5.01215161981
G1 X0.04677 Y1.00114 Z0.0 E5.01115937808
G1 X0.26892 Y0.96592 Z0.0 E5.01328089379
G1 X0.44857 Y0.89744 Z0.0 E5.01650674897
G1 X0.57895 Y0.82002 Z0.0 E5.01900364340
G1 X0.66951 Y0.74833 Z0.0 E5.02056129581
G1 X0.73189 Y0.68772 Z0.0 E5.02150816613
G1 X0.77481 Y0.63914 Z0.0 E5.02202766744
G1 X0.80385 Y0.60231 Z0.0 E5.02233053124
G1 X0.8222 Y0.57708 Z0.0 E5.02253463502
G1 X0.83121 Y0.56406 Z0.0 E5.02263314333
G1 X0.83046 Y0.56516 Z0.0 E5.02262291338
G1 X0.81705 Y0.58429 Z0.0 E5.02236375276
G1 X0.78345 Y0.62833 Z0.0 E5.02143528137
G1 X0.71234 Y0.70711 Z0.0 E5.01854766765
G1 X0.5701 Y0.82436 Z0.0 E5.01144544917
G1 X0.32937 Y0.94508 Z0.0 E5.00415028576
G1 X0.05209 Y1.00045 Z0.0 E5.00902578003
G1 X-0.15592 Y0.99124 Z0.0 E5.01714008176
G1 X-0.2781 Y0.9649 Z0.0 E5.02088542988
G1 X-0.34371 Y0.94379 Z0.0 E5.02214129680
G1 X-0.37569 Y0.93161 Z0.0 E5.02254957218
G1 X-0.38635 Y0.92726 Z0.0 E5.02264230784
G1 X-0.38174 Y0.92916 Z0.0 E5.02260821984
G1 X-0.36455 Y0.93602 Z0.0 E5.02252462139
G1 X-0.33539 Y0.94683 Z0.0 E5.02238364972
G1 X-0.29334 Y0.96063 Z0.0 E5.02209705327
G1 X-0.23598 Y0.97622 Z0.0 E5.02168310629
G1 X-0.15919 Y0.9915 Z0.0 E5.02099020637
G1 X-0.05697 Y1.00234 Z0.0 E5.01978848284
G1 X0.07782 Y1.00053 Z0.0 E5.01775904488
G1 X0.2494 Y0.97144 Z0.0 E5.01471842081
G1 X0.44881 Y0.89624 Z0.0 E5.01167774727
G1 X0.64496 Y0.76709 Z0.0 E5.01098909822
G1 X0.80022 Y0.60416 Z0.0 E5.01338546792
G1 X0.90061 Y0.44223 Z0.0 E5.01663668457
G1 X0.95689 Y0.30335 Z0.0 E5.01911270694
G1 X0.98553 Y0.19232 Z0.0 E5.02059847852
G1 X0.99868 Y0.106 Z0.0 E5.02144835282
G1 X1.0036 Y0.03972 Z0.0 E5.02192851004
G1 X1.0044 Y-0.01029 Z0.0 E5.02226354371
G1 X1.00342 Y-0.04651 Z0.0 E5.02248662641
G1 X1.00207 Y-0.07005 Z0.0 E5.02257724530
G1 X1.00129 Y-0.08066 Z0.0 E5.02266786603
G1 X1.00162 Y-0.07631 Z0.0 E5.02261346437
G1 X1.00311 Y-0.05228 Z0.0 E5.02235719185
G1 X1.00431 Y0.00075 Z0.0 E5.02155140021
G1 X0.99884 Y0.09982 Z0.0 E5.01907705161
G1 X0.96583 Y0.26886 Z0.0 E5.01276692182
G1 X0.86305 Y0.50694 Z0.0 E5.00460654323
G1 X0.68375 Y0.73183 Z0.0 E5.00771707318
G1 X0.50755 Y0.86541 Z0.0 E5.01632701934
G1 X0.388 Y0.92613 Z0.0 E5.02060946724
G1 X0.3199 Y0.95212 Z0.0 E5.02212232129
G1 X0.28693 Y0.96266 Z0.0 E5.02255687001
G1 X0.27795 Y0.96531 Z0.0 E5.02264770465
G1 X0.28687 Y0.96268 Z0.0 E5.02256702121
G1 X0.31083 Y0.95518 Z0.0 E5.02241008207
G1 X0.349 Y0.94185 Z0.0 E5.02215696315
G1 X0.40206 Y0.92036 Z0.0 E5.02173967167
G1 X0.47172 Y0.88651 Z0.0 E5.02100522431
G1 X0.56006 Y0.83321 Z0.0 E5.01972635634
G1 X0.66747 Y0.74936 Z0.0 E5.01761051323
G1 X0.78766 Y0.62083 Z0.0 E5.01457417061
G1 X0.90095 Y0.4393 Z0.0 E5.01172473431
G1 X0.97792 Y0.21962 Z0.0 E5.01138820787
G1 X1.00278 Y0.00108 Z0.0 E5.01390290792
G1 X0.98669 Y-0.18243 Z0.0 E5.01706552927
G1 X0.95092 Y-0.32174 Z0.0 E5.01937614151
G1 X0.91061 Y-0.42323 Z0.0 E5.02079228061
G1 X0.87313 Y-0.49629 Z0.0 E5.02160273469
G1 X0.84149 Y-0.5484 Z0.0 E5.02207123630
G1 X0.81693 Y-0.58447 Z0.0 E5.02239934145
G1 X0.80025 Y-0.60716 Z0.0 E5.02255743646
G1 X0.79257 Y-0.61718 Z0.0 E5.02264461539
G1 X0.79576 Y-0.61304 Z0.0 E5.02257906658
G1 X0.81293 Y-0.58998 Z0.0 E5.02227932641
G1 X0.84849 Y-0.53713 Z0.0 E5.02106541732
G1 X0.90565 Y-0.43223 Z0.0 E5.01753100489
G1 X0.97251 Y-0.24096 Z0.0 E5.00958436824
G1 X1.00008 Y0.03807 Z0.0 E5.00402171083
G1 X0.95405 Y0.30685 Z0.0 E5.01090891206
G1 X0.88031 Y0.48202 Z0.0 E5.01818935598
G1 X0.82191 Y0.57705 Z0.0 E5.02126167064
G1 X0.78576 Y0.62571 Z0.0 E5.02227981523
G1 X0.76744 Y0.64814 Z0.0 E5.02257307861
G1 X0.76237 Y0.65412 Z0.0 E5.02265117070
G1 X0.76745 Y0.64814 Z0.0 E5.02261127826
G1 X0.78085 Y0.6319 Z0.0 E5.02251016052
G1 X0.80154 Y0.60538 Z0.0 E5.02232843410
G1 X0.82898 Y0.56712 Z0.0 E5.02203378822
G1 X0.86275 Y0.51411 Z0.0 E5.02157010954
G1 X0.90198 Y0.44133 Z0.0 E5.02080693041
G1 X0.9441 Y0.34129 Z0.0 E5.01947127221
G1 X0.9824 Y0.20438 Z0.0 E5.01717287025
G1 X1.00254 Y0.02321 Z0.0 E5.01404316819
G1 X0.98302 Y-0.19542 Z0.0 E5.01128051699
G1 X0.91026 Y-0.41946 Z0.0 E5.01128715801
G1 X0.79757 Y-0.60787 Z0.0 E5.01403989264
G1 X0.67479 Y-0.74267 Z0.0 E5.01722102613
G1 X0.56331 Y-0.83095 Z0.0 E5.01945230727
G1 X0.47041 Y-0.88716 Z0.0 E5.02080280857
G1 X0.39587 Y-0.923 Z0.0 E5.02155866465
G1 X0.33737 Y-0.94605 Z0.0 E5.02202429156
G1 X0.29267 Y-0.96088 Z0.0 E5.02231546027
G1 X0.26033 Y-0.97018 Z0.0 E5.02250172051
G1 X0.23993 Y-0.97545 Z0.0 E5.02262159484
G1 X0.23228 Y-0.9773 Z0.0 E5.02262204531
G1 X0.23988 Y-0.97546 Z0.0 E5.02261044179
G1 X0.26786 Y-0.96808 Z0.0 E5.02227006940
G1 X0.32566 Y-0.94998 Z0.0 E5.02124595096
G1 X0.42871 Y-0.90748 Z0.0 E5.01824724007
G1 X0.59126 Y-0.80919 Z0.0 E5.01093016240
G1 X0.7865 Y-0.61891 Z0.0 E5.00407793230
G1 X0.9283 Y-0.37695 Z0.0 E5.00957132023
G1 X0.98671 Y-0.18283 Z0.0 E5.01752785991
G1 X1.00216 Y-0.06428 Z0.0 E5.02109695186
G1 X1.00445 Y-0.00057 Z0.0 E5.02225080865
G1 X1.00412 Y0.02821 Z0.0 E5.02258095629
G1 X1.00397 Y0.03345 Z0.0 E5.02263542227
G1 X1.0043 Y0.02085 Z0.0 E5.02258203641
G1 X1.00445 Y-0.00729 Z0.0 E5.02238226990
G1 X1.00313 Y-0.05089 Z0.0 E5.02210013092
G1 X0.9981 Y-0.11163 Z0.0 E5.02161544451
G1 X0.98549 Y-0.19274 Z0.0 E5.02080483513
G1 X0.95847 Y-0.29851 Z0.0 E5.01939478672
G1 X0.90556 Y-0.4322 Z0.0 E5.01706027869
G1 X0.81078 Y-0.5901 Z0.0 E5.01393612444
G1 X0.66227 Y-0.7523 Z0.0 E5.01137915872
G1 X0.4709 Y-0.88484 Z0.0 E5.01170788155
G1 X0.27253 Y-0.96517 Z0.0 E5.01454317411
G1 X0.09971 Y-0.99856 Z0.0 E5.01762931498
G1 X-0.03651 Y-1.00328 Z0.0 E5.01972045661
G1 X-0.13934 Y-0.99449 Z0.0 E5.02102080184
G1 X-0.21562 Y-0.98093 Z0.0 E5.02174185244
G1 X-0.2712 Y-0.96713 Z0.0 E5.02217551690
G1 X-0.30994 Y-0.95547 Z0.0 E5.02241407219
G1 X-0.33375 Y-0.94745 Z0.0 E5.02257544742
G1 X-0.34253 Y-0.94433 Z0.0 E5.02266351103
G1 X-0.33373 Y-0.94745 Z0.0 E5.02254222332
G1 X-0.30089 Y-0.9583 Z0.0 E5.02213520850
G1 X-0.23058 Y-0.97729 Z0.0 E5.02061470465
G1 X-0.09826 Y-0.99844 Z0.0 E5.01631702846
G1 X0.1227 Y-0.994 Z0.0 E5.00772226167
G1 X0.39993 Y-0.91755 Z0.0 E5.00460289983
G1 X0.62314 Y-0.78536 Z0.0 E5.01271829749
G1 X0.74931 Y-0.66798 Z0.0 E5.01912033254
G1 X0.81201 Y-0.591 Z0.0 E5.02155663141
G1 X0.84224 Y-0.54736 Z0.0 E5.02237789100
G1 X0.85517 Y-0.52702 Z0.0 E5.02261338672
G1 X0.85747 Y-0.52328 Z0.0 E5.02264063840
G1 X0.85188 Y-0.53231 Z0.0 E5.02258267851
G1 X0.83914 Y-0.55214 Z0.0 E5.02248573716
G1 X0.81866 Y-0.582 Z0.0 E5.02227088975
G1 X0.78863 Y-0.62199 Z0.0 E5.02197380768
G1 X0.74571 Y-0.6727 Z0.0 E5.02147561505
G1 X0.68435 Y-0.73479 Z0.0 E5.02058578903
G1 X0.59596 Y-0.80776 Z0.0 E5.01907496258
G1 X0.46885 Y-0.88705 Z0.0 E5.01666728267
G1 X0.29252 Y-0.95906 Z0.0 E5.01339215003
G1 Z0
G1 Z2.2
G1 X1.22808 Y0.0214 Z0.0 E6.14133219750
G1 X0.07532 Y-1.00218 Z0.0 E5.02503197701
G1 X-0.15825 Y-0.99259 Z0.0 E5.02562924070
G1 X-0.364 Y-0.93753 Z0.0 E5.02856465828
G1 X-0.52099 Y-0.86094 Z0.0 E5.03152130001
G1 X-0.63238 Y-0.78331 Z0.0 E5.03358475766
G1 X-0.70987 Y-0.71418 Z0.0 E5.03480011843
G1 X-0.76401 Y-0.65615 Z0.0 E5.03548434264
G1 X-0.80214 Y-0.60909 Z0.0 E5.03591900178
G1 X-0.82889 Y-0.57224 Z0.0 E5.03616235267
G1 X-0.84703 Y-0.54509 Z0.0 E5.03632536925
G1 X-0.85801 Y-0.52769 Z0.0 E5.03646179426
G1 X-0.86212 Y-0.52095 Z0.0 E5.03646651160
G1 X-0.85841 Y-0.52704 Z0.0 E5.03646426002
G1 X-0.84381 Y-0.55 Z0.0 E5.03615755338
G1 X-0.8111 Y-0.59688 Z0.0 E5.03524811802
G1 X-0.74392 Y-0.67797 Z0.0 E5.03254480184
G1 X-0.60938 Y-0.79934 Z0.0 E5.02565523091
G1 X-0.3752 Y-0.93075 Z0.0 E5.01764537034
G1 X-0.09351 Y-0.99999 Z0.0 E5.02176293795
G1 X0.12471 Y-0.99832 Z0.0 E5.03039612382
G1 X0.25427 Y-0.97427 Z0.0 E5.03451900831
G1 X0.32389 Y-0.95369 Z0.0 E5.03594417215
G1 X0.35778 Y-0.94159 Z0.0 E5.03636341148
G1 X0.36906 Y-0.93725 Z0.0 E5.03647407940
G1 X0.36416 Y-0.93916 Z0.0 E5.03645215206
G1 X0.34587 Y-0.94603 Z0.0 E5.03636480460
G1 X0.31478 Y-0.95678 Z0.0 E5.03615532127
G1 X0.26981 Y-0.97036 Z0.0 E5.03586131089
G1 X0.20825 Y-0.98531 Z0.0 E5.03538444064
G1 X0.12561 Y-0.99905 Z0.0 E5.034577377
G1 X0.01559 Y-1.00652 Z0.0 E5.03320364803
G1 X-0.1285 Y-0.99794 Z0.0 E5.03089577908
G1 X-0.30815 Y-0.95718 Z0.0 E5.02779766623
G1 X-0.50853 Y-0.86691 Z0.0 E5.02527538798
G1 X-0.69455 Y-0.72652 Z0.0 E5.02551244377
G1 X-0.83366 Y-0.56247 Z0.0 E5.02832351908
G1 X-0.92019 Y-0.40723 Z0.0 E5.03136638747
G1 X-0.96775 Y-0.27728 Z0.0 E5.03344877023
G1 X-0.99172 Y-0.17449 Z0.0 E5.03476741891
G1 X-1.0026 Y-0.09508 Z0.0 E5.03549145169
G1 X-1.00659 Y-0.03471 Z0.0 E5.03594135242
G1 X-1.00719 Y0.00989 Z0.0 E5.03619277878
G1 X-1.00645 Y0.04063 Z0.0 E5.03634887443
G1 X-1.00562 Y0.05797 Z0.0 E5.03644742179
G1 X-1.00546 Y0.06072 Z0.0 E5.03645889986
G1 X-1.00624 Y0.04539 Z0.0 E5.03631608842
G1 X-1.00715 Y0.00461 Z0.0 E5.03580275279
G1 X-1.00398 Y-0.07559 Z0.0 E5.03410788646
G1 X-0.98197 Y-0.2179 Z0.0 E5.02927800708
G1 X-0.90383 Y-0.43731 Z0.0 E5.02033042986
G1 X-0.73805 Y-0.68018 Z0.0 E5.01837283116
G1 X-0.54269 Y-0.84638 Z0.0 E5.02710538108
G1 X-0.39555 Y-0.92566 Z0.0 E5.03315566543
G1 X-0.30582 Y-0.95954 Z0.0 E5.03548131761
G1 X-0.2565 Y-0.97404 Z0.0 E5.03623413773
G1 X-0.23372 Y-0.9798 Z0.0 E5.03644983694
G1 X-0.22938 Y-0.98083 Z0.0 E5.03647365053
G1 X-0.23913 Y-0.97849 Z0.0 E5.03643186443
G1 X-0.26093 Y-0.97288 Z0.0 E5.03631799855
G1 X-0.29421 Y-0.9633 Z0.0 E5.03613545812
G1 X-0.33952 Y-0.94822 Z0.0 E5.03585891085
G1 X-0.39837 Y-0.92494 Z0.0 E5.03540629071
G1 X-0.47298 Y-0.88893 Z0.0 E5.03464652508
G1 X-0.56568 Y-0.83269 Z0.0 E5.03330532180
G1 X-0.67666 Y-0.74473 Z0.0 E5.03113190172
G1 X-0.79879 Y-0.61088 Z0.0 E5.02802107817
G1 X-0.91121 Y-0.42408 Z0.0 E5.02530474325
G1 X-0.98463 Y-0.20156 Z0.0 E5.02524295557
G1 X-1.00544 Y0.01663 Z0.0 E5.02788760440
G1 X-0.98644 Y0.19845 Z0.0 E5.03101946950
G1 X-0.94875 Y0.33649 Z0.0 E5.03326952040
G1 X-0.90679 Y0.43774 Z0.0 E5.03459137294
G1 X-0.86742 Y0.51165 Z0.0 E5.03538275333
G1 X-0.83326 Y0.56574 Z0.0 E5.03583154802
G1 X-0.80522 Y0.60509 Z0.0 E5.03615219314
G1 X-0.78366 Y0.63282 Z0.0 E5.03632839477
G1 X-0.76903 Y0.65055 Z0.0 E5.03642344179
G1 X-0.76218 Y0.65858 Z0.0 E5.03648182961
G1 X-0.76467 Y0.65568 Z0.0 E5.03645825779
G1 X-0.77916 Y0.63832 Z0.0 E5.03622559066
G1 X-0.80979 Y0.59875 Z0.0 E5.03552729761
G1 X-0.86156 Y0.52066 Z0.0 E5.03332014976
G1 X-0.93351 Y0.37357 Z0.0 E5.02741351243
G1 X-0.99552 Y0.12802 Z0.0 E5.01858842405
G1 X-0.99009 Y-0.16653 Z0.0 E5.01998617777
G1 X-0.92542 Y-0.39399 Z0.0 E5.02899168944
G1 X-0.85891 Y-0.52528 Z0.0 E5.03399807931
G1 X-0.81345 Y-0.59385 Z0.0 E5.03576887128
G1 X-0.78806 Y-0.62734 Z0.0 E5.03635294434
G1 X-0.77789 Y-0.63994 Z0.0 E5.03645722631
G1 X-0.77924 Y-0.6383 Z0.0 E5.03647165087
G1 X-0.78977 Y-0.62519 Z0.0 E5.03636572590
G1 X-0.80814 Y-0.6012 Z0.0 E5.03619821790
G1 X-0.8336 Y-0.56528 Z0.0 E5.03594687819
G1 X-0.86561 Y-0.51476 Z0.0 E5.03552015610
G1 X-0.90329 Y-0.44502 Z0.0 E5.0348178331
G1 X-0.94428 Y-0.349 Z0.0 E5.03355172418
G1 X-0.9825 Y-0.21752 Z0.0 E5.03145406518
G1 X-1.00477 Y-0.04283 Z0.0 E5.02841217931
G1 X-0.99055 Y0.17054 Z0.0 E5.02561736033
G1 X-0.92462 Y0.39393 Z0.0 E5.02519399949
G1 X-0.81669 Y0.58661 Z0.0 E5.02765812332
G1 X-0.69528 Y0.72729 Z0.0 E5.03081758390
G1 X-0.58312 Y0.82053 Z0.0 E5.03313623723
G1 X-0.48896 Y0.88022 Z0.0 E5.03455343104
G1 X-0.41333 Y0.91834 Z0.0 E5.03535014795
G1 X-0.35413 Y0.94286 Z0.0 E5.03585404003
G1 X-0.30924 Y0.95859 Z0.0 E5.03617951849
G1 X-0.27726 Y0.96836 Z0.0 E5.03635333649
G1 X-0.25792 Y0.97371 Z0.0 E5.03645185249
G1 X-0.25223 Y0.97521 Z0.0 E5.03650304527
G1 X-0.26315 Y0.9723 Z0.0 E5.03640549524
G1 X-0.29661 Y0.96253 Z0.0 E5.03597431735
G1 X-0.36339 Y0.93907 Z0.0 E5.03464188647
G1 X-0.48 Y0.88425 Z0.0 E5.03065120660
G1 X-0.65557 Y0.76099 Z0.0 E5.02214547031
G1 X-0.84422 Y0.5425 Z0.0 E5.01750350872
G1 X-0.9601 Y0.29723 Z0.0 E5.02528029790
G1 X-0.99968 Y0.11675 Z0.0 E5.03237186846
G1 X-1.007 Y0.00925 Z0.0 E5.03521241483
G1 X-1.00601 Y-0.0494 Z0.0 E5.03611080125
G1 X-1.0043 Y-0.07753 Z0.0 E5.03644068490
G1 X-1.00368 Y-0.08531 Z0.0 E5.03649515660
G1 X-1.00427 Y-0.07798 Z0.0 E5.03646481498
G1 X-1.0056 Y-0.05794 Z0.0 E5.03633895702
G1 X-1.00691 Y-0.0258 Z0.0 E5.03620240881
G1 X-1.007 Y0.01919 Z0.0 E5.03591415758
G1 X-1.004 Y0.07903 Z0.0 E5.03552812747
G1 X-0.99465 Y0.157 Z0.0 E5.03482279355
G1 X-0.97325 Y0.25748 Z0.0 E5.03366544602
G1 X-0.92991 Y0.38465 Z0.0 E5.03162059033
G1 X-0.84974 Y0.538 Z0.0 E5.02867295516
G1 X-0.71785 Y0.70356 Z0.0 E5.02569720561
G1 X-0.53605 Y0.8501 Z0.0 E5.02498659824
G1 X-0.33416 Y0.9483 Z0.0 E5.02726515016
G1 X-0.1491 Y0.99498 Z0.0 E5.03044732206
G1 X0.00114 Y1.00657 Z0.0 E5.03285322779
G1 X0.11662 Y1.0001 Z0.0 E5.03438237125
G1 X0.20388 Y0.9862 Z0.0 E5.03526934334
G1 X0.26955 Y0.97041 Z0.0 E5.03575409100
G1 X0.31854 Y0.95552 Z0.0 E5.03608529018
G1 X0.35404 Y0.94299 Z0.0 E5.03630435364
G1 X0.3777 Y0.93378 Z0.0 E5.03637364182
G1 X0.38985 Y0.9288 Z0.0 E5.03649794624
G1 X0.38921 Y0.92906 Z0.0 E5.03645934090
G1 X0.37223 Y0.93596 Z0.0 E5.03630890261
G1 X0.33138 Y0.95107 Z0.0 E5.03573939283
G1 X0.25168 Y0.97483 Z0.0 E5.03397544516
G1 X0.10653 Y1.00014 Z0.0 E5.02898762302
G1 X-0.1295 Y0.99563 Z0.0 E5.02008303442
G1 X-0.41278 Y0.9149 Z0.0 E5.01853897663
G1 X-0.62987 Y0.78374 Z0.0 E5.02738650916
G1 X-0.74955 Y0.67198 Z0.0 E5.03334462088
G1 X-0.80867 Y0.60028 Z0.0 E5.03558151384
G1 X-0.83682 Y0.56062 Z0.0 E5.03627465693
G1 X-0.84814 Y0.54341 Z0.0 E5.03645680936
G1 X-0.84876 Y0.54244 Z0.0 E5.03645383976
G1 X-0.84111 Y0.55421 Z0.0 E5.03640436274
G1 X-0.82561 Y0.57699 Z0.0 E5.03624198237
G1 X-0.80131 Y0.61021 Z0.0 E5.03600526261
G1 X-0.76583 Y0.65407 Z0.0 E5.03563092820
G1 X-0.71494 Y0.70915 Z0.0 E5.03496009443
G1 X-0.64183 Y0.77565 Z0.0 E5.03383221661
G1 X-0.53649 Y0.85147 Z0.0 E5.03195459290
G1 X-0.38712 Y0.92834 Z0.0 E5.02910789803
G1 X-0.18855 Y0.98737 Z0.0 E5.02605864321
G1 X0.04229 Y1.00411 Z0.0 E5.02500083632
G1 X0.26531 Y0.96977 Z0.0 E5.02703503320
G1 X0.44663 Y0.90147 Z0.0 E5.03022493980
G1 X0.5789 Y0.82342 Z0.0 E5.03275696413
G1 X0.67128 Y0.75043 Z0.0 E5.03428749502
G1 X0.7354 Y0.68799 Z0.0 E5.03523435428
G1 X0.78011 Y0.63701 Z0.0 E5.03575553467
G1 X0.81119 Y0.59704 Z0.0 E5.03608473345
G1 X0.83213 Y0.56758 Z0.0 E5.03633644949
G1 X0.84476 Y0.54864 Z0.0 E5.03643054951
G1 X0.84957 Y0.54119 Z0.0 E5.03650623200
G1 X0.84551 Y0.54748 Z0.0 E5.03642112641
G1 X0.82912 Y0.57188 Z0.0 E5.03608654810
G1 X0.79208 Y0.62183 Z0.0 E5.03503544004
G1 X0.71556 Y0.70762 Z0.0 E5.03177945165
G1 X0.56391 Y0.83166 Z0.0 E5.02407415277
G1 X0.31276 Y0.95348 Z0.0 E5.01732729648
G1 X0.03425 Y1.00409 Z0.0 E5.02336986146
G1 X-0.16847 Y0.99207 Z0.0 E5.03136419324
G1 X-0.28627 Y0.96542 Z0.0 E5.03484431065
G1 X-0.34957 Y0.9446 Z0.0 E5.03604096712
G1 X-0.38058 Y0.93261 Z0.0 E5.03637406400
G1 X-0.39107 Y0.92828 Z0.0 E5.03646578292
G1 X-0.38684 Y0.93005 Z0.0 E5.03646251872
G1 X-0.37049 Y0.93666 Z0.0 E5.03635482194
G1 X-0.34267 Y0.94716 Z0.0 E5.03620589953
G1 X-0.30259 Y0.96067 Z0.0 E5.03598936903
G1 X-0.24804 Y0.9761 Z0.0 E5.03561081598
G1 X-0.17526 Y0.99163 Z0.0 E5.03499286122
G1 X-0.07866 Y1.00371 Z0.0 E5.03393772235
G1 X0.04872 Y1.00525 Z0.0 E5.0321496423
G1 X0.21219 Y0.98323 Z0.0 E5.02932855608
G1 X0.40662 Y0.91933 Z0.0 E5.02620003905
G1 X0.6059 Y0.80177 Z0.0 E5.02481328733
G1 X0.77179 Y0.64422 Z0.0 E5.02662713084
G1 X0.88394 Y0.48023 Z0.0 E5.02983791116
G1 X0.94889 Y0.33561 Z0.0 E5.03246039279
G1 X0.98286 Y0.21839 Z0.0 E5.03415328457
G1 X0.99904 Y0.12657 Z0.0 E5.0351288129
G1 X1.0056 Y0.05559 Z0.0 E5.03567673729
G1 X1.00721 Y0.00141 Z0.0 E5.03605493467
G1 X1.0065 Y-0.03879 Z0.0 E5.03623598062
G1 X1.00508 Y-0.06655 Z0.0 E5.03640424534
G1 X1.00394 Y-0.08216 Z0.0 E5.03648138386
G1 X1.00375 Y-0.08444 Z0.0 E5.03647738032
G1 X1.00483 Y-0.07014 Z0.0 E5.03637505677
G1 X1.00666 Y-0.03255 Z0.0 E5.03593054484
G1 X1.00606 Y0.04107 Z0.0 E5.03448971719
G1 X0.99121 Y0.17234 Z0.0 E5.03040341250
G1 X0.92921 Y0.38121 Z0.0 E5.02183305228
G1 X0.7809 Y0.63028 Z0.0 E5.01761319852
G1 X0.5866 Y0.81619 Z0.0 E5.02559866110
G1 X0.43115 Y0.90949 Z0.0 E5.03255000621
G1 X0.33455 Y0.94986 Z0.0 E5.03526990860
G1 X0.28141 Y0.96713 Z0.0 E5.03619902555
G1 X0.25702 Y0.97395 Z0.0 E5.03646176125
G1 X0.25257 Y0.97512 Z0.0 E5.03649337163
G1 X0.2634 Y0.97223 Z0.0 E5.03639437718
G1 X0.28733 Y0.96541 Z0.0 E5.03630568224
G1 X0.32386 Y0.95372 Z0.0 E5.03603797146
G1 X0.37371 Y0.93524 Z0.0 E5.03570506905
G1 X0.43855 Y0.90652 Z0.0 E5.03513806390
G1 X0.52067 Y0.86174 Z0.0 E5.03411629906
G1 X0.62165 Y0.79156 Z0.0 E5.03243468934
G1 X0.73881 Y0.6827 Z0.0 E5.02971049391
G1 X0.85871 Y0.52275 Z0.0 E5.02655554679
G1 X0.95434 Y0.31501 Z0.0 E5.02492819775
G1 X1.00121 Y0.09051 Z0.0 E5.02646377735
G1 X0.99979 Y-0.11088 Z0.0 E5.02959843949
G1 X0.96969 Y-0.26957 Z0.0 E5.03231229407
G1 X0.9294 Y-0.38716 Z0.0 E5.03407694021
G1 X0.88916 Y-0.47274 Z0.0 E5.03509834363
G1 X0.85336 Y-0.53488 Z0.0 E5.03567250722
G1 X0.82364 Y-0.57973 Z0.0 E5.03604438647
G1 X0.80067 Y-0.61113 Z0.0 E5.03624941251
G1 X0.78502 Y-0.63116 Z0.0 E5.03641575428
G1 X0.7776 Y-0.6403 Z0.0 E5.03648153476
G1 X0.78006 Y-0.63729 Z0.0 E5.03644752703
G1 X0.79521 Y-0.61821 Z0.0 E5.03622514439
G1 X0.82727 Y-0.57429 Z0.0 E5.03533677374
G1 X0.8808 Y-0.48715 Z0.0 E5.03270246115
G1 X0.95152 Y-0.32409 Z0.0 E5.02599402730
G1 X1.00159 Y-0.06277 Z0.0 E5.01777490777
G1 X0.9782 Y0.22746 Z0.0 E5.02148705963
G1 X0.90618 Y0.43696 Z0.0 E5.03014968465
G1 X0.84023 Y0.55481 Z0.0 E5.0343832517
G1 X0.79657 Y0.61634 Z0.0 E5.03586824813
G1 X0.77233 Y0.6466 Z0.0 E5.03633097825
G1 X0.76256 Y0.65814 Z0.0 E5.03648193981
G1 X0.76367 Y0.65684 Z0.0 E5.03644382104
G1 X0.77346 Y0.64527 Z0.0 E5.03640185177
G1 X0.79065 Y0.62404 Z0.0 E5.03625193994
G1 X0.81459 Y0.59238 Z0.0 E5.03604738982
G1 X0.84489 Y0.54817 Z0.0 E5.03569623041
G1 X0.88108 Y0.48765 Z0.0 E5.03513775606
G1 X0.92184 Y0.40489 Z0.0 E5.03419531231
G1 X0.96337 Y0.29152 Z0.0 E5.03255816484
G1 X0.99647 Y0.13809 Z0.0 E5.02996349142
G1 X1.00362 Y-0.05893 Z0.0 E5.02674310389
G1 X0.96415 Y-0.2835 Z0.0 E5.02483201834
G1 X0.87373 Y-0.49705 Z0.0 E5.02608897504
G1 X0.75451 Y-0.66516 Z0.0 E5.02922251869
G1 X0.63479 Y-0.78095 Z0.0 E5.03200071194
G1 X0.53011 Y-0.85591 Z0.0 E5.03388155453
G1 X0.44413 Y-0.90376 Z0.0 E5.03496175383
G1 X0.37548 Y-0.93451 Z0.0 E5.03560862881
G1 X0.32173 Y-0.95443 Z0.0 E5.03598753424
G1 X0.28088 Y-0.96729 Z0.0 E5.03622755269
G1 X0.25175 Y-0.97531 Z0.0 E5.03638674696
G1 X0.23416 Y-0.9797 Z0.0 E5.03647445045
G1 X0.22915 Y-0.98089 Z0.0 E5.03650403206
G1 X0.23948 Y-0.97839 Z0.0 E5.03636193720
G1 X0.27062 Y-0.97017 Z0.0 E5.03603269772
G1 X0.33255 Y-0.95049 Z0.0 E5.03492984708
G1 X0.44128 Y-0.9044 Z0.0 E5.03156883685
G1 X0.6101 Y-0.7983 Z0.0 E5.02370605231
G1 X0.80638 Y-0.59723 Z0.0 E5.01730101075
G1 X0.94161 Y-0.35053 Z0.0 E5.02369553466
G1 X0.99385 Y-0.15788 Z0.0 E5.03156018771
G1 X1.00616 Y-0.0409 Z0.0 E5.03495470585
G1 X1.00696 Y0.02293 Z0.0 E5.03610520765
G1 X1.00587 Y0.05335 Z0.0 E5.03641906368
G1 X1.00541 Y0.06157 Z0.0 E5.03646734577
G1 X1.00588 Y0.0533 Z0.0 E5.03645575877
G1 X1.00678 Y0.03109 Z0.0 E5.03629962497
G1 X1.00721 Y-0.00451 Z0.0 E5.03610048599
G1 X1.00568 Y-0.0545 Z0.0 E5.03577827252
G1 X0.99972 Y-0.12128 Z0.0 E5.03524804950
G1 X0.98503 Y-0.20858 Z0.0 E5.03435625800
G1 X0.95406 Y-0.32085 Z0.0 E5.03283023283
G1 X0.8944 Y-0.46068 Z0.0 E5.03035143504
G1 X0.78994 Y-0.62201 Z0.0 E5.02718023274
G1 X0.6317 Y-0.78166 Z0.0 E5.02503046160
G1 X0.43588 Y-0.90576 Z0.0 E5.02591422529
G1 X0.2398 Y-0.97678 Z0.0 E5.02892435914
G1 X0.07237 Y-1.00377 Z0.0 E5.03187745727
G1 X-0.05882 Y-1.00504 Z0.0 E5.03379874945
G1 X-0.15817 Y-0.99449 Z0.0 E5.03494813528
G1 X-0.23258 Y-0.9799 Z0.0 E5.03561681028
G1 X-0.28774 Y-0.96522 Z0.0 E5.03598043086
G1 X-0.32749 Y-0.95252 Z0.0 E5.03622887313
G1 X-0.35392 Y-0.94306 Z0.0 E5.03642117480
G1 X-0.36755 Y-0.93784 Z0.0 E5.03645924261
G1 X-0.3671 Y-0.93802 Z0.0 E5.03647677052
G1 X-0.34868 Y-0.94498 Z0.0 E5.03628072788
G1 X-0.30392 Y-0.96017 Z0.0 E5.03560769744
G1 X-0.21617 Y-0.98322 Z0.0 E5.03351526594
G1 X-0.05715 Y-1.00392 Z0.0 E5.02772684446
G1 X0.19249 Y-0.98513 Z0.0 E5.01879845431
G1 X0.47057 Y-0.88683 Z0.0 E5.01972004648
G1 X0.66833 Y-0.75157 Z0.0 E5.02872362981
G1 X0.77375 Y-0.64413 Z0.0 E5.03386660381
G1 X0.82572 Y-0.57664 Z0.0 E5.03569063784
G1 X0.85065 Y-0.53942 Z0.0 E5.03631650837
G1 X0.86078 Y-0.52316 Z0.0 E5.03646352613
G1 X0.86146 Y-0.52205 Z0.0 E5.03649067829
G1 X0.85484 Y-0.53279 Z0.0 E5.03640896299
G1 X0.84138 Y-0.55376 Z0.0 E5.03629437682
G1 X0.82036 Y-0.58438 Z0.0 E5.03609599293
G1 X0.78991 Y-0.62482 Z0.0 E5.03576667574
G1 X0.74667 Y-0.67576 Z0.0 E5.03529459540
G1 X0.68513 Y-0.73785 Z0.0 E5.03444569789
G1 X0.5968 Y-0.81059 Z0.0 E5.03295735155
G1 X0.47021 Y-0.88947 Z0.0 E5.03054252790
G1 X0.29507 Y-0.96121 Z0.0 E5.02740233371
