; *************************************************
; *************************************************
; ******* File generated by Extruder Turtle *******
; ******* written by Franklin Pezzuti-Dyer ********
; ******* and Leah Buechley ***********************
; ******* Hand and Machine Lab, UNM, 2022 *********
; *************************************************
; *************************************************
; *************** Printer parameters **************
; Printer: 3Dpotter
; Nozzle size: 3.0
; Extrude width: 3.5
; Layer height: 2.2
; Extrude rate: 3.0
; Speed: 1000
; *************** 3D Potter initialization **************
M82                             ; Absolute extrusion mode
G28                             ; Home all axes
G92 E0                          ; Reset Extruder
G1 F40000 E2000                 ; Prime Extruder, Extrude 2000mm of clay
G90 							; Absolute coordinates for X,Y,Z   
; M208 X0 Y0 Z0 S1              ; Set axis minima
; M208 X415 Y405 Z500 S0        ; Set axis maxima 
G1 X207.5 Y202.5 Z0 F10000 		; Go to the starting position (center of print bed)
M83                             ; Relative extrusion
G91                     		; Relative coordinates for X,Y,Z axes
G1 F1000
; *************** End printer initialization **************
G1 X15.97142 Y0.27856 Z0.0 E47.9215470578
G1 Z0
G1 X-0.1184 Y-0.9866 Z0.0 E2.98103724901
G1 Z0
G1 X-0.55378 Y-0.83221 Z0.0 E2.99886844535
G1 Z0
G1 X-0.78143 Y-0.62941 Z0.0 E3.01016745996
G1 Z0
G1 X-0.89023 Y-0.46573 Z0.0 E3.01408775124
G1 Z0
G1 X-0.94615 Y-0.33943 Z0.0 E3.01557837348
G1 Z0
G1 X-0.97665 Y-0.23878 Z0.0 E3.01624766856
G1 Z0
G1 X-0.99342 Y-0.1556 Z0.0 E3.01659607962
G1 Z0
G1 X-1.002 Y-0.08504 Z0.0 E3.01680662529
G1 Z0
G1 X-1.00535 Y-0.02465 Z0.0 E3.01695644732
G1 Z0
G1 X-1.00537 Y0.02568 Z0.0 E3.01709374957
G1 Z0
G1 X-1.00388 Y0.06136 Z0.0 E3.01726050185
G1 Z0
G1 X-1.00401 Y0.05774 Z0.0 E3.01700677648
G1 Z0
G1 X-0.88331 Y-0.30669 Z0.0 E2.80511279805
G1 Z0
G1 X0.20592 Y-0.97165 Z0.0 E2.97969141357
G1 Z0
G1 X0.37303 Y-0.93402 Z0.0 E3.01726741800
G1 Z0
G1 X0.3623 Y-0.93821 Z0.0 E3.01719963657
G1 Z0
G1 X0.32448 Y-0.9519 Z0.0 E3.01705285396
G1 Z0
G1 X0.27392 Y-0.96761 Z0.0 E3.01690429190
G1 Z0
G1 X0.21287 Y-0.9828 Z0.0 E3.01676735797
G1 Z0
G1 X0.13996 Y-0.99572 Z0.0 E3.01652516648
G1 Z0
G1 X0.05131 Y-1.00406 Z0.0 E3.01611054129
G1 Z0
G1 X-0.06039 Y-1.00329 Z0.0 E3.01531755969
G1 Z0
G1 X-0.20825 Y-0.98267 Z0.0 E3.01348229173
G1 Z0
G1 X-0.41412 Y-0.91329 Z0.0 E3.00837929565
G1 Z0
G1 X-0.69368 Y-0.71764 Z0.0 E2.99429324015
G1 Z0
G1 X-0.94829 Y-0.29573 Z0.0 E2.97999855923
G1 Z0
G1 X-0.97992 Y0.19115 Z0.0 E2.99516840263
G1 Z0
G1 X-0.86613 Y0.50562 Z0.0 E3.00873642111
G1 Z0
G1 X-0.74094 Y0.6783 Z0.0 E3.01359366246
G1 Z0
G1 X-0.6343 Y0.77971 Z0.0 E3.01538680220
G1 Z0
G1 X-0.54505 Y0.84482 Z0.0 E3.01615699427
G1 Z0
G1 X-0.46892 Y0.88948 Z0.0 E3.01654533054
G1 Z0
G1 X-0.40273 Y0.92142 Z0.0 E3.01676257331
G1 Z0
G1 X-0.34476 Y0.9447 Z0.0 E3.01692855872
G1 Z0
G1 X-0.29502 Y0.96144 Z0.0 E3.01705702067
G1 Z0
G1 X-0.25708 Y0.97233 Z0.0 E3.01722418751
G1 Z0
G1 X-0.24815 Y0.97466 Z0.0 E3.01726114927
G1 Z0
G1 X-0.42866 Y0.89031 Z0.0 E2.96439059931
G1 Z0
G1 X-0.89419 Y-0.32357 Z0.0 E2.85279857491
G1 Z0
G1 X-0.77699 Y-0.63852 Z0.0 E3.01708323626
G1 Z0
G1 X-0.77677 Y-0.63887 Z0.0 E3.01724022713
G1 Z0
G1 X-0.79946 Y-0.61015 Z0.0 E3.01708034810
G1 Z0
G1 X-0.82922 Y-0.56897 Z0.0 E3.01695111391
G1 Z0
G1 X-0.8621 Y-0.51769 Z0.0 E3.01678207945
G1 Z0
G1 X-0.89669 Y-0.455 Z0.0 E3.01657116689
G1 Z0
G1 X-0.93203 Y-0.37705 Z0.0 E3.01622605429
G1 Z0
G1 X-0.96641 Y-0.27648 Z0.0 E3.01554394869
G1 Z0
G1 X-0.99495 Y-0.1394 Z0.0 E3.01400410791
G1 Z0
G1 X-1.00146 Y0.06053 Z0.0 E3.00986280626
G1 Z0
G1 X-0.93088 Y0.36357 Z0.0 E2.99808046485
G1 Z0
G1 X-0.65833 Y0.74415 Z0.0 E2.98067416914
G1 Z0
G1 X-0.20691 Y0.97534 Z0.0 E2.99113670254
G1 Z0
G1 X0.15891 Y0.98964 Z0.0 E3.00695152261
G1 Z0
G1 X0.38297 Y0.92844 Z0.0 E3.01297223527
G1 Z0
G1 X0.5236 Y0.85788 Z0.0 E3.01513440656
G1 Z0
G1 X0.61939 Y0.79188 Z0.0 E3.01603401150
G1 Z0
G1 X0.68924 Y0.73209 Z0.0 E3.01646612965
G1 Z0
G1 X0.74267 Y0.67796 Z0.0 E3.01673605317
G1 Z0
G1 X0.78465 Y0.62898 Z0.0 E3.01688965097
G1 Z0
G1 X0.81764 Y0.58554 Z0.0 E3.01703999821
G1 Z0
G1 X0.84178 Y0.55035 Z0.0 E3.01716890778
G1 Z0
G1 X0.85184 Y0.53474 Z0.0 E3.01731739776
G1 Z0
G1 X0.79051 Y0.61531 Z0.0 E3.00526406590
G1 Z0
G1 X-0.32801 Y0.81051 Z0.0 E2.62309991838
G1 Z0
G1 X-0.84032 Y0.55218 Z0.0 E3.01651522343
G1 Z0
G1 X-0.85001 Y0.53762 Z0.0 E3.01727863819
G1 Z0
G1 X-0.83228 Y0.56458 Z0.0 E3.01711205844
G1 Z0
G1 X-0.80403 Y0.60405 Z0.0 E3.01696300783
G1 Z0
G1 X-0.76722 Y0.65009 Z0.0 E3.01681816298
G1 Z0
G1 X-0.72059 Y0.70133 Z0.0 E3.01662451309
G1 Z0
G1 X-0.66069 Y0.75789 Z0.0 E3.01631841055
G1 Z0
G1 X-0.58089 Y0.82041 Z0.0 E3.01571746717
G1 Z0
G1 X-0.46839 Y0.88896 Z0.0 E3.01442393556
G1 Z0
G1 X-0.29715 Y0.9587 Z0.0 E3.01108523833
G1 Z0
G1 X-0.01661 Y1.00033 Z0.0 E3.00140367312
G1 Z0
G1 X0.41143 Y0.90519 Z0.0 E2.98291673182
G1 Z0
G1 X0.81176 Y0.57661 Z0.0 E2.98712244598
G1 Z0
G1 X0.97843 Y0.21413 Z0.0 E3.00476160389
G1 Z0
G1 X1.00334 Y-0.0384 Z0.0 E3.01222367038
G1 Z0
G1 X0.9836 Y-0.20606 Z0.0 E3.01485773336
G1 Z0
G1 X0.95145 Y-0.3246 Z0.0 E3.01589130482
G1 Z0
G1 X0.91632 Y-0.41391 Z0.0 E3.01640091409
G1 Z0
G1 X0.88119 Y-0.48442 Z0.0 E3.01669139497
G1 Z0
G1 X0.84724 Y-0.54172 Z0.0 E3.01686684890
G1 Z0
G1 X0.81548 Y-0.58851 Z0.0 E3.01697942560
G1 Z0
G1 X0.78808 Y-0.62482 Z0.0 E3.01715612278
G1 Z0
G1 X0.77193 Y-0.64475 Z0.0 E3.01731774704
G1 Z0
G1 X0.80288 Y-0.60389 Z0.0 E3.01391685992
G1 Z0
G1 X0.78004 Y0.28816 Z0.0 E2.49469182161
G1 Z0
G1 X0.2877 Y0.96284 Z0.0 E3.01471215880
G1 Z0
G1 X0.24588 Y0.97525 Z0.0 E3.01730439832
G1 Z0
G1 X0.27194 Y0.96825 Z0.0 E3.01714017488
G1 Z0
G1 X0.31598 Y0.95473 Z0.0 E3.01698104066
G1 Z0
G1 X0.36953 Y0.93526 Z0.0 E3.01684822232
G1 Z0
G1 X0.43103 Y0.90849 Z0.0 E3.01666512377
G1 Z0
G1 X0.50133 Y0.87156 Z0.0 E3.01637819620
G1 Z0
G1 X0.58281 Y0.81911 Z0.0 E3.01587105059
G1 Z0
G1 X0.67924 Y0.74062 Z0.0 E3.01479098081
G1 Z0
G1 X0.79462 Y0.61369 Z0.0 E3.01203041892
G1 Z0
G1 X0.92282 Y0.38885 Z0.0 E3.00419867421
G1 Z0
G1 X0.99537 Y-0.01081 Z0.0 E2.98628609430
G1 Z0
G1 X0.85373 Y-0.51012 Z0.0 E2.98357100564
G1 Z0
G1 X0.5619 Y-0.82803 Z0.0 E3.00204723782
G1 Z0
G1 X0.31387 Y-0.95344 Z0.0 E3.01132195132
G1 Z0
G1 X0.13697 Y-0.99546 Z0.0 E3.01451696504
G1 Z0
G1 X0.0073 Y-1.00522 Z0.0 E3.01573951886
G1 Z0
G1 X-0.09298 Y-1.00114 Z0.0 E3.01634534163
G1 Z0
G1 X-0.17397 Y-0.99038 Z0.0 E3.01663105926
G1 Z0
G1 X-0.24129 Y-0.97623 Z0.0 E3.01682165416
G1 Z0
G1 X-0.29768 Y-0.96059 Z0.0 E3.01697178881
G1 Z0
G1 X-0.3432 Y-0.94533 Z0.0 E3.01710381659
G1 Z0
G1 X-0.37239 Y-0.93428 Z0.0 E3.01728037718
G1 Z0
G1 X-0.35151 Y-0.94198 Z0.0 E3.01628420486
G1 Z0
G1 X0.26652 Y-0.81752 Z0.0 E2.5796020521
G1 Z0
G1 X1.00259 Y-0.01923 Z0.0 E3.00832320554
G1 Z0
G1 X1.00345 Y0.06827 Z0.0 E3.01730910889
G1 Z0
G1 X1.00458 Y0.04802 Z0.0 E3.01718114657
G1 Z0
G1 X1.00566 Y0.0047 Z0.0 E3.01701294833
G1 Z0
G1 X1.00437 Y-0.05027 Z0.0 E3.01688175575
G1 Z0
G1 X0.99897 Y-0.11501 Z0.0 E3.01670602628
G1 Z0
G1 X0.98723 Y-0.19074 Z0.0 E3.01646206416
G1 Z0
G1 X0.96529 Y-0.28091 Z0.0 E3.01600015083
G1 Z0
G1 X0.92555 Y-0.39169 Z0.0 E3.01505799735
G1 Z0
G1 X0.85114 Y-0.53304 Z0.0 E3.01282898134
G1 Z0
G1 X0.70105 Y-0.71615 Z0.0 E3.00650583319
G1 Z0
G1 X0.38735 Y-0.91841 Z0.0 E2.99025961338
G1 Z0
G1 Z2.2
G1 X0.87537 Y0.0152 Z0.0 E2.62650587132
G1 Z0
G1 X-0.12598 Y-0.97526 Z0.0 E2.95008936339
G1 Z0
G1 X-0.5979 Y-0.79344 Z0.0 E2.98048368430
G1 Z0
G1 X-0.80468 Y-0.59021 Z0.0 E2.99378017204
G1 Z0
G1 X-0.89366 Y-0.44672 Z0.0 E2.99727919721
G1 Z0
G1 X-0.93811 Y-0.34483 Z0.0 E2.99843674421
G1 Z0
G1 X-0.96272 Y-0.26918 Z0.0 E2.99893131585
G1 Z0
G1 X-0.97697 Y-0.21212 Z0.0 E2.99919780570
G1 Z0
G1 X-0.98503 Y-0.17116 Z0.0 E2.99936970354
G1 Z0
G1 X-0.98867 Y-0.14897 Z0.0 E2.99949060145
G1 Z0
G1 X-0.98726 Y-0.15776 Z0.0 E2.99935571862
G1 Z0
G1 X-0.97035 Y-0.23726 Z0.0 E2.99680544429
G1 Z0
G1 X-0.86261 Y-0.48972 Z0.0 E2.97578480648
G1 Z0
G1 X-0.47923 Y-0.86096 Z0.0 E2.95604831329
G1 Z0
G1 X-0.05331 Y-0.99476 Z0.0 E2.98856231712
G1 Z0
G1 X0.12122 Y-0.99215 Z0.0 E2.99858353195
G1 Z0
G1 X0.16392 Y-0.9863 Z0.0 E2.99948614059
G1 Z0
G1 X0.1575 Y-0.98733 Z0.0 E2.99944011611
G1 Z0
G1 X0.12674 Y-0.9917 Z0.0 E2.99929779422
G1 Z0
G1 X0.07835 Y-0.99662 Z0.0 E2.99908508084
G1 Z0
G1 X0.01189 Y-0.99952 Z0.0 E2.99877215248
G1 Z0
G1 X-0.07863 Y-0.99626 Z0.0 E2.99807437875
G1 Z0
G1 X-0.20738 Y-0.97701 Z0.0 E2.99633026225
G1 Z0
G1 X-0.40407 Y-0.91123 Z0.0 E2.99040366844
G1 Z0
G1 X-0.70453 Y-0.69474 Z0.0 E2.96837256700
G1 Z0
G1 X-0.96646 Y-0.18156 Z0.0 E2.95009841985
G1 Z0
G1 X-0.93937 Y0.32345 Z0.0 E2.98049041176
G1 Z0
G1 X-0.80999 Y0.58291 Z0.0 E2.99379538609
G1 Z0
G1 X-0.70101 Y0.71188 Z0.0 E2.99728099959
G1 Z0
G1 X-0.61785 Y0.78563 Z0.0 E2.9984292679
G1 Z0
G1 X-0.55351 Y0.83242 Z0.0 E2.99894437903
G1 Z0
G1 X-0.50363 Y0.86361 Z0.0 E2.99919800630
G1 Z0
G1 X-0.46718 Y0.88393 Z0.0 E2.99938403271
G1 Z0
G1 X-0.44719 Y0.89425 Z0.0 E2.99949289504
G1 Z0
G1 X-0.45512 Y0.89019 Z0.0 E2.99935860719
G1 Z0
G1 X-0.5255 Y0.84954 Z0.0 E2.99680098679
G1 Z0
G1 X-0.73231 Y0.66906 Z0.0 E2.97578107012
G1 Z0
G1 X-0.96691 Y0.18973 Z0.0 E2.95604664865
G1 Z0
G1 X-0.96255 Y-0.2567 Z0.0 E2.98857433110
G1 Z0
G1 X-0.90613 Y-0.42188 Z0.0 E2.99858113142
G1 Z0
G1 X-0.88737 Y-0.46068 Z0.0 E2.99947732342
G1 Z0
G1 X-0.89034 Y-0.45489 Z0.0 E2.99944529027
G1 Z0
G1 X-0.904 Y-0.42699 Z0.0 E2.99930460956
G1 Z0
G1 X-0.92363 Y-0.38249 Z0.0 E2.99908632637
G1 Z0
G1 X-0.94692 Y-0.32018 Z0.0 E2.99875882145
G1 Z0
G1 X-0.9718 Y-0.23308 Z0.0 E2.99808167627
G1 Z0
G1 X-0.99328 Y-0.10469 Z0.0 E2.99634550586
G1 Z0
G1 X-0.9915 Y0.10271 Z0.0 E2.99041708578
G1 Z0
G1 X-0.87844 Y0.45536 Z0.0 E2.96834736323
G1 Z0
G1 X-0.47132 Y0.86305 Z0.0 E2.95008145720
G1 Z0
G1 X0.01734 Y0.99334 Z0.0 E2.98047400270
G1 Z0
G1 X0.30408 Y0.95047 Z0.0 E2.99378035362
G1 Z0
G1 X0.46041 Y0.88668 Z0.0 E2.99726694081
G1 Z0
G1 X0.55626 Y0.83038 Z0.0 E2.99843378916
G1 Z0
G1 X0.62063 Y0.78365 Z0.0 E2.99893318942
G1 Z0
G1 X0.66571 Y0.74585 Z0.0 E2.99919293134
G1 Z0
G1 X0.6963 Y0.71746 Z0.0 E2.99937374703
G1 Z0
G1 X0.71229 Y0.70164 Z0.0 E2.99948355610
G1 Z0
G1 X0.70598 Y0.70793 Z0.0 E2.99935889945
G1 Z0
G1 X0.64557 Y0.7623 Z0.0 E2.99679115624
G1 Z0
G1 X0.41001 Y0.90322 Z0.0 E2.97577403653
G1 Z0
G1 X-0.11835 Y0.97821 Z0.0 E2.95603006402
G1 Z0
G1 X-0.54158 Y0.83611 Z0.0 E2.98856143596
G1 Z0
G1 X-0.68124 Y0.73141 Z0.0 E2.9985724489
G1 Z0
G1 X-0.71234 Y0.70159 Z0.0 E2.99948516137
G1 Z0
G1 X-0.70776 Y0.70619 Z0.0 E2.99944274880
G1 Z0
G1 X-0.68544 Y0.72781 Z0.0 E2.99930300358
G1 Z0
G1 X-0.64919 Y0.76023 Z0.0 E2.99909582725
G1 Z0
G1 X-0.59712 Y0.80164 Z0.0 E2.99876822312
G1 Z0
G1 X-0.52198 Y0.85221 Z0.0 E2.99808689676
G1 Z0
G1 X-0.4065 Y0.91231 Z0.0 E2.99632542874
G1 Z0
G1 X-0.20871 Y0.97471 Z0.0 E2.99041385661
G1 Z0
G1 X0.16162 Y0.97616 Z0.0 E2.96834707034
G1 Z0
G1 X0.67516 Y0.71495 Z0.0 E2.95007639781
G1 Z0
G1 X0.95008 Y0.29047 Z0.0 E2.98047369485
G1 Z0
G1 X0.99792 Y0.00451 Z0.0 E2.99379057359
G1 Z0
G1 X0.98556 Y-0.16388 Z0.0 E2.99727651577
G1 Z0
G1 X0.96163 Y-0.27243 Z0.0 E2.99842512933
G1 Z0
G1 X0.93708 Y-0.3481 Z0.0 E2.99893861684
G1 Z0
G1 X0.91506 Y-0.40264 Z0.0 E2.99918054788
G1 Z0
G1 X0.89751 Y-0.44051 Z0.0 E2.99935982200
G1 Z0
G1 X0.88741 Y-0.46061 Z0.0 E2.99948707645
G1 Z0
G1 X0.89144 Y-0.45267 Z0.0 E2.99936303613
G1 Z0
G1 X0.92448 Y-0.37841 Z0.0 E2.99678437438
G1 Z0
G1 X0.98571 Y-0.11084 Z0.0 E2.97576668899
G1 Z0
G1 X0.89376 Y0.41484 Z0.0 E2.95602646619
G1 Z0
G1 X0.62783 Y0.77345 Z0.0 E2.98857134809
G1 Z0
G1 X0.4851 Y0.87392 Z0.0 E2.99858693181
G1 Z0
G1 X0.44712 Y0.89428 Z0.0 E2.99947947404
G1 Z0
G1 X0.45292 Y0.89135 Z0.0 E2.99946197510
G1 Z0
G1 X0.48038 Y0.8768 Z0.0 E2.99931469833
G1 Z0
G1 X0.52241 Y0.85234 Z0.0 E2.99909338856
G1 Z0
G1 X0.57788 Y0.81562 Z0.0 E2.99877166673
G1 Z0
G1 X0.6492 Y0.75978 Z0.0 E2.99808882383
G1 Z0
G1 X0.74204 Y0.66853 Z0.0 E2.99633134057
G1 Z0
G1 X0.86251 Y0.4997 Z0.0 E2.99042008937
G1 Z0
G1 X0.97833 Y0.14794 Z0.0 E2.96835686744
G1 Z0
G1 X0.8886 Y-0.42119 Z0.0 E2.95010148722
G1 Z0
G1 X0.56985 Y-0.81382 Z0.0 E2.98048454686
G1 Z0
G1 X0.31267 Y-0.94769 Z0.0 E2.99381191543
G1 Z0
G1 X0.1487 Y-0.98797 Z0.0 E2.99729339540
G1 Z0
G1 X0.03806 Y-0.99875 Z0.0 E2.99842477559
G1 Z0
G1 X-0.04149 Y-0.99878 Z0.0 E2.99892416985
G1 Z0
G1 X-0.10017 Y-0.9947 Z0.0 E2.99919306983
G1 Z0
G1 X-0.14161 Y-0.98971 Z0.0 E2.99936884791
G1 Z0
G1 X-0.16384 Y-0.98631 Z0.0 E2.99947639686
G1 Z0
G1 X-0.15504 Y-0.98769 Z0.0 E2.99935333685
G1 Z0
G1 X-0.07421 Y-0.99617 Z0.0 E2.99679097319
G1 Z0
G1 X0.19919 Y-0.97172 Z0.0 E2.97577682807
G1 Z0
G1 X0.67073 Y-0.72183 Z0.0 E2.95605404825
G1 Z0
G1 X0.9296 Y-0.3581 Z0.0 E2.98856586509
G1 Z0
G1 X0.98105 Y-0.1913 Z0.0 E2.99858185356
G1 Z0
G1 X0.98868 Y-0.14889 Z0.0 E2.99948451746
G1 Z0
G1 X0.98768 Y-0.15531 Z0.0 E2.99944941723
G1 Z0
G1 X0.98233 Y-0.18592 Z0.0 E2.99930763305
G1 Z0
G1 X0.97206 Y-0.23346 Z0.0 E2.99910618965
G1 Z0
G1 X0.95427 Y-0.29756 Z0.0 E2.99875952329
G1 Z0
G1 X0.92321 Y-0.38264 Z0.0 E2.99809450540
G1 Z0
G1 X0.86511 Y-0.49914 Z0.0 E2.99633183498
G1 Z0
G1 X0.74177 Y-0.66588 Z0.0 E2.99041304266
G1 Z0
G1 X0.44302 Y-0.88473 Z0.0 E2.96835392763
G1 Z0
G1 Z2.2
G1 X0.83349 Y0.01447 Z0.0 E2.50084678639
G1 Z0
G1 X-0.127 Y-0.96852 Z0.0 E2.93043340030
G1 Z0
G1 X-0.62507 Y-0.76822 Z0.0 E2.97117321267
G1 Z0
G1 X-0.82042 Y-0.5633 Z0.0 E2.98555904273
G1 Z0
G1 X-0.8993 Y-0.42874 Z0.0 E2.98881687268
G1 Z0
G1 X-0.93759 Y-0.33788 Z0.0 E2.98983964829
G1 Z0
G1 X-0.9582 Y-0.27453 Z0.0 E2.99025511422
G1 Z0
G1 X-0.96929 Y-0.23272 Z0.0 E2.99050753594
G1 Z0
G1 X-0.97349 Y-0.21466 Z0.0 E2.99062790419
G1 Z0
G1 X-0.96817 Y-0.23696 Z0.0 E2.99023890592
G1 Z0
G1 X-0.92568 Y-0.3632 Z0.0 E2.98314922885
G1 Z0
G1 X-0.68895 Y-0.70267 Z0.0 E2.95221528392
G1 Z0
G1 X-0.45563 Y-0.88632 Z0.0 E2.98972516357
G1 Z0
G1 X-0.62471 Y-0.7727 Z0.0 E2.98093120801
G1 Z0
G1 X-0.67058 Y-0.73381 Z0.0 E2.98217904769
G1 Z0
G1 X-0.27903 Y-0.94656 Z0.0 E2.96049019091
G1 Z0
G1 X0.01333 Y-0.9959 Z0.0 E2.98796761865
G1 Z0
G1 X0.08961 Y-0.99281 Z0.0 E2.99053754930
G1 Z0
G1 X0.09316 Y-0.99251 Z0.0 E2.99061765716
G1 Z0
G1 X0.06456 Y-0.99472 Z0.0 E2.99043857118
G1 Z0
G1 X0.01291 Y-0.99663 Z0.0 E2.99014083698
G1 Z0
G1 X-0.06408 Y-0.99446 Z0.0 E2.98956726668
G1 Z0
G1 X-0.17891 Y-0.97982 Z0.0 E2.98806027123
G1 Z0
G1 X-0.36271 Y-0.92565 Z0.0 E2.98252882625
G1 Z0
G1 X-0.66836 Y-0.72463 Z0.0 E2.95738795874
G1 Z0
G1 X-0.96036 Y-0.1785 Z0.0 E2.93042355580
G1 Z0
G1 X-0.92378 Y0.35709 Z0.0 E2.97118575799
G1 Z0
G1 X-0.78926 Y0.6062 Z0.0 E2.98558002546
G1 Z0
G1 X-0.68566 Y0.7228 Z0.0 E2.98883343136
G1 Z0
G1 X-0.61107 Y0.78729 Z0.0 E2.98983089840
G1 Z0
G1 X-0.55719 Y0.82647 Z0.0 E2.99025420541
G1 Z0
G1 X-0.52086 Y0.84993 Z0.0 E2.99049917246
G1 Z0
G1 X-0.50498 Y0.85951 Z0.0 E2.99062872395
G1 Z0
G1 X-0.52454 Y0.84756 Z0.0 E2.99023435316
G1 Z0
G1 X-0.63147 Y0.76814 Z0.0 E2.98314276971
G1 Z0
G1 X-0.88117 Y0.4381 Z0.0 E2.95220758249
G1 Z0
G1 X-0.98374 Y0.15944 Z0.0 E2.98973067530
G1 Z0
G1 X-0.92792 Y0.35536 Z0.0 E2.98091366933
G1 Z0
G1 X-0.90512 Y0.411 Z0.0 E2.98219196726
G1 Z0
G1 X-0.98646 Y-0.02713 Z0.0 E2.96049899789
G1 Z0
G1 X-0.94304 Y-0.32043 Z0.0 E2.98797564222
G1 Z0
G1 X-0.91653 Y-0.39202 Z0.0 E2.99054548397
G1 Z0
G1 X-0.91514 Y-0.3953 Z0.0 E2.99060023848
G1 Z0
G1 X-0.92608 Y-0.36879 Z0.0 E2.99043008186
G1 Z0
G1 X-0.94386 Y-0.32026 Z0.0 E2.99014105099
G1 Z0
G1 X-0.96559 Y-0.24636 Z0.0 E2.98956780811
G1 Z0
G1 X-0.98715 Y-0.13263 Z0.0 E2.98805999849
G1 Z0
G1 X-0.99243 Y0.05891 Z0.0 E2.98253067662
G1 Z0
G1 X-0.8957 Y0.41173 Z0.0 E2.95739763071
G1 Z0
G1 X-0.46654 Y0.8582 Z0.0 E2.93044387498
G1 Z0
G1 X0.05415 Y0.98891 Z0.0 E2.97117432935
G1 Z0
G1 X0.33263 Y0.93795 Z0.0 E2.98555460084
G1 Z0
G1 X0.47554 Y0.87545 Z0.0 E2.98880560540
G1 Z0
G1 X0.55992 Y0.82445 Z0.0 E2.98982505844
G1 Z0
G1 X0.61384 Y0.78532 Z0.0 E2.99027480878
G1 Z0
G1 X0.64738 Y0.75801 Z0.0 E2.99050501095
G1 Z0
G1 X0.6614 Y0.74587 Z0.0 E2.99064343446
G1 Z0
G1 X0.64398 Y0.76078 Z0.0 E2.99022876035
G1 Z0
G1 X0.53541 Y0.83793 Z0.0 E2.98313844416
G1 Z0
G1 X0.14436 Y0.97343 Z0.0 E2.95222830596
G1 Z0
G1 X-0.15236 Y0.98486 Z0.0 E2.98972659332
G1 Z0
G1 X0.05122 Y0.99232 Z0.0 E2.98092305120
G1 Z0
G1 X0.11119 Y0.98782 Z0.0 E2.98217439405
G1 Z0
G1 X-0.33063 Y0.92979 Z0.0 E2.96047813182
G1 Z0
G1 X-0.59616 Y0.79787 Z0.0 E2.98798084708
G1 Z0
G1 X-0.65605 Y0.75053 Z0.0 E2.99053037948
G1 Z0
G1 X-0.65875 Y0.7482 Z0.0 E2.99061753197
G1 Z0
G1 X-0.63691 Y0.7668 Z0.0 E2.99043964876
G1 Z0
G1 X-0.59625 Y0.7987 Z0.0 E2.99013741699
G1 Z0
G1 X-0.53269 Y0.8422 Z0.0 E2.98957108711
G1 Z0
G1 X-0.43118 Y0.89785 Z0.0 E2.98805243162
G1 Z0
G1 X-0.25065 Y0.96206 Z0.0 E2.98252641143
G1 Z0
G1 X0.11479 Y0.97909 Z0.0 E2.9573883326
G1 Z0
G1 X0.67203 Y0.7089 Z0.0 E2.93043883712
G1 Z0
G1 X0.95724 Y0.25409 Z0.0 E2.97116665828
G1 Z0
G1 X0.99484 Y-0.02651 Z0.0 E2.98557944984
G1 Z0
G1 X0.97956 Y-0.18174 Z0.0 E2.98883003712
G1 Z0
G1 X0.95713 Y-0.27775 Z0.0 E2.98984716910
G1 Z0
G1 X0.93657 Y-0.34112 Z0.0 E2.99027356168
G1 Z0
G1 X0.92096 Y-0.38146 Z0.0 E2.99050354937
G1 Z0
G1 X0.91375 Y-0.39854 Z0.0 E2.99064520579
G1 Z0
G1 X0.92254 Y-0.37737 Z0.0 E2.99021629928
G1 Z0
G1 X0.96237 Y-0.25027 Z0.0 E2.98313925391
G1 Z0
G1 X0.97039 Y0.16351 Z0.0 E2.95220772470
G1 Z0
G1 X0.88958 Y0.44924 Z0.0 E2.98973617331
G1 Z0
G1 X0.95958 Y0.25793 Z0.0 E2.98092182918
G1 Z0
G1 X0.97384 Y0.19951 Z0.0 E2.98220007231
G1 Z0
G1 X0.78211 Y0.60177 Z0.0 E2.96047439864
G1 Z0
G1 X0.5746 Y0.81354 Z0.0 E2.98799471626
G1 Z0
G1 X0.51107 Y0.85587 Z0.0 E2.99054410036
G1 Z0
G1 X0.50801 Y0.85771 Z0.0 E2.99059616762
G1 Z0
G1 X0.53245 Y0.84269 Z0.0 E2.99042889021
G1 Z0
G1 X0.57536 Y0.81388 Z0.0 E2.99014348418
G1 Z0
G1 X0.63637 Y0.76687 Z0.0 E2.98956641743
G1 Z0
G1 X0.72066 Y0.68753 Z0.0 E2.98804869915
G1 Z0
G1 X0.83752 Y0.53567 Z0.0 E2.98252223692
G1 Z0
G1 X0.96664 Y0.19338 Z0.0 E2.95738033164
G1 Z0
G1 X0.88187 Y-0.42008 Z0.0 E2.93043633777
G1 Z0
G1 X0.53746 Y-0.83187 Z0.0 E2.97116787417
G1 Z0
G1 X0.28221 Y-0.95434 Z0.0 E2.98557630572
G1 Z0
G1 X0.12986 Y-0.98777 Z0.0 E2.98880891535
G1 Z0
G1 X0.03161 Y-0.99611 Z0.0 E2.98983426260
G1 Z0
G1 X-0.03501 Y-0.99614 Z0.0 E2.99026510485
G1 Z0
G1 X-0.07819 Y-0.99377 Z0.0 E2.99052376700
G1 Z0
G1 X-0.09667 Y-0.99218 Z0.0 E2.99063474395
G1 Z0
G1 X-0.07382 Y-0.994 Z0.0 E2.99021212151
G1 Z0
G1 X0.05937 Y-0.99261 Z0.0 E2.98315180321
G1 Z0
G1 X0.45538 Y-0.87237 Z0.0 E2.95222005476
G1 Z0
G1 X0.70215 Y-0.70722 Z0.0 E2.98974459747
G1 Z0
G1 X0.54183 Y-0.83291 Z0.0 E2.98091753542
G1 Z0
G1 X0.49068 Y-0.86452 Z0.0 E2.98218967123
G1 Z0
G1 X0.81401 Y-0.55788 Z0.0 E2.96050356705
G1 Z0
G1 X0.95128 Y-0.29508 Z0.0 E2.98798470598
G1 Z0
G1 X0.97191 Y-0.22157 Z0.0 E2.99053854966
G1 Z0
G1 X0.97272 Y-0.2181 Z0.0 E2.99061302672
G1 Z0
G1 X0.96598 Y-0.24598 Z0.0 E2.99041998509
G1 Z0
G1 X0.95184 Y-0.29569 Z0.0 E2.99013171203
G1 Z0
G1 X0.92598 Y-0.36825 Z0.0 E2.98955234209
G1 Z0
G1 X0.87658 Y-0.47293 Z0.0 E2.98805915800
G1 Z0
G1 X0.76826 Y-0.631 Z0.0 E2.98252574983
G1 Z0
G1 X0.48263 Y-0.85957 Z0.0 E2.95738579090
G1 Z0
G1 Z2.2
G1 X0.79107 Y0.01374 Z0.0 E2.37356794563
G1 Z0
G1 X-0.12824 Y-0.97261 Z0.0 E2.94308365279
G1 Z0
G1 X-0.65177 Y-0.75556 Z0.0 E2.99350554008
G1 Z0
G1 X-0.84075 Y-0.54679 Z0.0 E3.00874704809
G1 Z0
G1 X-0.91386 Y-0.41567 Z0.0 E3.01185903330
G1 Z0
G1 X-0.94875 Y-0.32928 Z0.0 E3.01280051250
G1 Z0
G1 X-0.96725 Y-0.27064 Z0.0 E3.01319882333
G1 Z0
G1 X-0.97673 Y-0.23444 Z0.0 E3.01341541419
G1 Z0
G1 X-0.97888 Y-0.22541 Z0.0 E3.01349323917
G1 Z0
G1 X-0.96668 Y-0.27148 Z0.0 E3.01223248027
G1 Z0
G1 X-0.85406 Y-0.50662 Z0.0 E2.97905031377
G1 Z0
G1 X-0.26198 Y-0.94691 Z0.0 E2.94744781404
G1 Z0
G1 X-0.01252 Y-1.00378 Z0.0 E3.01157423106
G1 Z0
G1 X-0.35037 Y-0.92605 Z0.0 E2.97034503965
G1 Z0
G1 X-0.82363 Y-0.55477 Z0.0 E2.97913161310
G1 Z0
G1 X-0.95401 Y-0.31371 Z0.0 E3.01279627552
G1 Z0
G1 X-0.74638 Y-0.6264 Z0.0 E2.92320724199
G1 Z0
G1 X-0.14857 Y-0.98638 Z0.0 E2.99251849513
G1 Z0
G1 X0.05445 Y-1.00277 Z0.0 E3.01274165481
G1 Z0
G1 X0.08914 Y-1.00054 Z0.0 E3.01350893159
G1 Z0
G1 X0.07474 Y-1.00168 Z0.0 E3.01339343764
G1 Z0
G1 X0.03377 Y-1.00382 Z0.0 E3.01316362777
G1 Z0
G1 X-0.03175 Y-1.00374 Z0.0 E3.01272608295
G1 Z0
G1 X-0.13093 Y-0.9953 Z0.0 E3.01162461042
G1 Z0
G1 X-0.29026 Y-0.95965 Z0.0 E3.00775845288
G1 Z0
G1 X-0.57041 Y-0.81649 Z0.0 E2.98801127739
G1 Z0
G1 X-0.92652 Y-0.31957 Z0.0 E2.94025146164
G1 Z0
G1 X-0.94772 Y0.30412 Z0.0 E2.98596040751
G1 Z0
G1 X-0.80512 Y0.59725 Z0.0 E3.00737958896
G1 Z0
G1 X-0.69527 Y0.72408 Z0.0 E3.01151622504
G1 Z0
G1 X-0.61872 Y0.79099 Z0.0 E3.01269257750
G1 Z0
G1 X-0.56482 Y0.83052 Z0.0 E3.01314883887
G1 Z0
G1 X-0.52952 Y0.85356 Z0.0 E3.01340421052
G1 Z0
G1 X-0.5159 Y0.8619 Z0.0 E3.01350622697
G1 Z0
G1 X-0.54226 Y0.8453 Z0.0 E3.01283952085
G1 Z0
G1 X-0.68687 Y0.72478 Z0.0 E2.99564150187
G1 Z0
G1 X-0.96662 Y0.10567 Z0.0 E2.91713615721
G1 Z0
G1 X-0.95619 Y-0.30699 Z0.0 E3.01278601726
G1 Z0
G1 X-0.9922 Y-0.05941 Z0.0 E2.98193116837
G1 Z0
G1 X-0.84194 Y0.51939 Z0.0 E2.96777027772
G1 Z0
G1 X-0.60438 Y0.80125 Z0.0 E3.01089533563
G1 Z0
G1 X-0.75039 Y0.63842 Z0.0 E2.95567035315
G1 Z0
G1 X-0.98898 Y-0.06598 Z0.0 E2.97353547267
G1 Z0
G1 X-0.94334 Y-0.34369 Z0.0 E3.01199577445
G1 Z0
G1 X-0.92464 Y-0.39249 Z0.0 E3.01348100497
G1 Z0
G1 X-0.92755 Y-0.38553 Z0.0 E3.01344345402
G1 Z0
G1 X-0.9408 Y-0.35177 Z0.0 E3.01324093894
G1 Z0
G1 X-0.96007 Y-0.29468 Z0.0 E3.01282863198
G1 Z0
G1 X-0.98257 Y-0.20622 Z0.0 E3.01193201114
G1 Z0
G1 X-1.00115 Y-0.0611 Z0.0 E3.00903818396
G1 Z0
G1 X-0.97603 Y0.20984 Z0.0 E2.99499690793
G1 Z0
G1 X-0.7004 Y0.68772 Z0.0 E2.94477004630
G1 Z0
G1 X-0.10424 Y0.98652 Z0.0 E2.97603581833
G1 Z0
G1 X0.2734 Y0.96379 Z0.0 E3.00545313005
G1 Z0
G1 X0.45008 Y0.89713 Z0.0 E3.01110082689
G1 Z0
G1 X0.5469 Y0.84219 Z0.0 E3.01254916224
G1 Z0
G1 X0.60639 Y0.80065 Z0.0 E3.01309530075
G1 Z0
G1 X0.64312 Y0.77157 Z0.0 E3.01335566996
G1 Z0
G1 X0.65987 Y0.75736 Z0.0 E3.01350348905
G1 Z0
G1 X0.6461 Y0.769 Z0.0 E3.01318036135
G1 Z0
G1 X0.53509 Y0.84654 Z0.0 E3.00442365809
G1 Z0
G1 X-0.03371 Y0.96838 Z0.0 E2.90689967087
G1 Z0
G1 X-0.57378 Y0.82311 Z0.0 E3.01008339494
G1 Z0
G1 X-0.44621 Y0.89224 Z0.0 E2.99278469578
G1 Z0
G1 X0.11288 Y0.97993 Z0.0 E2.95923001703
G1 Z0
G1 X0.54482 Y0.84111 Z0.0 E3.00643539437
G1 Z0
G1 X0.47973 Y0.87194 Z0.0 E2.98559577446
G1 Z0
G1 X-0.2444 Y0.9508 Z0.0 E2.94512614331
G1 Z0
G1 X-0.59707 Y0.80661 Z0.0 E3.01064951348
G1 Z0
G1 X-0.6562 Y0.76051 Z0.0 E3.01343078582
G1 Z0
G1 X-0.6565 Y0.76027 Z0.0 E3.01347382701
G1 Z0
G1 X-0.63241 Y0.78034 Z0.0 E3.01327999252
G1 Z0
G1 X-0.58848 Y0.81384 Z0.0 E3.01293848328
G1 Z0
G1 X-0.51836 Y0.85991 Z0.0 E3.01218868587
G1 Z0
G1 X-0.40082 Y0.91978 Z0.0 E3.00996134314
G1 Z0
G1 X-0.17314 Y0.98489 Z0.0 E2.99997865747
G1 Z0
G1 X0.31103 Y0.93454 Z0.0 E2.95481675447
G1 Z0
G1 X0.8492 Y0.50504 Z0.0 E2.96409419122
G1 Z0
G1 X0.99663 Y0.09258 Z0.0 E3.00276234819
G1 Z0
G1 X0.99612 Y-0.12154 Z0.0 E3.01052208662
G1 Z0
G1 X0.97453 Y-0.24199 Z0.0 E3.01237629273
G1 Z0
G1 X0.95276 Y-0.3177 Z0.0 E3.01299919821
G1 Z0
G1 X0.93529 Y-0.36623 Z0.0 E3.01330817757
G1 Z0
G1 X0.92499 Y-0.39166 Z0.0 E3.01347581727
G1 Z0
G1 X0.92778 Y-0.38489 Z0.0 E3.01334438199
G1 Z0
G1 X0.9592 Y-0.29298 Z0.0 E3.00883985676
G1 Z0
G1 X0.95858 Y0.17408 Z0.0 E2.92277525055
G1 Z0
G1 X0.63991 Y0.7686 Z0.0 E3.00034613218
G1 Z0
G1 X0.66146 Y0.75063 Z0.0 E3.00146173664
G1 Z0
G1 X0.93238 Y0.31927 Z0.0 E2.95658454567
G1 Z0
G1 X0.97894 Y-0.20354 Z0.0 E2.99962805974
G1 Z0
G1 X0.9669 Y-0.25975 Z0.0 E3.00354641258
G1 Z0
G1 X0.89208 Y0.38683 Z0.0 E2.91701861113
G1 Z0
G1 X0.61152 Y0.79461 Z0.0 E3.00803189187
G1 Z0
G1 X0.52587 Y0.85579 Z0.0 E3.01334399447
G1 Z0
G1 X0.5176 Y0.86087 Z0.0 E3.01348008988
G1 Z0
G1 X0.53982 Y0.84705 Z0.0 E3.01331943446
G1 Z0
G1 X0.5816 Y0.81881 Z0.0 E3.01303424888
G1 Z0
G1 X0.64267 Y0.77153 Z0.0 E3.01239928101
G1 Z0
G1 X0.72943 Y0.68925 Z0.0 E3.01068151531
G1 Z0
G1 X0.85373 Y0.52295 Z0.0 E3.00349538681
G1 Z0
G1 X0.98176 Y0.11966 Z0.0 E2.96707615656
G1 Z0
G1 X0.81854 Y-0.54615 Z0.0 E2.95204810037
G1 Z0
G1 X0.45316 Y-0.89103 Z0.0 E2.99893247982
G1 Z0
G1 X0.2244 Y-0.97784 Z0.0 E3.00977371747
G1 Z0
G1 X0.09105 Y-0.99991 Z0.0 E3.01214060020
G1 Z0
G1 X0.00556 Y-1.00429 Z0.0 E3.01291617197
G1 Z0
G1 X-0.05085 Y-1.00313 Z0.0 E3.01325400101
G1 Z0
G1 X-0.08333 Y-1.00103 Z0.0 E3.01347715243
G1 Z0
G1 X-0.08496 Y-1.00088 Z0.0 E3.01343836572
G1 Z0
G1 X-0.01607 Y-1.00356 Z0.0 E3.01106596847
G1 Z0
G1 X0.33091 Y-0.92687 Z0.0 E2.95250822607
G1 Z0
G1 X0.88861 Y-0.44348 Z0.0 E2.97938251698
G1 Z0
G1 X0.93926 Y-0.35065 Z0.0 E3.00773717783
G1 Z0
G1 X0.6896 Y-0.70606 Z0.0 E2.96084784351
G1 Z0
G1 X0.18278 Y-0.97988 Z0.0 E2.99034447601
G1 Z0
G1 X0.01321 Y-1.00365 Z0.0 E3.01121079292
G1 Z0
G1 X0.50812 Y-0.82504 Z0.0 E2.90686986706
G1 Z0
G1 X0.92479 Y-0.38294 Z0.0 E3.00281805797
G1 Z0
G1 X0.97406 Y-0.2449 Z0.0 E3.01312463108
G1 Z0
G1 X0.97907 Y-0.22459 Z0.0 E3.01349773469
G1 Z0
G1 X0.97422 Y-0.24459 Z0.0 E3.01336355067
G1 Z0
G1 X0.962 Y-0.28864 Z0.0 E3.01310694241
G1 Z0
G1 X0.93899 Y-0.35596 Z0.0 E3.01258820208
G1 Z0
G1 X0.89451 Y-0.45535 Z0.0 E3.01121667493
G1 Z0
G1 X0.79522 Y-0.6096 Z0.0 E3.00597456337
G1 Z0
G1 X0.51797 Y-0.84706 Z0.0 E2.97862922844
G1 Z0
G1 Z2.2
G1 X0.74821 Y0.013 Z0.0 E2.24496878306
G1 Z0
G1 X-0.12531 Y-0.97474 Z0.0 E2.94828525982
G1 Z0
G1 X-0.66758 Y-0.74727 Z0.0 E3.00610704794
G1 Z0
G1 X-0.85289 Y-0.53596 Z0.0 E3.02193154510
G1 Z0
G1 X-0.92267 Y-0.40668 Z0.0 E3.02495900166
G1 Z0
G1 X-0.95573 Y-0.32232 Z0.0 E3.02585362133
G1 Z0
G1 X-0.97327 Y-0.26517 Z0.0 E3.02623967924
G1 Z0
G1 X-0.98235 Y-0.22953 Z0.0 E3.0264269181
G1 Z0
G1 X-0.98469 Y-0.2194 Z0.0 E3.02650901286
G1 Z0
G1 X-0.97414 Y-0.26089 Z0.0 E3.02541087876
G1 Z0
G1 X-0.86037 Y-0.49991 Z0.0 E2.98518322804
G1 Z0
G1 X-0.09633 Y-0.96813 Z0.0 E2.91873200075
G1 Z0
G1 X0.28887 Y-0.96642 Z0.0 E3.02600750820
G1 Z0
G1 X0.1986 Y-0.9869 Z0.0 E3.02005333231
G1 Z0
G1 X-0.21863 Y-0.96595 Z0.0 E2.97114898896
G1 Z0
G1 X-0.82351 Y-0.54632 Z0.0 E2.96474423222
G1 Z0
G1 X-0.99739 Y-0.13329 Z0.0 E3.01877083029
G1 Z0
G1 X-1.00853 Y-0.02102 Z0.0 E3.02624708372
G1 Z0
G1 X-0.92005 Y-0.33733 Z0.0 E2.93982172633
G1 Z0
G1 X-0.25249 Y-0.95801 Z0.0 E2.97217247847
G1 Z0
G1 X0.0455 Y-1.00734 Z0.0 E3.02510117689
G1 Z0
G1 X0.09492 Y-1.00435 Z0.0 E3.02647626128
G1 Z0
G1 X0.08703 Y-1.00505 Z0.0 E3.02643313334
G1 Z0
G1 X0.05198 Y-1.00741 Z0.0 E3.02625039554
G1 Z0
G1 X-0.00599 Y-1.00861 Z0.0 E3.02588336024
G1 Z0
G1 X-0.09368 Y-1.00399 Z0.0 E3.02505318342
G1 Z0
G1 X-0.23287 Y-0.98016 Z0.0 E3.02232998902
G1 Z0
G1 X-0.47981 Y-0.88058 Z0.0 E3.00844626884
G1 Z0
G1 X-0.86447 Y-0.46961 Z0.0 E2.95136873281
G1 Z0
G1 X-0.97101 Y0.21962 Z0.0 E2.98661016547
G1 Z0
G1 X-0.82611 Y0.57446 Z0.0 E3.01863515737
G1 Z0
G1 X-0.70783 Y0.71776 Z0.0 E3.02420643120
G1 Z0
G1 X-0.62696 Y0.78997 Z0.0 E3.02558803913
G1 Z0
G1 X-0.57034 Y0.83198 Z0.0 E3.02610408347
G1 Z0
G1 X-0.53209 Y0.85705 Z0.0 E3.02636584626
G1 Z0
G1 X-0.51309 Y0.86861 Z0.0 E3.02649997882
G1 Z0
G1 X-0.52592 Y0.8608 Z0.0 E3.02623799091
G1 Z0
G1 X-0.6295 Y0.78459 Z0.0 E3.01772521329
G1 Z0
G1 X-0.93249 Y0.18637 Z0.0 E2.85279553999
G1 Z0
G1 X-0.85929 Y-0.52344 Z0.0 E3.01849608900
G1 Z0
G1 X-0.8426 Y-0.55362 Z0.0 E3.02460390458
G1 Z0
G1 X-0.9514 Y-0.30866 Z0.0 E3.00064936312
G1 Z0
G1 X-0.91503 Y0.35045 Z0.0 E2.93953328449
G1 Z0
G1 X-0.54471 Y0.84136 Z0.0 E3.00688554875
G1 Z0
G1 X-0.34395 Y0.94801 Z0.0 E3.02542907096
G1 Z0
G1 X-0.42254 Y0.91035 Z0.0 E3.01089597411
G1 Z0
G1 X-0.91554 Y0.27756 Z0.0 E2.87006574956
G1 Z0
G1 X-0.96282 Y-0.295 Z0.0 E3.02099754578
G1 Z0
G1 X-0.92944 Y-0.39216 Z0.0 E3.02635649136
G1 Z0
G1 X-0.92616 Y-0.39995 Z0.0 E3.02648164258
G1 Z0
G1 X-0.93594 Y-0.37635 Z0.0 E3.02631906033
G1 Z0
G1 X-0.9529 Y-0.3308 Z0.0 E3.02605741023
G1 Z0
G1 X-0.97448 Y-0.25973 Z0.0 E3.02549805647
G1 Z0
G1 X-0.99721 Y-0.1468 Z0.0 E3.02387205697
G1 Z0
G1 X-1.00418 Y0.05465 Z0.0 E3.01699798709
G1 Z0
G1 X-0.88 Y0.45937 Z0.0 E2.97805090153
G1 Z0
G1 X-0.33855 Y0.92632 Z0.0 E2.95874358539
G1 Z0
G1 X0.17536 Y0.98853 Z0.0 E3.01189047186
G1 Z0
G1 X0.4086 Y0.92108 Z0.0 E3.02292589019
G1 Z0
G1 X0.52586 Y0.86044 Z0.0 E3.02522257013
G1 Z0
G1 X0.59513 Y0.81437 Z0.0 E3.02595504332
G1 Z0
G1 X0.63864 Y0.78086 Z0.0 E3.02628989074
G1 Z0
G1 X0.66325 Y0.76014 Z0.0 E3.02645344238
G1 Z0
G1 X0.66572 Y0.75798 Z0.0 E3.02645852263
G1 Z0
G1 X0.61662 Y0.79755 Z0.0 E3.02436043522
G1 Z0
G1 X0.26779 Y0.9435 Z0.0 E2.94230073359
G1 Z0
G1 X-0.62667 Y0.76732 Z0.0 E2.97211329557
G1 Z0
G1 X-0.80409 Y0.60915 Z0.0 E3.02632120823
G1 Z0
G1 X-0.70366 Y0.71801 Z0.0 E3.01597112077
G1 Z0
G1 X-0.25805 Y0.95024 Z0.0 E2.95396559575
G1 Z0
G1 X0.46369 Y0.87922 Z0.0 E2.98200033878
G1 Z0
G1 X0.75903 Y0.66221 Z0.0 E3.02189305320
G1 Z0
G1 X0.79543 Y0.61972 Z0.0 E3.02503816004
G1 Z0
G1 X0.38131 Y0.88212 Z0.0 E2.88301874682
G1 Z0
G1 X-0.46433 Y0.88619 Z0.0 E3.00140226977
G1 Z0
G1 X-0.64332 Y0.7768 Z0.0 E3.02580729089
G1 Z0
G1 X-0.66816 Y0.75586 Z0.0 E3.02652591709
G1 Z0
G1 X-0.65724 Y0.76533 Z0.0 E3.02642525738
G1 Z0
G1 X-0.62661 Y0.7905 Z0.0 E3.02618127
G1 Z0
G1 X-0.57593 Y0.82799 Z0.0 E3.02578341013
G1 Z0
G1 X-0.49461 Y0.8786 Z0.0 E3.02476331453
G1 Z0
G1 X-0.35095 Y0.94391 Z0.0 E3.02112361803
G1 Z0
G1 X-0.04626 Y0.99931 Z0.0 E3.00114047877
G1 Z0
G1 X0.5542 Y0.81043 Z0.0 E2.94540486591
G1 Z0
G1 X0.95414 Y0.29695 Z0.0 E2.99784288763
G1 Z0
G1 X1.0065 Y-0.02647 Z0.0 E3.02054402353
G1 Z0
G1 X0.9901 Y-0.19024 Z0.0 E3.02463277249
G1 Z0
G1 X0.96705 Y-0.28645 Z0.0 E3.02574846030
G1 Z0
G1 X0.94674 Y-0.34815 Z0.0 E3.02617340067
G1 Z0
G1 X0.93178 Y-0.38661 Z0.0 E3.02640568075
G1 Z0
G1 X0.92531 Y-0.40194 Z0.0 E3.02651437091
G1 Z0
G1 X0.93567 Y-0.37669 Z0.0 E3.02594833812
G1 Z0
G1 X0.98261 Y-0.19894 Z0.0 E3.00763957636
G1 Z0
G1 X0.76224 Y0.57635 Z0.0 E2.86682790919
G1 Z0
G1 X0.35176 Y0.94466 Z0.0 E3.02407978050
G1 Z0
G1 X0.38318 Y0.93189 Z0.0 E3.02278232106
G1 Z0
G1 X0.66386 Y0.74236 Z0.0 E2.98768743727
G1 Z0
G1 X0.97756 Y0.10204 Z0.0 E2.94861347701
G1 Z0
G1 X0.90937 Y-0.42711 Z0.0 E3.01403230590
G1 Z0
G1 X0.82877 Y-0.57505 Z0.0 E3.02619892581
G1 Z0
G1 X0.91081 Y-0.40175 Z0.0 E2.98643621519
G1 Z0
G1 X0.84094 Y0.4916 Z0.0 E2.92226894594
G1 Z0
G1 X0.57644 Y0.82681 Z0.0 E3.02375274242
G1 Z0
G1 X0.51644 Y0.8666 Z0.0 E3.02644221858
G1 Z0
G1 X0.51679 Y0.8664 Z0.0 E3.02646456726
G1 Z0
G1 X0.54268 Y0.85036 Z0.0 E3.02630524039
G1 Z0
G1 X0.5867 Y0.82047 Z0.0 E3.02596946417
G1 Z0
G1 X0.65027 Y0.77077 Z0.0 E3.02529952107
G1 Z0
G1 X0.74163 Y0.68229 Z0.0 E3.02321225007
G1 Z0
G1 X0.87472 Y0.49386 Z0.0 E3.01351870776
G1 Z0
G1 X0.98778 Y0.01522 Z0.0 E2.96369175037
G1 Z0
G1 X0.73874 Y-0.66049 Z0.0 E2.97285291417
G1 Z0
G1 X0.38149 Y-0.9301 Z0.0 E3.01588886912
G1 Z0
G1 X0.17921 Y-0.99183 Z0.0 E3.02367107288
G1 Z0
G1 X0.0608 Y-1.00664 Z0.0 E3.02542336978
G1 Z0
G1 X-0.01571 Y-1.00856 Z0.0 E3.02604704182
G1 Z0
G1 X-0.06594 Y-1.00662 Z0.0 E3.02633229702
G1 Z0
G1 X-0.09322 Y-1.00451 Z0.0 E3.02647860995
G1 Z0
G1 X-0.08819 Y-1.00494 Z0.0 E3.02640660145
G1 Z0
G1 X0.00216 Y-1.00741 Z0.0 E3.02223694692
G1 Z0
G1 X0.48984 Y-0.82831 Z0.0 E2.88693022695
G1 Z0
G1 X0.99028 Y-0.14883 Z0.0 E3.00420432489
G1 Z0
G1 X1.00819 Y-0.02849 Z0.0 E3.02577738867
G1 Z0
G1 X0.97624 Y-0.23134 Z0.0 E3.00982800153
G1 Z0
G1 X0.66 Y-0.72519 Z0.0 E2.94168401174
G1 Z0
G1 X0.03474 Y-0.9982 Z0.0 E2.99641301699
G1 Z0
G1 X-0.25702 Y-0.97469 Z0.0 E3.02402362565
G1 Z0
G1 X-0.24907 Y-0.97577 Z0.0 E3.02116974369
G1 Z0
G1 X0.39807 Y-0.8633 Z0.0 E2.85196766007
G1 Z0
G1 X0.93206 Y-0.37584 Z0.0 E3.01495007302
G1 Z0
G1 X0.9803 Y-0.23774 Z0.0 E3.02614863786
G1 Z0
G1 X0.98476 Y-0.21909 Z0.0 E3.02651188190
G1 Z0
G1 X0.98012 Y-0.23882 Z0.0 E3.02638924483
G1 Z0
G1 X0.96866 Y-0.28141 Z0.0 E3.02612690634
G1 Z0
G1 X0.9472 Y-0.34639 Z0.0 E3.02565114461
G1 Z0
G1 X0.90574 Y-0.44267 Z0.0 E3.02438342286
G1 Z0
G1 X0.81256 Y-0.59391 Z0.0 E3.01941146174
G1 Z0
G1 X0.54336 Y-0.83594 Z0.0 E2.99104028037
G1 Z0
G1 Z2.2
G1 X0.705 Y0.01225 Z0.0 E2.11531925782
G1 Z0
G1 X-0.12012 Y-0.97641 Z0.0 E2.95131288116
G1 Z0
G1 X-0.67702 Y-0.74257 Z0.0 E3.01461383393
G1 Z0
G1 X-0.86054 Y-0.52933 Z0.0 E3.03091967305
G1 Z0
G1 X-0.92841 Y-0.40099 Z0.0 E3.03391545265
G1 Z0
G1 X-0.96045 Y-0.31757 Z0.0 E3.03477085899
G1 Z0
G1 X-0.97756 Y-0.26064 Z0.0 E3.03512946492
G1 Z0
G1 X-0.9867 Y-0.22387 Z0.0 E3.03533391937
G1 Z0
G1 X-0.98989 Y-0.20943 Z0.0 E3.03540577732
G1 Z0
G1 X-0.98363 Y-0.23634 Z0.0 E3.03487415761
G1 Z0
G1 X-0.91573 Y-0.41324 Z0.0 E3.01396061263
G1 Z0
G1 X-0.17373 Y-0.92881 Z0.0 E2.83475416236
G1 Z0
G1 X0.4117 Y-0.92311 Z0.0 E3.03226988556
G1 Z0
G1 X0.44201 Y-0.91001 Z0.0 E3.03503201990
G1 Z0
G1 X0.33073 Y-0.95456 Z0.0 E3.03069367282
G1 Z0
G1 X0.00052 Y-1.00011 Z0.0 E3.00033040556
G1 Z0
G1 X-0.67472 Y-0.70931 Z0.0 E2.93688777288
G1 Z0
G1 X-0.99019 Y-0.17523 Z0.0 E3.01672605667
G1 Z0
G1 X-1.00843 Y0.0711 Z0.0 E3.03280010454
G1 Z0
G1 X-1.00076 Y0.14898 Z0.0 E3.03536498003
G1 Z0
G1 X-1.00666 Y0.03152 Z0.0 E3.02146004342
G1 Z0
G1 X-0.60502 Y-0.71863 Z0.0 E2.81820944852
G1 Z0
G1 X-0.01306 Y-1.00963 Z0.0 E3.02914339451
G1 Z0
G1 X0.09487 Y-1.00729 Z0.0 E3.03524317790
G1 Z0
G1 X0.10525 Y-1.00631 Z0.0 E3.03539724046
G1 Z0
G1 X0.0827 Y-1.00837 Z0.0 E3.03526672998
G1 Z0
G1 X0.03863 Y-1.01095 Z0.0 E3.03506336253
G1 Z0
G1 X-0.02849 Y-1.01113 Z0.0 E3.03459387942
G1 Z0
G1 X-0.13039 Y-1.00269 Z0.0 E3.03339728585
G1 Z0
G1 X-0.29945 Y-0.96411 Z0.0 E3.02863096983
G1 Z0
G1 X-0.61275 Y-0.79024 Z0.0 E2.99991272888
G1 Z0
G1 X-0.96574 Y-0.18749 Z0.0 E2.95131432235
G1 Z0
G1 X-0.91543 Y0.41442 Z0.0 E3.01459851252
G1 Z0
G1 X-0.76935 Y0.65485 Z0.0 E3.03093244811
G1 Z0
G1 X-0.66826 Y0.75906 Z0.0 E3.03392346654
G1 Z0
G1 X-0.59883 Y0.81531 Z0.0 E3.03478992436
G1 Z0
G1 X-0.54997 Y0.84917 Z0.0 E3.03512935609
G1 Z0
G1 X-0.51782 Y0.86923 Z0.0 E3.03533937274
G1 Z0
G1 X-0.50507 Y0.87673 Z0.0 E3.03541772746
G1 Z0
G1 X-0.52873 Y0.86245 Z0.0 E3.03486057976
G1 Z0
G1 X-0.676 Y0.74322 Z0.0 E3.01399530783
G1 Z0
G1 X-0.93703 Y-0.12179 Z0.0 E2.83473494793
G1 Z0
G1 X-0.75071 Y-0.6768 Z0.0 E3.03226214185
G1 Z0
G1 X-0.72888 Y-0.70159 Z0.0 E3.03503727201
G1 Z0
G1 X-0.80564 Y-0.60952 Z0.0 E3.03069859273
G1 Z0
G1 X-0.951 Y-0.30954 Z0.0 E3.00032399990
G1 Z0
G1 X-0.88309 Y0.42251 Z0.0 E2.93687994882
G1 Z0
G1 X-0.47264 Y0.88758 Z0.0 E3.01673357027
G1 Z0
G1 X-0.24401 Y0.98105 Z0.0 E3.03282044365
G1 Z0
G1 X-0.16756 Y0.99781 Z0.0 E3.03534353036
G1 Z0
G1 X-0.28109 Y0.96713 Z0.0 E3.02145134414
G1 Z0
G1 X-0.87042 Y0.35334 Z0.0 E2.81821241002
G1 Z0
G1 X-0.96425 Y-0.29957 Z0.0 E3.02913885892
G1 Z0
G1 X-0.92867 Y-0.4015 Z0.0 E3.03523837122
G1 Z0
G1 X-0.92454 Y-0.41107 Z0.0 E3.03542003823
G1 Z0
G1 X-0.93346 Y-0.39026 Z0.0 E3.03526834939
G1 Z0
G1 X-0.94953 Y-0.34914 Z0.0 E3.03505414194
G1 Z0
G1 X-0.97045 Y-0.28536 Z0.0 E3.03460570567
G1 Z0
G1 X-0.99391 Y-0.18584 Z0.0 E3.03340441473
G1 Z0
G1 X-1.00946 Y-0.01313 Z0.0 E3.02863616113
G1 Z0
G1 X-0.94091 Y0.33857 Z0.0 E2.99991190821
G1 Z0
G1 X-0.47674 Y0.86054 Z0.0 E2.95132022539
G1 Z0
G1 X0.11125 Y0.99869 Z0.0 E3.01460188207
G1 Z0
G1 X0.38506 Y0.93405 Z0.0 E3.03092155209
G1 Z0
G1 X0.5154 Y0.87012 Z0.0 E3.03392712002
G1 Z0
G1 X0.59036 Y0.82146 Z0.0 E3.03478057704
G1 Z0
G1 X0.63766 Y0.78546 Z0.0 E3.03513083487
G1 Z0
G1 X0.66667 Y0.76108 Z0.0 E3.03532945456
G1 Z0
G1 X0.67774 Y0.75128 Z0.0 E3.03542061566
G1 Z0
G1 X0.65685 Y0.76937 Z0.0 E3.03487052024
G1 Z0
G1 X0.49795 Y0.87258 Z0.0 E3.01399245688
G1 Z0
G1 X-0.40539 Y0.85354 Z0.0 E2.83475647160
G1 Z0
G1 X-0.87566 Y0.50482 Z0.0 E3.03226202892
G1 Z0
G1 X-0.89248 Y0.4764 Z0.0 E3.03501195938
G1 Z0
G1 X-0.82865 Y0.57786 Z0.0 E3.03071724496
G1 Z0
G1 X-0.58827 Y0.8088 Z0.0 E3.00032853136
G1 Z0
G1 X0.12894 Y0.97043 Z0.0 E2.93687575095
G1 Z0
G1 X0.69808 Y0.72379 Z0.0 E3.01673480016
G1 Z0
G1 X0.85763 Y0.53522 Z0.0 E3.03280513513
G1 Z0
G1 X0.8972 Y0.4677 Z0.0 E3.03535832646
G1 Z0
G1 X0.83293 Y0.5662 Z0.0 E3.02145551417
G1 Z0
G1 X0.06707 Y0.93701 Z0.0 E2.81822197937
G1 Z0
G1 X-0.58288 Y0.82448 Z0.0 E3.02913309103
G1 Z0
G1 X-0.66882 Y0.75915 Z0.0 E3.03523643792
G1 Z0
G1 X-0.67664 Y0.75226 Z0.0 E3.03539637853
G1 Z0
G1 X-0.65961 Y0.76718 Z0.0 E3.0352684462
G1 Z0
G1 X-0.62547 Y0.79517 Z0.0 E3.03505723969
G1 Z0
G1 X-0.57128 Y0.83477 Z0.0 E3.03460312425
G1 Z0
G1 X-0.48388 Y0.88784 Z0.0 E3.03341350297
G1 Z0
G1 X-0.32443 Y0.956 Z0.0 E3.02864943896
G1 Z0
G1 X0.03124 Y0.99948 Z0.0 E2.99990431047
G1 Z0
G1 X0.6711 Y0.71933 Z0.0 E2.95132135324
G1 Z0
G1 X0.98419 Y0.20281 Z0.0 E3.01460721650
G1 Z0
G1 X1.00733 Y-0.07758 Z0.0 E3.03093904058
G1 Z0
G1 X0.9868 Y-0.22129 Z0.0 E3.03392345601
G1 Z0
G1 X0.96369 Y-0.30762 Z0.0 E3.03479098531
G1 Z0
G1 X0.94406 Y-0.36373 Z0.0 E3.03511765316
G1 Z0
G1 X0.92984 Y-0.39885 Z0.0 E3.03531773179
G1 Z0
G1 X0.92394 Y-0.41241 Z0.0 E3.03541169947
G1 Z0
G1 X0.93469 Y-0.38696 Z0.0 E3.03487247496
G1 Z0
G1 X0.98374 Y-0.20393 Z0.0 E3.01396524408
G1 Z0
G1 X0.68649 Y0.64931 Z0.0 E2.83475712642
G1 Z0
G1 X0.20952 Y0.9888 Z0.0 E3.03226262609
G1 Z0
G1 X0.17729 Y0.99602 Z0.0 E3.03502689617
G1 Z0
G1 X0.29351 Y0.96666 Z0.0 E3.03071230593
G1 Z0
G1 X0.58743 Y0.80941 Z0.0 E3.00032781159
G1 Z0
G1 X0.96278 Y0.17725 Z0.0 E2.93688032070
G1 Z0
G1 X0.90408 Y-0.44026 Z0.0 E3.01673757990
G1 Z0
G1 X0.77405 Y-0.65026 Z0.0 E3.03280781305
G1 Z0
G1 X0.72206 Y-0.70876 Z0.0 E3.03535869887
G1 Z0
G1 X0.79587 Y-0.6172 Z0.0 E3.02144072788
G1 Z0
G1 X0.91187 Y0.22576 Z0.0 E2.81820337636
G1 Z0
G1 X0.60401 Y0.80913 Z0.0 E3.02913765501
G1 Z0
G1 X0.51531 Y0.87068 Z0.0 E3.03523516824
G1 Z0
G1 X0.50635 Y0.87599 Z0.0 E3.03541417658
G1 Z0
G1 X0.5258 Y0.8644 Z0.0 E3.03527214595
G1 Z0
G1 X0.56297 Y0.84058 Z0.0 E3.03506006789
G1 Z0
G1 X0.61738 Y0.80128 Z0.0 E3.03461189037
G1 Z0
G1 X0.69486 Y0.73455 Z0.0 E3.03340519860
G1 Z0
G1 X0.80895 Y0.60397 Z0.0 E3.02863315220
G1 Z0
G1 X0.96022 Y0.27915 Z0.0 E2.99992075530
G1 Z0
G1 X0.8915 Y-0.41597 Z0.0 E2.95130981398
G1 Z0
G1 X0.49701 Y-0.87335 Z0.0 E3.01460320165
G1 Z0
G1 X0.2375 Y-0.982 Z0.0 E3.03093587032
G1 Z0
G1 X0.09447 Y-1.00688 Z0.0 E3.03390626712
G1 Z0
G1 X0.00523 Y-1.01158 Z0.0 E3.03478055940
G1 Z0
G1 X-0.0542 Y-1.01026 Z0.0 E3.03513857483
G1 Z0
G1 X-0.092 Y-1.00758 Z0.0 E3.03531433423
G1 Z0
G1 X-0.10671 Y-1.00616 Z0.0 E3.03540849431
G1 Z0
G1 X-0.07918 Y-1.00852 Z0.0 E3.03487043631
G1 Z0
G1 X0.11004 Y-0.99861 Z0.0 E3.01396360351
G1 Z0
G1 X0.82967 Y-0.45224 Z0.0 E2.83475923819
G1 Z0
G1 X1.00515 Y0.10629 Z0.0 E3.03226265013
G1 Z0
G1 X1.00206 Y0.13917 Z0.0 E3.03503423251
G1 Z0
G1 X1.01004 Y0.01957 Z0.0 E3.03068871356
G1 Z0
G1 X0.95132 Y-0.30856 Z0.0 E3.00032850601
G1 Z0
G1 X0.46609 Y-0.86089 Z0.0 E2.93689348152
G1 Z0
G1 X-0.13933 Y-0.99588 Z0.0 E3.01673804128
G1 Z0
G1 X-0.37924 Y-0.93711 Z0.0 E3.03281769437
G1 Z0
G1 X-0.45094 Y-0.90574 Z0.0 E3.03535936601
G1 Z0
G1 X-0.34105 Y-0.94765 Z0.0 E3.02145670580
G1 Z0
G1 X0.4965 Y-0.79748 Z0.0 E2.81822273846
G1 Z0
G1 X0.95618 Y-0.32441 Z0.0 E3.02914152269
G1 Z0
G1 X0.98731 Y-0.22104 Z0.0 E3.03525245396
G1 Z0
G1 X0.98958 Y-0.21087 Z0.0 E3.03539331878
G1 Z0
G1 X0.98458 Y-0.23295 Z0.0 E3.03528768160
G1 Z0
G1 X0.9734 Y-0.27566 Z0.0 E3.03503936719
G1 Z0
G1 X0.95284 Y-0.33955 Z0.0 E3.03459789971
G1 Z0
G1 X0.91332 Y-0.43386 Z0.0 E3.03339600085
G1 Z0
G1 X0.82439 Y-0.58273 Z0.0 E3.02865285647
G1 Z0
G1 X0.56221 Y-0.82696 Z0.0 E2.99991438733
G1 Z0
G1 Z2.2
G1 X0.66153 Y0.01149 Z0.0 E1.98488932916
G1 Z0
G1 X-0.11486 Y-0.98012 Z0.0 E2.96048176924
G1 Z0
G1 X-0.68501 Y-0.74139 Z0.0 E3.02821407595
G1 Z0
G1 X-0.86802 Y-0.52607 Z0.0 E3.0449754166
G1 Z0
G1 X-0.93479 Y-0.39799 Z0.0 E3.04795922837
G1 Z0
G1 X-0.96626 Y-0.31485 Z0.0 E3.04878667520
G1 Z0
G1 X-0.98317 Y-0.25769 Z0.0 E3.04913864313
G1 Z0
G1 X-0.99244 Y-0.21955 Z0.0 E3.04930388858
G1 Z0
G1 X-0.99638 Y-0.20109 Z0.0 E3.04940857094
G1 Z0
G1 X-0.9933 Y-0.21543 Z0.0 E3.04917936076
G1 Z0
G1 X-0.95735 Y-0.33315 Z0.0 E3.04098199682
G1 Z0
G1 X-0.37613 Y-0.84483 Z0.0 E2.77432938783
G1 Z0
G1 X0.44641 Y-0.90965 Z0.0 E3.03985280818
G1 Z0
G1 X0.54282 Y-0.85938 Z0.0 E3.04937499026
G1 Z0
G1 X0.51392 Y-0.87674 Z0.0 E3.04878355184
G1 Z0
G1 X0.41242 Y-0.92785 Z0.0 E3.04613901687
G1 Z0
G1 X0.16271 Y-0.99683 Z0.0 E3.03006622650
G1 Z0
G1 X-0.45855 Y-0.86789 Z0.0 E2.94474283960
G1 Z0
G1 X-0.95908 Y-0.29717 Z0.0 E3.01219190918
G1 Z0
G1 X-1.0136 Y0.04615 Z0.0 E3.04395023653
G1 Z0
G1 X-0.99784 Y0.19174 Z0.0 E3.04828476996
G1 Z0
G1 X-0.98549 Y0.24898 Z0.0 E3.04936620046
G1 Z0
G1 X-0.99414 Y0.20825 Z0.0 E3.04715303503
G1 Z0
G1 X-0.90349 Y-0.30216 Z0.0 E2.85803317183
G1 Z0
G1 X-0.14437 Y-0.99467 Z0.0 E3.01527775706
G1 Z0
G1 X0.08319 Y-1.01282 Z0.0 E3.04869223709
G1 Z0
G1 X0.11694 Y-1.00972 Z0.0 E3.04940731586
G1 Z0
G1 X0.10628 Y-1.01088 Z0.0 E3.04935473751
G1 Z0
G1 X0.07321 Y-1.01376 Z0.0 E3.04920012057
G1 Z0
G1 X0.02061 Y-1.0161 Z0.0 E3.04892699796
G1 Z0
G1 X-0.05728 Y-1.01449 Z0.0 E3.04831734347
G1 Z0
G1 X-0.17835 Y-0.99969 Z0.0 E3.04642402948
G1 Z0
G1 X-0.39095 Y-0.93388 Z0.0 E3.03722962782
G1 Z0
G1 X-0.77484 Y-0.62281 Z0.0 E2.98235207434
G1 Z0
G1 X-0.99086 Y0.106 Z0.0 E2.98954107789
G1 Z0
G1 X-0.85224 Y0.54745 Z0.0 E3.03877124524
G1 Z0
G1 X-0.72312 Y0.71307 Z0.0 E3.04669365603
G1 Z0
G1 X-0.63667 Y0.79194 Z0.0 E3.04838627351
G1 Z0
G1 X-0.57633 Y0.83711 Z0.0 E3.04896454374
G1 Z0
G1 X-0.53371 Y0.86501 Z0.0 E3.04922907926
G1 Z0
G1 X-0.5066 Y0.88122 Z0.0 E3.04938194321
G1 Z0
G1 X-0.49936 Y0.88536 Z0.0 E3.04942693843
G1 Z0
G1 X-0.53388 Y0.86461 Z0.0 E3.04847580907
G1 Z0
G1 X-0.73225 Y0.68062 Z0.0 E2.99915035003
G1 Z0
G1 X-0.89132 Y-0.37401 Z0.0 E2.89982989199
G1 Z0
G1 X-0.67424 Y-0.75999 Z0.0 E3.04789425658
G1 Z0
G1 X-0.65243 Y-0.77941 Z0.0 E3.04931200060
G1 Z0
G1 X-0.7005 Y-0.73596 Z0.0 E3.04812013287
G1 Z0
G1 X-0.8039 Y-0.61862 Z0.0 E3.04310913863
G1 Z0
G1 X-0.96253 Y-0.27775 Z0.0 E3.00540871939
G1 Z0
G1 X-0.84945 Y0.49595 Z0.0 E2.95089568521
G1 Z0
G1 X-0.42625 Y0.91676 Z0.0 E3.03302516325
G1 Z0
G1 X-0.19886 Y0.99585 Z0.0 E3.04653289805
G1 Z0
G1 X-0.0939 Y1.01195 Z0.0 E3.04889162033
G1 Z0
G1 X-0.06724 Y1.01423 Z0.0 E3.04936934373
G1 Z0
G1 X-0.19933 Y0.99195 Z0.0 E3.03533775099
G1 Z0
G1 X-0.85122 Y0.37327 Z0.0 E2.78839628312
G1 Z0
G1 X-0.96488 Y-0.31323 Z0.0 E3.04334651752
G1 Z0
G1 X-0.92889 Y-0.41264 Z0.0 E3.04925820738
G1 Z0
G1 X-0.92454 Y-0.42241 Z0.0 E3.04939990446
G1 Z0
G1 X-0.93295 Y-0.4034 Z0.0 E3.04928604144
G1 Z0
G1 X-0.94834 Y-0.36559 Z0.0 E3.04910531686
G1 Z0
G1 X-0.96861 Y-0.30749 Z0.0 E3.04873726152
G1 Z0
G1 X-0.99218 Y-0.21844 Z0.0 E3.04782458058
G1 Z0
G1 X-1.01252 Y-0.06843 Z0.0 E3.04448924086
G1 Z0
G1 X-0.98126 Y0.23176 Z0.0 E3.02477353975
G1 Z0
G1 X-0.61772 Y0.76857 Z0.0 E2.95812450544
G1 Z0
G1 X0.02736 Y1.00593 Z0.0 E3.01890602876
G1 Z0
G1 X0.35483 Y0.95046 Z0.0 E3.04360096999
G1 Z0
G1 X0.50236 Y0.88298 Z0.0 E3.04765044748
G1 Z0
G1 X0.58447 Y0.83133 Z0.0 E3.04867721286
G1 Z0
G1 X0.63603 Y0.79275 Z0.0 E3.04907863306
G1 Z0
G1 X0.66908 Y0.76515 Z0.0 E3.04927911482
G1 Z0
G1 X0.68655 Y0.74957 Z0.0 E3.04940236548
G1 Z0
G1 X0.6824 Y0.75332 Z0.0 E3.04933550821
G1 Z0
G1 X0.61595 Y0.80696 Z0.0 E3.04552287742
G1 Z0
G1 X0.04826 Y0.94258 Z0.0 E2.83144393481
G1 Z0
G1 X-0.85419 Y0.53555 Z0.0 E3.02458083499
G1 Z0
G1 X-0.94256 Y0.38039 Z0.0 E3.04926928153
G1 Z0
G1 X-0.93628 Y0.39536 Z0.0 E3.04899457395
G1 Z0
G1 X-0.89414 Y0.48176 Z0.0 E3.04700038313
G1 Z0
G1 X-0.76821 Y0.65899 Z0.0 E3.03640079993
G1 Z0
G1 X-0.30379 Y0.93961 Z0.0 E2.96249858157
G1 Z0
G1 X0.4973 Y0.86531 Z0.0 E2.99409722202
G1 Z0
G1 X0.8201 Y0.59618 Z0.0 E3.04170205997
G1 Z0
G1 X0.91078 Y0.45015 Z0.0 E3.04785122309
G1 Z0
G1 X0.94145 Y0.3831 Z0.0 E3.04923652944
G1 Z0
G1 X0.93597 Y0.3957 Z0.0 E3.04853489042
G1 Z0
G1 X0.72329 Y0.66822 Z0.0 E2.95414920620
G1 Z0
G1 X-0.33607 Y0.92898 Z0.0 E2.96370072168
G1 Z0
G1 X-0.64823 Y0.78234 Z0.0 E3.04800296530
G1 Z0
G1 X-0.68678 Y0.74936 Z0.0 E3.04940397488
G1 Z0
G1 X-0.68331 Y0.75252 Z0.0 E3.04939176862
G1 Z0
G1 X-0.66132 Y0.77185 Z0.0 E3.04924073895
G1 Z0
G1 X-0.62365 Y0.80249 Z0.0 E3.04899421177
G1 Z0
G1 X-0.56522 Y0.84446 Z0.0 E3.04848766768
G1 Z0
G1 X-0.46993 Y0.90042 Z0.0 E3.04701713676
G1 Z0
G1 X-0.28943 Y0.97133 Z0.0 E3.04060277646
G1 Z0
G1 X0.13033 Y0.99129 Z0.0 E2.99946261137
G1 Z0
G1 X0.7786 Y0.61287 Z0.0 E2.97261641859
G1 Z0
G1 X1.00412 Y0.12206 Z0.0 E3.03453465329
G1 Z0
G1 X1.00817 Y-0.12033 Z0.0 E3.04597677604
G1 Z0
G1 X0.98536 Y-0.2479 Z0.0 E3.04819596752
G1 Z0
G1 X0.96246 Y-0.32636 Z0.0 E3.04886223218
G1 Z0
G1 X0.94344 Y-0.37813 Z0.0 E3.04918874039
G1 Z0
G1 X0.92973 Y-0.41081 Z0.0 E3.04933838086
G1 Z0
G1 X0.92404 Y-0.42351 Z0.0 E3.04940908625
G1 Z0
G1 X0.93439 Y-0.39976 Z0.0 E3.04893990877
G1 Z0
G1 X0.98414 Y-0.22641 Z0.0 E3.02954406624
G1 Z0
G1 X0.65848 Y0.66422 Z0.0 E2.80589683866
G1 Z0
G1 X0.12779 Y1.00712 Z0.0 E3.04558513368
G1 Z0
G1 X0.06597 Y1.01432 Z0.0 E3.04938910762
G1 Z0
G1 X0.11533 Y1.0096 Z0.0 E3.04849774809
G1 Z0
G1 X0.24638 Y0.98461 Z0.0 E3.04490387508
G1 Z0
G1 X0.52979 Y0.85606 Z0.0 E3.02020620311
G1 Z0
G1 X0.94268 Y0.26795 Z0.0 E2.94006548636
G1 Z0
G1 X0.91788 Y-0.41726 Z0.0 E3.02481179877
G1 Z0
G1 X0.76821 Y-0.66361 Z0.0 E3.04544307545
G1 Z0
G1 X0.68165 Y-0.75368 Z0.0 E3.04862631100
G1 Z0
G1 X0.6492 Y-0.78214 Z0.0 E3.04939872375
G1 Z0
G1 X0.70699 Y-0.72775 Z0.0 E3.04386174183
G1 Z0
G1 X0.92604 Y-0.04943 Z0.0 E2.78207488370
G1 Z0
G1 X0.64016 Y0.78363 Z0.0 E3.03560986006
G1 Z0
G1 X0.5168 Y0.87516 Z0.0 E3.04907943327
G1 Z0
G1 X0.49871 Y0.88573 Z0.0 E3.04943661567
G1 Z0
G1 X0.51259 Y0.87773 Z0.0 E3.04933208244
G1 Z0
G1 X0.54418 Y0.85843 Z0.0 E3.04914831317
G1 Z0
G1 X0.59136 Y0.82651 Z0.0 E3.04884057755
G1 Z0
G1 X0.65788 Y0.77428 Z0.0 E3.04808800975
G1 Z0
G1 X0.75442 Y0.67932 Z0.0 E3.04559136937
G1 Z0
G1 X0.89757 Y0.46473 Z0.0 E3.03223562742
G1 Z0
G1 X0.98367 Y-0.10151 Z0.0 E2.96668140200
G1 Z0
G1 X0.65235 Y-0.76051 Z0.0 E3.00589817582
G1 Z0
G1 X0.31647 Y-0.96323 Z0.0 E3.04165869949
G1 Z0
G1 X0.13786 Y-1.00634 Z0.0 E3.04721679189
G1 Z0
G1 X0.032 Y-1.01568 Z0.0 E3.04855191224
G1 Z0
G1 X-0.03763 Y-1.01564 Z0.0 E3.04901059993
G1 Z0
G1 X-0.08448 Y-1.0129 Z0.0 E3.04925064952
G1 Z0
G1 X-0.11196 Y-1.01028 Z0.0 E3.04939444480
G1 Z0
G1 X-0.11389 Y-1.01006 Z0.0 E3.04938177690
G1 Z0
G1 X-0.05477 Y-1.01436 Z0.0 E3.04751270096
G1 Z0
G1 X0.34005 Y-0.91528 Z0.0 E2.92922230773
G1 Z0
G1 X0.99329 Y-0.05055 Z0.0 E2.98372635129
G1 Z0
G1 X0.98844 Y0.23624 Z0.0 E3.04883694887
G1 Z0
G1 X0.98759 Y0.24025 Z0.0 E3.04917802619
G1 Z0
G1 X1.00294 Y0.16165 Z0.0 E3.04765061890
G1 Z0
G1 X1.01325 Y-0.02193 Z0.0 E3.04046187060
G1 Z0
G1 X0.88385 Y-0.45712 Z0.0 E2.98518770802
G1 Z0
G1 X0.2452 Y-0.95977 Z0.0 E2.97178960159
G1 Z0
G1 X-0.25957 Y-0.97893 Z0.0 E3.03827661153
G1 Z0
G1 X-0.45036 Y-0.91047 Z0.0 E3.04729679462
G1 Z0
G1 X-0.52894 Y-0.86788 Z0.0 E3.04908821814
G1 Z0
G1 X-0.536 Y-0.86355 Z0.0 E3.04911977831
G1 Z0
G1 X-0.33479 Y-0.9466 Z0.0 E3.01217913426
G1 Z0
G1 X0.6712 Y-0.68234 Z0.0 E2.87138918303
G1 Z0
G1 X0.9769 Y-0.27737 Z0.0 E3.04654058599
G1 Z0
G1 X0.99532 Y-0.2062 Z0.0 E3.04936437337
G1 Z0
G1 X0.9958 Y-0.20393 Z0.0 E3.04940088609
G1 Z0
G1 X0.9904 Y-0.22851 Z0.0 E3.04925906097
G1 Z0
G1 X0.97935 Y-0.27176 Z0.0 E3.04906859236
G1 Z0
G1 X0.95934 Y-0.33519 Z0.0 E3.04863414422
G1 Z0
G1 X0.92111 Y-0.42832 Z0.0 E3.04747680721
G1 Z0
G1 X0.83512 Y-0.57565 Z0.0 E3.04289090046
G1 Z0
G1 X0.57821 Y-0.82161 Z0.0 E3.01402192524
G1 Z0
G1 Z2.2
G1 X0.6179 Y0.01074 Z0.0 E1.85397999407
G1 Z0
G1 X-0.10763 Y-0.98137 Z0.0 E2.96176326606
G1 Z0
G1 X-0.68703 Y-0.74126 Z0.0 E3.03204377879
G1 Z0
G1 X-0.87049 Y-0.52471 Z0.0 E3.04920658825
G1 Z0
G1 X-0.93684 Y-0.39676 Z0.0 E3.05217777149
G1 Z0
G1 X-0.9681 Y-0.31374 Z0.0 E3.05300730074
G1 Z0
G1 X-0.98499 Y-0.25624 Z0.0 E3.05332247548
G1 Z0
G1 X-0.99448 Y-0.21677 Z0.0 E3.05349264445
G1 Z0
G1 X-0.99908 Y-0.19469 Z0.0 E3.05361840813
G1 Z0
G1 X-0.99831 Y-0.19847 Z0.0 E3.05354200446
G1 Z0
G1 X-0.98031 Y-0.27036 Z0.0 E3.05072450924
G1 Z0
G1 X-0.65375 Y-0.68846 Z0.0 E2.84820928074
G1 Z0
G1 X0.39323 Y-0.92615 Z0.0 E3.01851832835
G1 Z0
G1 X0.58748 Y-0.83106 Z0.0 E3.05321818185
G1 Z0
G1 X0.59537 Y-0.82556 Z0.0 E3.05354429385
G1 Z0
G1 X0.55474 Y-0.85316 Z0.0 E3.05296021573
G1 Z0
G1 X0.46581 Y-0.90416 Z0.0 E3.05128798302
G1 Z0
G1 X0.27411 Y-0.9765 Z0.0 E3.04272852534
G1 Z0
G1 X-0.22277 Y-0.96745 Z0.0 E2.97830048494
G1 Z0
G1 X-0.87567 Y-0.47275 Z0.0 E2.98540024161
G1 Z0
G1 X-1.01435 Y-0.02324 Z0.0 E3.04384858048
G1 Z0
G1 X-1.00254 Y0.17182 Z0.0 E3.05147129693
G1 Z0
G1 X-0.98171 Y0.26816 Z0.0 E3.05302780651
G1 Z0
G1 X-0.9687 Y0.31248 Z0.0 E3.05355710010
G1 Z0
G1 X-0.97301 Y0.29825 Z0.0 E3.05308265584
G1 Z0
G1 X-1.00064 Y0.05087 Z0.0 E3.00579664956
G1 Z0
G1 X-0.39717 Y-0.8754 Z0.0 E2.88385549570
G1 Z0
G1 X0.05497 Y-1.01561 Z0.0 E3.05128962195
G1 Z0
G1 X0.12116 Y-1.01062 Z0.0 E3.05357049534
G1 Z0
G1 X0.1228 Y-1.01044 Z0.0 E3.05362399493
G1 Z0
G1 X0.09918 Y-1.01299 Z0.0 E3.05350105821
G1 Z0
G1 X0.05764 Y-1.01614 Z0.0 E3.05332045858
G1 Z0
G1 X-0.00367 Y-1.01765 Z0.0 E3.05296985288
G1 Z0
G1 X-0.09459 Y-1.01295 Z0.0 E3.05207056527
G1 Z0
G1 X-0.24158 Y-0.98715 Z0.0 E3.04884144719
G1 Z0
G1 X-0.51511 Y-0.86857 Z0.0 E3.02948335744
G1 Z0
G1 X-0.91898 Y-0.35908 Z0.0 E2.95992638104
G1 Z0
G1 X-0.94912 Y0.33789 Z0.0 E3.02241390920
G1 Z0
G1 X-0.79384 Y0.634 Z0.0 E3.04782570210
G1 Z0
G1 X-0.68396 Y0.75304 Z0.0 E3.05185758331
G1 Z0
G1 X-0.60956 Y0.81486 Z0.0 E3.05287436997
G1 Z0
G1 X-0.5567 Y0.85201 Z0.0 E3.05328075534
G1 Z0
G1 X-0.51927 Y0.8754 Z0.0 E3.05347317593
G1 Z0
G1 X-0.49641 Y0.88861 Z0.0 E3.05359715447
G1 Z0
G1 X-0.49382 Y0.89005 Z0.0 E3.0535921067
G1 Z0
G1 X-0.53791 Y0.86357 Z0.0 E3.05219639227
G1 Z0
G1 X-0.78045 Y0.60173 Z0.0 E2.95645577653
G1 Z0
G1 X-0.82855 Y-0.53522 Z0.0 E2.95915527779
G1 Z0
G1 X-0.62054 Y-0.80643 Z0.0 E3.05263707776
G1 Z0
G1 X-0.59804 Y-0.82365 Z0.0 E3.05359795600
G1 Z0
G1 X-0.62938 Y-0.79976 Z0.0 E3.05313235514
G1 Z0
G1 X-0.69734 Y-0.74064 Z0.0 E3.05179884114
G1 Z0
G1 X-0.81311 Y-0.60805 Z0.0 E3.04595700419
G1 Z0
G1 X-0.97409 Y-0.22691 Z0.0 E3.00050917109
G1 Z0
G1 X-0.81205 Y0.56195 Z0.0 E2.96258620887
G1 Z0
G1 X-0.39325 Y0.93374 Z0.0 E3.03951370303
G1 Z0
G1 X-0.17457 Y1.00184 Z0.0 E3.05080688253
G1 Z0
G1 X-0.06329 Y1.01565 Z0.0 E3.05286012117
G1 Z0
G1 X-0.00755 Y1.0178 Z0.0 E3.05348400724
G1 Z0
G1 X-0.00641 Y1.01779 Z0.0 E3.05343055428
G1 Z0
G1 X-0.16275 Y0.99882 Z0.0 E3.03597769987
G1 Z0
G1 X-0.86555 Y0.32817 Z0.0 E2.77702199534
G1 Z0
G1 X-0.95996 Y-0.33353 Z0.0 E3.04875206642
G1 Z0
G1 X-0.92599 Y-0.42252 Z0.0 E3.05349401088
G1 Z0
G1 X-0.92211 Y-0.43103 Z0.0 E3.05363118549
G1 Z0
G1 X-0.93025 Y-0.41308 Z0.0 E3.05352277543
G1 Z0
G1 X-0.94503 Y-0.37789 Z0.0 E3.05334946853
G1 Z0
G1 X-0.96458 Y-0.32445 Z0.0 E3.05305443943
G1 Z0
G1 X-0.98775 Y-0.24402 Z0.0 E3.05233720387
G1 Z0
G1 X-1.0104 Y-0.11245 Z0.0 E3.04991450085
G1 Z0
G1 X-1.00229 Y0.14195 Z0.0 E3.03687593085
G1 Z0
G1 X-0.74423 Y0.6526 Z0.0 E2.96949246103
G1 Z0
G1 X-0.08154 Y0.99962 Z0.0 E3.00882040740
G1 Z0
G1 X0.31294 Y0.96585 Z0.0 E3.04584618701
G1 Z0
G1 X0.48253 Y0.89541 Z0.0 E3.05145021604
G1 Z0
G1 X0.5733 Y0.84072 Z0.0 E3.05276056637
G1 Z0
G1 X0.62961 Y0.79962 Z0.0 E3.05322912152
G1 Z0
G1 X0.66649 Y0.76924 Z0.0 E3.05343280249
G1 Z0
G1 X0.68896 Y0.74925 Z0.0 E3.05358363188
G1 Z0
G1 X0.6954 Y0.74329 Z0.0 E3.05361272215
G1 Z0
G1 X0.66945 Y0.76643 Z0.0 E3.05290095264
G1 Z0
G1 X0.471 Y0.88843 Z0.0 E3.01667694394
G1 Z0
G1 X-0.5964 Y0.73992 Z0.0 E2.85106490589
G1 Z0
G1 X-0.95034 Y0.36243 Z0.0 E3.05131358344
G1 Z0
G1 X-0.96861 Y0.31282 Z0.0 E3.05361345958
G1 Z0
G1 X-0.95913 Y0.34044 Z0.0 E3.05327164768
G1 Z0
G1 X-0.92956 Y0.41357 Z0.0 E3.05222827562
G1 Z0
G1 X-0.85607 Y0.54723 Z0.0 E3.04808934584
G1 Z0
G1 X-0.61757 Y0.79413 Z0.0 E3.01799875020
G1 Z0
G1 X0.11548 Y0.9752 Z0.0 E2.94604073862
G1 Z0
G1 X0.7135 Y0.71614 Z0.0 E3.03272958676
G1 Z0
G1 X0.8828 Y0.50419 Z0.0 E3.04990009097
G1 Z0
G1 X0.93989 Y0.38987 Z0.0 E3.05262615808
G1 Z0
G1 X0.96327 Y0.32868 Z0.0 E3.05340411962
G1 Z0
G1 X0.96788 Y0.31503 Z0.0 E3.05357501262
G1 Z0
G1 X0.93011 Y0.40769 Z0.0 E3.04661151672
G1 Z0
G1 X0.2964 Y0.86588 Z0.0 E2.74561654453
G1 Z0
G1 X-0.57115 Y0.8381 Z0.0 E3.04263297039
G1 Z0
G1 X-0.68184 Y0.75563 Z0.0 E3.05334936463
G1 Z0
G1 X-0.6957 Y0.74301 Z0.0 E3.05361444045
G1 Z0
G1 X-0.68444 Y0.75336 Z0.0 E3.05353641354
G1 Z0
G1 X-0.65835 Y0.77621 Z0.0 E3.05341451156
G1 Z0
G1 X-0.61715 Y0.80924 Z0.0 E3.05314452670
G1 Z0
G1 X-0.55394 Y0.85352 Z0.0 E3.05255847217
G1 Z0
G1 X-0.44902 Y0.9124 Z0.0 E3.05071048833
G1 Z0
G1 X-0.24181 Y0.98467 Z0.0 E3.04177970356
G1 Z0
G1 X0.24949 Y0.96361 Z0.0 E2.98615227840
G1 Z0
G1 X0.86325 Y0.49927 Z0.0 E2.99169514801
G1 Z0
G1 X1.01277 Y0.05575 Z0.0 E3.04290982755
G1 Z0
G1 X1.0052 Y-0.15428 Z0.0 E3.05091203177
G1 Z0
G1 X0.98146 Y-0.26854 Z0.0 E3.05260498080
G1 Z0
G1 X0.95908 Y-0.34048 Z0.0 E3.05317043271
G1 Z0
G1 X0.94067 Y-0.38868 Z0.0 E3.05342262415
G1 Z0
G1 X0.92736 Y-0.41955 Z0.0 E3.05355022046
G1 Z0
G1 X0.92159 Y-0.43215 Z0.0 E3.05364303012
G1 Z0
G1 X0.93062 Y-0.41204 Z0.0 E3.05327282011
G1 Z0
G1 X0.97803 Y-0.26419 Z0.0 E3.0392517719
G1 Z0
G1 X0.68496 Y0.61302 Z0.0 E2.7576572481
G1 Z0
G1 X0.08619 Y1.01242 Z0.0 E3.04824650455
G1 Z0
G1 X-0.00052 Y1.01786 Z0.0 E3.05358039848
G1 Z0
G1 X0.01755 Y1.01764 Z0.0 E3.05337396152
G1 Z0
G1 X0.08599 Y1.01387 Z0.0 E3.05253008388
G1 Z0
G1 X0.21742 Y0.99299 Z0.0 E3.04954182928
G1 Z0
G1 X0.48326 Y0.88688 Z0.0 E3.02999459702
G1 Z0
G1 X0.91224 Y0.36132 Z0.0 E2.94357021999
G1 Z0
G1 X0.93612 Y-0.37219 Z0.0 E3.02218703169
G1 Z0
G1 X0.77695 Y-0.65498 Z0.0 E3.04858178931
G1 Z0
G1 X0.6758 Y-0.76058 Z0.0 E3.05232504619
G1 Z0
G1 X0.61763 Y-0.80894 Z0.0 E3.05330258319
G1 Z0
G1 X0.59689 Y-0.82449 Z0.0 E3.05361308777
G1 Z0
G1 X0.64537 Y-0.78585 Z0.0 E3.05066614604
G1 Z0
G1 X0.90004 Y-0.26719 Z0.0 E2.81658702676
G1 Z0
G1 X0.67782 Y0.74706 Z0.0 E3.02619354371
G1 Z0
G1 X0.51817 Y0.87588 Z0.0 E3.05303018487
G1 Z0
G1 X0.49175 Y0.89121 Z0.0 E3.05363061607
G1 Z0
G1 X0.50082 Y0.88612 Z0.0 E3.05356577483
G1 Z0
G1 X0.52769 Y0.87034 Z0.0 E3.05344658792
G1 Z0
G1 X0.56886 Y0.84391 Z0.0 E3.05320685334
G1 Z0
G1 X0.62651 Y0.80184 Z0.0 E3.05272984250
G1 Z0
G1 X0.70842 Y0.72982 Z0.0 E3.05130548441
G1 Z0
G1 X0.83087 Y0.58303 Z0.0 E3.04506493202
G1 Z0
G1 X0.98221 Y0.19457 Z0.0 E3.00388843351
G1 Z0
G1 X0.82661 Y-0.54729 Z0.0 E2.97410388618
G1 Z0
G1 X0.42504 Y-0.91936 Z0.0 E3.03857471536
G1 Z0
G1 X0.19506 Y-0.99784 Z0.0 E3.05017993286
G1 Z0
G1 X0.06698 Y-1.01526 Z0.0 E3.0524011355
G1 Z0
G1 X-0.01461 Y-1.01759 Z0.0 E3.05308462736
G1 Z0
G1 X-0.07019 Y-1.01537 Z0.0 E3.05337941583
G1 Z0
G1 X-0.10716 Y-1.01219 Z0.0 E3.05354003663
G1 Z0
G1 X-0.12544 Y-1.01011 Z0.0 E3.05360715406
G1 Z0
G1 X-0.11351 Y-1.01147 Z0.0 E3.05345783154
G1 Z0
G1 X-0.00714 Y-1.01579 Z0.0 E3.04744527979
G1 Z0
G1 X0.63357 Y-0.66543 Z0.0 E2.75642381868
G1 Z0
G1 X0.99801 Y0.17642 Z0.0 E3.04044927412
G1 Z0
G1 X0.96929 Y0.31056 Z0.0 E3.05347925477
G1 Z0
G1 X0.97093 Y0.30539 Z0.0 E3.05347556941
G1 Z0
G1 X0.9867 Y0.24882 Z0.0 E3.05276834064
G1 Z0
G1 X1.00797 Y0.13412 Z0.0 E3.05056146598
G1 Z0
G1 X1.00694 Y-0.10678 Z0.0 E3.03775759204
G1 Z0
G1 X0.75201 Y-0.63692 Z0.0 E2.95646328212
G1 Z0
G1 X0.04697 Y-1.00104 Z0.0 E3.00642401575
G1 Z0
G1 X-0.34127 Y-0.95651 Z0.0 E3.04670138625
G1 Z0
G1 X-0.49532 Y-0.88859 Z0.0 E3.05195131260
G1 Z0
G1 X-0.56927 Y-0.84363 Z0.0 E3.05319819013
G1 Z0
G1 X-0.59912 Y-0.82287 Z0.0 E3.05361069911
G1 Z0
G1 X-0.57017 Y-0.84267 Z0.0 E3.05232354448
G1 Z0
G1 X-0.19644 Y-0.95672 Z0.0 E2.93003694311
G1 Z0
G1 X0.8477 Y-0.51816 Z0.0 E2.98056465798
G1 Z0
G1 X0.98914 Y-0.23852 Z0.0 E3.05247564609
G1 Z0
G1 X0.99925 Y-0.19382 Z0.0 E3.05362093163
G1 Z0
G1 X0.99831 Y-0.19855 Z0.0 E3.05358881112
G1 Z0
G1 X0.99253 Y-0.22548 Z0.0 E3.05345923204
G1 Z0
G1 X0.98147 Y-0.26934 Z0.0 E3.05326817828
G1 Z0
G1 X0.96178 Y-0.33246 Z0.0 E3.05285993455
G1 Z0
G1 X0.92441 Y-0.42458 Z0.0 E3.05175657950
G1 Z0
G1 X0.84054 Y-0.57033 Z0.0 E3.04730277532
G1 Z0
G1 X0.58863 Y-0.8161 Z0.0 E3.01869845829
G1 Z0
G1 Z2.2
G1 X0.57419 Y0.00998 Z0.0 E1.72283017402
G1 Z0
G1 X-0.10322 Y-0.98809 Z0.0 E2.98040030004
G1 Z0
G1 X-0.69393 Y-0.74468 Z0.0 E3.05365098295
G1 Z0
G1 X-0.87839 Y-0.5258 Z0.0 E3.07120687823
G1 Z0
G1 X-0.94458 Y-0.39728 Z0.0 E3.07417712131
G1 Z0
G1 X-0.97573 Y-0.31397 Z0.0 E3.07500174702
G1 Z0
G1 X-0.99264 Y-0.25599 Z0.0 E3.07535127218
G1 Z0
G1 X-1.00226 Y-0.21552 Z0.0 E3.07551065711
G1 Z0
G1 X-1.00723 Y-0.19115 Z0.0 E3.07562275947
G1 Z0
G1 X-1.00765 Y-0.18893 Z0.0 E3.07562637630
G1 Z0
G1 X-0.99663 Y-0.23846 Z0.0 E3.07428215304
G1 Z0
G1 X-0.82339 Y-0.55208 Z0.0 E2.97403274469
G1 Z0
G1 X0.28865 Y-0.94929 Z0.0 E2.97661434173
G1 Z0
G1 X0.61196 Y-0.82208 Z0.0 E3.07453982118
G1 Z0
G1 X0.64105 Y-0.80007 Z0.0 E3.07563228729
G1 Z0
G1 X0.62255 Y-0.81446 Z0.0 E3.07542230383
G1 Z0
G1 X0.57469 Y-0.8487 Z0.0 E3.07490529527
G1 Z0
G1 X0.48651 Y-0.90159 Z0.0 E3.07343595570
G1 Z0
G1 X0.30764 Y-0.97475 Z0.0 E3.06643431185
G1 Z0
G1 X-0.14749 Y-0.99315 Z0.0 E3.01212582795
G1 Z0
G1 X-0.83669 Y-0.54418 Z0.0 E2.99426756595
G1 Z0
G1 X-1.01972 Y-0.05445 Z0.0 E3.06351809658
G1 Z0
G1 X-1.01135 Y0.16251 Z0.0 E3.07297004597
G1 Z0
G1 X-0.9881 Y0.2723 Z0.0 E3.07480082282
G1 Z0
G1 X-0.96921 Y0.33394 Z0.0 E3.07537892451
G1 Z0
G1 X-0.95934 Y0.36156 Z0.0 E3.07563486500
G1 Z0
G1 X-0.96692 Y0.34018 Z0.0 E3.07504641741
G1 Z0
G1 X-1.00531 Y0.09935 Z0.0 E3.03062164702
G1 Z0
G1 X-0.40833 Y-0.86997 Z0.0 E2.88309394717
G1 Z0
G1 X0.06186 Y-1.02256 Z0.0 E3.07328822579
G1 Z0
G1 X0.12886 Y-1.01706 Z0.0 E3.07557205879
G1 Z0
G1 X0.13158 Y-1.01673 Z0.0 E3.07562655466
G1 Z0
G1 X0.10968 Y-1.01929 Z0.0 E3.07552211153
G1 Z0
G1 X0.07079 Y-1.02268 Z0.0 E3.07538135172
G1 Z0
G1 X0.01375 Y-1.02493 Z0.0 E3.07506668328
G1 Z0
G1 X-0.06964 Y-1.02242 Z0.0 E3.07436684116
G1 Z0
G1 X-0.20112 Y-1.00406 Z0.0 E3.07201426462
G1 Z0
G1 X-0.44006 Y-0.91985 Z0.0 E3.05908343052
G1 Z0
G1 X-0.85178 Y-0.51717 Z0.0 E2.98947249455
G1 Z0
G1 X-0.98238 Y0.2338 Z0.0 E3.02945475946
G1 Z0
G1 X-0.82585 Y0.60306 Z0.0 E3.06779827807
G1 Z0
G1 X-0.70553 Y0.74283 Z0.0 E3.07345423070
G1 Z0
G1 X-0.62511 Y0.81223 Z0.0 E3.07478792195
G1 Z0
G1 X-0.56827 Y0.85315 Z0.0 E3.07524981727
G1 Z0
G1 X-0.5273 Y0.87914 Z0.0 E3.07544986407
G1 Z0
G1 X-0.49986 Y0.89507 Z0.0 E3.07556383782
G1 Z0
G1 X-0.48865 Y0.90127 Z0.0 E3.07564593518
G1 Z0
G1 X-0.50787 Y0.89045 Z0.0 E3.07530457916
G1 Z0
G1 X-0.63221 Y0.80114 Z0.0 E3.06163894888
G1 Z0
G1 X-0.9103 Y-0.11044 Z0.0 E2.75092489036
G1 Z0
G1 X-0.63952 Y-0.79899 Z0.0 E3.07023413676
G1 Z0
G1 X-0.56601 Y-0.85478 Z0.0 E3.07557238843
G1 Z0
G1 X-0.5707 Y-0.85164 Z0.0 E3.07553289958
G1 Z0
G1 X-0.60746 Y-0.82568 Z0.0 E3.07519040484
G1 Z0
G1 X-0.67174 Y-0.77388 Z0.0 E3.07426803288
G1 Z0
G1 X-0.77468 Y-0.66903 Z0.0 E3.07076084867
G1 Z0
G1 X-0.93467 Y-0.3972 Z0.0 E3.04670028721
G1 Z0
G1 X-0.93312 Y0.32465 Z0.0 E2.96394922563
G1 Z0
G1 X-0.50437 Y0.88245 Z0.0 E3.04925628549
G1 Z0
G1 X-0.2247 Y0.99873 Z0.0 E3.07108536614
G1 Z0
G1 X-0.08378 Y1.02134 Z0.0 E3.07431136289
G1 Z0
G1 X-0.00333 Y1.02506 Z0.0 E3.07519622667
G1 Z0
G1 X0.0401 Y1.0244 Z0.0 E3.07555366235
G1 Z0
G1 X0.04338 Y1.02427 Z0.0 E3.07556461738
G1 Z0
G1 X-0.05824 Y1.02137 Z0.0 E3.06908735140
G1 Z0
G1 X-0.7088 Y0.57585 Z0.0 E2.73970910180
G1 Z0
G1 X-0.9789 Y-0.2916 Z0.0 E3.06422615517
G1 Z0
G1 X-0.9333 Y-0.42404 Z0.0 E3.07534214428
G1 Z0
G1 X-0.9251 Y-0.44188 Z0.0 E3.07564814301
G1 Z0
G1 X-0.93096 Y-0.42934 Z0.0 E3.07557705395
G1 Z0
G1 X-0.94406 Y-0.39961 Z0.0 E3.07545718899
G1 Z0
G1 X-0.96212 Y-0.3537 Z0.0 E3.07522474945
G1 Z0
G1 X-0.98422 Y-0.28595 Z0.0 E3.07475327435
G1 Z0
G1 X-1.00849 Y-0.18017 Z0.0 E3.07337270454
G1 Z0
G1 X-1.02236 Y0.00939 Z0.0 E3.06720936281
G1 Z0
G1 X-0.91981 Y0.41364 Z0.0 E3.02561338761
G1 Z0
G1 X-0.35195 Y0.93356 Z0.0 E2.99309667149
G1 Z0
G1 X0.20099 Y1.00013 Z0.0 E3.06037791343
G1 Z0
G1 X0.43457 Y0.92729 Z0.0 E3.07220775030
G1 Z0
G1 X0.54853 Y0.86565 Z0.0 E3.07442933739
G1 Z0
G1 X0.61603 Y0.81927 Z0.0 E3.07510433062
G1 Z0
G1 X0.66003 Y0.78438 Z0.0 E3.07539010008
G1 Z0
G1 X0.68889 Y0.75922 Z0.0 E3.07552596551
G1 Z0
G1 X0.70445 Y0.74485 Z0.0 E3.07562382697
G1 Z0
G1 X0.70127 Y0.74782 Z0.0 E3.07556975010
G1 Z0
G1 X0.64573 Y0.79511 Z0.0 E3.07286581305
G1 Z0
G1 X0.12706 Y0.94251 Z0.0 E2.85310779560
G1 Z0
G1 X-0.88797 Y0.48833 Z0.0 E3.04016647376
G1 Z0
G1 X-0.98312 Y0.29019 Z0.0 E3.07516122090
G1 Z0
G1 X-0.98851 Y0.27186 Z0.0 E3.07563634347
G1 Z0
G1 X-0.97975 Y0.30159 Z0.0 E3.07535352690
G1 Z0
G1 X-0.95806 Y0.36411 Z0.0 E3.07475129097
G1 Z0
G1 X-0.91055 Y0.46908 Z0.0 E3.07282217841
G1 Z0
G1 X-0.78329 Y0.65462 Z0.0 E3.06245573299
G1 Z0
G1 X-0.32235 Y0.94277 Z0.0 E2.98906727234
G1 Z0
G1 X0.49293 Y0.87662 Z0.0 E3.01711509288
G1 Z0
G1 X0.82932 Y0.59788 Z0.0 E3.06709788093
G1 Z0
G1 X0.92618 Y0.43798 Z0.0 E3.07355215593
G1 Z0
G1 X0.96498 Y0.34554 Z0.0 E3.07494042674
G1 Z0
G1 X0.98292 Y0.2912 Z0.0 E3.07544508935
G1 Z0
G1 X0.9889 Y0.27043 Z0.0 E3.07563007433
G1 Z0
G1 X0.97684 Y0.30976 Z0.0 E3.07433062451
G1 Z0
G1 X0.75903 Y0.6268 Z0.0 E2.95314121371
G1 Z0
G1 X-0.38079 Y0.92259 Z0.0 E2.99425449650
G1 Z0
G1 X-0.66978 Y0.77566 Z0.0 E3.07445656271
G1 Z0
G1 X-0.70462 Y0.74469 Z0.0 E3.07562560539
G1 Z0
G1 X-0.70198 Y0.74718 Z0.0 E3.07562755470
G1 Z0
G1 X-0.68302 Y0.7645 Z0.0 E3.07551445023
G1 Z0
G1 X-0.65081 Y0.79202 Z0.0 E3.07532827979
G1 Z0
G1 X-0.60215 Y0.82948 Z0.0 E3.07499516034
G1 Z0
G1 X-0.52633 Y0.8792 Z0.0 E3.07410851794
G1 Z0
G1 X-0.39336 Y0.94505 Z0.0 E3.07093867228
G1 Z0
G1 X-0.10393 Y1.01191 Z0.0 E3.05169946702
G1 Z0
G1 X0.52973 Y0.83989 Z0.0 E2.97896991677
G1 Z0
G1 X0.97382 Y0.28457 Z0.0 E3.04364079610
G1 Z0
G1 X1.02205 Y-0.04989 Z0.0 E3.06980079670
G1 Z0
G1 X1.0026 Y-0.21129 Z0.0 E3.07386597250
G1 Z0
G1 X0.97847 Y-0.30521 Z0.0 E3.07490002520
G1 Z0
G1 X0.95728 Y-0.36666 Z0.0 E3.07529201638
G1 Z0
G1 X0.94033 Y-0.40834 Z0.0 E3.07549322557
G1 Z0
G1 X0.92871 Y-0.43421 Z0.0 E3.07560811772
G1 Z0
G1 X0.92535 Y-0.44135 Z0.0 E3.07564009679
G1 Z0
G1 X0.93945 Y-0.40991 Z0.0 E3.07495245417
G1 Z0
G1 X0.99572 Y-0.18576 Z0.0 E3.03869805410
G1 Z0
G1 X0.49682 Y0.81213 Z0.0 E2.85612801599
G1 Z0
G1 X0.01195 Y1.02435 Z0.0 E3.07325910476
G1 Z0
G1 X-0.04769 Y1.0241 Z0.0 E3.07562941768
G1 Z0
G1 X-0.03259 Y1.02465 Z0.0 E3.07550444243
G1 Z0
G1 X0.01925 Y1.02484 Z0.0 E3.07506232342
G1 Z0
G1 X0.11112 Y1.01859 Z0.0 E3.07389967021
G1 Z0
G1 X0.27549 Y0.98521 Z0.0 E3.06900657507
G1 Z0
G1 X0.60928 Y0.80644 Z0.0 E3.03217880871
G1 Z0
G1 X0.98469 Y0.11352 Z0.0 E2.97363593577
G1 Z0
G1 X0.89136 Y-0.49447 Z0.0 E3.05797466871
G1 Z0
G1 X0.74463 Y-0.70302 Z0.0 E3.07219768500
G1 Z0
G1 X0.65306 Y-0.78985 Z0.0 E3.07459809974
G1 Z0
G1 X0.596 Y-0.83403 Z0.0 E3.07528833902
G1 Z0
G1 X0.56597 Y-0.85482 Z0.0 E3.07560619386
G1 Z0
G1 X0.57286 Y-0.85013 Z0.0 E3.07538719001
G1 Z0
G1 X0.69176 Y-0.74925 Z0.0 E3.05927559087
G1 Z0
G1 X0.89557 Y0.2192 Z0.0 E2.76601669990
G1 Z0
G1 X0.57958 Y0.84366 Z0.0 E3.07068014420
G1 Z0
G1 X0.4985 Y0.8958 Z0.0 E3.07549004388
G1 Z0
G1 X0.48947 Y0.90082 Z0.0 E3.07563293969
G1 Z0
G1 X0.50531 Y0.892 Z0.0 E3.07555194476
G1 Z0
G1 X0.53609 Y0.87379 Z0.0 E3.07540453759
G1 Z0
G1 X0.58056 Y0.8448 Z0.0 E3.07516383017
G1 Z0
G1 X0.64222 Y0.79868 Z0.0 E3.07457744043
G1 Z0
G1 X0.73053 Y0.71794 Z0.0 E3.07278494537
G1 Z0
G1 X0.86375 Y0.54502 Z0.0 E3.06398396962
G1 Z0
G1 X0.99988 Y0.0708 Z0.0 E3.00715046009
G1 Z0
G1 X0.74702 Y-0.67055 Z0.0 E3.01149226233
G1 Z0
G1 X0.36556 Y-0.95396 Z0.0 E3.06481062332
G1 Z0
G1 X0.1622 Y-1.01139 Z0.0 E3.07294112357
G1 Z0
G1 X0.0459 Y-1.02385 Z0.0 E3.07463505029
G1 Z0
G1 X-0.02973 Y-1.02463 Z0.0 E3.07518366739
G1 Z0
G1 X-0.08187 Y-1.02187 Z0.0 E3.07543313115
G1 Z0
G1 X-0.11673 Y-1.01852 Z0.0 E3.07556172913
G1 Z0
G1 X-0.1338 Y-1.01644 Z0.0 E3.07562585865
G1 Z0
G1 X-0.12161 Y-1.01792 Z0.0 E3.07547574637
G1 Z0
G1 X-0.01697 Y-1.02309 Z0.0 E3.06969219320
G1 Z0
G1 X0.63682 Y-0.65914 Z0.0 E2.74955401256
G1 Z0
G1 X0.9977 Y0.21607 Z0.0 E3.06248654105
G1 Z0
G1 X0.96249 Y0.3529 Z0.0 E3.07543959312
G1 Z0
G1 X0.96063 Y0.35807 Z0.0 E3.07558402522
G1 Z0
G1 X0.97318 Y0.32208 Z0.0 E3.07527780033
G1 Z0
G1 X0.99364 Y0.25096 Z0.0 E3.07452636040
G1 Z0
G1 X1.01654 Y0.12329 Z0.0 E3.07196776697
G1 Z0
G1 X1.00889 Y-0.14154 Z0.0 E3.05631042816
G1 Z0
G1 X0.7017 Y-0.69846 Z0.0 E2.97019584445
G1 Z0
G1 X-0.0075 Y-1.01197 Z0.0 E3.03599337583
G1 Z0
G1 X-0.36611 Y-0.95541 Z0.0 E3.06946301522
G1 Z0
G1 X-0.5135 Y-0.88671 Z0.0 E3.07399282154
G1 Z0
G1 X-0.58937 Y-0.83865 Z0.0 E3.07509631956
G1 Z0
G1 X-0.62987 Y-0.80885 Z0.0 E3.07551147853
G1 Z0
G1 X-0.64015 Y-0.80078 Z0.0 E3.07560818020
G1 Z0
G1 X-0.58668 Y-0.83959 Z0.0 E3.07277449783
G1 Z0
G1 X-0.01997 Y-0.94206 Z0.0 E2.82681492152
G1 Z0
G1 X0.92746 Y-0.41342 Z0.0 E3.04629009321
G1 Z0
G1 X1.00172 Y-0.21728 Z0.0 E3.07504179016
G1 Z0
G1 X1.00809 Y-0.18658 Z0.0 E3.07563292681
G1 Z0
G1 X1.00639 Y-0.19549 Z0.0 E3.07560311968
G1 Z0
G1 X1.00039 Y-0.224 Z0.0 E3.07548457465
G1 Z0
G1 X0.98932 Y-0.26843 Z0.0 E3.07526885747
G1 Z0
G1 X0.96984 Y-0.3316 Z0.0 E3.07488758663
G1 Z0
G1 X0.933 Y-0.42345 Z0.0 E3.07379083909
G1 Z0
G1 X0.85045 Y-0.56882 Z0.0 E3.06942870158
G1 Z0
G1 X0.60104 Y-0.81617 Z0.0 E3.04079643424
G1 Z0
G1 Z2.2
G1 X0.53052 Y0.00922 Z0.0 E1.59180033585
G1 Z0
G1 X-0.09579 Y-0.98927 Z0.0 E2.98169041200
G1 Z0
G1 X-0.69223 Y-0.74712 Z0.0 E3.05554185141
G1 Z0
G1 X-0.8783 Y-0.52739 Z0.0 E3.0734280403
G1 Z0
G1 X-0.94482 Y-0.39862 Z0.0 E3.07640124678
G1 Z0
G1 X-0.97613 Y-0.31516 Z0.0 E3.07723909089
G1 Z0
G1 X-0.99319 Y-0.2568 Z0.0 E3.07755642432
G1 Z0
G1 X-1.00304 Y-0.21542 Z0.0 E3.07773539506
G1 Z0
G1 X-1.0084 Y-0.18891 Z0.0 E3.07782681984
G1 Z0
G1 X-1.00983 Y-0.18118 Z0.0 E3.07786377082
G1 Z0
G1 X-1.00366 Y-0.21182 Z0.0 E3.07730563513
G1 Z0
G1 X-0.93316 Y-0.40356 Z0.0 E3.05005480816
G1 Z0
G1 X0.02523 Y-0.93642 Z0.0 E2.81027947431
G1 Z0
G1 X0.60751 Y-0.82549 Z0.0 E3.07482019991
G1 Z0
G1 X0.66445 Y-0.7817 Z0.0 E3.07781387230
G1 Z0
G1 X0.66133 Y-0.78434 Z0.0 E3.07781081948
G1 Z0
G1 X0.63384 Y-0.80663 Z0.0 E3.07760392554
G1 Z0
G1 X0.58366 Y-0.84346 Z0.0 E3.07713404076
G1 Z0
G1 X0.49786 Y-0.89629 Z0.0 E3.07584185115
G1 Z0
G1 X0.33133 Y-0.96823 Z0.0 E3.07005539302
G1 Z0
G1 X-0.07981 Y-1.00562 Z0.0 E3.02634614420
G1 Z0
G1 X-0.78117 Y-0.61689 Z0.0 E2.98613773443
G1 Z0
G1 X-1.01643 Y-0.09605 Z0.0 E3.06287445492
G1 Z0
G1 X-1.01486 Y0.14313 Z0.0 E3.07471025440
G1 Z0
G1 X-0.9911 Y0.26378 Z0.0 E3.07680546762
G1 Z0
G1 X-0.96962 Y0.33486 Z0.0 E3.07744170960
G1 Z0
G1 X-0.95407 Y0.37715 Z0.0 E3.07773052534
G1 Z0
G1 X-0.94751 Y0.39345 Z0.0 E3.07785687182
G1 Z0
G1 X-0.95896 Y0.36397 Z0.0 E3.07712625391
G1 Z0
G1 X-1.0026 Y0.1003 Z0.0 E3.02281353213
G1 Z0
G1 X-0.37126 Y-0.89332 Z0.0 E2.90218736301
G1 Z0
G1 X0.07229 Y-1.02273 Z0.0 E3.07584500146
G1 Z0
G1 X0.13494 Y-1.01703 Z0.0 E3.07782868602
G1 Z0
G1 X0.13757 Y-1.01669 Z0.0 E3.07786558332
G1 Z0
G1 X0.11694 Y-1.01924 Z0.0 E3.07777943830
G1 Z0
G1 X0.08037 Y-1.02273 Z0.0 E3.07764908789
G1 Z0
G1 X0.02715 Y-1.02544 Z0.0 E3.07739806410
G1 Z0
G1 X-0.04953 Y-1.02441 Z0.0 E3.07682005015
G1 Z0
G1 X-0.16758 Y-1.01123 Z0.0 E3.07506463732
G1 Z0
G1 X-0.37529 Y-0.95075 Z0.0 E3.06641701655
G1 Z0
G1 X-0.76309 Y-0.65144 Z0.0 E3.01000395271
G1 Z0
G1 X-0.99942 Y0.09784 Z0.0 E3.01259307209
G1 Z0
G1 X-0.85815 Y0.55561 Z0.0 E3.06693903614
G1 Z0
G1 X-0.72711 Y0.72252 Z0.0 E3.07514502463
G1 Z0
G1 X-0.64026 Y0.80122 Z0.0 E3.07684533313
G1 Z0
G1 X-0.57937 Y0.84652 Z0.0 E3.07740009841
G1 Z0
G1 X-0.5351 Y0.87527 Z0.0 E3.07763972000
G1 Z0
G1 X-0.50381 Y0.8937 Z0.0 E3.07777807109
G1 Z0
G1 X-0.48604 Y0.90352 Z0.0 E3.07786442976
G1 Z0
G1 X-0.48915 Y0.90182 Z0.0 E3.07781144876
G1 Z0
G1 X-0.54574 Y0.86788 Z0.0 E3.07561873092
G1 Z0
G1 X-0.83552 Y0.47512 Z0.0 E2.88348645969
G1 Z0
G1 X-0.74171 Y-0.68563 Z0.0 E3.0301815109
G1 Z0
G1 X-0.56012 Y-0.85929 Z0.0 E3.07717784122
G1 Z0
G1 X-0.53531 Y-0.87523 Z0.0 E3.07786600439
G1 Z0
G1 X-0.55092 Y-0.86544 Z0.0 E3.07774156810
G1 Z0
G1 X-0.58891 Y-0.83993 Z0.0 E3.07744643122
G1 Z0
G1 X-0.64873 Y-0.79435 Z0.0 E3.07678124322
G1 Z0
G1 X-0.73995 Y-0.7091 Z0.0 E3.07459579660
G1 Z0
G1 X-0.88342 Y-0.51126 Z0.0 E3.06208411968
G1 Z0
G1 X-0.99256 Y0.06226 Z0.0 E2.98353229424
G1 Z0
G1 X-0.64313 Y0.77831 Z0.0 E3.02893444581
G1 Z0
G1 X-0.29457 Y0.98016 Z0.0 E3.07040160150
G1 Z0
G1 X-0.1206 Y1.01818 Z0.0 E3.07589236671
G1 Z0
G1 X-0.02149 Y1.02549 Z0.0 E3.07714543722
G1 Z0
G1 X0.03995 Y1.02509 Z0.0 E3.07760452225
G1 Z0
G1 X0.07459 Y1.02322 Z0.0 E3.07780531036
G1 Z0
G1 X0.07754 Y1.023 Z0.0 E3.07780328553
G1 Z0
G1 X0.00173 Y1.02483 Z0.0 E3.07449438058
G1 Z0
G1 X-0.55469 Y0.74773 Z0.0 E2.79303246329
G1 Z0
G1 X-0.99034 Y-0.23511 Z0.0 E3.05359628132
G1 Z0
G1 X-0.93574 Y-0.42026 Z0.0 E3.07734468931
G1 Z0
G1 X-0.92341 Y-0.44711 Z0.0 E3.07787920845
G1 Z0
G1 X-0.92707 Y-0.43942 Z0.0 E3.07781391440
G1 Z0
G1 X-0.93847 Y-0.41443 Z0.0 E3.07771075512
G1 Z0
G1 X-0.95495 Y-0.37474 Z0.0 E3.07753734842
G1 Z0
G1 X-0.97556 Y-0.31691 Z0.0 E3.07722981841
G1 Z0
G1 X-0.99934 Y-0.22995 Z0.0 E3.07636424093
G1 Z0
G1 X-1.02094 Y-0.08436 Z0.0 E3.07325817965
G1 Z0
G1 X-0.99645 Y0.20897 Z0.0 E3.05437875363
G1 Z0
G1 X-0.64161 Y0.75867 Z0.0 E2.98080392663
G1 Z0
G1 X0.02667 Y1.01476 Z0.0 E3.04533123297
G1 Z0
G1 X0.3621 Y0.95784 Z0.0 E3.07199688808
G1 Z0
G1 X0.51012 Y0.88947 Z0.0 E3.07610364873
G1 Z0
G1 X0.59222 Y0.83747 Z0.0 E3.07712930565
G1 Z0
G1 X0.64441 Y0.79817 Z0.0 E3.07750814345
G1 Z0
G1 X0.67942 Y0.76867 Z0.0 E3.07769165897
G1 Z0
G1 X0.70177 Y0.74837 Z0.0 E3.07779939376
G1 Z0
G1 X0.71083 Y0.73981 Z0.0 E3.07788614556
G1 Z0
G1 X0.69627 Y0.75339 Z0.0 E3.07757951075
G1 Z0
G1 X0.5879 Y0.83643 Z0.0 E3.06711166965
G1 Z0
G1 X-0.32408 Y0.84733 Z0.0 E2.72157376856
G1 Z0
G1 X-0.96244 Y0.34872 Z0.0 E3.07100431911
G1 Z0
G1 X-0.99577 Y0.24687 Z0.0 E3.07774661208
G1 Z0
G1 X-0.99697 Y0.24213 Z0.0 E3.07785396993
G1 Z0
G1 X-0.98938 Y0.27123 Z0.0 E3.07765275424
G1 Z0
G1 X-0.97283 Y0.32522 Z0.0 E3.07725467190
G1 Z0
G1 X-0.9398 Y0.41018 Z0.0 E3.07623878325
G1 Z0
G1 X-0.864 Y0.54971 Z0.0 E3.07214806884
G1 Z0
G1 X-0.62594 Y0.7982 Z0.0 E3.04307691529
G1 Z0
G1 X0.10033 Y0.98528 Z0.0 E2.97112522215
G1 Z0
G1 X0.71047 Y0.72991 Z0.0 E3.05578567000
G1 Z0
G1 X0.8881 Y0.51092 Z0.0 E3.07373513947
G1 Z0
G1 X0.94956 Y0.38736 Z0.0 E3.07659026664
G1 Z0
G1 X0.97762 Y0.31066 Z0.0 E3.07737786110
G1 Z0
G1 X0.99177 Y0.26241 Z0.0 E3.07769405058
G1 Z0
G1 X0.99762 Y0.23945 Z0.0 E3.07786252164
G1 Z0
G1 X0.99329 Y0.25637 Z0.0 E3.07752423370
G1 Z0
G1 X0.93081 Y0.4158 Z0.0 E3.05837735816
G1 Z0
G1 X0.02345 Y0.92288 Z0.0 E2.76953363802
G1 Z0
G1 X-0.63417 Y0.80468 Z0.0 E3.07361894543
G1 Z0
G1 X-0.70306 Y0.74713 Z0.0 E3.07773770885
G1 Z0
G1 X-0.71021 Y0.7404 Z0.0 E3.07787485725
G1 Z0
G1 X-0.69776 Y0.75211 Z0.0 E3.07779892574
G1 Z0
G1 X-0.67266 Y0.77458 Z0.0 E3.07766321549
G1 Z0
G1 X-0.63435 Y0.80616 Z0.0 E3.07744127692
G1 Z0
G1 X-0.57694 Y0.84801 Z0.0 E3.07698334628
G1 Z0
G1 X-0.48451 Y0.90349 Z0.0 E3.07561328548
G1 Z0
G1 X-0.31022 Y0.97504 Z0.0 E3.06960177385
G1 Z0
G1 X0.10238 Y1.00431 Z0.0 E3.02854456208
G1 Z0
G1 X0.77519 Y0.62861 Z0.0 E2.99409929926
G1 Z0
G1 X1.01369 Y0.12034 Z0.0 E3.06242423340
G1 Z0
G1 X1.01709 Y-0.12553 Z0.0 E3.07442167586
G1 Z0
G1 X0.99378 Y-0.25328 Z0.0 E3.07664509185
G1 Z0
G1 X0.97055 Y-0.33204 Z0.0 E3.07733013778
G1 Z0
G1 X0.95083 Y-0.38513 Z0.0 E3.07760056736
G1 Z0
G1 X0.93539 Y-0.42137 Z0.0 E3.07775310267
G1 Z0
G1 X0.9254 Y-0.44294 Z0.0 E3.07783187202
G1 Z0
G1 X0.92428 Y-0.44529 Z0.0 E3.07785482479
G1 Z0
G1 X0.94299 Y-0.40323 Z0.0 E3.07675497188
G1 Z0
G1 X0.99553 Y-0.09053 Z0.0 E2.99891329588
G1 Z0
G1 X0.34814 Y0.91817 Z0.0 E2.94586803447
G1 Z0
G1 X-0.03341 Y1.02494 Z0.0 E3.07645316644
G1 Z0
G1 X-0.08074 Y1.02277 Z0.0 E3.07785587455
G1 Z0
G1 X-0.06904 Y1.0236 Z0.0 E3.07777701181
G1 Z0
G1 X-0.0285 Y1.02545 Z0.0 E3.07753790757
G1 Z0
G1 X0.03994 Y1.02488 Z0.0 E3.07697383187
G1 Z0
G1 X0.15126 Y1.01388 Z0.0 E3.07530326602
G1 Z0
G1 X0.35339 Y0.95928 Z0.0 E3.06690780665
G1 Z0
G1 X0.74978 Y0.6642 Z0.0 E3.00499337696
G1 Z0
G1 X0.99587 Y-0.11665 Z0.0 E3.00803565714
G1 Z0
G1 X0.84538 Y-0.57514 Z0.0 E3.06742241564
G1 Z0
G1 X0.71555 Y-0.73408 Z0.0 E3.07538082847
G1 Z0
G1 X0.63292 Y-0.8071 Z0.0 E3.07700881175
G1 Z0
G1 X0.57851 Y-0.84717 Z0.0 E3.07755381123
G1 Z0
G1 X0.54518 Y-0.86908 Z0.0 E3.07777379110
G1 Z0
G1 X0.53605 Y-0.87477 Z0.0 E3.07784817666
G1 Z0
G1 X0.57793 Y-0.84706 Z0.0 E3.07630030337
G1 Z0
G1 X0.83146 Y-0.51186 Z0.0 E2.92915303813
G1 Z0
G1 X0.74044 Y0.6767 Z0.0 E3.00924717370
G1 Z0
G1 X0.52367 Y0.88185 Z0.0 E3.07685021127
G1 Z0
G1 X0.48572 Y0.90369 Z0.0 E3.07785896534
G1 Z0
G1 X0.48867 Y0.90209 Z0.0 E3.07783733050
G1 Z0
G1 X0.50982 Y0.89027 Z0.0 E3.07773844693
G1 Z0
G1 X0.54395 Y0.86978 Z0.0 E3.07759478458
G1 Z0
G1 X0.59151 Y0.83804 Z0.0 E3.07729688124
G1 Z0
G1 X0.6572 Y0.78729 Z0.0 E3.07662744851
G1 Z0
G1 X0.75217 Y0.69599 Z0.0 E3.07432205551
G1 Z0
G1 X0.89534 Y0.48978 Z0.0 E3.06164391724
G1 Z0
G1 X0.99454 Y-0.07432 Z0.0 E2.99193908126
G1 Z0
G1 X0.66109 Y-0.76394 Z0.0 E3.03080827591
G1 Z0
G1 X0.31552 Y-0.97346 Z0.0 E3.06995035432
G1 Z0
G1 X0.13546 Y-1.01624 Z0.0 E3.07568502009
G1 Z0
G1 X0.0294 Y-1.02525 Z0.0 E3.07701434876
G1 Z0
G1 X-0.04093 Y-1.025 Z0.0 E3.07745063065
G1 Z0
G1 X-0.09002 Y-1.02193 Z0.0 E3.07766156809
G1 Z0
G1 X-0.12311 Y-1.01852 Z0.0 E3.07779979247
G1 Z0
G1 X-0.13954 Y-1.01642 Z0.0 E3.07786114891
G1 Z0
G1 X-0.12874 Y-1.0178 Z0.0 E3.07772926821
G1 Z0
G1 X-0.0347 Y-1.0238 Z0.0 E3.07316364192
G1 Z0
G1 X0.58658 Y-0.70693 Z0.0 E2.75580026339
G1 Z0
G1 X0.99588 Y0.22169 Z0.0 E3.06076965394
G1 Z0
G1 X0.95376 Y0.37777 Z0.0 E3.07755012867
G1 Z0
G1 X0.94792 Y0.39245 Z0.0 E3.07784404415
G1 Z0
G1 X0.95697 Y0.3697 Z0.0 E3.07769833449
G1 Z0
G1 X0.97406 Y0.32165 Z0.0 E3.07737947853
G1 Z0
G1 X0.99655 Y0.24203 Z0.0 E3.07655876112
G1 Z0
G1 X1.01927 Y0.10364 Z0.0 E3.07357662057
G1 Z0
G1 X1.00137 Y-0.18435 Z0.0 E3.05459345815
G1 Z0
G1 X0.64216 Y-0.75351 Z0.0 E2.97007088658
G1 Z0
G1 X-0.05145 Y-1.01367 Z0.0 E3.04492458734
G1 Z0
G1 X-0.38133 Y-0.95048 Z0.0 E3.07236443048
G1 Z0
G1 X-0.5219 Y-0.88268 Z0.0 E3.07628547628
G1 Z0
G1 X-0.59744 Y-0.83382 Z0.0 E3.07728989762
G1 Z0
G1 X-0.6419 Y-0.80025 Z0.0 E3.07764862395
G1 Z0
G1 X-0.66456 Y-0.78162 Z0.0 E3.07784475924
G1 Z0
G1 X-0.65977 Y-0.78561 Z0.0 E3.07771274244
G1 Z0
G1 X-0.56776 Y-0.85145 Z0.0 E3.07015743585
G1 Z0
G1 X0.27127 Y-0.86461 Z0.0 E2.71849973055
G1 Z0
G1 X0.97026 Y-0.3235 Z0.0 E3.06830742567
G1 Z0
G1 X1.00639 Y-0.19896 Z0.0 E3.07760511166
G1 Z0
G1 X1.00991 Y-0.18073 Z0.0 E3.07786189895
G1 Z0
G1 X1.00751 Y-0.19355 Z0.0 E3.07779824280
G1 Z0
G1 X1.00125 Y-0.22351 Z0.0 E3.07768168325
G1 Z0
G1 X0.99011 Y-0.26838 Z0.0 E3.07751697453
G1 Z0
G1 X0.97068 Y-0.33144 Z0.0 E3.07711703125
G1 Z0
G1 X0.93414 Y-0.42275 Z0.0 E3.07603899827
G1 Z0
G1 X0.85256 Y-0.56705 Z0.0 E3.07174841172
G1 Z0
G1 X0.60646 Y-0.81333 Z0.0 E3.04363184116
G1 Z0
G1 Z2.2
G1 X0.48696 Y0.00847 Z0.0 E1.46110096930
G1 Z0
G1 X-0.08806 Y-0.98939 Z0.0 E2.97990339127
G1 Z0
G1 X-0.68801 Y-0.75001 Z0.0 E3.05333503596
G1 Z0
G1 X-0.87608 Y-0.52982 Z0.0 E3.07148638109
G1 Z0
G1 X-0.94322 Y-0.40079 Z0.0 E3.07451936610
G1 Z0
G1 X-0.97483 Y-0.31714 Z0.0 E3.07536043034
G1 Z0
G1 X-0.99211 Y-0.25845 Z0.0 E3.07566381313
G1 Z0
G1 X-1.00219 Y-0.21634 Z0.0 E3.07582348734
G1 Z0
G1 X-1.00789 Y-0.1882 Z0.0 E3.07593131082
G1 Z0
G1 X-1.01003 Y-0.17646 Z0.0 E3.07598579199
G1 Z0
G1 X-1.0066 Y-0.19466 Z0.0 E3.07574782458
G1 Z0
G1 X-0.97289 Y-0.31445 Z0.0 E3.06733496563
G1 Z0
G1 X-0.29154 Y-0.85285 Z0.0 E2.70391165664
G1 Z0
G1 X0.57741 Y-0.84385 Z0.0 E3.06746901784
G1 Z0
G1 X0.67435 Y-0.77228 Z0.0 E3.07578914884
G1 Z0
G1 X0.68361 Y-0.76419 Z0.0 E3.07600079548
G1 Z0
G1 X0.66783 Y-0.77796 Z0.0 E3.07586866340
G1 Z0
G1 X0.63505 Y-0.80485 Z0.0 E3.07565411336
G1 Z0
G1 X0.58207 Y-0.84378 Z0.0 E3.07521244139
G1 Z0
G1 X0.49445 Y-0.89744 Z0.0 E3.07390862013
G1 Z0
G1 X0.32686 Y-0.96908 Z0.0 E3.06815605112
G1 Z0
G1 X-0.0809 Y-1.00542 Z0.0 E3.02600853892
G1 Z0
G1 X-0.77412 Y-0.6256 Z0.0 E2.98592267308
G1 Z0
G1 X-1.01463 Y-0.10655 Z0.0 E3.06062778766
G1 Z0
G1 X-1.01515 Y0.13611 Z0.0 E3.07270224581
G1 Z0
G1 X-0.99153 Y0.25964 Z0.0 E3.07488244239
G1 Z0
G1 X-0.96922 Y0.33406 Z0.0 E3.07552457769
G1 Z0
G1 X-0.95158 Y0.38165 Z0.0 E3.07578461049
G1 Z0
G1 X-0.94016 Y0.40911 Z0.0 E3.07594641684
G1 Z0
G1 X-0.93868 Y0.4125 Z0.0 E3.07595310946
G1 Z0
G1 X-0.95963 Y0.3594 Z0.0 E3.07417027376
G1 Z0
G1 X-0.96348 Y-0.09153 Z0.0 E2.90345364380
G1 Z0
G1 X-0.17657 Y-0.99007 Z0.0 E3.01707476344
G1 Z0
G1 X0.10048 Y-1.02008 Z0.0 E3.07505039490
G1 Z0
G1 X0.14225 Y-1.01541 Z0.0 E3.07597671893
G1 Z0
G1 X0.13943 Y-1.0158 Z0.0 E3.07597355062
G1 Z0
G1 X0.11682 Y-1.01862 Z0.0 E3.07589052978
G1 Z0
G1 X0.07951 Y-1.02216 Z0.0 E3.07574318682
G1 Z0
G1 X0.02613 Y-1.02483 Z0.0 E3.07548918909
G1 Z0
G1 X-0.05032 Y-1.02375 Z0.0 E3.07495780200
G1 Z0
G1 X-0.16767 Y-1.01059 Z0.0 E3.07321466758
G1 Z0
G1 X-0.37377 Y-0.95075 Z0.0 E3.06474569558
G1 Z0
G1 X-0.75914 Y-0.65565 Z0.0 E3.00924145906
G1 Z0
G1 X-0.99926 Y0.09068 Z0.0 E3.01009811966
G1 Z0
G1 X-0.85979 Y0.55183 Z0.0 E3.06493013575
G1 Z0
G1 X-0.72871 Y0.72001 Z0.0 E3.07325462300
G1 Z0
G1 X-0.6418 Y0.79918 Z0.0 E3.07495743249
G1 Z0
G1 X-0.58078 Y0.84479 Z0.0 E3.07551296087
G1 Z0
G1 X-0.53615 Y0.87389 Z0.0 E3.07575437761
G1 Z0
G1 X-0.50398 Y0.89288 Z0.0 E3.07588602084
G1 Z0
G1 X-0.48416 Y0.90381 Z0.0 E3.07596339304
G1 Z0
G1 X-0.48186 Y0.90504 Z0.0 E3.07596783969
G1 Z0
G1 X-0.51899 Y0.88391 Z0.0 E3.07503293865
G1 Z0
G1 X-0.72865 Y0.69176 Z0.0 E3.01416065944
G1 Z0
G1 X-0.82999 Y-0.50184 Z0.0 E2.90973213051
G1 Z0
G1 X-0.56417 Y-0.85546 Z0.0 E3.07423102653
G1 Z0
G1 X-0.51682 Y-0.88554 Z0.0 E3.07596424492
G1 Z0
G1 X-0.52028 Y-0.8835 Z0.0 E3.07593428987
G1 Z0
G1 X-0.54582 Y-0.8679 Z0.0 E3.07579728552
G1 Z0
G1 X-0.58822 Y-0.83962 Z0.0 E3.07549680787
G1 Z0
G1 X-0.65022 Y-0.7923 Z0.0 E3.07485415030
G1 Z0
G1 X-0.7423 Y-0.70571 Z0.0 E3.07267359915
G1 Z0
G1 X-0.88502 Y-0.50733 Z0.0 E3.06035899262
G1 Z0
G1 X-0.99331 Y0.05848 Z0.0 E2.98508994814
G1 Z0
G1 X-0.65228 Y0.76974 Z0.0 E3.02683329472
G1 Z0
G1 X-0.30299 Y0.97685 Z0.0 E3.06828123929
G1 Z0
G1 X-0.12632 Y1.01683 Z0.0 E3.07393882856
G1 Z0
G1 X-0.02433 Y1.02478 Z0.0 E3.07520633059
G1 Z0
G1 X0.04116 Y1.02439 Z0.0 E3.07564971336
G1 Z0
G1 X0.0833 Y1.0219 Z0.0 E3.07586841396
G1 Z0
G1 X0.10394 Y1.02004 Z0.0 E3.07596588518
G1 Z0
G1 X0.09125 Y1.02119 Z0.0 E3.07577635848
G1 Z0
G1 X-0.03139 Y1.0219 Z0.0 E3.06714598265
G1 Z0
G1 X-0.74437 Y0.50829 Z0.0 E2.70407263013
G1 Z0
G1 X-0.97124 Y-0.31986 Z0.0 E3.0676632825
G1 Z0
G1 X-0.9286 Y-0.43456 Z0.0 E3.07575408354
G1 Z0
G1 X-0.92086 Y-0.45091 Z0.0 E3.07599198785
G1 Z0
G1 X-0.9261 Y-0.44 Z0.0 E3.07593089812
G1 Z0
G1 X-0.93808 Y-0.41376 Z0.0 E3.07582880148
G1 Z0
G1 X-0.95472 Y-0.37363 Z0.0 E3.07567990820
G1 Z0
G1 X-0.97526 Y-0.3158 Z0.0 E3.07534638186
G1 Z0
G1 X-0.99888 Y-0.22919 Z0.0 E3.07450870783
G1 Z0
G1 X-1.02031 Y-0.08457 Z0.0 E3.07142657881
G1 Z0
G1 X-0.99655 Y0.20618 Z0.0 E3.05296558351
G1 Z0
G1 X-0.647 Y0.75356 Z0.0 E2.97962330881
G1 Z0
G1 X0.02093 Y1.01411 Z0.0 E3.04297788572
G1 Z0
G1 X0.35865 Y0.95844 Z0.0 E3.07003802988
G1 Z0
G1 X0.50745 Y0.89026 Z0.0 E3.07418531174
G1 Z0
G1 X0.58994 Y0.83831 Z0.0 E3.07524563853
G1 Z0
G1 X0.64249 Y0.79891 Z0.0 E3.07562274894
G1 Z0
G1 X0.67805 Y0.76904 Z0.0 E3.07580378388
G1 Z0
G1 X0.70146 Y0.7478 Z0.0 E3.07591591959
G1 Z0
G1 X0.71293 Y0.73691 Z0.0 E3.07599574073
G1 Z0
G1 X0.70561 Y0.74386 Z0.0 E3.07586061864
G1 Z0
G1 X0.6395 Y0.7998 Z0.0 E3.07209417336
G1 Z0
G1 X0.00222 Y0.92338 Z0.0 E2.77014800601
G1 Z0
G1 X-0.93302 Y0.40743 Z0.0 E3.05429692854
G1 Z0
G1 X-0.99714 Y0.23815 Z0.0 E3.07555400195
G1 Z0
G1 X-1.00244 Y0.21545 Z0.0 E3.07599445788
G1 Z0
G1 X-0.99894 Y0.23099 Z0.0 E3.07589621628
G1 Z0
G1 X-0.98957 Y0.26808 Z0.0 E3.07571797174
G1 Z0
G1 X-0.97192 Y0.32591 Z0.0 E3.07532312619
G1 Z0
G1 X-0.93793 Y0.41286 Z0.0 E3.07432831371
G1 Z0
G1 X-0.86107 Y0.55311 Z0.0 E3.07023613962
G1 Z0
G1 X-0.62362 Y0.79956 Z0.0 E3.04200310355
G1 Z0
G1 X0.09115 Y0.98653 Z0.0 E2.97219579951
G1 Z0
G1 X0.70169 Y0.73729 Z0.0 E3.05347156558
G1 Z0
G1 X0.88369 Y0.51718 Z0.0 E3.07171751899
G1 Z0
G1 X0.94718 Y0.39144 Z0.0 E3.07463445535
G1 Z0
G1 X0.97656 Y0.31185 Z0.0 E3.07543146646
G1 Z0
G1 X0.99207 Y0.25872 Z0.0 E3.07575199093
G1 Z0
G1 X1.00014 Y0.22575 Z0.0 E3.07590437740
G1 Z0
G1 X1.00234 Y0.21591 Z0.0 E3.07599145534
G1 Z0
G1 X0.99333 Y0.25294 Z0.0 E3.07508507077
G1 Z0
G1 X0.86414 Y0.51035 Z0.0 E3.01077324933
G1 Z0
G1 X-0.25901 Y0.93717 Z0.0 E2.91691002621
G1 Z0
G1 X-0.66464 Y0.77995 Z0.0 E3.07418525611
G1 Z0
G1 X-0.70958 Y0.74011 Z0.0 E3.07593876670
G1 Z0
G1 X-0.71168 Y0.73811 Z0.0 E3.07598003090
G1 Z0
G1 X-0.69749 Y0.7515 Z0.0 E3.07590652506
G1 Z0
G1 X-0.67171 Y0.77458 Z0.0 E3.07579526375
G1 Z0
G1 X-0.63317 Y0.80629 Z0.0 E3.07556016312
G1 Z0
G1 X-0.57585 Y0.848 Z0.0 E3.07512032326
G1 Z0
G1 X-0.4839 Y0.90312 Z0.0 E3.07377040450
G1 Z0
G1 X-0.31094 Y0.9742 Z0.0 E3.06785656646
G1 Z0
G1 X0.09768 Y1.00446 Z0.0 E3.02759499702
G1 Z0
G1 X0.76981 Y0.63401 Z0.0 E2.99185311234
G1 Z0
G1 X1.01245 Y0.12473 Z0.0 E3.06031259492
G1 Z0
G1 X1.01683 Y-0.12242 Z0.0 E3.07251837223
G1 Z0
G1 X0.9938 Y-0.25066 Z0.0 E3.07477151678
G1 Z0
G1 X0.97067 Y-0.32974 Z0.0 E3.07544443105
G1 Z0
G1 X0.9509 Y-0.38328 Z0.0 E3.07571606550
G1 Z0
G1 X0.93515 Y-0.42036 Z0.0 E3.07585312863
G1 Z0
G1 X0.92434 Y-0.44371 Z0.0 E3.07596277567
G1 Z0
G1 X0.92104 Y-0.45053 Z0.0 E3.07597588783
G1 Z0
G1 X0.9333 Y-0.42416 Z0.0 E3.0754910763
G1 Z0
G1 X0.98741 Y-0.248 Z0.0 E3.05423354917
G1 Z0
G1 X0.56318 Y0.73134 Z0.0 E2.76916398431
G1 Z0
G1 X-0.01622 Y1.02395 Z0.0 E3.07223537804
G1 Z0
G1 X-0.09828 Y1.02058 Z0.0 E3.07590351819
G1 Z0
G1 X-0.10167 Y1.02027 Z0.0 E3.07596959611
G1 Z0
G1 X-0.07618 Y1.02244 Z0.0 E3.07582225007
G1 Z0
G1 X-0.02964 Y1.02477 Z0.0 E3.07559567279
G1 Z0
G1 X0.0419 Y1.02416 Z0.0 E3.07505021754
G1 Z0
G1 X0.15496 Y1.01268 Z0.0 E3.07340209800
G1 Z0
G1 X0.35735 Y0.95716 Z0.0 E3.06507562597
G1 Z0
G1 X0.7492 Y0.66518 Z0.0 E3.00564230267
G1 Z0
G1 X0.99675 Y-0.1044 Z0.0 E3.00660760700
G1 Z0
G1 X0.85025 Y-0.5666 Z0.0 E3.06523173716
G1 Z0
G1 X0.71966 Y-0.72913 Z0.0 E3.07341335529
G1 Z0
G1 X0.63526 Y-0.80443 Z0.0 E3.07505545194
G1 Z0
G1 X0.57793 Y-0.84677 Z0.0 E3.07558167835
G1 Z0
G1 X0.53906 Y-0.87213 Z0.0 E3.07583611145
G1 Z0
G1 X0.51734 Y-0.88524 Z0.0 E3.07597379683
G1 Z0
G1 X0.52058 Y-0.88331 Z0.0 E3.07590000366
G1 Z0
G1 X0.59007 Y-0.83694 Z0.0 E3.07211010813
G1 Z0
G1 X0.88706 Y-0.24868 Z0.0 E2.76377543842
G1 Z0
G1 X0.65019 Y0.78382 Z0.0 E3.05517388319
G1 Z0
G1 X0.50524 Y0.89202 Z0.0 E3.075500649
G1 Z0
G1 X0.48028 Y0.90589 Z0.0 E3.07599579559
G1 Z0
G1 X0.48714 Y0.9022 Z0.0 E3.07594407888
G1 Z0
G1 X0.50974 Y0.8896 Z0.0 E3.07587503784
G1 Z0
G1 X0.54437 Y0.86877 Z0.0 E3.07569505774
G1 Z0
G1 X0.59197 Y0.83695 Z0.0 E3.07542258082
G1 Z0
G1 X0.65736 Y0.78634 Z0.0 E3.07474793874
G1 Z0
G1 X0.75171 Y0.69558 Z0.0 E3.07247378256
G1 Z0
G1 X0.89391 Y0.49129 Z0.0 E3.06006022323
G1 Z0
G1 X0.99475 Y-0.06758 Z0.0 E2.99112881202
G1 Z0
G1 X0.66541 Y-0.75909 Z0.0 E3.02834820749
G1 Z0
G1 X0.31885 Y-0.97168 Z0.0 E3.06797100770
G1 Z0
G1 X0.13815 Y-1.01524 Z0.0 E3.07378904951
G1 Z0
G1 X0.0318 Y-1.02455 Z0.0 E3.07513015700
G1 Z0
G1 X-0.03885 Y-1.02445 Z0.0 E3.07555915648
G1 Z0
G1 X-0.08851 Y-1.02143 Z0.0 E3.07577297358
G1 Z0
G1 X-0.12281 Y-1.01792 Z0.0 E3.07590487540
G1 Z0
G1 X-0.14201 Y-1.01544 Z0.0 E3.07596604391
G1 Z0
G1 X-0.13885 Y-1.01587 Z0.0 E3.07594548303
G1 Z0
G1 X-0.07812 Y-1.02172 Z0.0 E3.07410644500
G1 Z0
G1 X0.34969 Y-0.90504 Z0.0 E2.91074294284
G1 Z0
G1 X0.99944 Y0.10186 Z0.0 E3.01385168162
G1 Z0
G1 X0.95202 Y0.37997 Z0.0 E3.07513796954
G1 Z0
G1 X0.93779 Y0.41454 Z0.0 E3.07597813082
G1 Z0
G1 X0.94191 Y0.40504 Z0.0 E3.07591720423
G1 Z0
G1 X0.95482 Y0.37344 Z0.0 E3.07575161448
G1 Z0
G1 X0.97354 Y0.32114 Z0.0 E3.07541855376
G1 Z0
G1 X0.99659 Y0.23912 Z0.0 E3.07462681028
G1 Z0
G1 X1.01906 Y0.09931 Z0.0 E3.07166271542
G1 Z0
G1 X1.0002 Y-0.18786 Z0.0 E3.05306776479
G1 Z0
G1 X0.64762 Y-0.7496 Z0.0 E2.97183553038
G1 Z0
G1 X-0.03928 Y-1.01344 Z0.0 E3.04260282784
G1 Z0
G1 X-0.37336 Y-0.95291 Z0.0 E3.07032838949
G1 Z0
G1 X-0.51705 Y-0.88478 Z0.0 E3.07434337023
G1 Z0
G1 X-0.59528 Y-0.83456 Z0.0 E3.07532730746
G1 Z0
G1 X-0.64334 Y-0.79826 Z0.0 E3.07570291946
G1 Z0
G1 X-0.67258 Y-0.77387 Z0.0 E3.07589786887
G1 Z0
G1 X-0.68436 Y-0.76351 Z0.0 E3.07598198423
G1 Z0
G1 X-0.66631 Y-0.77912 Z0.0 E3.07554432816
G1 Z0
G1 X-0.51166 Y-0.8798 Z0.0 E3.05329264244
G1 Z0
G1 X0.55518 Y-0.74016 Z0.0 E2.77570800374
G1 Z0
G1 X0.98796 Y-0.26958 Z0.0 E3.07223779060
G1 Z0
G1 X1.00814 Y-0.18677 Z0.0 E3.07588420336
G1 Z0
G1 X1.0099 Y-0.17718 Z0.0 E3.07597413214
G1 Z0
G1 X1.007 Y-0.1929 Z0.0 E3.07592826477
G1 Z0
G1 X1.00051 Y-0.22397 Z0.0 E3.07581621509
G1 Z0
G1 X0.98924 Y-0.26917 Z0.0 E3.07561935202
G1 Z0
G1 X0.96978 Y-0.33212 Z0.0 E3.07522234728
G1 Z0
G1 X0.93337 Y-0.42296 Z0.0 E3.07419460453
G1 Z0
G1 X0.85238 Y-0.56625 Z0.0 E3.06997012072
G1 Z0
G1 X0.60915 Y-0.81081 Z0.0 E3.04241502879
G1 Z0
G1 Z2.2
G1 X0.4436 Y0.00772 Z0.0 E1.33100151225
G1 Z0
G1 X-0.08007 Y-0.98819 Z0.0 E2.97428581831
G1 Z0
G1 X-0.68123 Y-0.75304 Z0.0 E3.04635716726
G1 Z0
G1 X-0.87159 Y-0.53286 Z0.0 E3.06471534882
G1 Z0
G1 X-0.93959 Y-0.40359 Z0.0 E3.06780512839
G1 Z0
G1 X-0.97162 Y-0.31974 Z0.0 E3.06863354410
G1 Z0
G1 X-0.98919 Y-0.26077 Z0.0 E3.06895432371
G1 Z0
G1 X-0.99953 Y-0.21808 Z0.0 E3.06913211930
G1 Z0
G1 X-1.00552 Y-0.18869 Z0.0 E3.06921316928
G1 Z0
G1 X-1.00819 Y-0.17398 Z0.0 E3.06927435211
G1 Z0
G1 X-1.00644 Y-0.18363 Z0.0 E3.06916487900
G1 Z0
G1 X-0.98761 Y-0.2628 Z0.0 E3.06593153363
G1 Z0
G1 X-0.58731 Y-0.71912 Z0.0 E2.78542626801
G1 Z0
G1 X0.50662 Y-0.8786 Z0.0 E3.04260021357
G1 Z0
G1 X0.67334 Y-0.77004 Z0.0 E3.06873511643
G1 Z0
G1 X0.69514 Y-0.75067 Z0.0 E3.06928747701
G1 Z0
G1 X0.68772 Y-0.75745 Z0.0 E3.06923503631
G1 Z0
G1 X0.66499 Y-0.77742 Z0.0 E3.06909465616
G1 Z0
G1 X0.62786 Y-0.80761 Z0.0 E3.06887256583
G1 Z0
G1 X0.57067 Y-0.84879 Z0.0 E3.06838368152
G1 Z0
G1 X0.47676 Y-0.90433 Z0.0 E3.06692282565
G1 Z0
G1 X0.29501 Y-0.97644 Z0.0 E3.06009701861
G1 Z0
G1 X-0.14701 Y-0.99308 Z0.0 E3.01170689784
G1 Z0
G1 X-0.81607 Y-0.5726 Z0.0 E2.99074723842
G1 Z0
G1 X-1.01526 Y-0.084 Z0.0 E3.05618713570
G1 Z0
G1 X-1.01199 Y0.1434 Z0.0 E3.06629840050
G1 Z0
G1 X-0.98851 Y0.26239 Z0.0 E3.06822502268
G1 Z0
G1 X-0.96627 Y0.33575 Z0.0 E3.06881931345
G1 Z0
G1 X-0.94807 Y0.38437 Z0.0 E3.06907041239
G1 Z0
G1 X-0.93487 Y0.41556 Z0.0 E3.06920971498
G1 Z0
G1 X-0.92871 Y0.42921 Z0.0 E3.06928516007
G1 Z0
G1 X-0.93583 Y0.41325 Z0.0 E3.06903570566
G1 Z0
G1 X-0.97774 Y0.28989 Z0.0 E3.05942894627
G1 Z0
G1 X-0.69381 Y-0.56993 Z0.0 E2.69364672684
G1 Z0
G1 X0.01092 Y-1.02051 Z0.0 E3.06170526970
G1 Z0
G1 X0.12865 Y-1.01489 Z0.0 E3.06903450802
G1 Z0
G1 X0.14669 Y-1.01252 Z0.0 E3.06927228484
G1 Z0
G1 X0.13574 Y-1.01403 Z0.0 E3.06922460835
G1 Z0
G1 X0.1088 Y-1.01725 Z0.0 E3.06915542495
G1 Z0
G1 X0.06807 Y-1.02073 Z0.0 E3.06899158034
G1 Z0
G1 X0.01082 Y-1.02285 Z0.0 E3.06872168078
G1 Z0
G1 X-0.07156 Y-1.02018 Z0.0 E3.06806007014
G1 Z0
G1 X-0.20051 Y-1.00207 Z0.0 E3.06580118485
G1 Z0
G1 X-0.43361 Y-0.92091 Z0.0 E3.05365940173
G1 Z0
G1 X-0.84015 Y-0.53384 Z0.0 E2.98622412302
G1 Z0
G1 X-0.98399 Y0.21452 Z0.0 E3.02130706061
G1 Z0
G1 X-0.83051 Y0.59283 Z0.0 E3.06116781980
G1 Z0
G1 X-0.71005 Y0.73555 Z0.0 E3.06705775052
G1 Z0
G1 X-0.62946 Y0.80616 Z0.0 E3.06839119651
G1 Z0
G1 X-0.57213 Y0.848 Z0.0 E3.06886471388
G1 Z0
G1 X-0.52984 Y0.87512 Z0.0 E3.06905343062
G1 Z0
G1 X-0.49925 Y0.89297 Z0.0 E3.06917152512
G1 Z0
G1 X-0.48041 Y0.90328 Z0.0 E3.06926322405
G1 Z0
G1 X-0.47838 Y0.90436 Z0.0 E3.06927188532
G1 Z0
G1 X-0.51377 Y0.88441 Z0.0 E3.06843053514
G1 Z0
G1 X-0.70985 Y0.71343 Z0.0 E3.01924236964
G1 Z0
G1 X-0.83731 Y-0.46431 Z0.0 E2.87228938476
G1 Z0
G1 X-0.55699 Y-0.85734 Z0.0 E3.06715301563
G1 Z0
G1 X-0.50318 Y-0.89078 Z0.0 E3.06922011058
G1 Z0
G1 X-0.50184 Y-0.89155 Z0.0 E3.06925774299
G1 Z0
G1 X-0.52174 Y-0.88001 Z0.0 E3.06914842412
G1 Z0
G1 X-0.55624 Y-0.85855 Z0.0 E3.06897366572
G1 Z0
G1 X-0.6058 Y-0.82419 Z0.0 E3.06863897598
G1 Z0
G1 X-0.67611 Y-0.76717 Z0.0 E3.06774687173
G1 Z0
G1 X-0.78092 Y-0.6584 Z0.0 E3.06430081056
G1 Z0
G1 X-0.93666 Y-0.38843 Z0.0 E3.04202044446
G1 Z0
G1 X-0.94187 Y0.30215 Z0.0 E2.96744392948
G1 Z0
G1 X-0.53286 Y0.86253 Z0.0 E3.04155881490
G1 Z0
G1 X-0.24648 Y0.99122 Z0.0 E3.06421691615
G1 Z0
G1 X-0.09703 Y1.01796 Z0.0 E3.06772170226
G1 Z0
G1 X-0.00628 Y1.02286 Z0.0 E3.06863783494
G1 Z0
G1 X0.05421 Y1.02156 Z0.0 E3.06899202008
G1 Z0
G1 X0.09489 Y1.01864 Z0.0 E3.06915038004
G1 Z0
G1 X0.11793 Y1.01627 Z0.0 E3.06926860672
G1 Z0
G1 X0.11668 Y1.0164 Z0.0 E3.06922606557
G1 Z0
G1 X0.05447 Y1.02096 Z0.0 E3.06723600698
G1 Z0
G1 X-0.39641 Y0.87383 Z0.0 E2.87862429174
G1 Z0
G1 X-0.99375 Y-0.15406 Z0.0 E3.01686292610
G1 Z0
G1 X-0.93578 Y-0.41284 Z0.0 E3.06840180974
G1 Z0
G1 X-0.91863 Y-0.45036 Z0.0 E3.06925835643
G1 Z0
G1 X-0.91955 Y-0.44849 Z0.0 E3.06927342272
G1 Z0
G1 X-0.92867 Y-0.4292 Z0.0 E3.06916364505
G1 Z0
G1 X-0.9429 Y-0.39689 Z0.0 E3.06907783200
G1 Z0
G1 X-0.96113 Y-0.35023 Z0.0 E3.06885766503
G1 Z0
G1 X-0.9829 Y-0.28292 Z0.0 E3.06842389959
G1 Z0
G1 X-1.00659 Y-0.17886 Z0.0 E3.06707172223
G1 Z0
G1 X-1.02041 Y0.00632 Z0.0 E3.06128871466
G1 Z0
G1 X-0.92449 Y0.40008 Z0.0 E3.02203770633
G1 Z0
G1 X-0.37212 Y0.92299 Z0.0 E2.98554090752
G1 Z0
G1 X0.18743 Y1.00039 Z0.0 E3.0533901508
G1 Z0
G1 X0.42545 Y0.92915 Z0.0 E3.06577018464
G1 Z0
G1 X0.54102 Y0.86786 Z0.0 E3.06805354908
G1 Z0
G1 X0.6095 Y0.82149 Z0.0 E3.06871709854
G1 Z0
G1 X0.65473 Y0.78604 Z0.0 E3.06900183944
G1 Z0
G1 X0.68572 Y0.75922 Z0.0 E3.06914358432
G1 Z0
G1 X0.70572 Y0.7407 Z0.0 E3.06921730668
G1 Z0
G1 X0.71382 Y0.73293 Z0.0 E3.06928792975
G1 Z0
G1 X0.7009 Y0.74519 Z0.0 E3.06905857144
G1 Z0
G1 X0.61051 Y0.81793 Z0.0 E3.06195811614
G1 Z0
G1 X-0.21475 Y0.87221 Z0.0 E2.69477468806
G1 Z0
G1 X-0.96041 Y0.34257 Z0.0 E3.05903157176
G1 Z0
G1 X-0.99991 Y0.21613 Z0.0 E3.06900467008
G1 Z0
G1 X-1.00363 Y0.19862 Z0.0 E3.06928456349
G1 Z0
G1 X-1.00063 Y0.2131 Z0.0 E3.06920968037
G1 Z0
G1 X-0.99302 Y0.24595 Z0.0 E3.06907495935
G1 Z0
G1 X-0.97923 Y0.29582 Z0.0 E3.06881211346
G1 Z0
G1 X-0.95424 Y0.368 Z0.0 E3.06822127598
G1 Z0
G1 X-0.90364 Y0.47763 Z0.0 E3.06631064938
G1 Z0
G1 X-0.77388 Y0.66261 Z0.0 E3.05638354898
G1 Z0
G1 X-0.32998 Y0.94102 Z0.0 E2.99159639109
G1 Z0
G1 X0.45951 Y0.89225 Z0.0 E3.01086956267
G1 Z0
G1 X0.81113 Y0.61843 Z0.0 E3.05998167906
G1 Z0
G1 X0.91672 Y0.45246 Z0.0 E3.06689753497
G1 Z0
G1 X0.96034 Y0.35195 Z0.0 E3.06840275435
G1 Z0
G1 X0.98251 Y0.2848 Z0.0 E3.06886501184
G1 Z0
G1 X0.99487 Y0.2384 Z0.0 E3.06910538954
G1 Z0
G1 X1.00156 Y0.20873 Z0.0 E3.06923700918
G1 Z0
G1 X1.00362 Y0.19868 Z0.0 E3.06929008424
G1 Z0
G1 X0.9975 Y0.22664 Z0.0 E3.06876969752
G1 Z0
G1 X0.92835 Y0.40932 Z0.0 E3.04374592634
G1 Z0
G1 X-0.04126 Y0.9256 Z0.0 E2.77955746989
G1 Z0
G1 X-0.64334 Y0.79402 Z0.0 E3.06580936198
G1 Z0
G1 X-0.7061 Y0.74031 Z0.0 E3.06915704305
G1 Z0
G1 X-0.71341 Y0.73332 Z0.0 E3.06926839076
G1 Z0
G1 X-0.70272 Y0.74355 Z0.0 E3.06922433330
G1 Z0
G1 X-0.68068 Y0.76373 Z0.0 E3.06911697035
G1 Z0
G1 X-0.64734 Y0.79212 Z0.0 E3.06896212587
G1 Z0
G1 X-0.59863 Y0.82941 Z0.0 E3.06863315256
G1 Z0
G1 X-0.52374 Y0.8783 Z0.0 E3.06780545315
G1 Z0
G1 X-0.39347 Y0.94278 Z0.0 E3.06477975125
G1 Z0
G1 X-0.11221 Y1.00936 Z0.0 E3.04673402897
G1 Z0
G1 X0.50999 Y0.85031 Z0.0 E2.97456754265
G1 Z0
G1 X0.96646 Y0.3001 Z0.0 E3.03594210656
G1 Z0
G1 X1.02032 Y-0.03962 Z0.0 E3.06326685439
G1 Z0
G1 X1.00214 Y-0.20301 Z0.0 E3.06748736873
G1 Z0
G1 X0.97849 Y-0.29794 Z0.0 E3.06853357702
G1 Z0
G1 X0.95735 Y-0.36048 Z0.0 E3.06890594123
G1 Z0
G1 X0.93985 Y-0.40408 Z0.0 E3.06910215211
G1 Z0
G1 X0.92648 Y-0.43394 Z0.0 E3.06920543887
G1 Z0
G1 X0.91858 Y-0.45048 Z0.0 E3.06928216709
G1 Z0
G1 X0.91998 Y-0.44757 Z0.0 E3.06922448636
G1 Z0
G1 X0.94326 Y-0.39478 Z0.0 E3.06762384982
G1 Z0
G1 X0.97633 Y0.01125 Z0.0 E2.92918443984
G1 Z0
G1 X0.23063 Y0.97024 Z0.0 E2.99182263687
G1 Z0
G1 X-0.07609 Y1.01991 Z0.0 E3.06823318309
G1 Z0
G1 X-0.11966 Y1.01607 Z0.0 E3.06927529630
G1 Z0
G1 X-0.11502 Y1.0166 Z0.0 E3.06925828884
G1 Z0
G1 X-0.08843 Y1.01921 Z0.0 E3.06911713706
G1 Z0
G1 X-0.04435 Y1.02202 Z0.0 E3.06894545831
G1 Z0
G1 X0.02079 Y1.02263 Z0.0 E3.06852392349
G1 Z0
G1 X0.11968 Y1.01543 Z0.0 E3.06737550452
G1 Z0
G1 X0.28692 Y0.97972 Z0.0 E3.06260824841
G1 Z0
G1 X0.61277 Y0.80253 Z0.0 E3.02917039207
G1 Z0
G1 X0.98079 Y0.14402 Z0.0 E2.97392284037
G1 Z0
G1 X0.90435 Y-0.46478 Z0.0 E3.05038101523
G1 Z0
G1 X0.75717 Y-0.68614 Z0.0 E3.06542828598
G1 Z0
G1 X0.66056 Y-0.78071 Z0.0 E3.06800074304
G1 Z0
G1 X0.59497 Y-0.83208 Z0.0 E3.06873228642
G1 Z0
G1 X0.54855 Y-0.8635 Z0.0 E3.06901517958
G1 Z0
G1 X0.51673 Y-0.88298 Z0.0 E3.06919731521
G1 Z0
G1 X0.50005 Y-0.89256 Z0.0 E3.06927030496
G1 Z0
G1 X0.5075 Y-0.88831 Z0.0 E3.06917874274
G1 Z0
G1 X0.58254 Y-0.8393 Z0.0 E3.06496265465
G1 Z0
G1 X0.88541 Y-0.22403 Z0.0 E2.73993846300
G1 Z0
G1 X0.64128 Y0.78918 Z0.0 E3.05064026021
G1 Z0
G1 X0.50168 Y0.89148 Z0.0 E3.06883931075
G1 Z0
G1 X0.47692 Y0.90513 Z0.0 E3.06926978770
G1 Z0
G1 X0.48298 Y0.90191 Z0.0 E3.06926733220
G1 Z0
G1 X0.50425 Y0.89016 Z0.0 E3.06918164873
G1 Z0
G1 X0.53698 Y0.87075 Z0.0 E3.06903531197
G1 Z0
G1 X0.58177 Y0.84139 Z0.0 E3.06880126189
G1 Z0
G1 X0.64272 Y0.79557 Z0.0 E3.06825448907
G1 Z0
G1 X0.72934 Y0.71618 Z0.0 E3.06653805651
G1 Z0
G1 X0.85973 Y0.54778 Z0.0 E3.05823272687
G1 Z0
G1 X0.99748 Y0.08815 Z0.0 E3.00410235446
G1 Z0
G1 X0.75896 Y-0.65283 Z0.0 E3.00330911071
G1 Z0
G1 X0.37597 Y-0.94749 Z0.0 E3.05807401300
G1 Z0
G1 X0.17036 Y-1.00787 Z0.0 E3.06649966550
G1 Z0
G1 X0.05314 Y-1.02137 Z0.0 E3.06825436177
G1 Z0
G1 X-0.02335 Y-1.02267 Z0.0 E3.06880960025
G1 Z0
G1 X-0.077 Y-1.02011 Z0.0 E3.06903579466
G1 Z0
G1 X-0.11501 Y-1.01657 Z0.0 E3.06916548674
G1 Z0
G1 X-0.13925 Y-1.01356 Z0.0 E3.06924256534
G1 Z0
G1 X-0.14623 Y-1.01259 Z0.0 E3.06928256910
G1 Z0
G1 X-0.11866 Y-1.01604 Z0.0 E3.06883647248
G1 Z0
G1 X0.05144 Y-1.01583 Z0.0 E3.05139475691
G1 Z0
G1 X0.84221 Y-0.34934 Z0.0 E2.73536196459
G1 Z0
G1 X0.96513 Y0.33498 Z0.0 E3.06483077114
G1 Z0
G1 X0.93282 Y0.42011 Z0.0 E3.06917091093
G1 Z0
G1 X0.92916 Y0.42824 Z0.0 E3.06929148645
G1 Z0
G1 X0.93694 Y0.41084 Z0.0 E3.06917165092
G1 Z0
G1 X0.9512 Y0.37652 Z0.0 E3.06902895939
G1 Z0
G1 X0.97024 Y0.324 Z0.0 E3.06872529210
G1 Z0
G1 X0.99309 Y0.2442 Z0.0 E3.06802094075
G1 Z0
G1 X1.01571 Y0.11157 Z0.0 E3.06545788113
G1 Z0
G1 X1.00544 Y-0.15221 Z0.0 E3.05068800425
G1 Z0
G1 X0.71396 Y-0.68798 Z0.0 E2.97447445072
G1 Z0
G1 X0.02892 Y-1.00909 Z0.0 E3.02851299329
G1 Z0
G1 X-0.34181 Y-0.96191 Z0.0 E3.06250621514
G1 Z0
G1 X-0.49909 Y-0.89237 Z0.0 E3.06736620002
G1 Z0
G1 X-0.58371 Y-0.83993 Z0.0 E3.06851721863
G1 Z0
G1 X-0.63624 Y-0.80105 Z0.0 E3.06893172959
G1 Z0
G1 X-0.67039 Y-0.77278 Z0.0 E3.06912123001
G1 Z0
G1 X-0.69048 Y-0.75494 Z0.0 E3.06924637427
G1 Z0
G1 X-0.69411 Y-0.75161 Z0.0 E3.06925993650
G1 Z0
G1 X-0.66167 Y-0.77988 Z0.0 E3.06825357976
G1 Z0
G1 X-0.39055 Y-0.91888 Z0.0 E2.99530095518
G1 Z0
G1 X0.77643 Y-0.58896 Z0.0 E2.92360339966
G1 Z0
G1 X0.99491 Y-0.23606 Z0.0 E3.06759385925
G1 Z0
G1 X1.00733 Y-0.17883 Z0.0 E3.06924177611
G1 Z0
G1 X1.00794 Y-0.1754 Z0.0 E3.06926275063
G1 Z0
G1 X1.00464 Y-0.19329 Z0.0 E3.06919582029
G1 Z0
G1 X0.99794 Y-0.22519 Z0.0 E3.06909644966
G1 Z0
G1 X0.98653 Y-0.27062 Z0.0 E3.06892320329
G1 Z0
G1 X0.96696 Y-0.33346 Z0.0 E3.06852813557
G1 Z0
G1 X0.93051 Y-0.42386 Z0.0 E3.06749986753
G1 Z0
G1 X0.84983 Y-0.5661 Z0.0 E3.06335145716
G1 Z0
G1 X0.60916 Y-0.80832 Z0.0 E3.03646408706
G1 Z0
G1 Z2.2
G1 X0.40052 Y0.00697 Z0.0 E1.20174192808
G1 Z0
G1 X-0.07399 Y-0.98959 Z0.0 E2.97705659903
G1 Z0
G1 X-0.67703 Y-0.75755 Z0.0 E3.04799353848
G1 Z0
G1 X-0.86982 Y-0.53692 Z0.0 E3.06656636471
G1 Z0
G1 X-0.93874 Y-0.40713 Z0.0 E3.06967239628
G1 Z0
G1 X-0.97124 Y-0.32291 Z0.0 E3.07053774628
G1 Z0
G1 X-0.98909 Y-0.2636 Z0.0 E3.07083960716
G1 Z0
G1 X-0.99965 Y-0.22044 Z0.0 E3.07100069113
G1 Z0
G1 X-1.00588 Y-0.1902 Z0.0 E3.07111307665
G1 Z0
G1 X-1.00888 Y-0.17368 Z0.0 E3.07116140429
G1 Z0
G1 X-1.00803 Y-0.17849 Z0.0 E3.07113146072
G1 Z0
G1 X-0.99507 Y-0.23795 Z0.0 E3.06937462142
G1 Z0
G1 X-0.76462 Y-0.59976 Z0.0 E2.91533912573
G1 Z0
G1 X0.40703 Y-0.91413 Z0.0 E3.00195997645
G1 Z0
G1 X0.66935 Y-0.77414 Z0.0 E3.07016277401
G1 Z0
G1 X0.70239 Y-0.74475 Z0.0 E3.07116239743
G1 Z0
G1 X0.7007 Y-0.74634 Z0.0 E3.07116182745
G1 Z0
G1 X0.68375 Y-0.76185 Z0.0 E3.07105281052
G1 Z0
G1 X0.65467 Y-0.78693 Z0.0 E3.07093873338
G1 Z0
G1 X0.611 Y-0.82118 Z0.0 E3.07065438166
G1 Z0
G1 X0.5442 Y-0.86663 Z0.0 E3.06998546773
G1 Z0
G1 X0.43111 Y-0.92728 Z0.0 E3.06779012882
G1 Z0
G1 X0.19783 Y-0.99922 Z0.0 E3.05584617671
G1 Z0
G1 X-0.35855 Y-0.92888 Z0.0 E2.98703622544
G1 Z0
G1 X-0.92255 Y-0.40465 Z0.0 E3.02217820868
G1 Z0
G1 X-1.02101 Y-0.00603 Z0.0 E3.06308341855
G1 Z0
G1 X-1.00711 Y0.17957 Z0.0 E3.06898084598
G1 Z0
G1 X-0.98353 Y0.28303 Z0.0 E3.07033144403
G1 Z0
G1 X-0.96213 Y0.34936 Z0.0 E3.07078473985
G1 Z0
G1 X-0.94457 Y0.39455 Z0.0 E3.07098350477
G1 Z0
G1 X-0.93153 Y0.42451 Z0.0 E3.07109295349
G1 Z0
G1 X-0.92466 Y0.43933 Z0.0 E3.07116633879
G1 Z0
G1 X-0.92881 Y0.4304 Z0.0 E3.07105675377
G1 Z0
G1 X-0.96053 Y0.3504 Z0.0 E3.06734125394
G1 Z0
G1 X-0.87244 Y-0.2924 Z0.0 E2.76040645964
G1 Z0
G1 X-0.0711 Y-1.01378 Z0.0 E3.04881056899
G1 Z0
G1 X0.1161 Y-1.01695 Z0.0 E3.07066745391
G1 Z0
G1 X0.14715 Y-1.01309 Z0.0 E3.07116268462
G1 Z0
G1 X0.14219 Y-1.01379 Z0.0 E3.07113878583
G1 Z0
G1 X0.11988 Y-1.01665 Z0.0 E3.07108058053
G1 Z0
G1 X0.08424 Y-1.02018 Z0.0 E3.07095628266
G1 Z0
G1 X0.03401 Y-1.02302 Z0.0 E3.07075551038
G1 Z0
G1 X-0.0368 Y-1.02277 Z0.0 E3.07029549329
G1 Z0
G1 X-0.14299 Y-1.01295 Z0.0 E3.06897777499
G1 Z0
G1 X-0.32285 Y-0.96869 Z0.0 E3.06322247762
G1 Z0
G1 X-0.66564 Y-0.75729 Z0.0 E3.02474507741
G1 Z0
G1 X-0.99306 Y-0.07552 Z0.0 E2.98778227219
G1 Z0
G1 X-0.89672 Y0.48266 Z0.0 E3.05509523681
G1 Z0
G1 X-0.75548 Y0.68908 Z0.0 E3.06761006179
G1 Z0
G1 X-0.66126 Y0.78096 Z0.0 E3.06992993125
G1 Z0
G1 X-0.59579 Y0.83226 Z0.0 E3.07060285372
G1 Z0
G1 X-0.54785 Y0.86468 Z0.0 E3.07087937309
G1 Z0
G1 X-0.51234 Y0.88625 Z0.0 E3.07105552586
G1 Z0
G1 X-0.4877 Y0.90007 Z0.0 E3.07112286535
G1 Z0
G1 X-0.47586 Y0.9064 Z0.0 E3.07116155492
G1 Z0
G1 X-0.48606 Y0.90093 Z0.0 E3.07105237606
G1 Z0
G1 X-0.55893 Y0.85622 Z0.0 E3.06751347180
G1 Z0
G1 X-0.87134 Y0.30548 Z0.0 E2.77001134185
G1 Z0
G1 X-0.66694 Y-0.76607 Z0.0 E3.04713798120
G1 Z0
G1 X-0.51583 Y-0.88407 Z0.0 E3.07065842845
G1 Z0
G1 X-0.48962 Y-0.89905 Z0.0 E3.07118345628
G1 Z0
G1 X-0.49613 Y-0.89546 Z0.0 E3.07114673966
G1 Z0
G1 X-0.51886 Y-0.88244 Z0.0 E3.0710331289
G1 Z0
G1 X-0.55418 Y-0.86064 Z0.0 E3.07088751634
G1 Z0
G1 X-0.60329 Y-0.82682 Z0.0 E3.07055552441
G1 Z0
G1 X-0.67176 Y-0.77187 Z0.0 E3.06975620376
G1 Z0
G1 X-0.77233 Y-0.66973 Z0.0 E3.06680405572
G1 Z0
G1 X-0.92264 Y-0.42619 Z0.0 E3.04895430784
G1 Z0
G1 X-0.96776 Y0.21573 Z0.0 E2.97454024254
G1 Z0
G1 X-0.58319 Y0.82758 Z0.0 E3.03726737257
G1 Z0
G1 X-0.27544 Y0.98391 Z0.0 E3.06521039005
G1 Z0
G1 X-0.11513 Y1.01664 Z0.0 E3.06941464428
G1 Z0
G1 X-0.0186 Y1.02331 Z0.0 E3.07043707718
G1 Z0
G1 X0.04606 Y1.02257 Z0.0 E3.07082046960
G1 Z0
G1 X0.09106 Y1.01961 Z0.0 E3.07100444176
G1 Z0
G1 X0.12054 Y1.01658 Z0.0 E3.07110453941
G1 Z0
G1 X0.13283 Y1.01507 Z0.0 E3.07117212546
G1 Z0
G1 X0.11467 Y1.0172 Z0.0 E3.07092908419
G1 Z0
G1 X-0.00891 Y1.02084 Z0.0 E3.06263664892
G1 Z0
G1 X-0.72539 Y0.52742 Z0.0 E2.69058777528
G1 Z0
G1 X-0.97059 Y-0.31607 Z0.0 E3.06227149956
G1 Z0
G1 X-0.92657 Y-0.43507 Z0.0 E3.07088925691
G1 Z0
G1 X-0.91764 Y-0.45383 Z0.0 E3.0711925284
G1 Z0
G1 X-0.92169 Y-0.44551 Z0.0 E3.07114384974
G1 Z0
G1 X-0.93238 Y-0.42261 Z0.0 E3.07105602171
G1 Z0
G1 X-0.94757 Y-0.38724 Z0.0 E3.07092714054
G1 Z0
G1 X-0.96651 Y-0.33695 Z0.0 E3.07068265104
G1 Z0
G1 X-0.98875 Y-0.26398 Z0.0 E3.07014788343
G1 Z0
G1 X-1.01192 Y-0.14891 Z0.0 E3.06845343300
G1 Z0
G1 X-1.01811 Y0.06332 Z0.0 E3.06023145375
G1 Z0
G1 X-0.86105 Y0.5132 Z0.0 E3.00716346122
G1 Z0
G1 X-0.23726 Y0.9732 Z0.0 E3.00511146688
G1 Z0
G1 X0.24777 Y0.98939 Z0.0 E3.05982726718
G1 Z0
G1 X0.45128 Y0.91785 Z0.0 E3.06837421905
G1 Z0
G1 X0.55486 Y0.8599 Z0.0 E3.07012681601
G1 Z0
G1 X0.618 Y0.81594 Z0.0 E3.07069027295
G1 Z0
G1 X0.66033 Y0.78218 Z0.0 E3.07092353400
G1 Z0
G1 X0.68952 Y0.75664 Z0.0 E3.07107103142
G1 Z0
G1 X0.70822 Y0.73919 Z0.0 E3.07112305525
G1 Z0
G1 X0.7152 Y0.73246 Z0.0 E3.07116886940
G1 Z0
G1 X0.70088 Y0.74606 Z0.0 E3.07091919171
G1 Z0
G1 X0.60568 Y0.82198 Z0.0 E3.06308577177
G1 Z0
G1 X-0.24748 Y0.86225 Z0.0 E2.69118797487
G1 Z0
G1 X-0.96581 Y0.32986 Z0.0 E3.06175916448
G1 Z0
G1 X-1.00263 Y0.2063 Z0.0 E3.07090206000
G1 Z0
G1 X-1.00644 Y0.18733 Z0.0 E3.07117665114
G1 Z0
G1 X-1.00417 Y0.19902 Z0.0 E3.07110682714
G1 Z0
G1 X-0.99803 Y0.22767 Z0.0 E3.07100595704
G1 Z0
G1 X-0.98708 Y0.27103 Z0.0 E3.07083989907
G1 Z0
G1 X-0.96805 Y0.33228 Z0.0 E3.07046856491
G1 Z0
G1 X-0.93243 Y0.42121 Z0.0 E3.06946121021
G1 Z0
G1 X-0.85341 Y0.56192 Z0.0 E3.06538161254
G1 Z0
G1 X-0.6164 Y0.80375 Z0.0 E3.03869498346
G1 Z0
G1 X0.07512 Y0.98842 Z0.0 E2.97381135871
G1 Z0
G1 X0.6831 Y0.75208 Z0.0 E3.04799104782
G1 Z0
G1 X0.87335 Y0.53122 Z0.0 E3.06666173519
G1 Z0
G1 X0.94071 Y0.4026 Z0.0 E3.06972288275
G1 Z0
G1 X0.97228 Y0.31978 Z0.0 E3.07055187567
G1 Z0
G1 X0.98948 Y0.26218 Z0.0 E3.07087629272
G1 Z0
G1 X0.99942 Y0.22152 Z0.0 E3.07102637911
G1 Z0
G1 X1.00487 Y0.19553 Z0.0 E3.07114983031
G1 Z0
G1 X1.00637 Y0.18772 Z0.0 E3.07118452355
G1 Z0
G1 X1.00052 Y0.21596 Z0.0 E3.07068574231
G1 Z0
