; *************************************************
; *************************************************
; ******* File generated by Extruder Turtle *******
; ******* written by Leah Buechley and  ***********
; ******* and Franklin Pezutti-Dyer ***************
; ******* Hand and Machine Lab, UNM, 2022 *********
; *************************************************
; *************************************************
; *************** Printer parameters **************
; Printer: 3Dpotter
; Nozzle size: 3.0
; Extrude width: 3.5
; Layer height: 2.2
; Extrude rate: 3.0
; Speed: 1000
; *************** 3D Potter initialization **************
M82                             ; Absolute extrusion mode
G28                             ; Home all axes
G92 E0                          ; Reset Extruder
G90 							; Absolute coordinates for X,Y,Z   
; M208 X0 Y0 Z0 S1              ; Set axis minima
; M208 X415 Y405 Z500 S0        ; Set axis maxima 
G1 X207.5 Y202.5 Z25 F10000 	; Go to the starting position (center of bed) 25mm above print
G1 F20000 E2000                 ; Prime Extruder, Extrude 2000mm of clay
G1 X207.5 Y202.5 Z0 F1000 		; Go to the starting position more slowly
M83                             ; Relative extrusion
G91                     		; Relative coordinates for X,Y,Z axes
G1 E5                 			; Extrude 5mm of clay
G1 F1000
; *************** End printer initialization **************
; Changed extrude rate to: 7.0
; *************************************************************
G1 X46.917 Y0.819 Z0.0
G1 Z0.00770547945205
G1 X0.008 Y-1.0 Z0.0
G1 Z0.00770547945205
G1 X-0.018 Y-1.0 Z0.0
G1 Z0.00770547945205
G1 X-0.043 Y-0.999 Z0.0
G1 Z0.00770547945205
G1 X-0.069 Y-0.997 Z0.0 E6.996
G1 Z0.00770547945205
G1 X-0.094 Y-0.995 Z0.0 E6.996
G1 Z0.00770547945205
G1 X-0.119 Y-0.993 Z0.0 E7.001
G1 Z0.00770547945205
G1 X-0.144 Y-0.989 Z0.0 E6.996
G1 Z0.00770547945205
G1 X-0.169 Y-0.985 Z0.0 E6.996
G1 Z0.00770547945205
G1 X-0.193 Y-0.981 Z0.0 E6.999
G1 Z0.00770547945205
G1 X-0.216 Y-0.976 Z0.0 E6.997
G1 Z0.00770547945205
G1 X-0.239 Y-0.971 Z0.0 E7.0
G1 Z0.00770547945205
G1 X-0.262 Y-0.965 Z0.0 E7.0
G1 Z0.00770547945205
G1 X-0.284 Y-0.959 Z0.0 E7.001
G1 Z0.00770547945205
G1 X-0.305 Y-0.952 Z0.0 E6.998
G1 Z0.00770547945205
G1 X-0.326 Y-0.945 Z0.0 E6.998
G1 Z0.00770547945205
G1 X-0.346 Y-0.938 Z0.0 E6.998
G1 Z0.00770547945205
G1 X-0.366 Y-0.93 Z0.0 E6.996
G1 Z0.00770547945205
G1 X-0.386 Y-0.922 Z0.0 E6.997
G1 Z0.00770547945205
G1 X-0.404 Y-0.914 Z0.0 E6.995
G1 Z0.00770547945205
G1 X-0.423 Y-0.906 Z0.0 E6.999
G1 Z0.00770547945205
G1 X-0.441 Y-0.897 Z0.0 E6.997
G1 Z0.00770547945205
G1 X-0.459 Y-0.888 Z0.0 E6.997
G1 Z0.00770547945205
G1 X-0.476 Y-0.879 Z0.0 E6.997
G1 Z0.00770547945205
G1 X-0.493 Y-0.87 Z0.0 E7.0
G1 Z0.00770547945205
G1 X-0.51 Y-0.86 Z0.0 E6.999
G1 Z0.00770547945205
G1 X-0.527 Y-0.85 Z0.0 E7.001
G1 Z0.00770547945205
G1 X-0.543 Y-0.839 Z0.0 E6.996
G1 Z0.00770547945205
G1 X-0.559 Y-0.829 Z0.0 E6.999
G1 Z0.00770547945205
G1 X-0.575 Y-0.818 Z0.0 E6.999
G1 Z0.00770547945205
G1 X-0.591 Y-0.807 Z0.0 E7.002
G1 Z0.00770547945205
G1 X-0.606 Y-0.795 Z0.0 E6.997
G1 Z0.00770547945205
G1 X-0.622 Y-0.783 Z0.0 E7.0
G1 Z0.00770547945205
G1 X-0.637 Y-0.771 Z0.0 E7.001
G1 Z0.00770547945205
G1 X-0.652 Y-0.758 Z0.0 E6.999
G1 Z0.00770547945205
G1 X-0.667 Y-0.745 Z0.0 E7.0
G1 Z0.00770547945205
G1 X-0.681 Y-0.732 Z0.0 E6.999
G1 Z0.00770547945205
G1 X-0.695 Y-0.718 Z0.0 E6.995
G1 Z0.00770547945205
G1 X-0.709 Y-0.704 Z0.0 E6.994
G1 Z0.00770547945205
G1 X-0.723 Y-0.69 Z0.0 E6.996
G1 Z0.00770547945205
G1 X-0.737 Y-0.676 Z0.0 E7.001
G1 Z0.00770547945205
G1 X-0.75 Y-0.661 Z0.0 E6.998
G1 Z0.00770547945205
G1 X-0.763 Y-0.646 Z0.0 E6.998
G1 Z0.00770547945205
G1 X-0.775 Y-0.631 Z0.0 E6.996
G1 Z0.00770547945205
G1 X-0.787 Y-0.616 Z0.0 E6.996
G1 Z0.00770547945205
G1 X-0.799 Y-0.601 Z0.0 E6.999
G1 Z0.00770547945205
G1 X-0.811 Y-0.585 Z0.0 E7.0
G1 Z0.00770547945205
G1 X-0.822 Y-0.569 Z0.0 E6.998
G1 Z0.00770547945205
G1 X-0.833 Y-0.553 Z0.0 E6.999
G1 Z0.00770547945205
G1 X-0.843 Y-0.537 Z0.0 E6.997
G1 Z0.00770547945205
G1 X-0.853 Y-0.521 Z0.0 E6.997
G1 Z0.00770547945205
G1 X-0.863 Y-0.504 Z0.0 E6.996
G1 Z0.00770547945205
G1 X-0.873 Y-0.487 Z0.0 E6.998
G1 Z0.00770547945205
G1 X-0.882 Y-0.47 Z0.0 E6.996
G1 Z0.00770547945205
G1 X-0.892 Y-0.452 Z0.0 E7.0
G1 Z0.00770547945205
G1 X-0.9 Y-0.435 Z0.0 E6.997
G1 Z0.00770547945205
G1 X-0.909 Y-0.416 Z0.0 E6.998
G1 Z0.00770547945205
G1 X-0.917 Y-0.398 Z0.0 E6.998
G1 Z0.00770547945205
G1 X-0.925 Y-0.379 Z0.0 E6.997
G1 Z0.00770547945205
G1 X-0.933 Y-0.359 Z0.0 E6.998
G1 Z0.00770547945205
G1 X-0.94 Y-0.339 Z0.0 E6.995
G1 Z0.00770547945205
G1 X-0.948 Y-0.318 Z0.0 E6.999
G1 Z0.00770547945205
G1 X-0.954 Y-0.297 Z0.0 E6.994
G1 Z0.00770547945205
G1 X-0.961 Y-0.276 Z0.0 E6.999
G1 Z0.00770547945205
G1 X-0.967 Y-0.254 Z0.0 E6.999
G1 Z0.00770547945205
G1 X-0.973 Y-0.231 Z0.0 E7.0
G1 Z0.00770547945205
G1 X-0.978 Y-0.208 Z0.0 E6.999
G1 Z0.00770547945205
G1 X-0.983 Y-0.184 Z0.0 E7.001
G1 Z0.00770547945205
G1 X-0.987 Y-0.16 Z0.0 E6.999
G1 Z0.00770547945205
G1 X-0.991 Y-0.135 Z0.0 E7.001
G1 Z0.00770547945205
G1 X-0.994 Y-0.11 Z0.0 E7.0
G1 Z0.00770547945205
G1 X-0.996 Y-0.085 Z0.0 E6.997
G1 Z0.00770547945205
G1 X-0.998 Y-0.06 Z0.0 E6.999
G1 Z0.00770547945205
G1 X-0.999 Y-0.034 Z0.0 E6.997
G1 Z0.00770547945205
G1 X-1.0 Y-0.008 Z0.0 E7.0
G1 Z0.00770547945205
G1 X-1.0 Y0.018 Z0.0 E7.001
G1 Z0.00770547945205
G1 X-0.999 Y0.043 Z0.0 E6.999
G1 Z0.00770547945205
G1 X-0.997 Y0.069 Z0.0 E6.996
G1 Z0.00770547945205
G1 X-0.995 Y0.094 Z0.0 E6.996
G1 Z0.00770547945205
G1 X-0.993 Y0.119 Z0.0 E7.001
G1 Z0.00770547945205
G1 X-0.989 Y0.144 Z0.0 E6.996
G1 Z0.00770547945205
G1 X-0.985 Y0.169 Z0.0 E6.996
G1 Z0.00770547945205
G1 X-0.981 Y0.193 Z0.0 E6.999
G1 Z0.00770547945205
G1 X-0.976 Y0.216 Z0.0 E6.997
G1 Z0.00770547945205
G1 X-0.971 Y0.239 Z0.0 E7.0
G1 Z0.00770547945205
G1 X-0.965 Y0.262 Z0.0 E7.0
G1 Z0.00770547945205
G1 X-0.959 Y0.284 Z0.0 E7.001
G1 Z0.00770547945205
G1 X-0.952 Y0.305 Z0.0 E6.998
G1 Z0.00770547945205
G1 X-0.945 Y0.326 Z0.0 E6.998
G1 Z0.00770547945205
G1 X-0.938 Y0.346 Z0.0 E6.998
G1 Z0.00770547945205
G1 X-0.93 Y0.366 Z0.0 E6.996
G1 Z0.00770547945205
G1 X-0.922 Y0.386 Z0.0 E6.997
G1 Z0.00770547945205
G1 X-0.914 Y0.404 Z0.0 E6.995
G1 Z0.00770547945205
G1 X-0.906 Y0.423 Z0.0 E6.999
G1 Z0.00770547945205
G1 X-0.897 Y0.441 Z0.0 E6.997
G1 Z0.00770547945205
G1 X-0.888 Y0.459 Z0.0 E6.997
G1 Z0.00770547945205
G1 X-0.879 Y0.476 Z0.0 E6.997
G1 Z0.00770547945205
G1 X-0.87 Y0.493 Z0.0 E7.0
G1 Z0.00770547945205
G1 X-0.86 Y0.51 Z0.0 E6.999
G1 Z0.00770547945205
G1 X-0.85 Y0.527 Z0.0 E7.001
G1 Z0.00770547945205
G1 X-0.839 Y0.543 Z0.0 E6.996
G1 Z0.00770547945205
G1 X-0.829 Y0.559 Z0.0 E6.999
G1 Z0.00770547945205
G1 X-0.818 Y0.575 Z0.0 E6.999
G1 Z0.00770547945205
G1 X-0.807 Y0.591 Z0.0 E7.002
G1 Z0.00770547945205
G1 X-0.795 Y0.606 Z0.0 E6.997
G1 Z0.00770547945205
G1 X-0.783 Y0.622 Z0.0 E7.0
G1 Z0.00770547945205
G1 X-0.771 Y0.637 Z0.0 E7.001
G1 Z0.00770547945205
G1 X-0.758 Y0.652 Z0.0 E6.999
G1 Z0.00770547945205
G1 X-0.745 Y0.667 Z0.0 E7.0
G1 Z0.00770547945205
G1 X-0.732 Y0.681 Z0.0 E6.999
G1 Z0.00770547945205
G1 X-0.718 Y0.695 Z0.0 E6.995
G1 Z0.00770547945205
G1 X-0.704 Y0.709 Z0.0 E6.994
G1 Z0.00770547945205
G1 X-0.69 Y0.723 Z0.0 E6.996
G1 Z0.00770547945205
G1 X-0.676 Y0.737 Z0.0 E7.001
G1 Z0.00770547945205
G1 X-0.661 Y0.75 Z0.0 E6.998
G1 Z0.00770547945205
G1 X-0.646 Y0.763 Z0.0 E6.998
G1 Z0.00770547945205
G1 X-0.631 Y0.775 Z0.0 E6.996
G1 Z0.00770547945205
G1 X-0.616 Y0.787 Z0.0 E6.996
G1 Z0.00770547945205
G1 X-0.601 Y0.799 Z0.0 E6.999
G1 Z0.00770547945205
G1 X-0.585 Y0.811 Z0.0 E7.0
G1 Z0.00770547945205
G1 X-0.569 Y0.822 Z0.0 E6.998
G1 Z0.00770547945205
G1 X-0.553 Y0.833 Z0.0 E6.999
G1 Z0.00770547945205
G1 X-0.537 Y0.843 Z0.0 E6.997
G1 Z0.00770547945205
G1 X-0.521 Y0.853 Z0.0 E6.997
G1 Z0.00770547945205
G1 X-0.504 Y0.863 Z0.0 E6.996
G1 Z0.00770547945205
G1 X-0.487 Y0.873 Z0.0 E6.998
G1 Z0.00770547945205
G1 X-0.47 Y0.882 Z0.0 E6.996
G1 Z0.00770547945205
G1 X-0.452 Y0.892 Z0.0 E7.0
G1 Z0.00770547945205
G1 X-0.435 Y0.9 Z0.0 E6.997
G1 Z0.00770547945205
G1 X-0.416 Y0.909 Z0.0 E6.998
G1 Z0.00770547945205
G1 X-0.398 Y0.917 Z0.0 E6.998
G1 Z0.00770547945205
G1 X-0.379 Y0.925 Z0.0 E6.997
G1 Z0.00770547945205
G1 X-0.359 Y0.933 Z0.0 E6.998
G1 Z0.00770547945205
G1 X-0.339 Y0.94 Z0.0 E6.995
G1 Z0.00770547945205
G1 X-0.318 Y0.948 Z0.0 E6.999
G1 Z0.00770547945205
G1 X-0.297 Y0.954 Z0.0 E6.994
G1 Z0.00770547945205
G1 X-0.276 Y0.961 Z0.0 E6.999
G1 Z0.00770547945205
G1 X-0.254 Y0.967 Z0.0 E6.999
G1 Z0.00770547945205
G1 X-0.231 Y0.973 Z0.0 E7.0
G1 Z0.00770547945205
G1 X-0.208 Y0.978 Z0.0 E6.999
G1 Z0.00770547945205
G1 X-0.184 Y0.983 Z0.0 E7.001
G1 Z0.00770547945205
G1 X-0.16 Y0.987 Z0.0 E6.999
G1 Z0.00770547945205
G1 X-0.135 Y0.991 Z0.0 E7.001
G1 Z0.00770547945205
G1 X-0.11 Y0.994 Z0.0 E7.0
G1 Z0.00770547945205
G1 X-0.085 Y0.996 Z0.0 E6.997
G1 Z0.00770547945205
G1 X-0.06 Y0.998 Z0.0 E6.999
G1 Z0.00770547945205
G1 X-0.034 Y0.999 Z0.0 E6.997
G1 Z0.00770547945205
G1 X-0.008 Y1.0 Z0.0 E7.0
G1 Z0.00770547945205
G1 X0.018 Y1.0 Z0.0 E7.001
G1 Z0.00770547945205
G1 X0.043 Y0.999 Z0.0 E6.999
G1 Z0.00770547945205
G1 X0.069 Y0.997 Z0.0 E6.996
G1 Z0.00770547945205
G1 X0.094 Y0.995 Z0.0 E6.996
G1 Z0.00770547945205
G1 X0.119 Y0.993 Z0.0 E7.001
G1 Z0.00770547945205
G1 X0.144 Y0.989 Z0.0 E6.996
G1 Z0.00770547945205
G1 X0.169 Y0.985 Z0.0 E6.996
G1 Z0.00770547945205
G1 X0.193 Y0.981 Z0.0 E6.999
G1 Z0.00770547945205
G1 X0.216 Y0.976 Z0.0 E6.997
G1 Z0.00770547945205
G1 X0.239 Y0.971 Z0.0 E7.0
G1 Z0.00770547945205
G1 X0.262 Y0.965 Z0.0 E7.0
G1 Z0.00770547945205
G1 X0.284 Y0.959 Z0.0 E7.001
G1 Z0.00770547945205
G1 X0.305 Y0.952 Z0.0 E6.998
G1 Z0.00770547945205
G1 X0.326 Y0.945 Z0.0 E6.998
G1 Z0.00770547945205
G1 X0.346 Y0.938 Z0.0 E6.998
G1 Z0.00770547945205
G1 X0.366 Y0.93 Z0.0 E6.996
G1 Z0.00770547945205
G1 X0.386 Y0.922 Z0.0 E6.997
G1 Z0.00770547945205
G1 X0.404 Y0.914 Z0.0 E6.995
G1 Z0.00770547945205
G1 X0.423 Y0.906 Z0.0 E6.999
G1 Z0.00770547945205
G1 X0.441 Y0.897 Z0.0 E6.997
G1 Z0.00770547945205
G1 X0.459 Y0.888 Z0.0 E6.997
G1 Z0.00770547945205
G1 X0.476 Y0.879 Z0.0 E6.997
G1 Z0.00770547945205
G1 X0.493 Y0.87 Z0.0 E7.0
G1 Z0.00770547945205
G1 X0.51 Y0.86 Z0.0 E6.999
G1 Z0.00770547945205
G1 X0.527 Y0.85 Z0.0 E7.001
G1 Z0.00770547945205
G1 X0.543 Y0.839 Z0.0 E6.996
G1 Z0.00770547945205
G1 X0.559 Y0.829 Z0.0 E6.999
G1 Z0.00770547945205
G1 X0.575 Y0.818 Z0.0 E6.999
G1 Z0.00770547945205
G1 X0.591 Y0.807 Z0.0 E7.002
G1 Z0.00770547945205
G1 X0.606 Y0.795 Z0.0 E6.997
G1 Z0.00770547945205
G1 X0.622 Y0.783 Z0.0 E7.0
G1 Z0.00770547945205
G1 X0.637 Y0.771 Z0.0 E7.001
G1 Z0.00770547945205
G1 X0.652 Y0.758 Z0.0 E6.999
G1 Z0.00770547945205
G1 X0.667 Y0.745 Z0.0 E7.0
G1 Z0.00770547945205
G1 X0.681 Y0.732 Z0.0 E6.999
G1 Z0.00770547945205
G1 X0.695 Y0.718 Z0.0 E6.995
G1 Z0.00770547945205
G1 X0.709 Y0.704 Z0.0 E6.994
G1 Z0.00770547945205
G1 X0.723 Y0.69 Z0.0 E6.996
G1 Z0.00770547945205
G1 X0.737 Y0.676 Z0.0 E7.001
G1 Z0.00770547945205
G1 X0.75 Y0.661 Z0.0 E6.998
G1 Z0.00770547945205
G1 X0.763 Y0.646 Z0.0 E6.998
G1 Z0.00770547945205
G1 X0.775 Y0.631 Z0.0 E6.996
G1 Z0.00770547945205
G1 X0.787 Y0.616 Z0.0 E6.996
G1 Z0.00770547945205
G1 X0.799 Y0.601 Z0.0 E6.999
G1 Z0.00770547945205
G1 X0.811 Y0.585 Z0.0 E7.0
G1 Z0.00770547945205
G1 X0.822 Y0.569 Z0.0 E6.998
G1 Z0.00770547945205
G1 X0.833 Y0.553 Z0.0 E6.999
G1 Z0.00770547945205
G1 X0.843 Y0.537 Z0.0 E6.997
G1 Z0.00770547945205
G1 X0.853 Y0.521 Z0.0 E6.997
G1 Z0.00770547945205
G1 X0.863 Y0.504 Z0.0 E6.996
G1 Z0.00770547945205
G1 X0.873 Y0.487 Z0.0 E6.998
G1 Z0.00770547945205
G1 X0.882 Y0.47 Z0.0 E6.996
G1 Z0.00770547945205
G1 X0.892 Y0.452 Z0.0 E7.0
G1 Z0.00770547945205
G1 X0.9 Y0.435 Z0.0 E6.997
G1 Z0.00770547945205
G1 X0.909 Y0.416 Z0.0 E6.998
G1 Z0.00770547945205
G1 X0.917 Y0.398 Z0.0 E6.998
G1 Z0.00770547945205
G1 X0.925 Y0.379 Z0.0 E6.997
G1 Z0.00770547945205
G1 X0.933 Y0.359 Z0.0 E6.998
G1 Z0.00770547945205
G1 X0.94 Y0.339 Z0.0 E6.995
G1 Z0.00770547945205
G1 X0.948 Y0.318 Z0.0 E6.999
G1 Z0.00770547945205
G1 X0.954 Y0.297 Z0.0 E6.994
G1 Z0.00770547945205
G1 X0.961 Y0.276 Z0.0 E6.999
G1 Z0.00770547945205
G1 X0.967 Y0.254 Z0.0 E6.999
G1 Z0.00770547945205
G1 X0.973 Y0.231 Z0.0 E7.0
G1 Z0.00770547945205
G1 X0.978 Y0.208 Z0.0 E6.999
G1 Z0.00770547945205
G1 X0.983 Y0.184 Z0.0 E7.001
G1 Z0.00770547945205
G1 X0.987 Y0.16 Z0.0 E6.999
G1 Z0.00770547945205
G1 X0.991 Y0.135 Z0.0 E7.001
G1 Z0.00770547945205
G1 X0.994 Y0.11 Z0.0 E7.0
G1 Z0.00770547945205
G1 X0.996 Y0.085 Z0.0 E6.997
G1 Z0.00770547945205
G1 X0.998 Y0.06 Z0.0 E6.999
G1 Z0.00770547945205
G1 X0.999 Y0.034 Z0.0 E6.997
G1 Z0.00770547945205
G1 X1.0 Y0.008 Z0.0 E7.0
G1 Z0.00770547945205
G1 X1.0 Y-0.018 Z0.0 E7.001
G1 Z0.00770547945205
G1 X0.999 Y-0.043 Z0.0 E6.999
G1 Z0.00770547945205
G1 X0.997 Y-0.069 Z0.0 E6.996
G1 Z0.00770547945205
G1 X0.995 Y-0.094 Z0.0 E6.996
G1 Z0.00770547945205
G1 X0.993 Y-0.119 Z0.0 E7.001
G1 Z0.00770547945205
G1 X0.989 Y-0.144 Z0.0 E6.996
G1 Z0.00770547945205
G1 X0.985 Y-0.169 Z0.0 E6.996
G1 Z0.00770547945205
G1 X0.981 Y-0.193 Z0.0 E6.999
G1 Z0.00770547945205
G1 X0.976 Y-0.216 Z0.0 E6.997
G1 Z0.00770547945205
G1 X0.971 Y-0.239 Z0.0 E7.0
G1 Z0.00770547945205
G1 X0.965 Y-0.262 Z0.0 E7.0
G1 Z0.00770547945205
G1 X0.959 Y-0.284 Z0.0 E7.001
G1 Z0.00770547945205
G1 X0.952 Y-0.305 Z0.0 E6.998
G1 Z0.00770547945205
G1 X0.945 Y-0.326 Z0.0 E6.998
G1 Z0.00770547945205
G1 X0.938 Y-0.346 Z0.0 E6.998
G1 Z0.00770547945205
G1 X0.93 Y-0.366 Z0.0 E6.996
G1 Z0.00770547945205
G1 X0.922 Y-0.386 Z0.0 E6.997
G1 Z0.00770547945205
G1 X0.914 Y-0.404 Z0.0 E6.995
G1 Z0.00770547945205
G1 X0.906 Y-0.423 Z0.0 E6.999
G1 Z0.00770547945205
G1 X0.897 Y-0.441 Z0.0 E6.997
G1 Z0.00770547945205
G1 X0.888 Y-0.459 Z0.0 E6.997
G1 Z0.00770547945205
G1 X0.879 Y-0.476 Z0.0 E6.997
G1 Z0.00770547945205
G1 X0.87 Y-0.493 Z0.0 E7.0
G1 Z0.00770547945205
G1 X0.86 Y-0.51 Z0.0 E6.999
G1 Z0.00770547945205
G1 X0.85 Y-0.527 Z0.0 E7.001
G1 Z0.00770547945205
G1 X0.839 Y-0.543 Z0.0 E6.996
G1 Z0.00770547945205
G1 X0.829 Y-0.559 Z0.0 E6.999
G1 Z0.00770547945205
G1 X0.818 Y-0.575 Z0.0 E6.999
G1 Z0.00770547945205
G1 X0.807 Y-0.591 Z0.0 E7.002
G1 Z0.00770547945205
G1 X0.795 Y-0.606 Z0.0 E6.997
G1 Z0.00770547945205
G1 X0.783 Y-0.622 Z0.0 E7.0
G1 Z0.00770547945205
G1 X0.771 Y-0.637 Z0.0 E7.001
G1 Z0.00770547945205
G1 X0.758 Y-0.652 Z0.0 E6.999
G1 Z0.00770547945205
G1 X0.745 Y-0.667 Z0.0 E7.0
G1 Z0.00770547945205
G1 X0.732 Y-0.681 Z0.0 E6.999
G1 Z0.00770547945205
G1 X0.718 Y-0.695 Z0.0 E6.995
G1 Z0.00770547945205
G1 X0.704 Y-0.709 Z0.0 E6.994
G1 Z0.00770547945205
G1 X0.69 Y-0.723 Z0.0 E6.996
G1 Z0.00770547945205
G1 X0.676 Y-0.737 Z0.0 E7.001
G1 Z0.00770547945205
G1 X0.661 Y-0.75 Z0.0 E6.998
G1 Z0.00770547945205
G1 X0.646 Y-0.763 Z0.0 E6.998
G1 Z0.00770547945205
G1 X0.631 Y-0.775 Z0.0 E6.996
G1 Z0.00770547945205
G1 X0.616 Y-0.787 Z0.0 E6.996
G1 Z0.00770547945205
G1 X0.601 Y-0.799 Z0.0 E6.999
G1 Z0.00770547945205
G1 X0.585 Y-0.811 Z0.0 E7.0
G1 Z0.00770547945205
G1 X0.569 Y-0.822 Z0.0 E6.998
G1 Z0.00770547945205
G1 X0.553 Y-0.833 Z0.0 E6.999
G1 Z0.00770547945205
G1 X0.537 Y-0.843 Z0.0 E6.997
G1 Z0.00770547945205
G1 X0.521 Y-0.853 Z0.0 E6.997
G1 Z0.00770547945205
G1 X0.504 Y-0.863 Z0.0 E6.996
G1 Z0.00770547945205
G1 X0.487 Y-0.873 Z0.0 E6.998
G1 Z0.00770547945205
G1 X0.47 Y-0.882 Z0.0 E6.996
G1 Z0.00770547945205
G1 X0.452 Y-0.892 Z0.0 E7.0
G1 Z0.00770547945205
G1 X0.435 Y-0.9 Z0.0 E6.997
G1 Z0.00770547945205
G1 X0.416 Y-0.909 Z0.0 E6.998
G1 Z0.00770547945205
G1 X0.398 Y-0.917 Z0.0 E6.998
G1 Z0.00770547945205
G1 X0.379 Y-0.925 Z0.0 E6.997
G1 Z0.00770547945205
G1 X0.359 Y-0.933 Z0.0 E6.998
G1 Z0.00770547945205
G1 X0.339 Y-0.94 Z0.0 E6.995
G1 Z0.00770547945205
G1 X0.318 Y-0.948 Z0.0 E6.999
G1 Z0.00770547945205
G1 X0.297 Y-0.954 Z0.0 E6.994
G1 Z0.00770547945205
G1 X0.276 Y-0.961 Z0.0 E6.999
G1 Z0.00770547945205
G1 X0.254 Y-0.967 Z0.0 E6.999
G1 Z0.00770547945205
G1 X0.231 Y-0.973 Z0.0 E7.0
G1 Z0.00770547945205
G1 X0.208 Y-0.978 Z0.0 E6.999
G1 Z0.00770547945205
G1 X0.184 Y-0.983 Z0.0 E7.001
G1 Z0.00770547945205
G1 X0.16 Y-0.987 Z0.0 E6.999
G1 Z0.00770547945205
G1 X0.135 Y-0.991 Z0.0 E7.001
G1 Z0.00770547945205
G1 X0.11 Y-0.994 Z0.0 E7.0
G1 Z0.00770547945205
G1 X0.085 Y-0.996 Z0.0 E6.997
G1 Z0.00770547945205
G1 X0.06 Y-0.998 Z0.0 E6.999
G1 Z0.00770547945205
G1 X0.034 Y-0.999 Z0.0 E6.997
G1 X0.861 Y0.015 Z0.0
G1 Z0.00755033557047
G1 X0.009 Y-0.998 Z0.0
G1 Z0.00755033557047
G1 X-0.017 Y-0.998 Z0.0
G1 Z0.00755033557047
G1 X-0.043 Y-0.997 Z0.0
G1 Z0.00755033557047
G1 X-0.069 Y-0.996 Z0.0 E6.989
G1 Z0.00755033557047
G1 X-0.094 Y-0.994 Z0.0 E6.989
G1 Z0.00755033557047
G1 X-0.119 Y-0.991 Z0.0 E6.987
G1 Z0.00755033557047
G1 X-0.144 Y-0.988 Z0.0 E6.989
G1 Z0.00755033557047
G1 X-0.168 Y-0.984 Z0.0 E6.988
G1 Z0.00755033557047
G1 X-0.192 Y-0.979 Z0.0 E6.984
G1 Z0.00755033557047
G1 X-0.215 Y-0.975 Z0.0 E6.989
G1 Z0.00755033557047
G1 X-0.237 Y-0.97 Z0.0 E6.99
G1 Z0.00755033557047
G1 X-0.259 Y-0.964 Z0.0 E6.987
G1 Z0.00755033557047
G1 X-0.28 Y-0.958 Z0.0 E6.987
G1 Z0.00755033557047
G1 X-0.3 Y-0.952 Z0.0 E6.987
G1 Z0.00755033557047
G1 X-0.32 Y-0.945 Z0.0 E6.984
G1 Z0.00755033557047
G1 X-0.339 Y-0.939 Z0.0 E6.988
G1 Z0.00755033557047
G1 X-0.357 Y-0.932 Z0.0 E6.986
G1 Z0.00755033557047
G1 X-0.376 Y-0.925 Z0.0 E6.989
G1 Z0.00755033557047
G1 X-0.393 Y-0.917 Z0.0 E6.984
G1 Z0.00755033557047
G1 X-0.41 Y-0.91 Z0.0 E6.987
G1 Z0.00755033557047
G1 X-0.427 Y-0.902 Z0.0 E6.986
G1 Z0.00755033557047
G1 X-0.444 Y-0.894 Z0.0 E6.987
G1 Z0.00755033557047
G1 X-0.46 Y-0.886 Z0.0 E6.988
G1 Z0.00755033557047
G1 X-0.476 Y-0.877 Z0.0 E6.985
G1 Z0.00755033557047
G1 X-0.492 Y-0.868 Z0.0 E6.984
G1 Z0.00755033557047
G1 X-0.508 Y-0.859 Z0.0 E6.986
G1 Z0.00755033557047
G1 X-0.524 Y-0.849 Z0.0 E6.984
G1 Z0.00755033557047
G1 X-0.54 Y-0.839 Z0.0 E6.984
G1 Z0.00755033557047
G1 X-0.556 Y-0.829 Z0.0 E6.987
G1 Z0.00755033557047
G1 X-0.572 Y-0.818 Z0.0 E6.987
G1 Z0.00755033557047
G1 X-0.588 Y-0.807 Z0.0 E6.989
G1 Z0.00755033557047
G1 X-0.604 Y-0.795 Z0.0 E6.989
G1 Z0.00755033557047
G1 X-0.619 Y-0.783 Z0.0 E6.987
G1 Z0.00755033557047
G1 X-0.635 Y-0.77 Z0.0 E6.986
G1 Z0.00755033557047
G1 X-0.651 Y-0.757 Z0.0 E6.989
G1 Z0.00755033557047
G1 X-0.667 Y-0.743 Z0.0 E6.989
G1 Z0.00755033557047
G1 X-0.682 Y-0.729 Z0.0 E6.988
G1 Z0.00755033557047
G1 X-0.697 Y-0.714 Z0.0 E6.985
G1 Z0.00755033557047
G1 X-0.712 Y-0.7 Z0.0 E6.989
G1 Z0.00755033557047
G1 X-0.726 Y-0.684 Z0.0 E6.982
G1 Z0.00755033557047
G1 X-0.74 Y-0.669 Z0.0 E6.983
G1 Z0.00755033557047
G1 X-0.754 Y-0.654 Z0.0 E6.987
G1 Z0.00755033557047
G1 X-0.768 Y-0.638 Z0.0 E6.989
G1 Z0.00755033557047
G1 X-0.78 Y-0.622 Z0.0 E6.983
G1 Z0.00755033557047
G1 X-0.793 Y-0.606 Z0.0 E6.986
G1 Z0.00755033557047
G1 X-0.805 Y-0.59 Z0.0 E6.986
G1 Z0.00755033557047
G1 X-0.816 Y-0.575 Z0.0 E6.988
G1 Z0.00755033557047
G1 X-0.827 Y-0.559 Z0.0 E6.987
G1 Z0.00755033557047
G1 X-0.838 Y-0.543 Z0.0 E6.99
G1 Z0.00755033557047
G1 X-0.848 Y-0.527 Z0.0 E6.989
G1 Z0.00755033557047
G1 X-0.857 Y-0.511 Z0.0 E6.984
G1 Z0.00755033557047
G1 X-0.867 Y-0.495 Z0.0 E6.988
G1 Z0.00755033557047
G1 X-0.876 Y-0.479 Z0.0 E6.989
G1 Z0.00755033557047
G1 X-0.884 Y-0.463 Z0.0 E6.985
G1 Z0.00755033557047
G1 X-0.893 Y-0.447 Z0.0 E6.99
G1 Z0.00755033557047
G1 X-0.901 Y-0.43 Z0.0 E6.988
G1 Z0.00755033557047
G1 X-0.908 Y-0.413 Z0.0 E6.983
G1 Z0.00755033557047
G1 X-0.916 Y-0.396 Z0.0 E6.986
G1 Z0.00755033557047
G1 X-0.923 Y-0.379 Z0.0 E6.984
G1 Z0.00755033557047
G1 X-0.931 Y-0.361 Z0.0 E6.99
G1 Z0.00755033557047
G1 X-0.938 Y-0.342 Z0.0 E6.989
G1 Z0.00755033557047
G1 X-0.944 Y-0.323 Z0.0 E6.984
G1 Z0.00755033557047
G1 X-0.951 Y-0.303 Z0.0 E6.987
G1 Z0.00755033557047
G1 X-0.957 Y-0.283 Z0.0 E6.986
G1 Z0.00755033557047
G1 X-0.963 Y-0.262 Z0.0 E6.986
G1 Z0.00755033557047
G1 X-0.969 Y-0.241 Z0.0 E6.99
G1 Z0.00755033557047
G1 X-0.974 Y-0.218 Z0.0 E6.987
G1 Z0.00755033557047
G1 X-0.979 Y-0.196 Z0.0 E6.989
G1 Z0.00755033557047
G1 X-0.983 Y-0.172 Z0.0 E6.986
G1 Z0.00755033557047
G1 X-0.987 Y-0.148 Z0.0 E6.986
G1 Z0.00755033557047
G1 X-0.99 Y-0.123 Z0.0 E6.983
G1 Z0.00755033557047
G1 X-0.993 Y-0.098 Z0.0 E6.985
G1 Z0.00755033557047
G1 X-0.995 Y-0.073 Z0.0 E6.984
G1 Z0.00755033557047
G1 X-0.997 Y-0.047 Z0.0 E6.987
G1 Z0.00755033557047
G1 X-0.998 Y-0.022 Z0.0 E6.988
G1 Z0.00755033557047
G1 X-0.998 Y0.004 Z0.0 E6.986
G1 Z0.00755033557047
G1 X-0.998 Y0.03 Z0.0 E6.989
G1 Z0.00755033557047
G1 X-0.996 Y0.056 Z0.0 E6.983
G1 Z0.00755033557047
G1 X-0.995 Y0.081 Z0.0 E6.988
G1 Z0.00755033557047
G1 X-0.992 Y0.107 Z0.0 E6.984
G1 Z0.00755033557047
G1 X-0.989 Y0.132 Z0.0 E6.984
G1 Z0.00755033557047
G1 X-0.986 Y0.156 Z0.0 E6.988
G1 Z0.00755033557047
G1 X-0.982 Y0.18 Z0.0 E6.989
G1 Z0.00755033557047
G1 X-0.977 Y0.203 Z0.0 E6.985
G1 Z0.00755033557047
G1 X-0.972 Y0.226 Z0.0 E6.985
G1 Z0.00755033557047
G1 X-0.967 Y0.248 Z0.0 E6.988
G1 Z0.00755033557047
G1 X-0.961 Y0.269 Z0.0 E6.986
G1 Z0.00755033557047
G1 X-0.955 Y0.29 Z0.0 E6.986
G1 Z0.00755033557047
G1 X-0.949 Y0.31 Z0.0 E6.988
G1 Z0.00755033557047
G1 X-0.942 Y0.329 Z0.0 E6.985
G1 Z0.00755033557047
G1 X-0.935 Y0.348 Z0.0 E6.984
G1 Z0.00755033557047
G1 X-0.928 Y0.367 Z0.0 E6.986
G1 Z0.00755033557047
G1 X-0.921 Y0.384 Z0.0 E6.985
G1 Z0.00755033557047
G1 X-0.914 Y0.402 Z0.0 E6.989
G1 Z0.00755033557047
G1 X-0.906 Y0.419 Z0.0 E6.987
G1 Z0.00755033557047
G1 X-0.898 Y0.435 Z0.0 E6.985
G1 Z0.00755033557047
G1 X-0.89 Y0.452 Z0.0 E6.987
G1 Z0.00755033557047
G1 X-0.881 Y0.468 Z0.0 E6.983
G1 Z0.00755033557047
G1 X-0.873 Y0.484 Z0.0 E6.987
G1 Z0.00755033557047
G1 X-0.864 Y0.5 Z0.0 E6.988
G1 Z0.00755033557047
G1 X-0.854 Y0.516 Z0.0 E6.984
G1 Z0.00755033557047
G1 X-0.844 Y0.532 Z0.0 E6.984
G1 Z0.00755033557047
G1 X-0.834 Y0.548 Z0.0 E6.985
G1 Z0.00755033557047
G1 X-0.824 Y0.564 Z0.0 E6.99
G1 Z0.00755033557047
G1 X-0.812 Y0.58 Z0.0 E6.985
G1 Z0.00755033557047
G1 X-0.801 Y0.596 Z0.0 E6.989
G1 Z0.00755033557047
G1 X-0.789 Y0.612 Z0.0 E6.99
G1 Z0.00755033557047
G1 X-0.776 Y0.627 Z0.0 E6.984
G1 Z0.00755033557047
G1 X-0.763 Y0.643 Z0.0 E6.985
G1 Z0.00755033557047
G1 X-0.75 Y0.659 Z0.0 E6.989
G1 Z0.00755033557047
G1 X-0.736 Y0.674 Z0.0 E6.986
G1 Z0.00755033557047
G1 X-0.722 Y0.689 Z0.0 E6.986
G1 Z0.00755033557047
G1 X-0.707 Y0.704 Z0.0 E6.984
G1 Z0.00755033557047
G1 X-0.692 Y0.719 Z0.0 E6.985
G1 Z0.00755033557047
G1 X-0.677 Y0.733 Z0.0 E6.985
G1 Z0.00755033557047
G1 X-0.661 Y0.747 Z0.0 E6.982
G1 Z0.00755033557047
G1 X-0.646 Y0.761 Z0.0 E6.988
G1 Z0.00755033557047
G1 X-0.63 Y0.774 Z0.0 E6.986
G1 Z0.00755033557047
G1 X-0.614 Y0.787 Z0.0 E6.987
G1 Z0.00755033557047
G1 X-0.598 Y0.799 Z0.0 E6.986
G1 Z0.00755033557047
G1 X-0.582 Y0.81 Z0.0 E6.982
G1 Z0.00755033557047
G1 X-0.567 Y0.822 Z0.0 E6.99
G1 Z0.00755033557047
G1 X-0.551 Y0.832 Z0.0 E6.985
G1 Z0.00755033557047
G1 X-0.535 Y0.843 Z0.0 E6.989
G1 Z0.00755033557047
G1 X-0.519 Y0.853 Z0.0 E6.989
G1 Z0.00755033557047
G1 X-0.503 Y0.862 Z0.0 E6.986
G1 Z0.00755033557047
G1 X-0.487 Y0.871 Z0.0 E6.985
G1 Z0.00755033557047
G1 X-0.471 Y0.88 Z0.0 E6.987
G1 Z0.00755033557047
G1 X-0.455 Y0.888 Z0.0 E6.984
G1 Z0.00755033557047
G1 X-0.438 Y0.897 Z0.0 E6.988
G1 Z0.00755033557047
G1 X-0.422 Y0.905 Z0.0 E6.99
G1 Z0.00755033557047
G1 X-0.405 Y0.912 Z0.0 E6.985
G1 Z0.00755033557047
G1 X-0.387 Y0.92 Z0.0 E6.987
G1 Z0.00755033557047
G1 X-0.37 Y0.927 Z0.0 E6.987
G1 Z0.00755033557047
G1 X-0.351 Y0.934 Z0.0 E6.984
G1 Z0.00755033557047
G1 X-0.333 Y0.941 Z0.0 E6.987
G1 Z0.00755033557047
G1 X-0.313 Y0.948 Z0.0 E6.988
G1 Z0.00755033557047
G1 X-0.293 Y0.954 Z0.0 E6.986
G1 Z0.00755033557047
G1 X-0.273 Y0.96 Z0.0 E6.986
G1 Z0.00755033557047
G1 X-0.252 Y0.966 Z0.0 E6.988
G1 Z0.00755033557047
G1 X-0.23 Y0.971 Z0.0 E6.985
G1 Z0.00755033557047
G1 X-0.207 Y0.976 Z0.0 E6.984
G1 Z0.00755033557047
G1 X-0.184 Y0.981 Z0.0 E6.987
G1 Z0.00755033557047
G1 X-0.16 Y0.985 Z0.0 E6.985
G1 Z0.00755033557047
G1 X-0.136 Y0.989 Z0.0 E6.988
G1 Z0.00755033557047
G1 X-0.111 Y0.992 Z0.0 E6.987
G1 Z0.00755033557047
G1 X-0.086 Y0.994 Z0.0 E6.984
G1 Z0.00755033557047
G1 X-0.06 Y0.996 Z0.0 E6.985
G1 Z0.00755033557047
G1 X-0.035 Y0.997 Z0.0 E6.983
G1 Z0.00755033557047
G1 X-0.009 Y0.998 Z0.0 E6.986
G1 Z0.00755033557047
G1 X0.017 Y0.998 Z0.0 E6.987
G1 Z0.00755033557047
G1 X0.043 Y0.997 Z0.0 E6.985
G1 Z0.00755033557047
G1 X0.069 Y0.996 Z0.0 E6.989
G1 Z0.00755033557047
G1 X0.094 Y0.994 Z0.0 E6.989
G1 Z0.00755033557047
G1 X0.119 Y0.991 Z0.0 E6.987
G1 Z0.00755033557047
G1 X0.144 Y0.988 Z0.0 E6.989
G1 Z0.00755033557047
G1 X0.168 Y0.984 Z0.0 E6.988
G1 Z0.00755033557047
G1 X0.192 Y0.979 Z0.0 E6.984
G1 Z0.00755033557047
G1 X0.215 Y0.975 Z0.0 E6.989
G1 Z0.00755033557047
G1 X0.237 Y0.97 Z0.0 E6.99
G1 Z0.00755033557047
G1 X0.259 Y0.964 Z0.0 E6.987
G1 Z0.00755033557047
G1 X0.28 Y0.958 Z0.0 E6.987
G1 Z0.00755033557047
G1 X0.3 Y0.952 Z0.0 E6.987
G1 Z0.00755033557047
G1 X0.32 Y0.945 Z0.0 E6.984
G1 Z0.00755033557047
G1 X0.339 Y0.939 Z0.0 E6.988
G1 Z0.00755033557047
G1 X0.357 Y0.932 Z0.0 E6.986
G1 Z0.00755033557047
G1 X0.376 Y0.925 Z0.0 E6.989
G1 Z0.00755033557047
G1 X0.393 Y0.917 Z0.0 E6.984
G1 Z0.00755033557047
G1 X0.41 Y0.91 Z0.0 E6.987
G1 Z0.00755033557047
G1 X0.427 Y0.902 Z0.0 E6.986
G1 Z0.00755033557047
G1 X0.444 Y0.894 Z0.0 E6.987
G1 Z0.00755033557047
G1 X0.46 Y0.886 Z0.0 E6.988
G1 Z0.00755033557047
G1 X0.476 Y0.877 Z0.0 E6.985
G1 Z0.00755033557047
G1 X0.492 Y0.868 Z0.0 E6.984
G1 Z0.00755033557047
G1 X0.508 Y0.859 Z0.0 E6.986
G1 Z0.00755033557047
G1 X0.524 Y0.849 Z0.0 E6.984
G1 Z0.00755033557047
G1 X0.54 Y0.839 Z0.0 E6.984
G1 Z0.00755033557047
G1 X0.556 Y0.829 Z0.0 E6.987
G1 Z0.00755033557047
G1 X0.572 Y0.818 Z0.0 E6.987
G1 Z0.00755033557047
G1 X0.588 Y0.807 Z0.0 E6.989
G1 Z0.00755033557047
G1 X0.604 Y0.795 Z0.0 E6.989
G1 Z0.00755033557047
G1 X0.619 Y0.783 Z0.0 E6.987
G1 Z0.00755033557047
G1 X0.635 Y0.77 Z0.0 E6.986
G1 Z0.00755033557047
G1 X0.651 Y0.757 Z0.0 E6.989
G1 Z0.00755033557047
G1 X0.667 Y0.743 Z0.0 E6.989
G1 Z0.00755033557047
G1 X0.682 Y0.729 Z0.0 E6.988
G1 Z0.00755033557047
G1 X0.697 Y0.714 Z0.0 E6.985
G1 Z0.00755033557047
G1 X0.712 Y0.7 Z0.0 E6.989
G1 Z0.00755033557047
G1 X0.726 Y0.684 Z0.0 E6.982
G1 Z0.00755033557047
G1 X0.74 Y0.669 Z0.0 E6.983
G1 Z0.00755033557047
G1 X0.754 Y0.654 Z0.0 E6.987
G1 Z0.00755033557047
G1 X0.768 Y0.638 Z0.0 E6.989
G1 Z0.00755033557047
G1 X0.78 Y0.622 Z0.0 E6.983
G1 Z0.00755033557047
G1 X0.793 Y0.606 Z0.0 E6.986
G1 Z0.00755033557047
G1 X0.805 Y0.59 Z0.0 E6.986
G1 Z0.00755033557047
G1 X0.816 Y0.575 Z0.0 E6.988
G1 Z0.00755033557047
G1 X0.827 Y0.559 Z0.0 E6.987
G1 Z0.00755033557047
G1 X0.838 Y0.543 Z0.0 E6.99
G1 Z0.00755033557047
G1 X0.848 Y0.527 Z0.0 E6.989
G1 Z0.00755033557047
G1 X0.857 Y0.511 Z0.0 E6.984
G1 Z0.00755033557047
G1 X0.867 Y0.495 Z0.0 E6.988
G1 Z0.00755033557047
G1 X0.876 Y0.479 Z0.0 E6.989
G1 Z0.00755033557047
G1 X0.884 Y0.463 Z0.0 E6.985
G1 Z0.00755033557047
G1 X0.893 Y0.447 Z0.0 E6.99
G1 Z0.00755033557047
G1 X0.901 Y0.43 Z0.0 E6.988
G1 Z0.00755033557047
G1 X0.908 Y0.413 Z0.0 E6.983
G1 Z0.00755033557047
G1 X0.916 Y0.396 Z0.0 E6.986
G1 Z0.00755033557047
G1 X0.923 Y0.379 Z0.0 E6.984
G1 Z0.00755033557047
G1 X0.931 Y0.361 Z0.0 E6.99
G1 Z0.00755033557047
G1 X0.938 Y0.342 Z0.0 E6.989
G1 Z0.00755033557047
G1 X0.944 Y0.323 Z0.0 E6.984
G1 Z0.00755033557047
G1 X0.951 Y0.303 Z0.0 E6.987
G1 Z0.00755033557047
G1 X0.957 Y0.283 Z0.0 E6.986
G1 Z0.00755033557047
G1 X0.963 Y0.262 Z0.0 E6.986
G1 Z0.00755033557047
G1 X0.969 Y0.241 Z0.0 E6.99
G1 Z0.00755033557047
G1 X0.974 Y0.218 Z0.0 E6.987
G1 Z0.00755033557047
G1 X0.979 Y0.196 Z0.0 E6.989
G1 Z0.00755033557047
G1 X0.983 Y0.172 Z0.0 E6.986
G1 Z0.00755033557047
G1 X0.987 Y0.148 Z0.0 E6.986
G1 Z0.00755033557047
G1 X0.99 Y0.123 Z0.0 E6.983
G1 Z0.00755033557047
G1 X0.993 Y0.098 Z0.0 E6.985
G1 Z0.00755033557047
G1 X0.995 Y0.073 Z0.0 E6.984
G1 Z0.00755033557047
G1 X0.997 Y0.047 Z0.0 E6.987
G1 Z0.00755033557047
G1 X0.998 Y0.022 Z0.0 E6.988
G1 Z0.00755033557047
G1 X0.998 Y-0.004 Z0.0 E6.986
G1 Z0.00755033557047
G1 X0.998 Y-0.03 Z0.0 E6.989
G1 Z0.00755033557047
G1 X0.996 Y-0.056 Z0.0 E6.983
G1 Z0.00755033557047
G1 X0.995 Y-0.081 Z0.0 E6.988
G1 Z0.00755033557047
G1 X0.992 Y-0.107 Z0.0 E6.984
G1 Z0.00755033557047
G1 X0.989 Y-0.132 Z0.0 E6.984
G1 Z0.00755033557047
G1 X0.986 Y-0.156 Z0.0 E6.988
G1 Z0.00755033557047
G1 X0.982 Y-0.18 Z0.0 E6.989
G1 Z0.00755033557047
G1 X0.977 Y-0.203 Z0.0 E6.985
G1 Z0.00755033557047
G1 X0.972 Y-0.226 Z0.0 E6.985
G1 Z0.00755033557047
G1 X0.967 Y-0.248 Z0.0 E6.988
G1 Z0.00755033557047
G1 X0.961 Y-0.269 Z0.0 E6.986
G1 Z0.00755033557047
G1 X0.955 Y-0.29 Z0.0 E6.986
G1 Z0.00755033557047
G1 X0.949 Y-0.31 Z0.0 E6.988
G1 Z0.00755033557047
G1 X0.942 Y-0.329 Z0.0 E6.985
G1 Z0.00755033557047
G1 X0.935 Y-0.348 Z0.0 E6.984
G1 Z0.00755033557047
G1 X0.928 Y-0.367 Z0.0 E6.986
G1 Z0.00755033557047
G1 X0.921 Y-0.384 Z0.0 E6.985
G1 Z0.00755033557047
G1 X0.914 Y-0.402 Z0.0 E6.989
G1 Z0.00755033557047
G1 X0.906 Y-0.419 Z0.0 E6.987
G1 Z0.00755033557047
G1 X0.898 Y-0.435 Z0.0 E6.985
G1 Z0.00755033557047
G1 X0.89 Y-0.452 Z0.0 E6.987
G1 Z0.00755033557047
G1 X0.881 Y-0.468 Z0.0 E6.983
G1 Z0.00755033557047
G1 X0.873 Y-0.484 Z0.0 E6.987
G1 Z0.00755033557047
G1 X0.864 Y-0.5 Z0.0 E6.988
G1 Z0.00755033557047
G1 X0.854 Y-0.516 Z0.0 E6.984
G1 Z0.00755033557047
G1 X0.844 Y-0.532 Z0.0 E6.984
G1 Z0.00755033557047
G1 X0.834 Y-0.548 Z0.0 E6.985
G1 Z0.00755033557047
G1 X0.824 Y-0.564 Z0.0 E6.99
G1 Z0.00755033557047
G1 X0.812 Y-0.58 Z0.0 E6.985
G1 Z0.00755033557047
G1 X0.801 Y-0.596 Z0.0 E6.989
G1 Z0.00755033557047
G1 X0.789 Y-0.612 Z0.0 E6.99
G1 Z0.00755033557047
G1 X0.776 Y-0.627 Z0.0 E6.984
G1 Z0.00755033557047
G1 X0.763 Y-0.643 Z0.0 E6.985
G1 Z0.00755033557047
G1 X0.75 Y-0.659 Z0.0 E6.989
G1 Z0.00755033557047
G1 X0.736 Y-0.674 Z0.0 E6.986
G1 Z0.00755033557047
G1 X0.722 Y-0.689 Z0.0 E6.986
G1 Z0.00755033557047
G1 X0.707 Y-0.704 Z0.0 E6.984
G1 Z0.00755033557047
G1 X0.692 Y-0.719 Z0.0 E6.985
G1 Z0.00755033557047
G1 X0.677 Y-0.733 Z0.0 E6.985
G1 Z0.00755033557047
G1 X0.661 Y-0.747 Z0.0 E6.982
G1 Z0.00755033557047
G1 X0.646 Y-0.761 Z0.0 E6.988
G1 Z0.00755033557047
G1 X0.63 Y-0.774 Z0.0 E6.986
G1 Z0.00755033557047
G1 X0.614 Y-0.787 Z0.0 E6.987
G1 Z0.00755033557047
G1 X0.598 Y-0.799 Z0.0 E6.986
G1 Z0.00755033557047
G1 X0.582 Y-0.81 Z0.0 E6.982
G1 Z0.00755033557047
G1 X0.567 Y-0.822 Z0.0 E6.99
G1 Z0.00755033557047
G1 X0.551 Y-0.832 Z0.0 E6.985
G1 Z0.00755033557047
G1 X0.535 Y-0.843 Z0.0 E6.989
G1 Z0.00755033557047
G1 X0.519 Y-0.853 Z0.0 E6.989
G1 Z0.00755033557047
G1 X0.503 Y-0.862 Z0.0 E6.986
G1 Z0.00755033557047
G1 X0.487 Y-0.871 Z0.0 E6.985
G1 Z0.00755033557047
G1 X0.471 Y-0.88 Z0.0 E6.987
G1 Z0.00755033557047
G1 X0.455 Y-0.888 Z0.0 E6.984
G1 Z0.00755033557047
G1 X0.438 Y-0.897 Z0.0 E6.988
G1 Z0.00755033557047
G1 X0.422 Y-0.905 Z0.0 E6.99
G1 Z0.00755033557047
G1 X0.405 Y-0.912 Z0.0 E6.985
G1 Z0.00755033557047
G1 X0.387 Y-0.92 Z0.0 E6.987
G1 Z0.00755033557047
G1 X0.37 Y-0.927 Z0.0 E6.987
G1 Z0.00755033557047
G1 X0.351 Y-0.934 Z0.0 E6.984
G1 Z0.00755033557047
G1 X0.333 Y-0.941 Z0.0 E6.987
G1 Z0.00755033557047
G1 X0.313 Y-0.948 Z0.0 E6.988
G1 Z0.00755033557047
G1 X0.293 Y-0.954 Z0.0 E6.986
G1 Z0.00755033557047
G1 X0.273 Y-0.96 Z0.0 E6.986
G1 Z0.00755033557047
G1 X0.252 Y-0.966 Z0.0 E6.988
G1 Z0.00755033557047
G1 X0.23 Y-0.971 Z0.0 E6.985
G1 Z0.00755033557047
G1 X0.207 Y-0.976 Z0.0 E6.984
G1 Z0.00755033557047
G1 X0.184 Y-0.981 Z0.0 E6.987
G1 Z0.00755033557047
G1 X0.16 Y-0.985 Z0.0 E6.985
G1 Z0.00755033557047
G1 X0.136 Y-0.989 Z0.0 E6.988
G1 Z0.00755033557047
G1 X0.111 Y-0.992 Z0.0 E6.987
G1 Z0.00755033557047
G1 X0.086 Y-0.994 Z0.0 E6.984
G1 Z0.00755033557047
G1 X0.06 Y-0.996 Z0.0 E6.985
G1 Z0.00755033557047
G1 X0.035 Y-0.997 Z0.0 E6.983
G1 X0.791 Y0.014 Z0.0
G1 Z0.00742574257426
G1 X0.009 Y-0.998 Z0.0
G1 Z0.00742574257426
G1 X-0.017 Y-0.998 Z0.0
G1 Z0.00742574257426
G1 X-0.043 Y-0.997 Z0.0
G1 Z0.00742574257426
G1 X-0.069 Y-0.996 Z0.0 E6.989
G1 Z0.00742574257426
G1 X-0.094 Y-0.994 Z0.0 E6.989
G1 Z0.00742574257426
G1 X-0.12 Y-0.991 Z0.0 E6.988
G1 Z0.00742574257426
G1 X-0.144 Y-0.988 Z0.0 E6.989
G1 Z0.00742574257426
G1 X-0.168 Y-0.984 Z0.0 E6.988
G1 Z0.00742574257426
G1 X-0.192 Y-0.98 Z0.0 E6.99
G1 Z0.00742574257426
G1 X-0.214 Y-0.975 Z0.0 E6.987
G1 Z0.00742574257426
G1 X-0.236 Y-0.97 Z0.0 E6.988
G1 Z0.00742574257426
G1 X-0.257 Y-0.965 Z0.0 E6.99
G1 Z0.00742574257426
G1 X-0.278 Y-0.959 Z0.0 E6.989
G1 Z0.00742574257426
G1 X-0.297 Y-0.953 Z0.0 E6.987
G1 Z0.00742574257426
G1 X-0.316 Y-0.947 Z0.0 E6.988
G1 Z0.00742574257426
G1 X-0.334 Y-0.941 Z0.0 E6.99
G1 Z0.00742574257426
G1 X-0.351 Y-0.934 Z0.0 E6.984
G1 Z0.00742574257426
G1 X-0.368 Y-0.928 Z0.0 E6.988
G1 Z0.00742574257426
G1 X-0.385 Y-0.921 Z0.0 E6.988
G1 Z0.00742574257426
G1 X-0.401 Y-0.914 Z0.0 E6.987
G1 Z0.00742574257426
G1 X-0.417 Y-0.907 Z0.0 E6.988
G1 Z0.00742574257426
G1 X-0.432 Y-0.9 Z0.0 E6.988
G1 Z0.00742574257426
G1 X-0.447 Y-0.892 Z0.0 E6.984
G1 Z0.00742574257426
G1 X-0.463 Y-0.885 Z0.0 E6.992
G1 Z0.00742574257426
G1 X-0.478 Y-0.876 Z0.0 E6.985
G1 Z0.00742574257426
G1 X-0.493 Y-0.868 Z0.0 E6.988
G1 Z0.00742574257426
G1 X-0.509 Y-0.859 Z0.0 E6.989
G1 Z0.00742574257426
G1 X-0.524 Y-0.85 Z0.0 E6.99
G1 Z0.00742574257426
G1 X-0.54 Y-0.84 Z0.0 E6.99
G1 Z0.00742574257426
G1 X-0.556 Y-0.829 Z0.0 E6.987
G1 Z0.00742574257426
G1 X-0.572 Y-0.818 Z0.0 E6.987
G1 Z0.00742574257426
G1 X-0.588 Y-0.806 Z0.0 E6.984
G1 Z0.00742574257426
G1 X-0.605 Y-0.794 Z0.0 E6.988
G1 Z0.00742574257426
G1 X-0.621 Y-0.781 Z0.0 E6.985
G1 Z0.00742574257426
G1 X-0.638 Y-0.768 Z0.0 E6.989
G1 Z0.00742574257426
G1 X-0.654 Y-0.754 Z0.0 E6.987
G1 Z0.00742574257426
G1 X-0.67 Y-0.74 Z0.0 E6.988
G1 Z0.00742574257426
G1 X-0.687 Y-0.725 Z0.0 E6.992
G1 Z0.00742574257426
G1 X-0.702 Y-0.709 Z0.0 E6.984
G1 Z0.00742574257426
G1 X-0.718 Y-0.694 Z0.0 E6.99
G1 Z0.00742574257426
G1 X-0.733 Y-0.678 Z0.0 E6.989
G1 Z0.00742574257426
G1 X-0.748 Y-0.661 Z0.0 E6.987
G1 Z0.00742574257426
G1 X-0.762 Y-0.645 Z0.0 E6.988
G1 Z0.00742574257426
G1 X-0.775 Y-0.629 Z0.0 E6.987
G1 Z0.00742574257426
G1 X-0.789 Y-0.612 Z0.0 E6.99
G1 Z0.00742574257426
G1 X-0.801 Y-0.596 Z0.0 E6.989
G1 Z0.00742574257426
G1 X-0.813 Y-0.579 Z0.0 E6.987
G1 Z0.00742574257426
G1 X-0.824 Y-0.563 Z0.0 E6.986
G1 Z0.00742574257426
G1 X-0.835 Y-0.547 Z0.0 E6.988
G1 Z0.00742574257426
G1 X-0.845 Y-0.531 Z0.0 E6.986
G1 Z0.00742574257426
G1 X-0.855 Y-0.516 Z0.0 E6.99
G1 Z0.00742574257426
G1 X-0.864 Y-0.5 Z0.0 E6.988
G1 Z0.00742574257426
G1 X-0.873 Y-0.485 Z0.0 E6.991
G1 Z0.00742574257426
G1 X-0.881 Y-0.47 Z0.0 E6.99
G1 Z0.00742574257426
G1 X-0.889 Y-0.454 Z0.0 E6.988
G1 Z0.00742574257426
G1 X-0.897 Y-0.439 Z0.0 E6.991
G1 Z0.00742574257426
G1 X-0.904 Y-0.424 Z0.0 E6.989
G1 Z0.00742574257426
G1 X-0.911 Y-0.408 Z0.0 E6.987
G1 Z0.00742574257426
G1 X-0.918 Y-0.392 Z0.0 E6.987
G1 Z0.00742574257426
G1 X-0.925 Y-0.376 Z0.0 E6.989
G1 Z0.00742574257426
G1 X-0.931 Y-0.359 Z0.0 E6.985
G1 Z0.00742574257426
G1 X-0.938 Y-0.342 Z0.0 E6.989
G1 Z0.00742574257426
G1 X-0.944 Y-0.324 Z0.0 E6.986
G1 Z0.00742574257426
G1 X-0.95 Y-0.306 Z0.0 E6.986
G1 Z0.00742574257426
G1 X-0.956 Y-0.286 Z0.0 E6.985
G1 Z0.00742574257426
G1 X-0.962 Y-0.266 Z0.0 E6.987
G1 Z0.00742574257426
G1 X-0.968 Y-0.246 Z0.0 E6.991
G1 Z0.00742574257426
G1 X-0.973 Y-0.224 Z0.0 E6.989
G1 Z0.00742574257426
G1 X-0.978 Y-0.202 Z0.0 E6.991
G1 Z0.00742574257426
G1 X-0.982 Y-0.179 Z0.0 E6.987
G1 Z0.00742574257426
G1 X-0.986 Y-0.155 Z0.0 E6.987
G1 Z0.00742574257426
G1 X-0.99 Y-0.131 Z0.0 E6.99
G1 Z0.00742574257426
G1 X-0.993 Y-0.106 Z0.0 E6.99
G1 Z0.00742574257426
G1 X-0.995 Y-0.08 Z0.0 E6.987
G1 Z0.00742574257426
G1 X-0.997 Y-0.055 Z0.0 E6.99
G1 Z0.00742574257426
G1 X-0.998 Y-0.029 Z0.0 E6.989
G1 Z0.00742574257426
G1 X-0.998 Y-0.003 Z0.0 E6.986
G1 Z0.00742574257426
G1 X-0.998 Y0.024 Z0.0 E6.988
G1 Z0.00742574257426
G1 X-0.997 Y0.05 Z0.0 E6.988
G1 Z0.00742574257426
G1 X-0.995 Y0.075 Z0.0 E6.985
G1 Z0.00742574257426
G1 X-0.993 Y0.101 Z0.0 E6.987
G1 Z0.00742574257426
G1 X-0.99 Y0.126 Z0.0 E6.986
G1 Z0.00742574257426
G1 X-0.987 Y0.15 Z0.0 E6.988
G1 Z0.00742574257426
G1 X-0.983 Y0.174 Z0.0 E6.988
G1 Z0.00742574257426
G1 X-0.979 Y0.197 Z0.0 E6.99
G1 Z0.00742574257426
G1 X-0.974 Y0.22 Z0.0 E6.99
G1 Z0.00742574257426
G1 X-0.969 Y0.241 Z0.0 E6.99
G1 Z0.00742574257426
G1 X-0.963 Y0.262 Z0.0 E6.986
G1 Z0.00742574257426
G1 X-0.957 Y0.282 Z0.0 E6.984
G1 Z0.00742574257426
G1 X-0.952 Y0.302 Z0.0 E6.991
G1 Z0.00742574257426
G1 X-0.945 Y0.32 Z0.0 E6.984
G1 Z0.00742574257426
G1 X-0.939 Y0.338 Z0.0 E6.986
G1 Z0.00742574257426
G1 X-0.933 Y0.356 Z0.0 E6.99
G1 Z0.00742574257426
G1 X-0.926 Y0.373 Z0.0 E6.988
G1 Z0.00742574257426
G1 X-0.919 Y0.389 Z0.0 E6.986
G1 Z0.00742574257426
G1 X-0.913 Y0.405 Z0.0 E6.992
G1 Z0.00742574257426
G1 X-0.905 Y0.42 Z0.0 E6.984
G1 Z0.00742574257426
G1 X-0.898 Y0.436 Z0.0 E6.988
G1 Z0.00742574257426
G1 X-0.89 Y0.451 Z0.0 E6.984
G1 Z0.00742574257426
G1 X-0.883 Y0.466 Z0.0 E6.989
G1 Z0.00742574257426
G1 X-0.874 Y0.482 Z0.0 E6.987
G1 Z0.00742574257426
G1 X-0.866 Y0.497 Z0.0 E6.989
G1 Z0.00742574257426
G1 X-0.857 Y0.513 Z0.0 E6.992
G1 Z0.00742574257426
G1 X-0.847 Y0.528 Z0.0 E6.987
G1 Z0.00742574257426
G1 X-0.837 Y0.544 Z0.0 E6.988
G1 Z0.00742574257426
G1 X-0.826 Y0.56 Z0.0 E6.986
G1 Z0.00742574257426
G1 X-0.815 Y0.576 Z0.0 E6.986
G1 Z0.00742574257426
G1 X-0.803 Y0.592 Z0.0 E6.983
G1 Z0.00742574257426
G1 X-0.791 Y0.609 Z0.0 E6.988
G1 Z0.00742574257426
G1 X-0.778 Y0.625 Z0.0 E6.986
G1 Z0.00742574257426
G1 X-0.765 Y0.642 Z0.0 E6.991
G1 Z0.00742574257426
G1 X-0.751 Y0.658 Z0.0 E6.989
G1 Z0.00742574257426
G1 X-0.736 Y0.674 Z0.0 E6.986
G1 Z0.00742574257426
G1 X-0.721 Y0.691 Z0.0 E6.991
G1 Z0.00742574257426
G1 X-0.705 Y0.706 Z0.0 E6.984
G1 Z0.00742574257426
G1 X-0.69 Y0.722 Z0.0 E6.991
G1 Z0.00742574257426
G1 X-0.674 Y0.737 Z0.0 E6.991
G1 Z0.00742574257426
G1 X-0.657 Y0.751 Z0.0 E6.985
G1 Z0.00742574257426
G1 X-0.641 Y0.765 Z0.0 E6.986
G1 Z0.00742574257426
G1 X-0.625 Y0.779 Z0.0 E6.991
G1 Z0.00742574257426
G1 X-0.608 Y0.792 Z0.0 E6.989
G1 Z0.00742574257426
G1 X-0.592 Y0.804 Z0.0 E6.989
G1 Z0.00742574257426
G1 X-0.575 Y0.816 Z0.0 E6.988
G1 Z0.00742574257426
G1 X-0.559 Y0.827 Z0.0 E6.987
G1 Z0.00742574257426
G1 X-0.543 Y0.838 Z0.0 E6.99
G1 Z0.00742574257426
G1 X-0.527 Y0.848 Z0.0 E6.989
G1 Z0.00742574257426
G1 X-0.512 Y0.857 Z0.0 E6.988
G1 Z0.00742574257426
G1 X-0.496 Y0.866 Z0.0 E6.986
G1 Z0.00742574257426
G1 X-0.481 Y0.875 Z0.0 E6.989
G1 Z0.00742574257426
G1 X-0.466 Y0.883 Z0.0 E6.989
G1 Z0.00742574257426
G1 X-0.45 Y0.891 Z0.0 E6.987
G1 Z0.00742574257426
G1 X-0.435 Y0.898 Z0.0 E6.985
G1 Z0.00742574257426
G1 X-0.42 Y0.906 Z0.0 E6.99
G1 Z0.00742574257426
G1 X-0.404 Y0.913 Z0.0 E6.989
G1 Z0.00742574257426
G1 X-0.388 Y0.92 Z0.0 E6.989
G1 Z0.00742574257426
G1 X-0.372 Y0.926 Z0.0 E6.985
G1 Z0.00742574257426
G1 X-0.355 Y0.933 Z0.0 E6.988
G1 Z0.00742574257426
G1 X-0.338 Y0.939 Z0.0 E6.986
G1 Z0.00742574257426
G1 X-0.32 Y0.946 Z0.0 E6.991
G1 Z0.00742574257426
G1 X-0.301 Y0.952 Z0.0 E6.989
G1 Z0.00742574257426
G1 X-0.281 Y0.958 Z0.0 E6.989
G1 Z0.00742574257426
G1 X-0.261 Y0.963 Z0.0 E6.984
G1 Z0.00742574257426
G1 X-0.24 Y0.969 Z0.0 E6.988
G1 Z0.00742574257426
G1 X-0.219 Y0.974 Z0.0 E6.988
G1 Z0.00742574257426
G1 X-0.196 Y0.979 Z0.0 E6.989
G1 Z0.00742574257426
G1 X-0.173 Y0.983 Z0.0 E6.987
G1 Z0.00742574257426
G1 X-0.149 Y0.987 Z0.0 E6.987
G1 Z0.00742574257426
G1 X-0.125 Y0.99 Z0.0 E6.985
G1 Z0.00742574257426
G1 X-0.1 Y0.993 Z0.0 E6.986
G1 Z0.00742574257426
G1 X-0.074 Y0.996 Z0.0 E6.991
G1 Z0.00742574257426
G1 X-0.048 Y0.997 Z0.0 E6.987
G1 Z0.00742574257426
G1 X-0.022 Y0.998 Z0.0 E6.988
G1 Z0.00742574257426
G1 X0.004 Y0.998 Z0.0 E6.986
G1 Z0.00742574257426
G1 X0.03 Y0.998 Z0.0 E6.989
G1 Z0.00742574257426
G1 X0.056 Y0.997 Z0.0 E6.99
G1 Z0.00742574257426
G1 X0.082 Y0.995 Z0.0 E6.989
G1 Z0.00742574257426
G1 X0.107 Y0.992 Z0.0 E6.984
G1 Z0.00742574257426
G1 X0.132 Y0.989 Z0.0 E6.984
G1 Z0.00742574257426
G1 X0.156 Y0.986 Z0.0 E6.988
G1 Z0.00742574257426
G1 X0.18 Y0.982 Z0.0 E6.989
G1 Z0.00742574257426
G1 X0.203 Y0.977 Z0.0 E6.985
G1 Z0.00742574257426
G1 X0.225 Y0.973 Z0.0 E6.991
G1 Z0.00742574257426
G1 X0.247 Y0.967 Z0.0 E6.986
G1 Z0.00742574257426
G1 X0.267 Y0.962 Z0.0 E6.989
G1 Z0.00742574257426
G1 X0.287 Y0.956 Z0.0 E6.987
G1 Z0.00742574257426
G1 X0.307 Y0.95 Z0.0 E6.989
G1 Z0.00742574257426
G1 X0.325 Y0.944 Z0.0 E6.989
G1 Z0.00742574257426
G1 X0.343 Y0.938 Z0.0 E6.991
G1 Z0.00742574257426
G1 X0.36 Y0.931 Z0.0 E6.987
G1 Z0.00742574257426
G1 X0.377 Y0.924 Z0.0 E6.986
G1 Z0.00742574257426
G1 X0.393 Y0.918 Z0.0 E6.99
G1 Z0.00742574257426
G1 X0.409 Y0.911 Z0.0 E6.99
G1 Z0.00742574257426
G1 X0.424 Y0.904 Z0.0 E6.989
G1 Z0.00742574257426
G1 X0.44 Y0.896 Z0.0 E6.987
G1 Z0.00742574257426
G1 X0.455 Y0.889 Z0.0 E6.991
G1 Z0.00742574257426
G1 X0.47 Y0.881 Z0.0 E6.99
G1 Z0.00742574257426
G1 X0.486 Y0.872 Z0.0 E6.988
G1 Z0.00742574257426
G1 X0.501 Y0.863 Z0.0 E6.985
G1 Z0.00742574257426
G1 X0.516 Y0.854 Z0.0 E6.984
G1 Z0.00742574257426
G1 X0.532 Y0.845 Z0.0 E6.99
G1 Z0.00742574257426
G1 X0.548 Y0.834 Z0.0 E6.985
G1 Z0.00742574257426
G1 X0.564 Y0.824 Z0.0 E6.99
G1 Z0.00742574257426
G1 X0.58 Y0.812 Z0.0 E6.985
G1 Z0.00742574257426
G1 X0.597 Y0.8 Z0.0 E6.987
G1 Z0.00742574257426
G1 X0.613 Y0.788 Z0.0 E6.988
G1 Z0.00742574257426
G1 X0.629 Y0.775 Z0.0 E6.987
G1 Z0.00742574257426
G1 X0.646 Y0.761 Z0.0 E6.988
G1 Z0.00742574257426
G1 X0.662 Y0.747 Z0.0 E6.987
G1 Z0.00742574257426
G1 X0.678 Y0.732 Z0.0 E6.984
G1 Z0.00742574257426
G1 X0.694 Y0.717 Z0.0 E6.985
G1 Z0.00742574257426
G1 X0.71 Y0.702 Z0.0 E6.989
G1 Z0.00742574257426
G1 X0.726 Y0.686 Z0.0 E6.992
G1 Z0.00742574257426
G1 X0.74 Y0.67 Z0.0 E6.988
G1 Z0.00742574257426
G1 X0.755 Y0.653 Z0.0 E6.988
G1 Z0.00742574257426
G1 X0.769 Y0.637 Z0.0 E6.99
G1 Z0.00742574257426
G1 X0.782 Y0.62 Z0.0 E6.986
G1 Z0.00742574257426
G1 X0.795 Y0.604 Z0.0 E6.989
G1 Z0.00742574257426
G1 X0.807 Y0.588 Z0.0 E6.989
G1 Z0.00742574257426
G1 X0.819 Y0.571 Z0.0 E6.989
G1 Z0.00742574257426
G1 X0.83 Y0.555 Z0.0 E6.989
G1 Z0.00742574257426
G1 X0.84 Y0.539 Z0.0 E6.986
G1 Z0.00742574257426
G1 X0.85 Y0.523 Z0.0 E6.986
G1 Z0.00742574257426
G1 X0.859 Y0.508 Z0.0 E6.986
G1 Z0.00742574257426
G1 X0.868 Y0.492 Z0.0 E6.984
G1 Z0.00742574257426
G1 X0.877 Y0.477 Z0.0 E6.988
G1 Z0.00742574257426
G1 X0.885 Y0.462 Z0.0 E6.988
G1 Z0.00742574257426
G1 X0.893 Y0.447 Z0.0 E6.99
G1 Z0.00742574257426
G1 X0.9 Y0.431 Z0.0 E6.985
G1 Z0.00742574257426
G1 X0.908 Y0.416 Z0.0 E6.991
G1 Z0.00742574257426
G1 X0.915 Y0.4 Z0.0 E6.99
G1 Z0.00742574257426
G1 X0.921 Y0.384 Z0.0 E6.985
G1 Z0.00742574257426
G1 X0.928 Y0.368 Z0.0 E6.988
G1 Z0.00742574257426
G1 X0.935 Y0.351 Z0.0 E6.991
G1 Z0.00742574257426
G1 X0.941 Y0.333 Z0.0 E6.987
G1 Z0.00742574257426
G1 X0.947 Y0.315 Z0.0 E6.986
G1 Z0.00742574257426
G1 X0.953 Y0.296 Z0.0 E6.985
G1 Z0.00742574257426
G1 X0.959 Y0.276 Z0.0 E6.985
G1 Z0.00742574257426
G1 X0.965 Y0.256 Z0.0 E6.989
G1 Z0.00742574257426
G1 X0.97 Y0.235 Z0.0 E6.986
G1 Z0.00742574257426
G1 X0.975 Y0.213 Z0.0 E6.986
G1 Z0.00742574257426
G1 X0.98 Y0.19 Z0.0 E6.988
G1 Z0.00742574257426
G1 X0.984 Y0.167 Z0.0 E6.986
G1 Z0.00742574257426
G1 X0.988 Y0.143 Z0.0 E6.988
G1 Z0.00742574257426
G1 X0.991 Y0.118 Z0.0 E6.986
G1 Z0.00742574257426
G1 X0.994 Y0.093 Z0.0 E6.988
G1 Z0.00742574257426
G1 X0.996 Y0.068 Z0.0 E6.988
G1 Z0.00742574257426
G1 X0.997 Y0.042 Z0.0 E6.985
G1 Z0.00742574257426
G1 X0.998 Y0.016 Z0.0 E6.987
G1 Z0.00742574257426
G1 X0.998 Y-0.01 Z0.0 E6.986
G1 Z0.00742574257426
G1 X0.998 Y-0.037 Z0.0 E6.991
G1 Z0.00742574257426
G1 X0.996 Y-0.063 Z0.0 E6.986
G1 Z0.00742574257426
G1 X0.994 Y-0.088 Z0.0 E6.985
G1 Z0.00742574257426
G1 X0.992 Y-0.113 Z0.0 E6.989
G1 Z0.00742574257426
G1 X0.989 Y-0.138 Z0.0 E6.99
G1 Z0.00742574257426
G1 X0.985 Y-0.162 Z0.0 E6.988
G1 Z0.00742574257426
G1 X0.981 Y-0.186 Z0.0 E6.989
G1 Z0.00742574257426
G1 X0.976 Y-0.209 Z0.0 E6.987
G1 Z0.00742574257426
G1 X0.971 Y-0.231 Z0.0 E6.987
G1 Z0.00742574257426
G1 X0.966 Y-0.252 Z0.0 E6.988
G1 Z0.00742574257426
G1 X0.96 Y-0.273 Z0.0 E6.986
G1 Z0.00742574257426
G1 X0.955 Y-0.292 Z0.0 E6.991
G1 Z0.00742574257426
G1 X0.949 Y-0.311 Z0.0 E6.991
G1 Z0.00742574257426
G1 X0.942 Y-0.33 Z0.0 E6.987
G1 Z0.00742574257426
G1 X0.936 Y-0.347 Z0.0 E6.988
G1 Z0.00742574257426
G1 X0.929 Y-0.364 Z0.0 E6.984
G1 Z0.00742574257426
G1 X0.923 Y-0.381 Z0.0 E6.99
G1 Z0.00742574257426
G1 X0.916 Y-0.397 Z0.0 E6.988
G1 Z0.00742574257426
G1 X0.909 Y-0.413 Z0.0 E6.989
G1 Z0.00742574257426
G1 X0.902 Y-0.428 Z0.0 E6.989
G1 Z0.00742574257426
G1 X0.894 Y-0.444 Z0.0 E6.987
G1 Z0.00742574257426
G1 X0.887 Y-0.459 Z0.0 E6.991
G1 Z0.00742574257426
G1 X0.879 Y-0.474 Z0.0 E6.991
G1 Z0.00742574257426
G1 X0.87 Y-0.489 Z0.0 E6.986
G1 Z0.00742574257426
G1 X0.861 Y-0.505 Z0.0 E6.987
G1 Z0.00742574257426
G1 X0.852 Y-0.52 Z0.0 E6.987
G1 Z0.00742574257426
G1 X0.842 Y-0.536 Z0.0 E6.987
G1 Z0.00742574257426
G1 X0.832 Y-0.552 Z0.0 E6.989
G1 Z0.00742574257426
G1 X0.821 Y-0.568 Z0.0 E6.988
G1 Z0.00742574257426
G1 X0.809 Y-0.584 Z0.0 E6.984
G1 Z0.00742574257426
G1 X0.797 Y-0.601 Z0.0 E6.987
G1 Z0.00742574257426
G1 X0.785 Y-0.617 Z0.0 E6.989
G1 Z0.00742574257426
G1 X0.771 Y-0.634 Z0.0 E6.987
G1 Z0.00742574257426
G1 X0.758 Y-0.65 Z0.0 E6.99
G1 Z0.00742574257426
G1 X0.743 Y-0.666 Z0.0 E6.985
G1 Z0.00742574257426
G1 X0.728 Y-0.683 Z0.0 E6.988
G1 Z0.00742574257426
G1 X0.713 Y-0.698 Z0.0 E6.984
G1 Z0.00742574257426
G1 X0.698 Y-0.714 Z0.0 E6.989
G1 Z0.00742574257426
G1 X0.682 Y-0.729 Z0.0 E6.988
G1 Z0.00742574257426
G1 X0.666 Y-0.744 Z0.0 E6.99
G1 Z0.00742574257426
G1 X0.649 Y-0.758 Z0.0 E6.985
G1 Z0.00742574257426
G1 X0.633 Y-0.772 Z0.0 E6.988
G1 Z0.00742574257426
G1 X0.616 Y-0.785 Z0.0 E6.985
G1 Z0.00742574257426
G1 X0.6 Y-0.798 Z0.0 E6.989
G1 Z0.00742574257426
G1 X0.583 Y-0.81 Z0.0 E6.986
G1 Z0.00742574257426
G1 X0.567 Y-0.821 Z0.0 E6.984
G1 Z0.00742574257426
G1 X0.551 Y-0.832 Z0.0 E6.985
G1 Z0.00742574257426
G1 X0.535 Y-0.843 Z0.0 E6.989
G1 Z0.00742574257426
G1 X0.52 Y-0.852 Z0.0 E6.987
G1 Z0.00742574257426
G1 X0.504 Y-0.862 Z0.0 E6.99
G1 Z0.00742574257426
G1 X0.489 Y-0.871 Z0.0 E6.992
G1 Z0.00742574257426
G1 X0.473 Y-0.879 Z0.0 E6.987
G1 Z0.00742574257426
G1 X0.458 Y-0.887 Z0.0 E6.988
G1 Z0.00742574257426
G1 X0.443 Y-0.895 Z0.0 E6.99
G1 Z0.00742574257426
G1 X0.427 Y-0.902 Z0.0 E6.986
G1 Z0.00742574257426
G1 X0.412 Y-0.909 Z0.0 E6.986
G1 Z0.00742574257426
G1 X0.396 Y-0.916 Z0.0 E6.986
G1 Z0.00742574257426
G1 X0.38 Y-0.923 Z0.0 E6.987
G1 Z0.00742574257426
G1 X0.363 Y-0.93 Z0.0 E6.988
G1 Z0.00742574257426
G1 X0.346 Y-0.936 Z0.0 E6.985
G1 Z0.00742574257426
G1 X0.329 Y-0.943 Z0.0 E6.991
G1 Z0.00742574257426
G1 X0.31 Y-0.949 Z0.0 E6.988
G1 Z0.00742574257426
G1 X0.291 Y-0.955 Z0.0 E6.988
G1 Z0.00742574257426
G1 X0.271 Y-0.961 Z0.0 E6.989
G1 Z0.00742574257426
G1 X0.251 Y-0.966 Z0.0 E6.987
G1 Z0.00742574257426
G1 X0.23 Y-0.972 Z0.0 E6.992
G1 Z0.00742574257426
G1 X0.207 Y-0.976 Z0.0 E6.984
G1 Z0.00742574257426
G1 X0.185 Y-0.981 Z0.0 E6.988
G1 Z0.00742574257426
G1 X0.161 Y-0.985 Z0.0 E6.986
G1 Z0.00742574257426
G1 X0.137 Y-0.989 Z0.0 E6.989
G1 Z0.00742574257426
G1 X0.112 Y-0.992 Z0.0 E6.988
G1 Z0.00742574257426
G1 X0.087 Y-0.994 Z0.0 E6.985
G1 Z0.00742574257426
G1 X0.061 Y-0.996 Z0.0 E6.985
G1 Z0.00742574257426
G1 X0.035 Y-0.998 Z0.0 E6.99
G1 X0.719 Y0.013 Z0.0
G1 Z0.00730519480519
G1 X0.01 Y-0.997 Z0.0
G1 Z0.00730519480519
G1 X-0.017 Y-0.997 Z0.0
G1 Z0.00730519480519
G1 X-0.043 Y-0.996 Z0.0
G1 Z0.00730519480519
G1 X-0.069 Y-0.995 Z0.0 E6.982
G1 Z0.00730519480519
G1 X-0.095 Y-0.992 Z0.0 E6.976
G1 Z0.00730519480519
G1 X-0.12 Y-0.99 Z0.0 E6.981
G1 Z0.00730519480519
G1 X-0.144 Y-0.986 Z0.0 E6.975
G1 Z0.00730519480519
G1 X-0.168 Y-0.983 Z0.0 E6.981
G1 Z0.00730519480519
G1 X-0.191 Y-0.978 Z0.0 E6.975
G1 Z0.00730519480519
G1 X-0.214 Y-0.974 Z0.0 E6.981
G1 Z0.00730519480519
G1 X-0.235 Y-0.969 Z0.0 E6.98
G1 Z0.00730519480519
G1 X-0.256 Y-0.964 Z0.0 E6.982
G1 Z0.00730519480519
G1 X-0.275 Y-0.958 Z0.0 E6.977
G1 Z0.00730519480519
G1 X-0.294 Y-0.953 Z0.0 E6.981
G1 Z0.00730519480519
G1 X-0.312 Y-0.947 Z0.0 E6.98
G1 Z0.00730519480519
G1 X-0.329 Y-0.941 Z0.0 E6.978
G1 Z0.00730519480519
G1 X-0.346 Y-0.935 Z0.0 E6.979
G1 Z0.00730519480519
G1 X-0.362 Y-0.929 Z0.0 E6.979
G1 Z0.00730519480519
G1 X-0.377 Y-0.923 Z0.0 E6.979
G1 Z0.00730519480519
G1 X-0.392 Y-0.917 Z0.0 E6.981
G1 Z0.00730519480519
G1 X-0.407 Y-0.91 Z0.0 E6.978
G1 Z0.00730519480519
G1 X-0.421 Y-0.904 Z0.0 E6.981
G1 Z0.00730519480519
G1 X-0.435 Y-0.897 Z0.0 E6.978
G1 Z0.00730519480519
G1 X-0.45 Y-0.89 Z0.0 E6.981
G1 Z0.00730519480519
G1 X-0.464 Y-0.882 Z0.0 E6.976
G1 Z0.00730519480519
G1 X-0.479 Y-0.875 Z0.0 E6.983
G1 Z0.00730519480519
G1 X-0.494 Y-0.866 Z0.0 E6.979
G1 Z0.00730519480519
G1 X-0.509 Y-0.857 Z0.0 E6.977
G1 Z0.00730519480519
G1 X-0.524 Y-0.848 Z0.0 E6.978
G1 Z0.00730519480519
G1 X-0.54 Y-0.838 Z0.0 E6.978
G1 Z0.00730519480519
G1 X-0.556 Y-0.828 Z0.0 E6.981
G1 Z0.00730519480519
G1 X-0.572 Y-0.816 Z0.0 E6.976
G1 Z0.00730519480519
G1 X-0.589 Y-0.804 Z0.0 E6.977
G1 Z0.00730519480519
G1 X-0.606 Y-0.792 Z0.0 E6.981
G1 Z0.00730519480519
G1 X-0.623 Y-0.778 Z0.0 E6.977
G1 Z0.00730519480519
G1 X-0.64 Y-0.764 Z0.0 E6.976
G1 Z0.00730519480519
G1 X-0.657 Y-0.75 Z0.0 E6.979
G1 Z0.00730519480519
G1 X-0.674 Y-0.735 Z0.0 E6.981
G1 Z0.00730519480519
G1 X-0.691 Y-0.719 Z0.0 E6.981
G1 Z0.00730519480519
G1 X-0.707 Y-0.703 Z0.0 E6.979
G1 Z0.00730519480519
G1 X-0.723 Y-0.686 Z0.0 E6.977
G1 Z0.00730519480519
G1 X-0.739 Y-0.669 Z0.0 E6.978
G1 Z0.00730519480519
G1 X-0.754 Y-0.652 Z0.0 E6.978
G1 Z0.00730519480519
G1 X-0.768 Y-0.635 Z0.0 E6.976
G1 Z0.00730519480519
G1 X-0.782 Y-0.618 Z0.0 E6.977
G1 Z0.00730519480519
G1 X-0.795 Y-0.601 Z0.0 E6.976
G1 Z0.00730519480519
G1 X-0.808 Y-0.585 Z0.0 E6.983
G1 Z0.00730519480519
G1 X-0.819 Y-0.568 Z0.0 E6.977
G1 Z0.00730519480519
G1 X-0.831 Y-0.552 Z0.0 E6.983
G1 Z0.00730519480519
G1 X-0.841 Y-0.536 Z0.0 E6.981
G1 Z0.00730519480519
G1 X-0.851 Y-0.52 Z0.0 E6.981
G1 Z0.00730519480519
G1 X-0.86 Y-0.505 Z0.0 E6.981
G1 Z0.00730519480519
G1 X-0.869 Y-0.489 Z0.0 E6.98
G1 Z0.00730519480519
G1 X-0.877 Y-0.475 Z0.0 E6.982
G1 Z0.00730519480519
G1 X-0.884 Y-0.46 Z0.0 E6.976
G1 Z0.00730519480519
G1 X-0.892 Y-0.446 Z0.0 E6.981
G1 Z0.00730519480519
G1 X-0.899 Y-0.431 Z0.0 E6.979
G1 Z0.00730519480519
G1 X-0.906 Y-0.417 Z0.0 E6.982
G1 Z0.00730519480519
G1 X-0.912 Y-0.403 Z0.0 E6.98
G1 Z0.00730519480519
G1 X-0.918 Y-0.388 Z0.0 E6.976
G1 Z0.00730519480519
G1 X-0.925 Y-0.373 Z0.0 E6.982
G1 Z0.00730519480519
G1 X-0.931 Y-0.357 Z0.0 E6.98
G1 Z0.00730519480519
G1 X-0.937 Y-0.341 Z0.0 E6.98
G1 Z0.00730519480519
G1 X-0.943 Y-0.325 Z0.0 E6.982
G1 Z0.00730519480519
G1 X-0.948 Y-0.307 Z0.0 E6.975
G1 Z0.00730519480519
G1 X-0.954 Y-0.289 Z0.0 E6.978
G1 Z0.00730519480519
G1 X-0.96 Y-0.27 Z0.0 E6.981
G1 Z0.00730519480519
G1 X-0.965 Y-0.25 Z0.0 E6.978
G1 Z0.00730519480519
G1 X-0.97 Y-0.229 Z0.0 E6.977
G1 Z0.00730519480519
G1 X-0.975 Y-0.208 Z0.0 E6.979
G1 Z0.00730519480519
G1 X-0.98 Y-0.185 Z0.0 E6.981
G1 Z0.00730519480519
G1 X-0.984 Y-0.162 Z0.0 E6.981
G1 Z0.00730519480519
G1 X-0.987 Y-0.138 Z0.0 E6.976
G1 Z0.00730519480519
G1 X-0.991 Y-0.113 Z0.0 E6.982
G1 Z0.00730519480519
G1 X-0.993 Y-0.088 Z0.0 E6.978
G1 Z0.00730519480519
G1 X-0.995 Y-0.062 Z0.0 E6.979
G1 Z0.00730519480519
G1 X-0.996 Y-0.036 Z0.0 E6.977
G1 Z0.00730519480519
G1 X-0.997 Y-0.01 Z0.0 E6.979
G1 Z0.00730519480519
G1 X-0.997 Y0.017 Z0.0 E6.98
G1 Z0.00730519480519
G1 X-0.996 Y0.043 Z0.0 E6.978
G1 Z0.00730519480519
G1 X-0.995 Y0.069 Z0.0 E6.982
G1 Z0.00730519480519
G1 X-0.992 Y0.095 Z0.0 E6.976
G1 Z0.00730519480519
G1 X-0.99 Y0.12 Z0.0 E6.981
G1 Z0.00730519480519
G1 X-0.986 Y0.144 Z0.0 E6.975
G1 Z0.00730519480519
G1 X-0.983 Y0.168 Z0.0 E6.981
G1 Z0.00730519480519
G1 X-0.978 Y0.191 Z0.0 E6.975
G1 Z0.00730519480519
G1 X-0.974 Y0.214 Z0.0 E6.981
G1 Z0.00730519480519
G1 X-0.969 Y0.235 Z0.0 E6.98
G1 Z0.00730519480519
G1 X-0.964 Y0.256 Z0.0 E6.982
G1 Z0.00730519480519
G1 X-0.958 Y0.275 Z0.0 E6.977
G1 Z0.00730519480519
G1 X-0.953 Y0.294 Z0.0 E6.981
G1 Z0.00730519480519
G1 X-0.947 Y0.312 Z0.0 E6.98
G1 Z0.00730519480519
G1 X-0.941 Y0.329 Z0.0 E6.978
G1 Z0.00730519480519
G1 X-0.935 Y0.346 Z0.0 E6.979
G1 Z0.00730519480519
G1 X-0.929 Y0.362 Z0.0 E6.979
G1 Z0.00730519480519
G1 X-0.923 Y0.377 Z0.0 E6.979
G1 Z0.00730519480519
G1 X-0.917 Y0.392 Z0.0 E6.981
G1 Z0.00730519480519
G1 X-0.91 Y0.407 Z0.0 E6.978
G1 Z0.00730519480519
G1 X-0.904 Y0.421 Z0.0 E6.981
G1 Z0.00730519480519
G1 X-0.897 Y0.435 Z0.0 E6.978
G1 Z0.00730519480519
G1 X-0.89 Y0.45 Z0.0 E6.981
G1 Z0.00730519480519
G1 X-0.882 Y0.464 Z0.0 E6.976
G1 Z0.00730519480519
G1 X-0.875 Y0.479 Z0.0 E6.983
G1 Z0.00730519480519
G1 X-0.866 Y0.494 Z0.0 E6.979
G1 Z0.00730519480519
G1 X-0.857 Y0.509 Z0.0 E6.977
G1 Z0.00730519480519
G1 X-0.848 Y0.524 Z0.0 E6.978
G1 Z0.00730519480519
G1 X-0.838 Y0.54 Z0.0 E6.978
G1 Z0.00730519480519
G1 X-0.828 Y0.556 Z0.0 E6.981
G1 Z0.00730519480519
G1 X-0.816 Y0.572 Z0.0 E6.976
G1 Z0.00730519480519
G1 X-0.804 Y0.589 Z0.0 E6.977
G1 Z0.00730519480519
G1 X-0.792 Y0.606 Z0.0 E6.981
G1 Z0.00730519480519
G1 X-0.778 Y0.623 Z0.0 E6.977
G1 Z0.00730519480519
G1 X-0.764 Y0.64 Z0.0 E6.976
G1 Z0.00730519480519
G1 X-0.75 Y0.657 Z0.0 E6.979
G1 Z0.00730519480519
G1 X-0.735 Y0.674 Z0.0 E6.981
G1 Z0.00730519480519
G1 X-0.719 Y0.691 Z0.0 E6.981
G1 Z0.00730519480519
G1 X-0.703 Y0.707 Z0.0 E6.979
G1 Z0.00730519480519
G1 X-0.686 Y0.723 Z0.0 E6.977
G1 Z0.00730519480519
G1 X-0.669 Y0.739 Z0.0 E6.978
G1 Z0.00730519480519
G1 X-0.652 Y0.754 Z0.0 E6.978
G1 Z0.00730519480519
G1 X-0.635 Y0.768 Z0.0 E6.976
G1 Z0.00730519480519
G1 X-0.618 Y0.782 Z0.0 E6.977
G1 Z0.00730519480519
G1 X-0.601 Y0.795 Z0.0 E6.976
G1 Z0.00730519480519
G1 X-0.585 Y0.808 Z0.0 E6.983
G1 Z0.00730519480519
G1 X-0.568 Y0.819 Z0.0 E6.977
G1 Z0.00730519480519
G1 X-0.552 Y0.831 Z0.0 E6.983
G1 Z0.00730519480519
G1 X-0.536 Y0.841 Z0.0 E6.981
G1 Z0.00730519480519
G1 X-0.52 Y0.851 Z0.0 E6.981
G1 Z0.00730519480519
G1 X-0.505 Y0.86 Z0.0 E6.981
G1 Z0.00730519480519
G1 X-0.489 Y0.869 Z0.0 E6.98
G1 Z0.00730519480519
G1 X-0.475 Y0.877 Z0.0 E6.982
G1 Z0.00730519480519
G1 X-0.46 Y0.884 Z0.0 E6.976
G1 Z0.00730519480519
G1 X-0.446 Y0.892 Z0.0 E6.981
G1 Z0.00730519480519
G1 X-0.431 Y0.899 Z0.0 E6.979
G1 Z0.00730519480519
G1 X-0.417 Y0.906 Z0.0 E6.982
G1 Z0.00730519480519
G1 X-0.403 Y0.912 Z0.0 E6.98
G1 Z0.00730519480519
G1 X-0.388 Y0.918 Z0.0 E6.976
G1 Z0.00730519480519
G1 X-0.373 Y0.925 Z0.0 E6.982
G1 Z0.00730519480519
G1 X-0.357 Y0.931 Z0.0 E6.98
G1 Z0.00730519480519
G1 X-0.341 Y0.937 Z0.0 E6.98
G1 Z0.00730519480519
G1 X-0.325 Y0.943 Z0.0 E6.982
G1 Z0.00730519480519
G1 X-0.307 Y0.948 Z0.0 E6.975
G1 Z0.00730519480519
G1 X-0.289 Y0.954 Z0.0 E6.978
G1 Z0.00730519480519
G1 X-0.27 Y0.96 Z0.0 E6.981
G1 Z0.00730519480519
G1 X-0.25 Y0.965 Z0.0 E6.978
G1 Z0.00730519480519
G1 X-0.229 Y0.97 Z0.0 E6.977
G1 Z0.00730519480519
G1 X-0.208 Y0.975 Z0.0 E6.979
G1 Z0.00730519480519
G1 X-0.185 Y0.98 Z0.0 E6.981
G1 Z0.00730519480519
G1 X-0.162 Y0.984 Z0.0 E6.981
G1 Z0.00730519480519
G1 X-0.138 Y0.987 Z0.0 E6.976
G1 Z0.00730519480519
G1 X-0.113 Y0.991 Z0.0 E6.982
G1 Z0.00730519480519
G1 X-0.088 Y0.993 Z0.0 E6.978
G1 Z0.00730519480519
G1 X-0.062 Y0.995 Z0.0 E6.979
G1 Z0.00730519480519
G1 X-0.036 Y0.996 Z0.0 E6.977
G1 Z0.00730519480519
G1 X-0.01 Y0.997 Z0.0 E6.979
G1 Z0.00730519480519
G1 X0.017 Y0.997 Z0.0 E6.98
G1 Z0.00730519480519
G1 X0.043 Y0.996 Z0.0 E6.978
G1 Z0.00730519480519
G1 X0.069 Y0.995 Z0.0 E6.982
G1 Z0.00730519480519
G1 X0.095 Y0.992 Z0.0 E6.976
G1 Z0.00730519480519
G1 X0.12 Y0.99 Z0.0 E6.981
G1 Z0.00730519480519
G1 X0.144 Y0.986 Z0.0 E6.975
G1 Z0.00730519480519
G1 X0.168 Y0.983 Z0.0 E6.981
G1 Z0.00730519480519
G1 X0.191 Y0.978 Z0.0 E6.975
G1 Z0.00730519480519
G1 X0.214 Y0.974 Z0.0 E6.981
G1 Z0.00730519480519
G1 X0.235 Y0.969 Z0.0 E6.98
G1 Z0.00730519480519
G1 X0.256 Y0.964 Z0.0 E6.982
G1 Z0.00730519480519
G1 X0.275 Y0.958 Z0.0 E6.977
G1 Z0.00730519480519
G1 X0.294 Y0.953 Z0.0 E6.981
G1 Z0.00730519480519
G1 X0.312 Y0.947 Z0.0 E6.98
G1 Z0.00730519480519
G1 X0.329 Y0.941 Z0.0 E6.978
G1 Z0.00730519480519
G1 X0.346 Y0.935 Z0.0 E6.979
G1 Z0.00730519480519
G1 X0.362 Y0.929 Z0.0 E6.979
G1 Z0.00730519480519
G1 X0.377 Y0.923 Z0.0 E6.979
G1 Z0.00730519480519
G1 X0.392 Y0.917 Z0.0 E6.981
G1 Z0.00730519480519
G1 X0.407 Y0.91 Z0.0 E6.978
G1 Z0.00730519480519
G1 X0.421 Y0.904 Z0.0 E6.981
G1 Z0.00730519480519
G1 X0.435 Y0.897 Z0.0 E6.978
G1 Z0.00730519480519
G1 X0.45 Y0.89 Z0.0 E6.981
G1 Z0.00730519480519
G1 X0.464 Y0.882 Z0.0 E6.976
G1 Z0.00730519480519
G1 X0.479 Y0.875 Z0.0 E6.983
G1 Z0.00730519480519
G1 X0.494 Y0.866 Z0.0 E6.979
G1 Z0.00730519480519
G1 X0.509 Y0.857 Z0.0 E6.977
G1 Z0.00730519480519
G1 X0.524 Y0.848 Z0.0 E6.978
G1 Z0.00730519480519
G1 X0.54 Y0.838 Z0.0 E6.978
G1 Z0.00730519480519
G1 X0.556 Y0.828 Z0.0 E6.981
G1 Z0.00730519480519
G1 X0.572 Y0.816 Z0.0 E6.976
G1 Z0.00730519480519
G1 X0.589 Y0.804 Z0.0 E6.977
G1 Z0.00730519480519
G1 X0.606 Y0.792 Z0.0 E6.981
G1 Z0.00730519480519
G1 X0.623 Y0.778 Z0.0 E6.977
G1 Z0.00730519480519
G1 X0.64 Y0.764 Z0.0 E6.976
G1 Z0.00730519480519
G1 X0.657 Y0.75 Z0.0 E6.979
G1 Z0.00730519480519
G1 X0.674 Y0.735 Z0.0 E6.981
G1 Z0.00730519480519
G1 X0.691 Y0.719 Z0.0 E6.981
G1 Z0.00730519480519
G1 X0.707 Y0.703 Z0.0 E6.979
G1 Z0.00730519480519
G1 X0.723 Y0.686 Z0.0 E6.977
G1 Z0.00730519480519
G1 X0.739 Y0.669 Z0.0 E6.978
G1 Z0.00730519480519
G1 X0.754 Y0.652 Z0.0 E6.978
G1 Z0.00730519480519
G1 X0.768 Y0.635 Z0.0 E6.976
G1 Z0.00730519480519
G1 X0.782 Y0.618 Z0.0 E6.977
G1 Z0.00730519480519
G1 X0.795 Y0.601 Z0.0 E6.976
G1 Z0.00730519480519
G1 X0.808 Y0.585 Z0.0 E6.983
G1 Z0.00730519480519
G1 X0.819 Y0.568 Z0.0 E6.977
G1 Z0.00730519480519
G1 X0.831 Y0.552 Z0.0 E6.983
G1 Z0.00730519480519
G1 X0.841 Y0.536 Z0.0 E6.981
G1 Z0.00730519480519
G1 X0.851 Y0.52 Z0.0 E6.981
G1 Z0.00730519480519
G1 X0.86 Y0.505 Z0.0 E6.981
G1 Z0.00730519480519
G1 X0.869 Y0.489 Z0.0 E6.98
G1 Z0.00730519480519
G1 X0.877 Y0.475 Z0.0 E6.982
G1 Z0.00730519480519
G1 X0.884 Y0.46 Z0.0 E6.976
G1 Z0.00730519480519
G1 X0.892 Y0.446 Z0.0 E6.981
G1 Z0.00730519480519
G1 X0.899 Y0.431 Z0.0 E6.979
G1 Z0.00730519480519
G1 X0.906 Y0.417 Z0.0 E6.982
G1 Z0.00730519480519
G1 X0.912 Y0.403 Z0.0 E6.98
G1 Z0.00730519480519
G1 X0.918 Y0.388 Z0.0 E6.976
G1 Z0.00730519480519
G1 X0.925 Y0.373 Z0.0 E6.982
G1 Z0.00730519480519
G1 X0.931 Y0.357 Z0.0 E6.98
G1 Z0.00730519480519
G1 X0.937 Y0.341 Z0.0 E6.98
G1 Z0.00730519480519
G1 X0.943 Y0.325 Z0.0 E6.982
G1 Z0.00730519480519
G1 X0.948 Y0.307 Z0.0 E6.975
G1 Z0.00730519480519
G1 X0.954 Y0.289 Z0.0 E6.978
G1 Z0.00730519480519
G1 X0.96 Y0.27 Z0.0 E6.981
G1 Z0.00730519480519
G1 X0.965 Y0.25 Z0.0 E6.978
G1 Z0.00730519480519
G1 X0.97 Y0.229 Z0.0 E6.977
G1 Z0.00730519480519
G1 X0.975 Y0.208 Z0.0 E6.979
G1 Z0.00730519480519
G1 X0.98 Y0.185 Z0.0 E6.981
G1 Z0.00730519480519
G1 X0.984 Y0.162 Z0.0 E6.981
G1 Z0.00730519480519
G1 X0.987 Y0.138 Z0.0 E6.976
G1 Z0.00730519480519
G1 X0.991 Y0.113 Z0.0 E6.982
G1 Z0.00730519480519
G1 X0.993 Y0.088 Z0.0 E6.978
G1 Z0.00730519480519
G1 X0.995 Y0.062 Z0.0 E6.979
G1 Z0.00730519480519
G1 X0.996 Y0.036 Z0.0 E6.977
G1 Z0.00730519480519
G1 X0.997 Y0.01 Z0.0 E6.979
G1 Z0.00730519480519
G1 X0.997 Y-0.017 Z0.0 E6.98
G1 Z0.00730519480519
G1 X0.996 Y-0.043 Z0.0 E6.978
G1 Z0.00730519480519
G1 X0.995 Y-0.069 Z0.0 E6.982
G1 Z0.00730519480519
G1 X0.992 Y-0.095 Z0.0 E6.976
G1 Z0.00730519480519
G1 X0.99 Y-0.12 Z0.0 E6.981
G1 Z0.00730519480519
G1 X0.986 Y-0.144 Z0.0 E6.975
G1 Z0.00730519480519
G1 X0.983 Y-0.168 Z0.0 E6.981
G1 Z0.00730519480519
G1 X0.978 Y-0.191 Z0.0 E6.975
G1 Z0.00730519480519
G1 X0.974 Y-0.214 Z0.0 E6.981
G1 Z0.00730519480519
G1 X0.969 Y-0.235 Z0.0 E6.98
G1 Z0.00730519480519
G1 X0.964 Y-0.256 Z0.0 E6.982
G1 Z0.00730519480519
G1 X0.958 Y-0.275 Z0.0 E6.977
G1 Z0.00730519480519
G1 X0.953 Y-0.294 Z0.0 E6.981
G1 Z0.00730519480519
G1 X0.947 Y-0.312 Z0.0 E6.98
G1 Z0.00730519480519
G1 X0.941 Y-0.329 Z0.0 E6.978
G1 Z0.00730519480519
G1 X0.935 Y-0.346 Z0.0 E6.979
G1 Z0.00730519480519
G1 X0.929 Y-0.362 Z0.0 E6.979
G1 Z0.00730519480519
G1 X0.923 Y-0.377 Z0.0 E6.979
G1 Z0.00730519480519
G1 X0.917 Y-0.392 Z0.0 E6.981
G1 Z0.00730519480519
G1 X0.91 Y-0.407 Z0.0 E6.978
G1 Z0.00730519480519
G1 X0.904 Y-0.421 Z0.0 E6.981
G1 Z0.00730519480519
G1 X0.897 Y-0.435 Z0.0 E6.978
G1 Z0.00730519480519
G1 X0.89 Y-0.45 Z0.0 E6.981
G1 Z0.00730519480519
G1 X0.882 Y-0.464 Z0.0 E6.976
G1 Z0.00730519480519
G1 X0.875 Y-0.479 Z0.0 E6.983
G1 Z0.00730519480519
G1 X0.866 Y-0.494 Z0.0 E6.979
G1 Z0.00730519480519
G1 X0.857 Y-0.509 Z0.0 E6.977
G1 Z0.00730519480519
G1 X0.848 Y-0.524 Z0.0 E6.978
G1 Z0.00730519480519
G1 X0.838 Y-0.54 Z0.0 E6.978
G1 Z0.00730519480519
G1 X0.828 Y-0.556 Z0.0 E6.981
G1 Z0.00730519480519
G1 X0.816 Y-0.572 Z0.0 E6.976
G1 Z0.00730519480519
G1 X0.804 Y-0.589 Z0.0 E6.977
G1 Z0.00730519480519
G1 X0.792 Y-0.606 Z0.0 E6.981
G1 Z0.00730519480519
G1 X0.778 Y-0.623 Z0.0 E6.977
G1 Z0.00730519480519
G1 X0.764 Y-0.64 Z0.0 E6.976
G1 Z0.00730519480519
G1 X0.75 Y-0.657 Z0.0 E6.979
G1 Z0.00730519480519
G1 X0.735 Y-0.674 Z0.0 E6.981
G1 Z0.00730519480519
G1 X0.719 Y-0.691 Z0.0 E6.981
G1 Z0.00730519480519
G1 X0.703 Y-0.707 Z0.0 E6.979
G1 Z0.00730519480519
G1 X0.686 Y-0.723 Z0.0 E6.977
G1 Z0.00730519480519
G1 X0.669 Y-0.739 Z0.0 E6.978
G1 Z0.00730519480519
G1 X0.652 Y-0.754 Z0.0 E6.978
G1 Z0.00730519480519
G1 X0.635 Y-0.768 Z0.0 E6.976
G1 Z0.00730519480519
G1 X0.618 Y-0.782 Z0.0 E6.977
G1 Z0.00730519480519
G1 X0.601 Y-0.795 Z0.0 E6.976
G1 Z0.00730519480519
G1 X0.585 Y-0.808 Z0.0 E6.983
G1 Z0.00730519480519
G1 X0.568 Y-0.819 Z0.0 E6.977
G1 Z0.00730519480519
G1 X0.552 Y-0.831 Z0.0 E6.983
G1 Z0.00730519480519
G1 X0.536 Y-0.841 Z0.0 E6.981
G1 Z0.00730519480519
G1 X0.52 Y-0.851 Z0.0 E6.981
G1 Z0.00730519480519
G1 X0.505 Y-0.86 Z0.0 E6.981
G1 Z0.00730519480519
G1 X0.489 Y-0.869 Z0.0 E6.98
G1 Z0.00730519480519
G1 X0.475 Y-0.877 Z0.0 E6.982
G1 Z0.00730519480519
G1 X0.46 Y-0.884 Z0.0 E6.976
G1 Z0.00730519480519
G1 X0.446 Y-0.892 Z0.0 E6.981
G1 Z0.00730519480519
G1 X0.431 Y-0.899 Z0.0 E6.979
G1 Z0.00730519480519
G1 X0.417 Y-0.906 Z0.0 E6.982
G1 Z0.00730519480519
G1 X0.403 Y-0.912 Z0.0 E6.98
G1 Z0.00730519480519
G1 X0.388 Y-0.918 Z0.0 E6.976
G1 Z0.00730519480519
G1 X0.373 Y-0.925 Z0.0 E6.982
G1 Z0.00730519480519
G1 X0.357 Y-0.931 Z0.0 E6.98
G1 Z0.00730519480519
G1 X0.341 Y-0.937 Z0.0 E6.98
G1 Z0.00730519480519
G1 X0.325 Y-0.943 Z0.0 E6.982
G1 Z0.00730519480519
G1 X0.307 Y-0.948 Z0.0 E6.975
G1 Z0.00730519480519
G1 X0.289 Y-0.954 Z0.0 E6.978
G1 Z0.00730519480519
G1 X0.27 Y-0.96 Z0.0 E6.981
G1 Z0.00730519480519
G1 X0.25 Y-0.965 Z0.0 E6.978
G1 Z0.00730519480519
G1 X0.229 Y-0.97 Z0.0 E6.977
G1 Z0.00730519480519
G1 X0.208 Y-0.975 Z0.0 E6.979
G1 Z0.00730519480519
G1 X0.185 Y-0.98 Z0.0 E6.981
G1 Z0.00730519480519
G1 X0.162 Y-0.984 Z0.0 E6.981
G1 Z0.00730519480519
G1 X0.138 Y-0.987 Z0.0 E6.976
G1 Z0.00730519480519
G1 X0.113 Y-0.991 Z0.0 E6.982
G1 Z0.00730519480519
G1 X0.088 Y-0.993 Z0.0 E6.978
G1 Z0.00730519480519
G1 X0.062 Y-0.995 Z0.0 E6.979
G1 Z0.00730519480519
G1 X0.036 Y-0.996 Z0.0 E6.977
G1 X0.643 Y0.011 Z0.0
G1 Z0.00721153846154
G1 X0.01 Y-0.997 Z0.0
G1 Z0.00721153846154
G1 X-0.017 Y-0.997 Z0.0
G1 Z0.00721153846154
G1 X-0.043 Y-0.996 Z0.0
G1 Z0.00721153846154
G1 X-0.069 Y-0.995 Z0.0 E6.982
G1 Z0.00721153846154
G1 X-0.095 Y-0.993 Z0.0 E6.983
G1 Z0.00721153846154
G1 X-0.121 Y-0.99 Z0.0 E6.982
G1 Z0.00721153846154
G1 X-0.145 Y-0.987 Z0.0 E6.983
G1 Z0.00721153846154
G1 X-0.169 Y-0.983 Z0.0 E6.982
G1 Z0.00721153846154
G1 X-0.192 Y-0.979 Z0.0 E6.984
G1 Z0.00721153846154
G1 X-0.214 Y-0.974 Z0.0 E6.981
G1 Z0.00721153846154
G1 X-0.235 Y-0.969 Z0.0 E6.98
G1 Z0.00721153846154
G1 X-0.255 Y-0.964 Z0.0 E6.98
G1 Z0.00721153846154
G1 X-0.275 Y-0.959 Z0.0 E6.984
G1 Z0.00721153846154
G1 X-0.293 Y-0.953 Z0.0 E6.979
G1 Z0.00721153846154
G1 X-0.31 Y-0.948 Z0.0 E6.982
G1 Z0.00721153846154
G1 X-0.327 Y-0.942 Z0.0 E6.98
G1 Z0.00721153846154
G1 X-0.342 Y-0.937 Z0.0 E6.982
G1 Z0.00721153846154
G1 X-0.357 Y-0.931 Z0.0 E6.98
G1 Z0.00721153846154
G1 X-0.372 Y-0.926 Z0.0 E6.985
G1 Z0.00721153846154
G1 X-0.386 Y-0.92 Z0.0 E6.984
G1 Z0.00721153846154
G1 X-0.399 Y-0.914 Z0.0 E6.981
G1 Z0.00721153846154
G1 X-0.413 Y-0.908 Z0.0 E6.983
G1 Z0.00721153846154
G1 X-0.426 Y-0.902 Z0.0 E6.983
G1 Z0.00721153846154
G1 X-0.44 Y-0.895 Z0.0 E6.981
G1 Z0.00721153846154
G1 X-0.453 Y-0.888 Z0.0 E6.978
G1 Z0.00721153846154
G1 X-0.467 Y-0.881 Z0.0 E6.98
G1 Z0.00721153846154
G1 X-0.481 Y-0.874 Z0.0 E6.983
G1 Z0.00721153846154
G1 X-0.496 Y-0.865 Z0.0 E6.98
G1 Z0.00721153846154
G1 X-0.511 Y-0.856 Z0.0 E6.978
G1 Z0.00721153846154
G1 X-0.527 Y-0.847 Z0.0 E6.983
G1 Z0.00721153846154
G1 X-0.543 Y-0.837 Z0.0 E6.984
G1 Z0.00721153846154
G1 X-0.559 Y-0.826 Z0.0 E6.982
G1 Z0.00721153846154
G1 X-0.576 Y-0.814 Z0.0 E6.98
G1 Z0.00721153846154
G1 X-0.594 Y-0.802 Z0.0 E6.986
G1 Z0.00721153846154
G1 X-0.611 Y-0.788 Z0.0 E6.98
G1 Z0.00721153846154
G1 X-0.629 Y-0.774 Z0.0 E6.981
G1 Z0.00721153846154
G1 X-0.646 Y-0.76 Z0.0 E6.982
G1 Z0.00721153846154
G1 X-0.664 Y-0.744 Z0.0 E6.98
G1 Z0.00721153846154
G1 X-0.682 Y-0.728 Z0.0 E6.983
G1 Z0.00721153846154
G1 X-0.699 Y-0.712 Z0.0 E6.984
G1 Z0.00721153846154
G1 X-0.716 Y-0.695 Z0.0 E6.985
G1 Z0.00721153846154
G1 X-0.732 Y-0.677 Z0.0 E6.98
G1 Z0.00721153846154
G1 X-0.748 Y-0.66 Z0.0 E6.983
G1 Z0.00721153846154
G1 X-0.763 Y-0.642 Z0.0 E6.98
G1 Z0.00721153846154
G1 X-0.778 Y-0.624 Z0.0 E6.981
G1 Z0.00721153846154
G1 X-0.792 Y-0.607 Z0.0 E6.985
G1 Z0.00721153846154
G1 X-0.805 Y-0.589 Z0.0 E6.982
G1 Z0.00721153846154
G1 X-0.817 Y-0.572 Z0.0 E6.981
G1 Z0.00721153846154
G1 X-0.829 Y-0.555 Z0.0 E6.983
G1 Z0.00721153846154
G1 X-0.839 Y-0.539 Z0.0 E6.981
G1 Z0.00721153846154
G1 X-0.849 Y-0.523 Z0.0 E6.98
G1 Z0.00721153846154
G1 X-0.859 Y-0.507 Z0.0 E6.982
G1 Z0.00721153846154
G1 X-0.867 Y-0.492 Z0.0 E6.978
G1 Z0.00721153846154
G1 X-0.876 Y-0.478 Z0.0 E6.985
G1 Z0.00721153846154
G1 X-0.883 Y-0.464 Z0.0 E6.982
G1 Z0.00721153846154
G1 X-0.89 Y-0.45 Z0.0 E6.981
G1 Z0.00721153846154
G1 X-0.897 Y-0.436 Z0.0 E6.981
G1 Z0.00721153846154
G1 X-0.903 Y-0.423 Z0.0 E6.98
G1 Z0.00721153846154
G1 X-0.91 Y-0.409 Z0.0 E6.984
G1 Z0.00721153846154
G1 X-0.916 Y-0.396 Z0.0 E6.986
G1 Z0.00721153846154
G1 X-0.921 Y-0.382 Z0.0 E6.98
G1 Z0.00721153846154
G1 X-0.927 Y-0.368 Z0.0 E6.982
G1 Z0.00721153846154
G1 X-0.933 Y-0.353 Z0.0 E6.983
G1 Z0.00721153846154
G1 X-0.938 Y-0.338 Z0.0 E6.979
G1 Z0.00721153846154
G1 X-0.944 Y-0.322 Z0.0 E6.982
G1 Z0.00721153846154
G1 X-0.949 Y-0.306 Z0.0 E6.98
G1 Z0.00721153846154
G1 X-0.955 Y-0.288 Z0.0 E6.982
G1 Z0.00721153846154
G1 X-0.96 Y-0.27 Z0.0 E6.981
G1 Z0.00721153846154
G1 X-0.965 Y-0.25 Z0.0 E6.978
G1 Z0.00721153846154
G1 X-0.971 Y-0.23 Z0.0 E6.985
G1 Z0.00721153846154
G1 X-0.975 Y-0.209 Z0.0 E6.98
G1 Z0.00721153846154
G1 X-0.98 Y-0.186 Z0.0 E6.982
G1 Z0.00721153846154
G1 X-0.984 Y-0.163 Z0.0 E6.982
G1 Z0.00721153846154
G1 X-0.988 Y-0.139 Z0.0 E6.984
G1 Z0.00721153846154
G1 X-0.991 Y-0.114 Z0.0 E6.983
G1 Z0.00721153846154
G1 X-0.993 Y-0.089 Z0.0 E6.979
G1 Z0.00721153846154
G1 X-0.995 Y-0.063 Z0.0 E6.979
G1 Z0.00721153846154
G1 X-0.997 Y-0.036 Z0.0 E6.984
G1 Z0.00721153846154
G1 X-0.997 Y-0.01 Z0.0 E6.979
G1 Z0.00721153846154
G1 X-0.997 Y0.017 Z0.0 E6.98
G1 Z0.00721153846154
G1 X-0.996 Y0.043 Z0.0 E6.978
G1 Z0.00721153846154
G1 X-0.995 Y0.069 Z0.0 E6.982
G1 Z0.00721153846154
G1 X-0.993 Y0.095 Z0.0 E6.983
G1 Z0.00721153846154
G1 X-0.99 Y0.121 Z0.0 E6.982
G1 Z0.00721153846154
G1 X-0.987 Y0.145 Z0.0 E6.983
G1 Z0.00721153846154
G1 X-0.983 Y0.169 Z0.0 E6.982
G1 Z0.00721153846154
G1 X-0.979 Y0.192 Z0.0 E6.984
G1 Z0.00721153846154
G1 X-0.974 Y0.214 Z0.0 E6.981
G1 Z0.00721153846154
G1 X-0.969 Y0.235 Z0.0 E6.98
G1 Z0.00721153846154
G1 X-0.964 Y0.255 Z0.0 E6.98
G1 Z0.00721153846154
G1 X-0.959 Y0.275 Z0.0 E6.984
G1 Z0.00721153846154
G1 X-0.953 Y0.293 Z0.0 E6.979
G1 Z0.00721153846154
G1 X-0.948 Y0.31 Z0.0 E6.982
G1 Z0.00721153846154
G1 X-0.942 Y0.327 Z0.0 E6.98
G1 Z0.00721153846154
G1 X-0.937 Y0.342 Z0.0 E6.982
G1 Z0.00721153846154
G1 X-0.931 Y0.357 Z0.0 E6.98
G1 Z0.00721153846154
G1 X-0.926 Y0.372 Z0.0 E6.985
G1 Z0.00721153846154
G1 X-0.92 Y0.386 Z0.0 E6.984
G1 Z0.00721153846154
G1 X-0.914 Y0.399 Z0.0 E6.981
G1 Z0.00721153846154
G1 X-0.908 Y0.413 Z0.0 E6.983
G1 Z0.00721153846154
G1 X-0.902 Y0.426 Z0.0 E6.983
G1 Z0.00721153846154
G1 X-0.895 Y0.44 Z0.0 E6.981
G1 Z0.00721153846154
G1 X-0.888 Y0.453 Z0.0 E6.978
G1 Z0.00721153846154
G1 X-0.881 Y0.467 Z0.0 E6.98
G1 Z0.00721153846154
G1 X-0.874 Y0.481 Z0.0 E6.983
G1 Z0.00721153846154
G1 X-0.865 Y0.496 Z0.0 E6.98
G1 Z0.00721153846154
G1 X-0.856 Y0.511 Z0.0 E6.978
G1 Z0.00721153846154
G1 X-0.847 Y0.527 Z0.0 E6.983
G1 Z0.00721153846154
G1 X-0.837 Y0.543 Z0.0 E6.984
G1 Z0.00721153846154
G1 X-0.826 Y0.559 Z0.0 E6.982
G1 Z0.00721153846154
G1 X-0.814 Y0.576 Z0.0 E6.98
G1 Z0.00721153846154
G1 X-0.802 Y0.594 Z0.0 E6.986
G1 Z0.00721153846154
G1 X-0.788 Y0.611 Z0.0 E6.98
G1 Z0.00721153846154
G1 X-0.774 Y0.629 Z0.0 E6.981
G1 Z0.00721153846154
G1 X-0.76 Y0.646 Z0.0 E6.982
G1 Z0.00721153846154
G1 X-0.744 Y0.664 Z0.0 E6.98
G1 Z0.00721153846154
G1 X-0.728 Y0.682 Z0.0 E6.983
G1 Z0.00721153846154
G1 X-0.712 Y0.699 Z0.0 E6.984
G1 Z0.00721153846154
G1 X-0.695 Y0.716 Z0.0 E6.985
G1 Z0.00721153846154
G1 X-0.677 Y0.732 Z0.0 E6.98
G1 Z0.00721153846154
G1 X-0.66 Y0.748 Z0.0 E6.983
G1 Z0.00721153846154
G1 X-0.642 Y0.763 Z0.0 E6.98
G1 Z0.00721153846154
G1 X-0.624 Y0.778 Z0.0 E6.981
G1 Z0.00721153846154
G1 X-0.607 Y0.792 Z0.0 E6.985
G1 Z0.00721153846154
G1 X-0.589 Y0.805 Z0.0 E6.982
G1 Z0.00721153846154
G1 X-0.572 Y0.817 Z0.0 E6.981
G1 Z0.00721153846154
G1 X-0.555 Y0.829 Z0.0 E6.983
G1 Z0.00721153846154
G1 X-0.539 Y0.839 Z0.0 E6.981
G1 Z0.00721153846154
G1 X-0.523 Y0.849 Z0.0 E6.98
G1 Z0.00721153846154
G1 X-0.507 Y0.859 Z0.0 E6.982
G1 Z0.00721153846154
G1 X-0.492 Y0.867 Z0.0 E6.978
G1 Z0.00721153846154
G1 X-0.478 Y0.876 Z0.0 E6.985
G1 Z0.00721153846154
G1 X-0.464 Y0.883 Z0.0 E6.982
G1 Z0.00721153846154
G1 X-0.45 Y0.89 Z0.0 E6.981
G1 Z0.00721153846154
G1 X-0.436 Y0.897 Z0.0 E6.981
G1 Z0.00721153846154
G1 X-0.423 Y0.903 Z0.0 E6.98
G1 Z0.00721153846154
G1 X-0.409 Y0.91 Z0.0 E6.984
G1 Z0.00721153846154
G1 X-0.396 Y0.916 Z0.0 E6.986
G1 Z0.00721153846154
G1 X-0.382 Y0.921 Z0.0 E6.98
G1 Z0.00721153846154
G1 X-0.368 Y0.927 Z0.0 E6.982
G1 Z0.00721153846154
G1 X-0.353 Y0.933 Z0.0 E6.983
G1 Z0.00721153846154
G1 X-0.338 Y0.938 Z0.0 E6.979
G1 Z0.00721153846154
G1 X-0.322 Y0.944 Z0.0 E6.982
G1 Z0.00721153846154
G1 X-0.306 Y0.949 Z0.0 E6.98
G1 Z0.00721153846154
G1 X-0.288 Y0.955 Z0.0 E6.982
G1 Z0.00721153846154
G1 X-0.27 Y0.96 Z0.0 E6.981
G1 Z0.00721153846154
G1 X-0.25 Y0.965 Z0.0 E6.978
G1 Z0.00721153846154
G1 X-0.23 Y0.971 Z0.0 E6.985
G1 Z0.00721153846154
G1 X-0.209 Y0.975 Z0.0 E6.98
G1 Z0.00721153846154
G1 X-0.186 Y0.98 Z0.0 E6.982
G1 Z0.00721153846154
G1 X-0.163 Y0.984 Z0.0 E6.982
G1 Z0.00721153846154
G1 X-0.139 Y0.988 Z0.0 E6.984
G1 Z0.00721153846154
G1 X-0.114 Y0.991 Z0.0 E6.983
G1 Z0.00721153846154
G1 X-0.089 Y0.993 Z0.0 E6.979
G1 Z0.00721153846154
G1 X-0.063 Y0.995 Z0.0 E6.979
G1 Z0.00721153846154
G1 X-0.036 Y0.997 Z0.0 E6.984
G1 Z0.00721153846154
G1 X-0.01 Y0.997 Z0.0 E6.979
G1 Z0.00721153846154
G1 X0.017 Y0.997 Z0.0 E6.98
G1 Z0.00721153846154
G1 X0.043 Y0.996 Z0.0 E6.978
G1 Z0.00721153846154
G1 X0.069 Y0.995 Z0.0 E6.982
G1 Z0.00721153846154
G1 X0.095 Y0.993 Z0.0 E6.983
G1 Z0.00721153846154
G1 X0.121 Y0.99 Z0.0 E6.982
G1 Z0.00721153846154
G1 X0.145 Y0.987 Z0.0 E6.983
G1 Z0.00721153846154
G1 X0.169 Y0.983 Z0.0 E6.982
G1 Z0.00721153846154
G1 X0.192 Y0.979 Z0.0 E6.984
G1 Z0.00721153846154
G1 X0.214 Y0.974 Z0.0 E6.981
G1 Z0.00721153846154
G1 X0.235 Y0.969 Z0.0 E6.98
G1 Z0.00721153846154
G1 X0.255 Y0.964 Z0.0 E6.98
G1 Z0.00721153846154
G1 X0.275 Y0.959 Z0.0 E6.984
G1 Z0.00721153846154
G1 X0.293 Y0.953 Z0.0 E6.979
G1 Z0.00721153846154
G1 X0.31 Y0.948 Z0.0 E6.982
G1 Z0.00721153846154
G1 X0.327 Y0.942 Z0.0 E6.98
G1 Z0.00721153846154
G1 X0.342 Y0.937 Z0.0 E6.982
G1 Z0.00721153846154
G1 X0.357 Y0.931 Z0.0 E6.98
G1 Z0.00721153846154
G1 X0.372 Y0.926 Z0.0 E6.985
G1 Z0.00721153846154
G1 X0.386 Y0.92 Z0.0 E6.984
G1 Z0.00721153846154
G1 X0.399 Y0.914 Z0.0 E6.981
G1 Z0.00721153846154
G1 X0.413 Y0.908 Z0.0 E6.983
G1 Z0.00721153846154
G1 X0.426 Y0.902 Z0.0 E6.983
G1 Z0.00721153846154
G1 X0.44 Y0.895 Z0.0 E6.981
G1 Z0.00721153846154
G1 X0.453 Y0.888 Z0.0 E6.978
G1 Z0.00721153846154
G1 X0.467 Y0.881 Z0.0 E6.98
G1 Z0.00721153846154
G1 X0.481 Y0.874 Z0.0 E6.983
G1 Z0.00721153846154
G1 X0.496 Y0.865 Z0.0 E6.98
G1 Z0.00721153846154
G1 X0.511 Y0.856 Z0.0 E6.978
G1 Z0.00721153846154
G1 X0.527 Y0.847 Z0.0 E6.983
G1 Z0.00721153846154
G1 X0.543 Y0.837 Z0.0 E6.984
G1 Z0.00721153846154
G1 X0.559 Y0.826 Z0.0 E6.982
G1 Z0.00721153846154
G1 X0.576 Y0.814 Z0.0 E6.98
G1 Z0.00721153846154
G1 X0.594 Y0.802 Z0.0 E6.986
G1 Z0.00721153846154
G1 X0.611 Y0.788 Z0.0 E6.98
G1 Z0.00721153846154
G1 X0.629 Y0.774 Z0.0 E6.981
G1 Z0.00721153846154
G1 X0.646 Y0.76 Z0.0 E6.982
G1 Z0.00721153846154
G1 X0.664 Y0.744 Z0.0 E6.98
G1 Z0.00721153846154
G1 X0.682 Y0.728 Z0.0 E6.983
G1 Z0.00721153846154
G1 X0.699 Y0.712 Z0.0 E6.984
G1 Z0.00721153846154
G1 X0.716 Y0.695 Z0.0 E6.985
G1 Z0.00721153846154
G1 X0.732 Y0.677 Z0.0 E6.98
G1 Z0.00721153846154
G1 X0.748 Y0.66 Z0.0 E6.983
G1 Z0.00721153846154
G1 X0.763 Y0.642 Z0.0 E6.98
G1 Z0.00721153846154
G1 X0.778 Y0.624 Z0.0 E6.981
G1 Z0.00721153846154
G1 X0.792 Y0.607 Z0.0 E6.985
G1 Z0.00721153846154
G1 X0.805 Y0.589 Z0.0 E6.982
G1 Z0.00721153846154
G1 X0.817 Y0.572 Z0.0 E6.981
G1 Z0.00721153846154
G1 X0.829 Y0.555 Z0.0 E6.983
G1 Z0.00721153846154
G1 X0.839 Y0.539 Z0.0 E6.981
G1 Z0.00721153846154
G1 X0.849 Y0.523 Z0.0 E6.98
G1 Z0.00721153846154
G1 X0.859 Y0.507 Z0.0 E6.982
G1 Z0.00721153846154
G1 X0.867 Y0.492 Z0.0 E6.978
G1 Z0.00721153846154
G1 X0.876 Y0.478 Z0.0 E6.985
G1 Z0.00721153846154
G1 X0.883 Y0.464 Z0.0 E6.982
G1 Z0.00721153846154
G1 X0.89 Y0.45 Z0.0 E6.981
G1 Z0.00721153846154
G1 X0.897 Y0.436 Z0.0 E6.981
G1 Z0.00721153846154
G1 X0.903 Y0.423 Z0.0 E6.98
G1 Z0.00721153846154
G1 X0.91 Y0.409 Z0.0 E6.984
G1 Z0.00721153846154
G1 X0.916 Y0.396 Z0.0 E6.986
G1 Z0.00721153846154
G1 X0.921 Y0.382 Z0.0 E6.98
G1 Z0.00721153846154
G1 X0.927 Y0.368 Z0.0 E6.982
G1 Z0.00721153846154
G1 X0.933 Y0.353 Z0.0 E6.983
G1 Z0.00721153846154
G1 X0.938 Y0.338 Z0.0 E6.979
G1 Z0.00721153846154
G1 X0.944 Y0.322 Z0.0 E6.982
G1 Z0.00721153846154
G1 X0.949 Y0.306 Z0.0 E6.98
G1 Z0.00721153846154
G1 X0.955 Y0.288 Z0.0 E6.982
G1 Z0.00721153846154
G1 X0.96 Y0.27 Z0.0 E6.981
G1 Z0.00721153846154
G1 X0.965 Y0.25 Z0.0 E6.978
G1 Z0.00721153846154
G1 X0.971 Y0.23 Z0.0 E6.985
G1 Z0.00721153846154
G1 X0.975 Y0.209 Z0.0 E6.98
G1 Z0.00721153846154
G1 X0.98 Y0.186 Z0.0 E6.982
G1 Z0.00721153846154
G1 X0.984 Y0.163 Z0.0 E6.982
G1 Z0.00721153846154
G1 X0.988 Y0.139 Z0.0 E6.984
G1 Z0.00721153846154
G1 X0.991 Y0.114 Z0.0 E6.983
G1 Z0.00721153846154
G1 X0.993 Y0.089 Z0.0 E6.979
G1 Z0.00721153846154
G1 X0.995 Y0.063 Z0.0 E6.979
G1 Z0.00721153846154
G1 X0.997 Y0.036 Z0.0 E6.984
G1 Z0.00721153846154
G1 X0.997 Y0.01 Z0.0 E6.979
G1 Z0.00721153846154
G1 X0.997 Y-0.017 Z0.0 E6.98
G1 Z0.00721153846154
G1 X0.996 Y-0.043 Z0.0 E6.978
G1 Z0.00721153846154
G1 X0.995 Y-0.069 Z0.0 E6.982
G1 Z0.00721153846154
G1 X0.993 Y-0.095 Z0.0 E6.983
G1 Z0.00721153846154
G1 X0.99 Y-0.121 Z0.0 E6.982
G1 Z0.00721153846154
G1 X0.987 Y-0.145 Z0.0 E6.983
G1 Z0.00721153846154
G1 X0.983 Y-0.169 Z0.0 E6.982
G1 Z0.00721153846154
G1 X0.979 Y-0.192 Z0.0 E6.984
G1 Z0.00721153846154
G1 X0.974 Y-0.214 Z0.0 E6.981
G1 Z0.00721153846154
G1 X0.969 Y-0.235 Z0.0 E6.98
G1 Z0.00721153846154
G1 X0.964 Y-0.255 Z0.0 E6.98
G1 Z0.00721153846154
G1 X0.959 Y-0.275 Z0.0 E6.984
G1 Z0.00721153846154
G1 X0.953 Y-0.293 Z0.0 E6.979
G1 Z0.00721153846154
G1 X0.948 Y-0.31 Z0.0 E6.982
G1 Z0.00721153846154
G1 X0.942 Y-0.327 Z0.0 E6.98
G1 Z0.00721153846154
G1 X0.937 Y-0.342 Z0.0 E6.982
G1 Z0.00721153846154
G1 X0.931 Y-0.357 Z0.0 E6.98
G1 Z0.00721153846154
G1 X0.926 Y-0.372 Z0.0 E6.985
G1 Z0.00721153846154
G1 X0.92 Y-0.386 Z0.0 E6.984
G1 Z0.00721153846154
G1 X0.914 Y-0.399 Z0.0 E6.981
G1 Z0.00721153846154
G1 X0.908 Y-0.413 Z0.0 E6.983
G1 Z0.00721153846154
G1 X0.902 Y-0.426 Z0.0 E6.983
G1 Z0.00721153846154
G1 X0.895 Y-0.44 Z0.0 E6.981
G1 Z0.00721153846154
G1 X0.888 Y-0.453 Z0.0 E6.978
G1 Z0.00721153846154
G1 X0.881 Y-0.467 Z0.0 E6.98
G1 Z0.00721153846154
G1 X0.874 Y-0.481 Z0.0 E6.983
G1 Z0.00721153846154
G1 X0.865 Y-0.496 Z0.0 E6.98
G1 Z0.00721153846154
G1 X0.856 Y-0.511 Z0.0 E6.978
G1 Z0.00721153846154
G1 X0.847 Y-0.527 Z0.0 E6.983
G1 Z0.00721153846154
G1 X0.837 Y-0.543 Z0.0 E6.984
G1 Z0.00721153846154
G1 X0.826 Y-0.559 Z0.0 E6.982
G1 Z0.00721153846154
G1 X0.814 Y-0.576 Z0.0 E6.98
G1 Z0.00721153846154
G1 X0.802 Y-0.594 Z0.0 E6.986
G1 Z0.00721153846154
G1 X0.788 Y-0.611 Z0.0 E6.98
G1 Z0.00721153846154
G1 X0.774 Y-0.629 Z0.0 E6.981
G1 Z0.00721153846154
G1 X0.76 Y-0.646 Z0.0 E6.982
G1 Z0.00721153846154
G1 X0.744 Y-0.664 Z0.0 E6.98
G1 Z0.00721153846154
G1 X0.728 Y-0.682 Z0.0 E6.983
G1 Z0.00721153846154
G1 X0.712 Y-0.699 Z0.0 E6.984
G1 Z0.00721153846154
G1 X0.695 Y-0.716 Z0.0 E6.985
G1 Z0.00721153846154
G1 X0.677 Y-0.732 Z0.0 E6.98
G1 Z0.00721153846154
G1 X0.66 Y-0.748 Z0.0 E6.983
G1 Z0.00721153846154
G1 X0.642 Y-0.763 Z0.0 E6.98
G1 Z0.00721153846154
G1 X0.624 Y-0.778 Z0.0 E6.981
G1 Z0.00721153846154
G1 X0.607 Y-0.792 Z0.0 E6.985
G1 Z0.00721153846154
G1 X0.589 Y-0.805 Z0.0 E6.982
G1 Z0.00721153846154
G1 X0.572 Y-0.817 Z0.0 E6.981
G1 Z0.00721153846154
G1 X0.555 Y-0.829 Z0.0 E6.983
G1 Z0.00721153846154
G1 X0.539 Y-0.839 Z0.0 E6.981
G1 Z0.00721153846154
G1 X0.523 Y-0.849 Z0.0 E6.98
G1 Z0.00721153846154
G1 X0.507 Y-0.859 Z0.0 E6.982
G1 Z0.00721153846154
G1 X0.492 Y-0.867 Z0.0 E6.978
G1 Z0.00721153846154
G1 X0.478 Y-0.876 Z0.0 E6.985
G1 Z0.00721153846154
G1 X0.464 Y-0.883 Z0.0 E6.982
G1 Z0.00721153846154
G1 X0.45 Y-0.89 Z0.0 E6.981
G1 Z0.00721153846154
G1 X0.436 Y-0.897 Z0.0 E6.981
G1 Z0.00721153846154
G1 X0.423 Y-0.903 Z0.0 E6.98
G1 Z0.00721153846154
G1 X0.409 Y-0.91 Z0.0 E6.984
G1 Z0.00721153846154
G1 X0.396 Y-0.916 Z0.0 E6.986
G1 Z0.00721153846154
G1 X0.382 Y-0.921 Z0.0 E6.98
G1 Z0.00721153846154
G1 X0.368 Y-0.927 Z0.0 E6.982
G1 Z0.00721153846154
G1 X0.353 Y-0.933 Z0.0 E6.983
G1 Z0.00721153846154
G1 X0.338 Y-0.938 Z0.0 E6.979
G1 Z0.00721153846154
G1 X0.322 Y-0.944 Z0.0 E6.982
G1 Z0.00721153846154
G1 X0.306 Y-0.949 Z0.0 E6.98
G1 Z0.00721153846154
G1 X0.288 Y-0.955 Z0.0 E6.982
G1 Z0.00721153846154
G1 X0.27 Y-0.96 Z0.0 E6.981
G1 Z0.00721153846154
G1 X0.25 Y-0.965 Z0.0 E6.978
G1 Z0.00721153846154
G1 X0.23 Y-0.971 Z0.0 E6.985
G1 Z0.00721153846154
G1 X0.209 Y-0.975 Z0.0 E6.98
G1 Z0.00721153846154
G1 X0.186 Y-0.98 Z0.0 E6.982
G1 Z0.00721153846154
G1 X0.163 Y-0.984 Z0.0 E6.982
G1 Z0.00721153846154
G1 X0.139 Y-0.988 Z0.0 E6.984
G1 Z0.00721153846154
G1 X0.114 Y-0.991 Z0.0 E6.983
G1 Z0.00721153846154
G1 X0.089 Y-0.993 Z0.0 E6.979
G1 Z0.00721153846154
G1 X0.063 Y-0.995 Z0.0 E6.979
G1 Z0.00721153846154
G1 X0.036 Y-0.997 Z0.0 E6.984
G1 X0.564 Y0.01 Z0.0
G1 Z0.00714285714286
G1 X0.01 Y-0.999 Z0.0
G1 Z0.00714285714286
G1 X-0.017 Y-0.999 Z0.0
G1 Z0.00714285714286
G1 X-0.044 Y-0.998 Z0.0
G1 Z0.00714285714286
G1 X-0.07 Y-0.997 Z0.0 E6.996
G1 Z0.00714285714286
G1 X-0.096 Y-0.995 Z0.0 E6.997
G1 Z0.00714285714286
G1 X-0.122 Y-0.992 Z0.0 E6.996
G1 Z0.00714285714286
G1 X-0.147 Y-0.989 Z0.0 E6.999
G1 Z0.00714285714286
G1 X-0.171 Y-0.985 Z0.0 E6.998
G1 Z0.00714285714286
G1 X-0.194 Y-0.98 Z0.0 E6.993
G1 Z0.00714285714286
G1 X-0.216 Y-0.976 Z0.0 E6.997
G1 Z0.00714285714286
G1 X-0.237 Y-0.971 Z0.0 E6.997
G1 Z0.00714285714286
G1 X-0.257 Y-0.966 Z0.0 E6.997
G1 Z0.00714285714286
G1 X-0.275 Y-0.961 Z0.0 E6.997
G1 Z0.00714285714286
G1 X-0.293 Y-0.955 Z0.0 E6.993
G1 Z0.00714285714286
G1 X-0.31 Y-0.95 Z0.0 E6.995
G1 Z0.00714285714286
G1 X-0.326 Y-0.945 Z0.0 E6.998
G1 Z0.00714285714286
G1 X-0.34 Y-0.94 Z0.0 E6.997
G1 Z0.00714285714286
G1 X-0.355 Y-0.934 Z0.0 E6.994
G1 Z0.00714285714286
G1 X-0.368 Y-0.929 Z0.0 E6.995
G1 Z0.00714285714286
G1 X-0.381 Y-0.924 Z0.0 E6.996
G1 Z0.00714285714286
G1 X-0.394 Y-0.918 Z0.0 E6.993
G1 Z0.00714285714286
G1 X-0.407 Y-0.913 Z0.0 E6.997
G1 Z0.00714285714286
G1 X-0.42 Y-0.907 Z0.0 E6.997
G1 Z0.00714285714286
G1 X-0.432 Y-0.901 Z0.0 E6.994
G1 Z0.00714285714286
G1 X-0.445 Y-0.895 Z0.0 E6.997
G1 Z0.00714285714286
G1 X-0.458 Y-0.888 Z0.0 E6.994
G1 Z0.00714285714286
G1 X-0.472 Y-0.881 Z0.0 E6.996
G1 Z0.00714285714286
G1 X-0.486 Y-0.873 Z0.0 E6.994
G1 Z0.00714285714286
G1 X-0.501 Y-0.865 Z0.0 E6.997
G1 Z0.00714285714286
G1 X-0.517 Y-0.856 Z0.0 E7.0
G1 Z0.00714285714286
G1 X-0.533 Y-0.846 Z0.0 E6.999
G1 Z0.00714285714286
G1 X-0.549 Y-0.835 Z0.0 E6.995
G1 Z0.00714285714286
G1 X-0.566 Y-0.823 Z0.0 E6.992
G1 Z0.00714285714286
G1 X-0.584 Y-0.811 Z0.0 E6.996
G1 Z0.00714285714286
G1 X-0.602 Y-0.798 Z0.0 E6.997
G1 Z0.00714285714286
G1 X-0.62 Y-0.784 Z0.0 E6.997
G1 Z0.00714285714286
G1 X-0.638 Y-0.769 Z0.0 E6.994
G1 Z0.00714285714286
G1 X-0.657 Y-0.753 Z0.0 E6.995
G1 Z0.00714285714286
G1 X-0.675 Y-0.737 Z0.0 E6.996
G1 Z0.00714285714286
G1 X-0.693 Y-0.72 Z0.0 E6.995
G1 Z0.00714285714286
G1 X-0.711 Y-0.702 Z0.0 E6.994
G1 Z0.00714285714286
G1 X-0.728 Y-0.684 Z0.0 E6.992
G1 Z0.00714285714286
G1 X-0.745 Y-0.666 Z0.0 E6.995
G1 Z0.00714285714286
G1 X-0.761 Y-0.648 Z0.0 E6.997
G1 Z0.00714285714286
G1 X-0.776 Y-0.629 Z0.0 E6.992
G1 Z0.00714285714286
G1 X-0.791 Y-0.611 Z0.0 E6.997
G1 Z0.00714285714286
G1 X-0.804 Y-0.593 Z0.0 E6.993
G1 Z0.00714285714286
G1 X-0.817 Y-0.575 Z0.0 E6.993
G1 Z0.00714285714286
G1 X-0.829 Y-0.558 Z0.0 E6.995
G1 Z0.00714285714286
G1 X-0.84 Y-0.541 Z0.0 E6.994
G1 Z0.00714285714286
G1 X-0.851 Y-0.525 Z0.0 E6.999
G1 Z0.00714285714286
G1 X-0.86 Y-0.509 Z0.0 E6.995
G1 Z0.00714285714286
G1 X-0.869 Y-0.494 Z0.0 E6.997
G1 Z0.00714285714286
G1 X-0.877 Y-0.479 Z0.0 E6.995
G1 Z0.00714285714286
G1 X-0.884 Y-0.465 Z0.0 E6.992
G1 Z0.00714285714286
G1 X-0.891 Y-0.452 Z0.0 E6.994
G1 Z0.00714285714286
G1 X-0.898 Y-0.439 Z0.0 E6.997
G1 Z0.00714285714286
G1 X-0.904 Y-0.426 Z0.0 E6.995
G1 Z0.00714285714286
G1 X-0.91 Y-0.413 Z0.0 E6.995
G1 Z0.00714285714286
G1 X-0.916 Y-0.401 Z0.0 E6.999
G1 Z0.00714285714286
G1 X-0.921 Y-0.388 Z0.0 E6.996
G1 Z0.00714285714286
G1 X-0.926 Y-0.375 Z0.0 E6.993
G1 Z0.00714285714286
G1 X-0.932 Y-0.362 Z0.0 E6.999
G1 Z0.00714285714286
G1 X-0.937 Y-0.348 Z0.0 E6.997
G1 Z0.00714285714286
G1 X-0.942 Y-0.333 Z0.0 E6.994
G1 Z0.00714285714286
G1 X-0.947 Y-0.318 Z0.0 E6.993
G1 Z0.00714285714286
G1 X-0.953 Y-0.302 Z0.0 E6.998
G1 Z0.00714285714286
G1 X-0.958 Y-0.285 Z0.0 E6.996
G1 Z0.00714285714286
G1 X-0.963 Y-0.266 Z0.0 E6.993
G1 Z0.00714285714286
G1 X-0.968 Y-0.247 Z0.0 E6.993
G1 Z0.00714285714286
G1 X-0.973 Y-0.227 Z0.0 E6.994
G1 Z0.00714285714286
G1 X-0.978 Y-0.205 Z0.0 E6.995
G1 Z0.00714285714286
G1 X-0.983 Y-0.183 Z0.0 E6.999
G1 Z0.00714285714286
G1 X-0.987 Y-0.159 Z0.0 E6.998
G1 Z0.00714285714286
G1 X-0.99 Y-0.135 Z0.0 E6.994
G1 Z0.00714285714286
G1 X-0.993 Y-0.109 Z0.0 E6.993
G1 Z0.00714285714286
G1 X-0.996 Y-0.084 Z0.0 E6.997
G1 Z0.00714285714286
G1 X-0.998 Y-0.057 Z0.0 E6.997
G1 Z0.00714285714286
G1 X-0.999 Y-0.031 Z0.0 E6.996
G1 Z0.00714285714286
G1 X-0.999 Y-0.004 Z0.0 E6.993
G1 Z0.00714285714286
G1 X-0.999 Y0.023 Z0.0 E6.995
G1 Z0.00714285714286
G1 X-0.998 Y0.05 Z0.0 E6.995
G1 Z0.00714285714286
G1 X-0.996 Y0.077 Z0.0 E6.993
G1 Z0.00714285714286
G1 X-0.994 Y0.103 Z0.0 E6.995
G1 Z0.00714285714286
G1 X-0.991 Y0.128 Z0.0 E6.995
G1 Z0.00714285714286
G1 X-0.988 Y0.153 Z0.0 E6.998
G1 Z0.00714285714286
G1 X-0.984 Y0.176 Z0.0 E6.997
G1 Z0.00714285714286
G1 X-0.979 Y0.199 Z0.0 E6.993
G1 Z0.00714285714286
G1 X-0.975 Y0.221 Z0.0 E6.998
G1 Z0.00714285714286
G1 X-0.97 Y0.242 Z0.0 E6.998
G1 Z0.00714285714286
G1 X-0.965 Y0.261 Z0.0 E6.998
G1 Z0.00714285714286
G1 X-0.959 Y0.28 Z0.0 E6.993
G1 Z0.00714285714286
G1 X-0.954 Y0.297 Z0.0 E6.994
G1 Z0.00714285714286
G1 X-0.949 Y0.314 Z0.0 E6.997
G1 Z0.00714285714286
G1 X-0.944 Y0.329 Z0.0 E6.998
G1 Z0.00714285714286
G1 X-0.938 Y0.344 Z0.0 E6.994
G1 Z0.00714285714286
G1 X-0.933 Y0.358 Z0.0 E6.995
G1 Z0.00714285714286
G1 X-0.928 Y0.372 Z0.0 E6.998
G1 Z0.00714285714286
G1 X-0.922 Y0.385 Z0.0 E6.994
G1 Z0.00714285714286
G1 X-0.917 Y0.397 Z0.0 E6.995
G1 Z0.00714285714286
G1 X-0.911 Y0.41 Z0.0 E6.993
G1 Z0.00714285714286
G1 X-0.906 Y0.423 Z0.0 E6.999
G1 Z0.00714285714286
G1 X-0.9 Y0.435 Z0.0 E6.997
G1 Z0.00714285714286
G1 X-0.893 Y0.448 Z0.0 E6.994
G1 Z0.00714285714286
G1 X-0.886 Y0.462 Z0.0 E6.995
G1 Z0.00714285714286
G1 X-0.879 Y0.476 Z0.0 E6.997
G1 Z0.00714285714286
G1 X-0.871 Y0.49 Z0.0 E6.996
G1 Z0.00714285714286
G1 X-0.862 Y0.505 Z0.0 E6.993
G1 Z0.00714285714286
G1 X-0.853 Y0.521 Z0.0 E6.997
G1 Z0.00714285714286
G1 X-0.843 Y0.537 Z0.0 E6.997
G1 Z0.00714285714286
G1 X-0.832 Y0.553 Z0.0 E6.993
G1 Z0.00714285714286
G1 X-0.82 Y0.571 Z0.0 E6.995
G1 Z0.00714285714286
G1 X-0.808 Y0.588 Z0.0 E6.995
G1 Z0.00714285714286
G1 X-0.794 Y0.606 Z0.0 E6.992
G1 Z0.00714285714286
G1 X-0.78 Y0.625 Z0.0 E6.997
G1 Z0.00714285714286
G1 X-0.765 Y0.643 Z0.0 E6.995
G1 Z0.00714285714286
G1 X-0.749 Y0.661 Z0.0 E6.993
G1 Z0.00714285714286
G1 X-0.733 Y0.68 Z0.0 E6.999
G1 Z0.00714285714286
G1 X-0.716 Y0.698 Z0.0 E7.0
G1 Z0.00714285714286
G1 X-0.698 Y0.715 Z0.0 E6.994
G1 Z0.00714285714286
G1 X-0.68 Y0.732 Z0.0 E6.994
G1 Z0.00714285714286
G1 X-0.662 Y0.749 Z0.0 E6.997
G1 Z0.00714285714286
G1 X-0.643 Y0.765 Z0.0 E6.995
G1 Z0.00714285714286
G1 X-0.625 Y0.78 Z0.0 E6.997
G1 Z0.00714285714286
G1 X-0.607 Y0.794 Z0.0 E6.996
G1 Z0.00714285714286
G1 X-0.589 Y0.808 Z0.0 E6.999
G1 Z0.00714285714286
G1 X-0.571 Y0.82 Z0.0 E6.995
G1 Z0.00714285714286
G1 X-0.554 Y0.832 Z0.0 E6.997
G1 Z0.00714285714286
G1 X-0.537 Y0.843 Z0.0 E6.997
G1 Z0.00714285714286
G1 X-0.521 Y0.853 Z0.0 E6.997
G1 Z0.00714285714286
G1 X-0.505 Y0.862 Z0.0 E6.993
G1 Z0.00714285714286
G1 X-0.49 Y0.871 Z0.0 E6.996
G1 Z0.00714285714286
G1 X-0.476 Y0.879 Z0.0 E6.997
G1 Z0.00714285714286
G1 X-0.462 Y0.886 Z0.0 E6.995
G1 Z0.00714285714286
G1 X-0.449 Y0.893 Z0.0 E6.997
G1 Z0.00714285714286
G1 X-0.436 Y0.9 Z0.0 E7.0
G1 Z0.00714285714286
G1 X-0.423 Y0.906 Z0.0 E6.999
G1 Z0.00714285714286
G1 X-0.41 Y0.911 Z0.0 E6.993
G1 Z0.00714285714286
G1 X-0.398 Y0.917 Z0.0 E6.998
G1 Z0.00714285714286
G1 X-0.385 Y0.922 Z0.0 E6.994
G1 Z0.00714285714286
G1 X-0.372 Y0.928 Z0.0 E6.998
G1 Z0.00714285714286
G1 X-0.358 Y0.933 Z0.0 E6.995
G1 Z0.00714285714286
G1 X-0.344 Y0.938 Z0.0 E6.994
G1 Z0.00714285714286
G1 X-0.33 Y0.944 Z0.0 E7.0
G1 Z0.00714285714286
G1 X-0.314 Y0.949 Z0.0 E6.997
G1 Z0.00714285714286
G1 X-0.298 Y0.954 Z0.0 E6.996
G1 Z0.00714285714286
G1 X-0.28 Y0.959 Z0.0 E6.993
G1 Z0.00714285714286
G1 X-0.262 Y0.965 Z0.0 E7.0
G1 Z0.00714285714286
G1 X-0.242 Y0.97 Z0.0 E6.998
G1 Z0.00714285714286
G1 X-0.221 Y0.975 Z0.0 E6.998
G1 Z0.00714285714286
G1 X-0.2 Y0.979 Z0.0 E6.995
G1 Z0.00714285714286
G1 X-0.177 Y0.984 Z0.0 E6.999
G1 Z0.00714285714286
G1 X-0.153 Y0.988 Z0.0 E6.998
G1 Z0.00714285714286
G1 X-0.128 Y0.991 Z0.0 E6.995
G1 Z0.00714285714286
G1 X-0.103 Y0.994 Z0.0 E6.995
G1 Z0.00714285714286
G1 X-0.077 Y0.996 Z0.0 E6.993
G1 Z0.00714285714286
G1 X-0.051 Y0.998 Z0.0 E6.995
G1 Z0.00714285714286
G1 X-0.024 Y0.999 Z0.0 E6.995
G1 Z0.00714285714286
G1 X0.003 Y0.999 Z0.0 E6.993
G1 Z0.00714285714286
G1 X0.03 Y0.999 Z0.0 E6.996
G1 Z0.00714285714286
G1 X0.057 Y0.998 Z0.0 E6.997
G1 Z0.00714285714286
G1 X0.083 Y0.996 Z0.0 E6.996
G1 Z0.00714285714286
G1 X0.109 Y0.993 Z0.0 E6.993
G1 Z0.00714285714286
G1 X0.134 Y0.99 Z0.0 E6.993
G1 Z0.00714285714286
G1 X0.159 Y0.987 Z0.0 E6.998
G1 Z0.00714285714286
G1 X0.182 Y0.983 Z0.0 E6.998
G1 Z0.00714285714286
G1 X0.205 Y0.978 Z0.0 E6.995
G1 Z0.00714285714286
G1 X0.226 Y0.973 Z0.0 E6.992
G1 Z0.00714285714286
G1 X0.247 Y0.968 Z0.0 E6.993
G1 Z0.00714285714286
G1 X0.266 Y0.963 Z0.0 E6.993
G1 Z0.00714285714286
G1 X0.284 Y0.958 Z0.0 E6.994
G1 Z0.00714285714286
G1 X0.302 Y0.953 Z0.0 E6.998
G1 Z0.00714285714286
G1 X0.318 Y0.948 Z0.0 E6.999
G1 Z0.00714285714286
G1 X0.333 Y0.942 Z0.0 E6.994
G1 Z0.00714285714286
G1 X0.348 Y0.937 Z0.0 E6.997
G1 Z0.00714285714286
G1 X0.362 Y0.932 Z0.0 E6.999
G1 Z0.00714285714286
G1 X0.375 Y0.926 Z0.0 E6.993
G1 Z0.00714285714286
G1 X0.388 Y0.921 Z0.0 E6.996
G1 Z0.00714285714286
G1 X0.401 Y0.916 Z0.0 E6.999
G1 Z0.00714285714286
G1 X0.413 Y0.91 Z0.0 E6.995
G1 Z0.00714285714286
G1 X0.426 Y0.904 Z0.0 E6.995
G1 Z0.00714285714286
G1 X0.439 Y0.898 Z0.0 E6.997
G1 Z0.00714285714286
G1 X0.452 Y0.892 Z0.0 E7.0
G1 Z0.00714285714286
G1 X0.465 Y0.885 Z0.0 E6.998
G1 Z0.00714285714286
G1 X0.479 Y0.877 Z0.0 E6.995
G1 Z0.00714285714286
G1 X0.494 Y0.869 Z0.0 E6.997
G1 Z0.00714285714286
G1 X0.509 Y0.86 Z0.0 E6.995
G1 Z0.00714285714286
G1 X0.525 Y0.851 Z0.0 E6.999
G1 Z0.00714285714286
G1 X0.541 Y0.84 Z0.0 E6.994
G1 Z0.00714285714286
G1 X0.558 Y0.829 Z0.0 E6.995
G1 Z0.00714285714286
G1 X0.575 Y0.817 Z0.0 E6.993
G1 Z0.00714285714286
G1 X0.593 Y0.805 Z0.0 E6.999
G1 Z0.00714285714286
G1 X0.611 Y0.791 Z0.0 E6.997
G1 Z0.00714285714286
G1 X0.629 Y0.776 Z0.0 E6.992
G1 Z0.00714285714286
G1 X0.648 Y0.761 Z0.0 E6.997
G1 Z0.00714285714286
G1 X0.666 Y0.745 Z0.0 E6.995
G1 Z0.00714285714286
G1 X0.684 Y0.728 Z0.0 E6.992
G1 Z0.00714285714286
G1 X0.702 Y0.711 Z0.0 E6.994
G1 Z0.00714285714286
G1 X0.72 Y0.693 Z0.0 E6.995
G1 Z0.00714285714286
G1 X0.737 Y0.675 Z0.0 E6.996
G1 Z0.00714285714286
G1 X0.753 Y0.657 Z0.0 E6.995
G1 Z0.00714285714286
G1 X0.769 Y0.639 Z0.0 E6.999
G1 Z0.00714285714286
G1 X0.784 Y0.62 Z0.0 E6.997
G1 Z0.00714285714286
G1 X0.798 Y0.602 Z0.0 E6.997
G1 Z0.00714285714286
G1 X0.811 Y0.584 Z0.0 E6.996
G1 Z0.00714285714286
G1 X0.823 Y0.567 Z0.0 E6.996
G1 Z0.00714285714286
G1 X0.835 Y0.549 Z0.0 E6.995
G1 Z0.00714285714286
G1 X0.846 Y0.533 Z0.0 E6.999
G1 Z0.00714285714286
G1 X0.855 Y0.517 Z0.0 E6.994
G1 Z0.00714285714286
G1 X0.865 Y0.501 Z0.0 E6.997
G1 Z0.00714285714286
G1 X0.873 Y0.487 Z0.0 E6.998
G1 Z0.00714285714286
G1 X0.881 Y0.472 Z0.0 E6.996
G1 Z0.00714285714286
G1 X0.888 Y0.459 Z0.0 E6.997
G1 Z0.00714285714286
G1 X0.895 Y0.445 Z0.0 E6.997
G1 Z0.00714285714286
G1 X0.901 Y0.432 Z0.0 E6.994
G1 Z0.00714285714286
G1 X0.907 Y0.42 Z0.0 E6.997
G1 Z0.00714285714286
G1 X0.913 Y0.407 Z0.0 E6.997
G1 Z0.00714285714286
G1 X0.918 Y0.394 Z0.0 E6.993
G1 Z0.00714285714286
G1 X0.924 Y0.382 Z0.0 E6.999
G1 Z0.00714285714286
G1 X0.929 Y0.369 Z0.0 E6.997
G1 Z0.00714285714286
G1 X0.934 Y0.355 Z0.0 E6.994
G1 Z0.00714285714286
G1 X0.94 Y0.341 Z0.0 E7.0
G1 Z0.00714285714286
G1 X0.945 Y0.326 Z0.0 E6.998
G1 Z0.00714285714286
G1 X0.95 Y0.31 Z0.0 E6.995
G1 Z0.00714285714286
G1 X0.955 Y0.293 Z0.0 E6.993
G1 Z0.00714285714286
G1 X0.961 Y0.276 Z0.0 E6.999
G1 Z0.00714285714286
G1 X0.966 Y0.257 Z0.0 E6.997
G1 Z0.00714285714286
G1 X0.971 Y0.237 Z0.0 E6.997
G1 Z0.00714285714286
G1 X0.976 Y0.216 Z0.0 E6.997
G1 Z0.00714285714286
G1 X0.98 Y0.194 Z0.0 E6.993
G1 Z0.00714285714286
G1 X0.985 Y0.171 Z0.0 E6.998
G1 Z0.00714285714286
G1 X0.989 Y0.147 Z0.0 E6.999
G1 Z0.00714285714286
G1 X0.992 Y0.122 Z0.0 E6.996
G1 Z0.00714285714286
G1 X0.995 Y0.097 Z0.0 E6.998
G1 Z0.00714285714286
G1 X0.997 Y0.07 Z0.0 E6.996
G1 Z0.00714285714286
G1 X0.998 Y0.044 Z0.0 E6.993
G1 Z0.00714285714286
G1 X0.999 Y0.017 Z0.0 E6.994
G1 Z0.00714285714286
G1 X0.999 Y-0.01 Z0.0 E6.993
G1 Z0.00714285714286
G1 X0.999 Y-0.037 Z0.0 E6.998
G1 Z0.00714285714286
G1 X0.997 Y-0.064 Z0.0 E6.993
G1 Z0.00714285714286
G1 X0.995 Y-0.09 Z0.0 E6.993
G1 Z0.00714285714286
G1 X0.993 Y-0.115 Z0.0 E6.997
G1 Z0.00714285714286
G1 X0.989 Y-0.141 Z0.0 E6.993
G1 Z0.00714285714286
G1 X0.986 Y-0.165 Z0.0 E6.998
G1 Z0.00714285714286
G1 X0.982 Y-0.188 Z0.0 E6.999
G1 Z0.00714285714286
G1 X0.977 Y-0.21 Z0.0 E6.995
G1 Z0.00714285714286
G1 X0.972 Y-0.232 Z0.0 E6.995
G1 Z0.00714285714286
G1 X0.967 Y-0.252 Z0.0 E6.995
G1 Z0.00714285714286
G1 X0.962 Y-0.271 Z0.0 E6.996
G1 Z0.00714285714286
G1 X0.957 Y-0.289 Z0.0 E6.998
G1 Z0.00714285714286
G1 X0.952 Y-0.306 Z0.0 E7.0
G1 Z0.00714285714286
G1 X0.946 Y-0.322 Z0.0 E6.995
G1 Z0.00714285714286
G1 X0.941 Y-0.337 Z0.0 E6.997
G1 Z0.00714285714286
G1 X0.936 Y-0.351 Z0.0 E6.998
G1 Z0.00714285714286
G1 X0.93 Y-0.365 Z0.0 E6.993
G1 Z0.00714285714286
G1 X0.925 Y-0.378 Z0.0 E6.995
G1 Z0.00714285714286
G1 X0.92 Y-0.391 Z0.0 E6.997
G1 Z0.00714285714286
G1 X0.914 Y-0.404 Z0.0 E6.995
G1 Z0.00714285714286
G1 X0.909 Y-0.416 Z0.0 E6.998
G1 Z0.00714285714286
G1 X0.903 Y-0.429 Z0.0 E6.998
G1 Z0.00714285714286
G1 X0.896 Y-0.442 Z0.0 E6.994
G1 Z0.00714285714286
G1 X0.89 Y-0.455 Z0.0 E6.997
G1 Z0.00714285714286
G1 X0.883 Y-0.469 Z0.0 E6.999
G1 Z0.00714285714286
G1 X0.875 Y-0.483 Z0.0 E6.996
G1 Z0.00714285714286
G1 X0.867 Y-0.497 Z0.0 E6.995
G1 Z0.00714285714286
G1 X0.858 Y-0.513 Z0.0 E6.998
G1 Z0.00714285714286
G1 X0.848 Y-0.529 Z0.0 E6.996
G1 Z0.00714285714286
G1 X0.838 Y-0.545 Z0.0 E6.997
G1 Z0.00714285714286
G1 X0.826 Y-0.562 Z0.0 E6.993
G1 Z0.00714285714286
G1 X0.814 Y-0.579 Z0.0 E6.992
G1 Z0.00714285714286
G1 X0.801 Y-0.597 Z0.0 E6.993
G1 Z0.00714285714286
G1 X0.787 Y-0.615 Z0.0 E6.992
G1 Z0.00714285714286
G1 X0.773 Y-0.634 Z0.0 E6.998
G1 Z0.00714285714286
G1 X0.757 Y-0.652 Z0.0 E6.994
G1 Z0.00714285714286
G1 X0.741 Y-0.671 Z0.0 E6.998
G1 Z0.00714285714286
G1 X0.724 Y-0.689 Z0.0 E6.996
G1 Z0.00714285714286
G1 X0.707 Y-0.707 Z0.0 E6.999
G1 Z0.00714285714286
G1 X0.689 Y-0.724 Z0.0 E6.996
G1 Z0.00714285714286
G1 X0.671 Y-0.741 Z0.0 E6.998
G1 Z0.00714285714286
G1 X0.652 Y-0.757 Z0.0 E6.994
G1 Z0.00714285714286
G1 X0.634 Y-0.773 Z0.0 E6.998
G1 Z0.00714285714286
G1 X0.616 Y-0.787 Z0.0 E6.996
G1 Z0.00714285714286
G1 X0.598 Y-0.801 Z0.0 E6.997
G1 Z0.00714285714286
G1 X0.58 Y-0.814 Z0.0 E6.996
G1 Z0.00714285714286
G1 X0.562 Y-0.826 Z0.0 E6.993
G1 Z0.00714285714286
G1 X0.545 Y-0.838 Z0.0 E6.997
G1 Z0.00714285714286
G1 X0.529 Y-0.848 Z0.0 E6.996
G1 Z0.00714285714286
G1 X0.513 Y-0.858 Z0.0 E6.998
G1 Z0.00714285714286
G1 X0.498 Y-0.867 Z0.0 E6.999
G1 Z0.00714285714286
G1 X0.483 Y-0.875 Z0.0 E6.996
G1 Z0.00714285714286
G1 X0.469 Y-0.883 Z0.0 E6.999
G1 Z0.00714285714286
G1 X0.455 Y-0.89 Z0.0 E6.997
G1 Z0.00714285714286
G1 X0.442 Y-0.896 Z0.0 E6.994
G1 Z0.00714285714286
G1 X0.429 Y-0.903 Z0.0 E6.998
G1 Z0.00714285714286
G1 X0.417 Y-0.908 Z0.0 E6.994
G1 Z0.00714285714286
G1 X0.404 Y-0.914 Z0.0 E6.995
G1 Z0.00714285714286
G1 X0.391 Y-0.92 Z0.0 E6.997
G1 Z0.00714285714286
G1 X0.378 Y-0.925 Z0.0 E6.995
G1 Z0.00714285714286
G1 X0.365 Y-0.93 Z0.0 E6.993
G1 Z0.00714285714286
G1 X0.351 Y-0.936 Z0.0 E6.998
G1 Z0.00714285714286
G1 X0.337 Y-0.941 Z0.0 E6.997
G1 Z0.00714285714286
G1 X0.322 Y-0.946 Z0.0 E6.995
G1 Z0.00714285714286
G1 X0.306 Y-0.951 Z0.0 E6.993
G1 Z0.00714285714286
G1 X0.289 Y-0.957 Z0.0 E6.998
G1 Z0.00714285714286
G1 X0.271 Y-0.962 Z0.0 E6.996
G1 Z0.00714285714286
G1 X0.252 Y-0.967 Z0.0 E6.995
G1 Z0.00714285714286
G1 X0.232 Y-0.972 Z0.0 E6.995
G1 Z0.00714285714286
G1 X0.211 Y-0.977 Z0.0 E6.997
G1 Z0.00714285714286
G1 X0.188 Y-0.982 Z0.0 E6.999
G1 Z0.00714285714286
G1 X0.165 Y-0.986 Z0.0 E6.998
G1 Z0.00714285714286
G1 X0.141 Y-0.989 Z0.0 E6.993
G1 Z0.00714285714286
G1 X0.116 Y-0.993 Z0.0 E6.998
G1 Z0.00714285714286
G1 X0.09 Y-0.995 Z0.0 E6.993
G1 Z0.00714285714286
G1 X0.064 Y-0.997 Z0.0 E6.993
G1 Z0.00714285714286
G1 X0.037 Y-0.999 Z0.0 E6.998
G1 X0.482 Y0.008 Z0.0
G1 Z0.00707547169811
G1 X0.011 Y-1.0 Z0.0
G1 Z0.00707547169811
G1 X-0.017 Y-1.0 Z0.0
G1 Z0.00707547169811
G1 X-0.044 Y-0.999 Z0.0
G1 Z0.00707547169811
G1 X-0.071 Y-0.997 Z0.0 E6.997
G1 Z0.00707547169811
G1 X-0.097 Y-0.995 Z0.0 E6.998
G1 Z0.00707547169811
G1 X-0.123 Y-0.992 Z0.0 E6.997
G1 Z0.00707547169811
G1 X-0.148 Y-0.989 Z0.0 E7.0
G1 Z0.00707547169811
G1 X-0.172 Y-0.985 Z0.0 E6.999
G1 Z0.00707547169811
G1 X-0.195 Y-0.981 Z0.0 E7.001
G1 Z0.00707547169811
G1 X-0.217 Y-0.976 Z0.0 E6.999
G1 Z0.00707547169811
G1 X-0.238 Y-0.971 Z0.0 E6.998
G1 Z0.00707547169811
G1 X-0.257 Y-0.966 Z0.0 E6.997
G1 Z0.00707547169811
G1 X-0.276 Y-0.961 Z0.0 E6.999
G1 Z0.00707547169811
G1 X-0.293 Y-0.956 Z0.0 E6.999
G1 Z0.00707547169811
G1 X-0.309 Y-0.951 Z0.0 E7.0
G1 Z0.00707547169811
G1 X-0.324 Y-0.946 Z0.0 E7.0
G1 Z0.00707547169811
G1 X-0.339 Y-0.941 Z0.0 E7.001
G1 Z0.00707547169811
G1 X-0.352 Y-0.936 Z0.0 E7.0
G1 Z0.00707547169811
G1 X-0.365 Y-0.931 Z0.0 E7.0
G1 Z0.00707547169811
G1 X-0.377 Y-0.926 Z0.0 E6.999
G1 Z0.00707547169811
G1 X-0.389 Y-0.921 Z0.0 E6.998
G1 Z0.00707547169811
G1 X-0.401 Y-0.916 Z0.0 E6.999
G1 Z0.00707547169811
G1 X-0.413 Y-0.91 Z0.0 E6.995
G1 Z0.00707547169811
G1 X-0.425 Y-0.905 Z0.0 E6.999
G1 Z0.00707547169811
G1 X-0.437 Y-0.899 Z0.0 E6.997
G1 Z0.00707547169811
G1 X-0.45 Y-0.893 Z0.0 E7.0
G1 Z0.00707547169811
G1 X-0.463 Y-0.886 Z0.0 E6.998
G1 Z0.00707547169811
G1 X-0.476 Y-0.879 Z0.0 E6.997
G1 Z0.00707547169811
G1 X-0.491 Y-0.871 Z0.0 E6.999
G1 Z0.00707547169811
G1 X-0.506 Y-0.862 Z0.0 E6.997
G1 Z0.00707547169811
G1 X-0.522 Y-0.853 Z0.0 E7.0
G1 Z0.00707547169811
G1 X-0.538 Y-0.842 Z0.0 E6.994
G1 Z0.00707547169811
G1 X-0.556 Y-0.831 Z0.0 E6.999
G1 Z0.00707547169811
G1 X-0.573 Y-0.819 Z0.0 E6.997
G1 Z0.00707547169811
G1 X-0.592 Y-0.806 Z0.0 E7.0
G1 Z0.00707547169811
G1 X-0.61 Y-0.792 Z0.0 E6.998
G1 Z0.00707547169811
G1 X-0.629 Y-0.777 Z0.0 E6.998
G1 Z0.00707547169811
G1 X-0.648 Y-0.761 Z0.0 E6.997
G1 Z0.00707547169811
G1 X-0.667 Y-0.745 Z0.0 E7.0
G1 Z0.00707547169811
G1 X-0.686 Y-0.727 Z0.0 E6.997
G1 Z0.00707547169811
G1 X-0.704 Y-0.709 Z0.0 E6.994
G1 Z0.00707547169811
G1 X-0.722 Y-0.691 Z0.0 E6.996
G1 Z0.00707547169811
G1 X-0.74 Y-0.672 Z0.0 E6.997
G1 Z0.00707547169811
G1 X-0.757 Y-0.653 Z0.0 E6.998
G1 Z0.00707547169811
G1 X-0.773 Y-0.634 Z0.0 E6.998
G1 Z0.00707547169811
G1 X-0.788 Y-0.616 Z0.0 E7.001
G1 Z0.00707547169811
G1 X-0.802 Y-0.597 Z0.0 E6.999
G1 Z0.00707547169811
G1 X-0.815 Y-0.578 Z0.0 E6.994
G1 Z0.00707547169811
G1 X-0.828 Y-0.561 Z0.0 E7.001
G1 Z0.00707547169811
G1 X-0.839 Y-0.543 Z0.0 E6.996
G1 Z0.00707547169811
G1 X-0.85 Y-0.526 Z0.0 E6.997
G1 Z0.00707547169811
G1 X-0.86 Y-0.51 Z0.0 E6.999
G1 Z0.00707547169811
G1 X-0.869 Y-0.495 Z0.0 E7.001
G1 Z0.00707547169811
G1 X-0.877 Y-0.48 Z0.0 E6.998
G1 Z0.00707547169811
G1 X-0.884 Y-0.467 Z0.0 E6.998
G1 Z0.00707547169811
G1 X-0.891 Y-0.453 Z0.0 E6.997
G1 Z0.00707547169811
G1 X-0.897 Y-0.44 Z0.0 E6.994
G1 Z0.00707547169811
G1 X-0.903 Y-0.428 Z0.0 E6.995
G1 Z0.00707547169811
G1 X-0.909 Y-0.416 Z0.0 E6.998
G1 Z0.00707547169811
G1 X-0.914 Y-0.404 Z0.0 E6.995
G1 Z0.00707547169811
G1 X-0.919 Y-0.393 Z0.0 E6.997
G1 Z0.00707547169811
G1 X-0.924 Y-0.381 Z0.0 E6.996
G1 Z0.00707547169811
G1 X-0.929 Y-0.368 Z0.0 E6.995
G1 Z0.00707547169811
G1 X-0.934 Y-0.356 Z0.0 E6.997
G1 Z0.00707547169811
G1 X-0.939 Y-0.342 Z0.0 E6.995
G1 Z0.00707547169811
G1 X-0.944 Y-0.328 Z0.0 E6.996
G1 Z0.00707547169811
G1 X-0.949 Y-0.313 Z0.0 E6.995
G1 Z0.00707547169811
G1 X-0.954 Y-0.298 Z0.0 E6.996
G1 Z0.00707547169811
G1 X-0.96 Y-0.281 Z0.0 E7.002
G1 Z0.00707547169811
G1 X-0.965 Y-0.262 Z0.0 E7.0
G1 Z0.00707547169811
G1 X-0.97 Y-0.243 Z0.0 E7.0
G1 Z0.00707547169811
G1 X-0.975 Y-0.223 Z0.0 E7.001
G1 Z0.00707547169811
G1 X-0.979 Y-0.201 Z0.0 E6.996
G1 Z0.00707547169811
G1 X-0.984 Y-0.178 Z0.0 E7.0
G1 Z0.00707547169811
G1 X-0.988 Y-0.155 Z0.0 E7.001
G1 Z0.00707547169811
G1 X-0.991 Y-0.13 Z0.0 E6.996
G1 Z0.00707547169811
G1 X-0.994 Y-0.104 Z0.0 E6.996
G1 Z0.00707547169811
G1 X-0.997 Y-0.078 Z0.0 E7.0
G1 Z0.00707547169811
G1 X-0.998 Y-0.051 Z0.0 E6.995
G1 Z0.00707547169811
G1 X-0.999 Y-0.024 Z0.0 E6.995
G1 Z0.00707547169811
G1 X-1.0 Y0.003 Z0.0 E7.0
G1 Z0.00707547169811
G1 X-0.999 Y0.03 Z0.0 E6.996
G1 Z0.00707547169811
G1 X-0.998 Y0.057 Z0.0 E6.997
G1 Z0.00707547169811
G1 X-0.996 Y0.084 Z0.0 E6.997
G1 Z0.00707547169811
G1 X-0.994 Y0.11 Z0.0 E7.0
G1 Z0.00707547169811
G1 X-0.99 Y0.135 Z0.0 E6.994
G1 Z0.00707547169811
G1 X-0.987 Y0.16 Z0.0 E6.999
G1 Z0.00707547169811
G1 X-0.983 Y0.183 Z0.0 E6.999
G1 Z0.00707547169811
G1 X-0.978 Y0.206 Z0.0 E6.996
G1 Z0.00707547169811
G1 X-0.974 Y0.227 Z0.0 E7.001
G1 Z0.00707547169811
G1 X-0.969 Y0.248 Z0.0 E7.002
G1 Z0.00707547169811
G1 X-0.964 Y0.267 Z0.0 E7.002
G1 Z0.00707547169811
G1 X-0.958 Y0.284 Z0.0 E6.994
G1 Z0.00707547169811
G1 X-0.953 Y0.301 Z0.0 E6.996
G1 Z0.00707547169811
G1 X-0.948 Y0.317 Z0.0 E6.997
G1 Z0.00707547169811
G1 X-0.943 Y0.332 Z0.0 E6.998
G1 Z0.00707547169811
G1 X-0.938 Y0.345 Z0.0 E6.996
G1 Z0.00707547169811
G1 X-0.933 Y0.359 Z0.0 E6.998
G1 Z0.00707547169811
G1 X-0.928 Y0.371 Z0.0 E6.996
G1 Z0.00707547169811
G1 X-0.923 Y0.383 Z0.0 E6.995
G1 Z0.00707547169811
G1 X-0.918 Y0.395 Z0.0 E6.996
G1 Z0.00707547169811
G1 X-0.913 Y0.407 Z0.0 E6.997
G1 Z0.00707547169811
G1 X-0.908 Y0.419 Z0.0 E7.0
G1 Z0.00707547169811
G1 X-0.902 Y0.431 Z0.0 E6.998
G1 Z0.00707547169811
G1 X-0.896 Y0.443 Z0.0 E6.997
G1 Z0.00707547169811
G1 X-0.89 Y0.456 Z0.0 E7.0
G1 Z0.00707547169811
G1 X-0.883 Y0.47 Z0.0 E7.002
G1 Z0.00707547169811
G1 X-0.875 Y0.484 Z0.0 E7.0
G1 Z0.00707547169811
G1 X-0.867 Y0.498 Z0.0 E6.999
G1 Z0.00707547169811
G1 X-0.858 Y0.514 Z0.0 E7.001
G1 Z0.00707547169811
G1 X-0.848 Y0.53 Z0.0 E7.0
G1 Z0.00707547169811
G1 X-0.837 Y0.547 Z0.0 E6.999
G1 Z0.00707547169811
G1 X-0.825 Y0.564 Z0.0 E6.996
G1 Z0.00707547169811
G1 X-0.813 Y0.582 Z0.0 E6.999
G1 Z0.00707547169811
G1 X-0.799 Y0.601 Z0.0 E6.999
