; *************************************************
; *************************************************
; ******* File generated by Extruder Turtle *******
; ******* written by Leah Buechley and  ***********
; ******* and Franklin Pezutti-Dyer ***************
; ******* Hand and Machine Lab, UNM, 2022 *********
; *************************************************
; *************************************************
; *************** Printer parameters **************
; Printer: 3Dpotter
; Nozzle size: 3.0
; Extrude width: 3.5
; Layer height: 2.2
; Extrude rate: 3.0
; Speed: 1000
; *************** 3D Potter initialization **************
M82                             ; Absolute extrusion mode
G28                             ; Home all axes
G92 E0                          ; Reset Extruder
G1 F40000 E2000                 ; Prime Extruder, Extrude 2000mm of clay
G90 							; Absolute coordinates for X,Y,Z   
; M208 X0 Y0 Z0 S1              ; Set axis minima
; M208 X415 Y405 Z500 S0        ; Set axis maxima 
G1 X207.5 Y202.5 Z0 F10000 		; Go to the starting position (center of print bed)
M83                             ; Relative extrusion
G91                     		; Relative coordinates for X,Y,Z axes
G1 F1000
; *************** End printer initialization **************
; starting solid layer
G1 X0.0 Y3.5 Z0.0 E10.5
G1 E10
; starting polygon
G1 X0.20175 Y0.0 Z0.0 E0.60526
G1 X0.20142 Y-0.01162 Z0.0 E0.60526
G1 X0.20041 Y-0.02321 Z0.0 E0.60526
G1 X0.19874 Y-0.03472 Z0.0 E0.60526
G1 X0.19641 Y-0.04611 Z0.0 E0.60526
G1 X0.19343 Y-0.05735 Z0.0 E0.60526
G1 X0.18981 Y-0.0684 Z0.0 E0.60526
G1 X0.18555 Y-0.07922 Z0.0 E0.60526
G1 X0.18068 Y-0.08978 Z0.0 E0.60526
G1 X0.17521 Y-0.10004 Z0.0 E0.60526
G1 X0.16915 Y-0.10996 Z0.0 E0.60526
G1 X0.16254 Y-0.11953 Z0.0 E0.60526
G1 X0.15538 Y-0.12869 Z0.0 E0.60526
G1 X0.14771 Y-0.13743 Z0.0 E0.60526
G1 X0.13954 Y-0.14571 Z0.0 E0.60526
G1 X0.13092 Y-0.15351 Z0.0 E0.60526
G1 X0.12186 Y-0.1608 Z0.0 E0.60526
G1 X0.11239 Y-0.16755 Z0.0 E0.60526
G1 X0.10255 Y-0.17375 Z0.0 E0.60526
G1 X0.09237 Y-0.17937 Z0.0 E0.60526
G1 X0.08188 Y-0.18439 Z0.0 E0.60526
G1 X0.07112 Y-0.1888 Z0.0 E0.60526
G1 X0.06013 Y-0.19259 Z0.0 E0.60526
G1 X0.04893 Y-0.19573 Z0.0 E0.60526
G1 X0.03758 Y-0.19822 Z0.0 E0.60526
G1 X0.02609 Y-0.20006 Z0.0 E0.60526
G1 X0.01452 Y-0.20123 Z0.0 E0.60526
G1 X0.00291 Y-0.20173 Z0.0 E0.60526
G1 X-0.00872 Y-0.20157 Z0.0 E0.60526
G1 X-0.02032 Y-0.20073 Z0.0 E0.60526
G1 X-0.03185 Y-0.19922 Z0.0 E0.60526
G1 X-0.04327 Y-0.19706 Z0.0 E0.60526
G1 X-0.05455 Y-0.19424 Z0.0 E0.60526
G1 X-0.06565 Y-0.19077 Z0.0 E0.60526
G1 X-0.07654 Y-0.18667 Z0.0 E0.60526
G1 X-0.08716 Y-0.18195 Z0.0 E0.60526
G1 X-0.0975 Y-0.17663 Z0.0 E0.60526
G1 X-0.10752 Y-0.17072 Z0.0 E0.60526
G1 X-0.11717 Y-0.16424 Z0.0 E0.60526
G1 X-0.12644 Y-0.15722 Z0.0 E0.60526
G1 X-0.13529 Y-0.14967 Z0.0 E0.60526
G1 X-0.14369 Y-0.14163 Z0.0 E0.60526
G1 X-0.15161 Y-0.13312 Z0.0 E0.60526
G1 X-0.15902 Y-0.12416 Z0.0 E0.60526
G1 X-0.16591 Y-0.11479 Z0.0 E0.60526
G1 X-0.17225 Y-0.10504 Z0.0 E0.60526
G1 X-0.17802 Y-0.09495 Z0.0 E0.60526
G1 X-0.18319 Y-0.08453 Z0.0 E0.60526
G1 X-0.18776 Y-0.07384 Z0.0 E0.60526
G1 X-0.1917 Y-0.0629 Z0.0 E0.60526
G1 X-0.195 Y-0.05175 Z0.0 E0.60526
G1 X-0.19766 Y-0.04043 Z0.0 E0.60526
G1 X-0.19966 Y-0.02897 Z0.0 E0.60526
G1 X-0.201 Y-0.01742 Z0.0 E0.60526
G1 X-0.20167 Y-0.00581 Z0.0 E0.60526
G1 X-0.20167 Y0.00581 Z0.0 E0.60526
G1 X-0.201 Y0.01742 Z0.0 E0.60526
G1 X-0.19966 Y0.02897 Z0.0 E0.60526
G1 X-0.19766 Y0.04043 Z0.0 E0.60526
G1 X-0.195 Y0.05175 Z0.0 E0.60526
G1 X-0.1917 Y0.0629 Z0.0 E0.60526
G1 X-0.18776 Y0.07384 Z0.0 E0.60526
G1 X-0.18319 Y0.08453 Z0.0 E0.60526
G1 X-0.17802 Y0.09495 Z0.0 E0.60526
G1 X-0.17225 Y0.10504 Z0.0 E0.60526
G1 X-0.16591 Y0.11479 Z0.0 E0.60526
G1 X-0.15902 Y0.12416 Z0.0 E0.60526
G1 X-0.15161 Y0.13312 Z0.0 E0.60526
G1 X-0.14369 Y0.14163 Z0.0 E0.60526
G1 X-0.13529 Y0.14967 Z0.0 E0.60526
G1 X-0.12644 Y0.15722 Z0.0 E0.60526
G1 X-0.11717 Y0.16424 Z0.0 E0.60526
G1 X-0.10752 Y0.17072 Z0.0 E0.60526
G1 X-0.0975 Y0.17663 Z0.0 E0.60526
G1 X-0.08716 Y0.18195 Z0.0 E0.60526
G1 X-0.07654 Y0.18667 Z0.0 E0.60526
G1 X-0.06565 Y0.19077 Z0.0 E0.60526
G1 X-0.05455 Y0.19424 Z0.0 E0.60526
G1 X-0.04327 Y0.19706 Z0.0 E0.60526
G1 X-0.03185 Y0.19922 Z0.0 E0.60526
G1 X-0.02032 Y0.20073 Z0.0 E0.60526
G1 X-0.00872 Y0.20157 Z0.0 E0.60526
G1 X0.00291 Y0.20173 Z0.0 E0.60526
G1 X0.01452 Y0.20123 Z0.0 E0.60526
G1 X0.02609 Y0.20006 Z0.0 E0.60526
G1 X0.03758 Y0.19822 Z0.0 E0.60526
G1 X0.04893 Y0.19573 Z0.0 E0.60526
G1 X0.06013 Y0.19259 Z0.0 E0.60526
G1 X0.07112 Y0.1888 Z0.0 E0.60526
G1 X0.08188 Y0.18439 Z0.0 E0.60526
G1 X0.09237 Y0.17937 Z0.0 E0.60526
G1 X0.10255 Y0.17375 Z0.0 E0.60526
G1 X0.11239 Y0.16755 Z0.0 E0.60526
G1 X0.12186 Y0.1608 Z0.0 E0.60526
G1 X0.13092 Y0.15351 Z0.0 E0.60526
G1 X0.13954 Y0.14571 Z0.0 E0.60526
G1 X0.14771 Y0.13743 Z0.0 E0.60526
G1 X0.15538 Y0.12869 Z0.0 E0.60526
G1 X0.16254 Y0.11953 Z0.0 E0.60526
G1 X0.16915 Y0.10996 Z0.0 E0.60526
G1 X0.17521 Y0.10004 Z0.0 E0.60526
G1 X0.18068 Y0.08978 Z0.0 E0.60526
G1 X0.18555 Y0.07922 Z0.0 E0.60526
G1 X0.18981 Y0.0684 Z0.0 E0.60526
G1 X0.19343 Y0.05735 Z0.0 E0.60526
G1 X0.19641 Y0.04611 Z0.0 E0.60526
G1 X0.19874 Y0.03472 Z0.0 E0.60526
G1 X0.20041 Y0.02321 Z0.0 E0.60526
G1 X0.20142 Y0.01162 Z0.0 E0.60526
G1 X0.0 Y3.5 Z0.0 E10.5
; starting polygon
G1 X0.20083 Y-0.0 Z0.0 E0.6025
G1 X0.20075 Y-0.00576 Z0.0 E0.6025
G1 X0.2005 Y-0.01152 Z0.0 E0.6025
G1 X0.20009 Y-0.01726 Z0.0 E0.6025
G1 X0.19951 Y-0.023 Z0.0 E0.6025
G1 X0.19877 Y-0.02871 Z0.0 E0.6025
G1 X0.19786 Y-0.0344 Z0.0 E0.6025
G1 X0.1968 Y-0.04006 Z0.0 E0.6025
G1 X0.19557 Y-0.04569 Z0.0 E0.6025
G1 X0.19417 Y-0.05128 Z0.0 E0.6025
G1 X0.19262 Y-0.05683 Z0.0 E0.6025
G1 X0.19091 Y-0.06233 Z0.0 E0.6025
G1 X0.18905 Y-0.06779 Z0.0 E0.6025
G1 X0.18702 Y-0.07318 Z0.0 E0.6025
G1 X0.18485 Y-0.07852 Z0.0 E0.6025
G1 X0.18252 Y-0.08379 Z0.0 E0.6025
G1 X0.18004 Y-0.08899 Z0.0 E0.6025
G1 X0.17741 Y-0.09412 Z0.0 E0.6025
G1 X0.17464 Y-0.09917 Z0.0 E0.6025
G1 X0.17173 Y-0.10414 Z0.0 E0.6025
G1 X0.16867 Y-0.10902 Z0.0 E0.6025
G1 X0.16547 Y-0.11381 Z0.0 E0.6025
G1 X0.16214 Y-0.11851 Z0.0 E0.6025
G1 X0.15867 Y-0.12311 Z0.0 E0.6025
G1 X0.15507 Y-0.12762 Z0.0 E0.6025
G1 X0.15135 Y-0.13201 Z0.0 E0.6025
G1 X0.1475 Y-0.1363 Z0.0 E0.6025
G1 X0.14353 Y-0.14047 Z0.0 E0.6025
G1 X0.13944 Y-0.14453 Z0.0 E0.6025
G1 X0.13524 Y-0.14847 Z0.0 E0.6025
G1 X0.13092 Y-0.15229 Z0.0 E0.6025
G1 X0.1265 Y-0.15599 Z0.0 E0.6025
G1 X0.12197 Y-0.15955 Z0.0 E0.6025
G1 X0.11735 Y-0.16298 Z0.0 E0.6025
G1 X0.11262 Y-0.16628 Z0.0 E0.6025
G1 X0.10781 Y-0.16944 Z0.0 E0.6025
G1 X0.1029 Y-0.17247 Z0.0 E0.6025
G1 X0.09791 Y-0.17535 Z0.0 E0.6025
G1 X0.09284 Y-0.17809 Z0.0 E0.6025
G1 X0.08769 Y-0.18068 Z0.0 E0.6025
G1 X0.08247 Y-0.18312 Z0.0 E0.6025
G1 X0.07719 Y-0.18541 Z0.0 E0.6025
G1 X0.07184 Y-0.18754 Z0.0 E0.6025
G1 X0.06643 Y-0.18953 Z0.0 E0.6025
G1 X0.06096 Y-0.19136 Z0.0 E0.6025
G1 X0.05545 Y-0.19303 Z0.0 E0.6025
G1 X0.04989 Y-0.19454 Z0.0 E0.6025
G1 X0.04429 Y-0.19589 Z0.0 E0.6025
G1 X0.03865 Y-0.19708 Z0.0 E0.6025
G1 X0.03298 Y-0.19811 Z0.0 E0.6025
G1 X0.02728 Y-0.19897 Z0.0 E0.6025
G1 X0.02157 Y-0.19967 Z0.0 E0.6025
G1 X0.01583 Y-0.20021 Z0.0 E0.6025
G1 X0.01008 Y-0.20058 Z0.0 E0.6025
G1 X0.00432 Y-0.20079 Z0.0 E0.6025
G1 X-0.00144 Y-0.20083 Z0.0 E0.6025
G1 X-0.0072 Y-0.2007 Z0.0 E0.6025
G1 X-0.01296 Y-0.20041 Z0.0 E0.6025
G1 X-0.0187 Y-0.19996 Z0.0 E0.6025
G1 X-0.02443 Y-0.19934 Z0.0 E0.6025
G1 X-0.03014 Y-0.19856 Z0.0 E0.6025
G1 X-0.03582 Y-0.19761 Z0.0 E0.6025
G1 X-0.04147 Y-0.1965 Z0.0 E0.6025
G1 X-0.04709 Y-0.19523 Z0.0 E0.6025
G1 X-0.05267 Y-0.1938 Z0.0 E0.6025
G1 X-0.05821 Y-0.19221 Z0.0 E0.6025
G1 X-0.0637 Y-0.19046 Z0.0 E0.6025
G1 X-0.06914 Y-0.18856 Z0.0 E0.6025
G1 X-0.07452 Y-0.18649 Z0.0 E0.6025
G1 X-0.07984 Y-0.18428 Z0.0 E0.6025
G1 X-0.08509 Y-0.18191 Z0.0 E0.6025
G1 X-0.09028 Y-0.1794 Z0.0 E0.6025
G1 X-0.09539 Y-0.17673 Z0.0 E0.6025
G1 X-0.10042 Y-0.17393 Z0.0 E0.6025
G1 X-0.10536 Y-0.17097 Z0.0 E0.6025
G1 X-0.11023 Y-0.16788 Z0.0 E0.6025
G1 X-0.115 Y-0.16465 Z0.0 E0.6025
G1 X-0.11967 Y-0.16128 Z0.0 E0.6025
G1 X-0.12425 Y-0.15778 Z0.0 E0.6025
G1 X-0.12872 Y-0.15415 Z0.0 E0.6025
G1 X-0.13309 Y-0.1504 Z0.0 E0.6025
G1 X-0.13735 Y-0.14652 Z0.0 E0.6025
G1 X-0.1415 Y-0.14252 Z0.0 E0.6025
G1 X-0.14553 Y-0.1384 Z0.0 E0.6025
G1 X-0.14944 Y-0.13417 Z0.0 E0.6025
G1 X-0.15323 Y-0.12983 Z0.0 E0.6025
G1 X-0.15689 Y-0.12538 Z0.0 E0.6025
G1 X-0.16042 Y-0.12083 Z0.0 E0.6025
G1 X-0.16382 Y-0.11617 Z0.0 E0.6025
G1 X-0.16709 Y-0.11143 Z0.0 E0.6025
G1 X-0.17021 Y-0.10659 Z0.0 E0.6025
G1 X-0.1732 Y-0.10166 Z0.0 E0.6025
G1 X-0.17605 Y-0.09665 Z0.0 E0.6025
G1 X-0.17875 Y-0.09156 Z0.0 E0.6025
G1 X-0.1813 Y-0.0864 Z0.0 E0.6025
G1 X-0.1837 Y-0.08116 Z0.0 E0.6025
G1 X-0.18596 Y-0.07586 Z0.0 E0.6025
G1 X-0.18806 Y-0.07049 Z0.0 E0.6025
G1 X-0.19 Y-0.06507 Z0.0 E0.6025
G1 X-0.19179 Y-0.05959 Z0.0 E0.6025
G1 X-0.19342 Y-0.05406 Z0.0 E0.6025
G1 X-0.19489 Y-0.04849 Z0.0 E0.6025
G1 X-0.1962 Y-0.04288 Z0.0 E0.6025
G1 X-0.19735 Y-0.03724 Z0.0 E0.6025
G1 X-0.19834 Y-0.03156 Z0.0 E0.6025
G1 X-0.19916 Y-0.02586 Z0.0 E0.6025
G1 X-0.19982 Y-0.02013 Z0.0 E0.6025
G1 X-0.20032 Y-0.01439 Z0.0 E0.6025
G1 X-0.20065 Y-0.00864 Z0.0 E0.6025
G1 X-0.20081 Y-0.00288 Z0.0 E0.6025
G1 X-0.20081 Y0.00288 Z0.0 E0.6025
G1 X-0.20065 Y0.00864 Z0.0 E0.6025
G1 X-0.20032 Y0.01439 Z0.0 E0.6025
G1 X-0.19982 Y0.02013 Z0.0 E0.6025
G1 X-0.19916 Y0.02586 Z0.0 E0.6025
G1 X-0.19834 Y0.03156 Z0.0 E0.6025
G1 X-0.19735 Y0.03724 Z0.0 E0.6025
G1 X-0.1962 Y0.04288 Z0.0 E0.6025
G1 X-0.19489 Y0.04849 Z0.0 E0.6025
G1 X-0.19342 Y0.05406 Z0.0 E0.6025
G1 X-0.19179 Y0.05959 Z0.0 E0.6025
G1 X-0.19 Y0.06507 Z0.0 E0.6025
G1 X-0.18806 Y0.07049 Z0.0 E0.6025
G1 X-0.18596 Y0.07586 Z0.0 E0.6025
G1 X-0.1837 Y0.08116 Z0.0 E0.6025
G1 X-0.1813 Y0.0864 Z0.0 E0.6025
G1 X-0.17875 Y0.09156 Z0.0 E0.6025
G1 X-0.17605 Y0.09665 Z0.0 E0.6025
G1 X-0.1732 Y0.10166 Z0.0 E0.6025
G1 X-0.17021 Y0.10659 Z0.0 E0.6025
G1 X-0.16709 Y0.11143 Z0.0 E0.6025
G1 X-0.16382 Y0.11617 Z0.0 E0.6025
G1 X-0.16042 Y0.12083 Z0.0 E0.6025
G1 X-0.15689 Y0.12538 Z0.0 E0.6025
G1 X-0.15323 Y0.12983 Z0.0 E0.6025
G1 X-0.14944 Y0.13417 Z0.0 E0.6025
G1 X-0.14553 Y0.1384 Z0.0 E0.6025
G1 X-0.1415 Y0.14252 Z0.0 E0.6025
G1 X-0.13735 Y0.14652 Z0.0 E0.6025
G1 X-0.13309 Y0.1504 Z0.0 E0.6025
G1 X-0.12872 Y0.15415 Z0.0 E0.6025
G1 X-0.12425 Y0.15778 Z0.0 E0.6025
G1 X-0.11967 Y0.16128 Z0.0 E0.6025
G1 X-0.115 Y0.16465 Z0.0 E0.6025
G1 X-0.11023 Y0.16788 Z0.0 E0.6025
G1 X-0.10536 Y0.17097 Z0.0 E0.6025
G1 X-0.10042 Y0.17393 Z0.0 E0.6025
G1 X-0.09539 Y0.17673 Z0.0 E0.6025
G1 X-0.09028 Y0.1794 Z0.0 E0.6025
G1 X-0.08509 Y0.18191 Z0.0 E0.6025
G1 X-0.07984 Y0.18428 Z0.0 E0.6025
G1 X-0.07452 Y0.18649 Z0.0 E0.6025
G1 X-0.06914 Y0.18856 Z0.0 E0.6025
G1 X-0.0637 Y0.19046 Z0.0 E0.6025
G1 X-0.05821 Y0.19221 Z0.0 E0.6025
G1 X-0.05267 Y0.1938 Z0.0 E0.6025
G1 X-0.04709 Y0.19523 Z0.0 E0.6025
G1 X-0.04147 Y0.1965 Z0.0 E0.6025
G1 X-0.03582 Y0.19761 Z0.0 E0.6025
G1 X-0.03014 Y0.19856 Z0.0 E0.6025
G1 X-0.02443 Y0.19934 Z0.0 E0.6025
G1 X-0.0187 Y0.19996 Z0.0 E0.6025
G1 X-0.01296 Y0.20041 Z0.0 E0.6025
G1 X-0.0072 Y0.2007 Z0.0 E0.6025
G1 X-0.00144 Y0.20083 Z0.0 E0.6025
G1 X0.00432 Y0.20079 Z0.0 E0.6025
G1 X0.01008 Y0.20058 Z0.0 E0.6025
G1 X0.01583 Y0.20021 Z0.0 E0.6025
G1 X0.02157 Y0.19967 Z0.0 E0.6025
G1 X0.02728 Y0.19897 Z0.0 E0.6025
G1 X0.03298 Y0.19811 Z0.0 E0.6025
G1 X0.03865 Y0.19708 Z0.0 E0.6025
G1 X0.04429 Y0.19589 Z0.0 E0.6025
G1 X0.04989 Y0.19454 Z0.0 E0.6025
G1 X0.05545 Y0.19303 Z0.0 E0.6025
G1 X0.06096 Y0.19136 Z0.0 E0.6025
G1 X0.06643 Y0.18953 Z0.0 E0.6025
G1 X0.07184 Y0.18754 Z0.0 E0.6025
G1 X0.07719 Y0.18541 Z0.0 E0.6025
G1 X0.08247 Y0.18312 Z0.0 E0.6025
G1 X0.08769 Y0.18068 Z0.0 E0.6025
G1 X0.09284 Y0.17809 Z0.0 E0.6025
G1 X0.09791 Y0.17535 Z0.0 E0.6025
G1 X0.1029 Y0.17247 Z0.0 E0.6025
G1 X0.10781 Y0.16944 Z0.0 E0.6025
G1 X0.11262 Y0.16628 Z0.0 E0.6025
G1 X0.11735 Y0.16298 Z0.0 E0.6025
G1 X0.12197 Y0.15955 Z0.0 E0.6025
G1 X0.1265 Y0.15599 Z0.0 E0.6025
G1 X0.13092 Y0.15229 Z0.0 E0.6025
G1 X0.13524 Y0.14847 Z0.0 E0.6025
G1 X0.13944 Y0.14453 Z0.0 E0.6025
G1 X0.14353 Y0.14047 Z0.0 E0.6025
G1 X0.1475 Y0.1363 Z0.0 E0.6025
G1 X0.15135 Y0.13201 Z0.0 E0.6025
G1 X0.15507 Y0.12762 Z0.0 E0.6025
G1 X0.15867 Y0.12311 Z0.0 E0.6025
G1 X0.16214 Y0.11851 Z0.0 E0.6025
G1 X0.16547 Y0.11381 Z0.0 E0.6025
G1 X0.16867 Y0.10902 Z0.0 E0.6025
G1 X0.17173 Y0.10414 Z0.0 E0.6025
G1 X0.17464 Y0.09917 Z0.0 E0.6025
G1 X0.17741 Y0.09412 Z0.0 E0.6025
G1 X0.18004 Y0.08899 Z0.0 E0.6025
G1 X0.18252 Y0.08379 Z0.0 E0.6025
G1 X0.18485 Y0.07852 Z0.0 E0.6025
G1 X0.18702 Y0.07318 Z0.0 E0.6025
G1 X0.18905 Y0.06779 Z0.0 E0.6025
G1 X0.19091 Y0.06233 Z0.0 E0.6025
G1 X0.19262 Y0.05683 Z0.0 E0.6025
G1 X0.19417 Y0.05128 Z0.0 E0.6025
G1 X0.19557 Y0.04569 Z0.0 E0.6025
G1 X0.1968 Y0.04006 Z0.0 E0.6025
G1 X0.19786 Y0.0344 Z0.0 E0.6025
G1 X0.19877 Y0.02871 Z0.0 E0.6025
G1 X0.19951 Y0.023 Z0.0 E0.6025
G1 X0.20009 Y0.01726 Z0.0 E0.6025
G1 X0.2005 Y0.01152 Z0.0 E0.6025
G1 X0.20075 Y0.00576 Z0.0 E0.6025
G1 X-0.0 Y3.5 Z0.0 E10.5
; starting polygon
G1 X0.20053 Y0.0 Z0.0 E0.60158
G1 X0.20049 Y-0.00383 Z0.0 E0.60158
G1 X0.20038 Y-0.00766 Z0.0 E0.60158
G1 X0.2002 Y-0.01148 Z0.0 E0.60158
G1 X0.19994 Y-0.0153 Z0.0 E0.60158
G1 X0.19961 Y-0.01912 Z0.0 E0.60158
G1 X0.19921 Y-0.02293 Z0.0 E0.60158
G1 X0.19874 Y-0.02673 Z0.0 E0.60158
G1 X0.19819 Y-0.03052 Z0.0 E0.60158
G1 X0.19757 Y-0.0343 Z0.0 E0.60158
G1 X0.19688 Y-0.03806 Z0.0 E0.60158
G1 X0.19612 Y-0.04182 Z0.0 E0.60158
G1 X0.19528 Y-0.04555 Z0.0 E0.60158
G1 X0.19438 Y-0.04928 Z0.0 E0.60158
G1 X0.1934 Y-0.05298 Z0.0 E0.60158
G1 X0.19236 Y-0.05666 Z0.0 E0.60158
G1 X0.19124 Y-0.06033 Z0.0 E0.60158
G1 X0.19005 Y-0.06397 Z0.0 E0.60158
G1 X0.1888 Y-0.06758 Z0.0 E0.60158
G1 X0.18747 Y-0.07118 Z0.0 E0.60158
G1 X0.18608 Y-0.07474 Z0.0 E0.60158
G1 X0.18462 Y-0.07828 Z0.0 E0.60158
G1 X0.18309 Y-0.08179 Z0.0 E0.60158
G1 X0.18149 Y-0.08528 Z0.0 E0.60158
G1 X0.17983 Y-0.08873 Z0.0 E0.60158
G1 X0.1781 Y-0.09214 Z0.0 E0.60158
G1 X0.17631 Y-0.09553 Z0.0 E0.60158
G1 X0.17445 Y-0.09888 Z0.0 E0.60158
G1 X0.17253 Y-0.10219 Z0.0 E0.60158
G1 X0.17055 Y-0.10547 Z0.0 E0.60158
G1 X0.16851 Y-0.10871 Z0.0 E0.60158
G1 X0.1664 Y-0.1119 Z0.0 E0.60158
G1 X0.16423 Y-0.11506 Z0.0 E0.60158
G1 X0.162 Y-0.11818 Z0.0 E0.60158
G1 X0.15972 Y-0.12125 Z0.0 E0.60158
G1 X0.15737 Y-0.12428 Z0.0 E0.60158
G1 X0.15497 Y-0.12726 Z0.0 E0.60158
G1 X0.15251 Y-0.1302 Z0.0 E0.60158
G1 X0.15 Y-0.13308 Z0.0 E0.60158
G1 X0.14743 Y-0.13592 Z0.0 E0.60158
G1 X0.14481 Y-0.13872 Z0.0 E0.60158
G1 X0.14213 Y-0.14146 Z0.0 E0.60158
G1 X0.1394 Y-0.14414 Z0.0 E0.60158
G1 X0.13663 Y-0.14678 Z0.0 E0.60158
G1 X0.1338 Y-0.14936 Z0.0 E0.60158
G1 X0.13092 Y-0.15189 Z0.0 E0.60158
G1 X0.128 Y-0.15436 Z0.0 E0.60158
G1 X0.12503 Y-0.15678 Z0.0 E0.60158
G1 X0.12201 Y-0.15914 Z0.0 E0.60158
G1 X0.11895 Y-0.16144 Z0.0 E0.60158
G1 X0.11584 Y-0.16368 Z0.0 E0.60158
G1 X0.1127 Y-0.16586 Z0.0 E0.60158
G1 X0.10951 Y-0.16798 Z0.0 E0.60158
G1 X0.10628 Y-0.17005 Z0.0 E0.60158
G1 X0.10301 Y-0.17204 Z0.0 E0.60158
G1 X0.09971 Y-0.17398 Z0.0 E0.60158
G1 X0.09637 Y-0.17585 Z0.0 E0.60158
G1 X0.09299 Y-0.17766 Z0.0 E0.60158
G1 X0.08958 Y-0.1794 Z0.0 E0.60158
G1 X0.08614 Y-0.18108 Z0.0 E0.60158
G1 X0.08267 Y-0.18269 Z0.0 E0.60158
G1 X0.07916 Y-0.18424 Z0.0 E0.60158
G1 X0.07563 Y-0.18572 Z0.0 E0.60158
G1 X0.07207 Y-0.18713 Z0.0 E0.60158
G1 X0.06848 Y-0.18847 Z0.0 E0.60158
G1 X0.06487 Y-0.18974 Z0.0 E0.60158
G1 X0.06124 Y-0.19095 Z0.0 E0.60158
G1 X0.05758 Y-0.19208 Z0.0 E0.60158
G1 X0.0539 Y-0.19315 Z0.0 E0.60158
G1 X0.0502 Y-0.19414 Z0.0 E0.60158
G1 X0.04649 Y-0.19506 Z0.0 E0.60158
G1 X0.04275 Y-0.19592 Z0.0 E0.60158
G1 X0.039 Y-0.1967 Z0.0 E0.60158
G1 X0.03524 Y-0.19741 Z0.0 E0.60158
G1 X0.03146 Y-0.19804 Z0.0 E0.60158
G1 X0.02768 Y-0.19861 Z0.0 E0.60158
G1 X0.02388 Y-0.1991 Z0.0 E0.60158
G1 X0.02007 Y-0.19952 Z0.0 E0.60158
G1 X0.01626 Y-0.19987 Z0.0 E0.60158
G1 X0.01244 Y-0.20014 Z0.0 E0.60158
G1 X0.00861 Y-0.20034 Z0.0 E0.60158
G1 X0.00479 Y-0.20047 Z0.0 E0.60158
G1 X0.00096 Y-0.20052 Z0.0 E0.60158
G1 X-0.00287 Y-0.20051 Z0.0 E0.60158
G1 X-0.0067 Y-0.20042 Z0.0 E0.60158
G1 X-0.01053 Y-0.20025 Z0.0 E0.60158
G1 X-0.01435 Y-0.20001 Z0.0 E0.60158
G1 X-0.01817 Y-0.1997 Z0.0 E0.60158
G1 X-0.02198 Y-0.19932 Z0.0 E0.60158
G1 X-0.02578 Y-0.19886 Z0.0 E0.60158
G1 X-0.02957 Y-0.19833 Z0.0 E0.60158
G1 X-0.03335 Y-0.19773 Z0.0 E0.60158
G1 X-0.03712 Y-0.19706 Z0.0 E0.60158
G1 X-0.04088 Y-0.19632 Z0.0 E0.60158
G1 X-0.04462 Y-0.1955 Z0.0 E0.60158
G1 X-0.04835 Y-0.19461 Z0.0 E0.60158
G1 X-0.05205 Y-0.19365 Z0.0 E0.60158
G1 X-0.05574 Y-0.19262 Z0.0 E0.60158
G1 X-0.05941 Y-0.19152 Z0.0 E0.60158
G1 X-0.06306 Y-0.19035 Z0.0 E0.60158
G1 X-0.06668 Y-0.18912 Z0.0 E0.60158
G1 X-0.07028 Y-0.18781 Z0.0 E0.60158
G1 X-0.07385 Y-0.18643 Z0.0 E0.60158
G1 X-0.0774 Y-0.18499 Z0.0 E0.60158
G1 X-0.08092 Y-0.18348 Z0.0 E0.60158
G1 X-0.08441 Y-0.1819 Z0.0 E0.60158
G1 X-0.08787 Y-0.18025 Z0.0 E0.60158
G1 X-0.09129 Y-0.17854 Z0.0 E0.60158
G1 X-0.09469 Y-0.17676 Z0.0 E0.60158
G1 X-0.09804 Y-0.17492 Z0.0 E0.60158
G1 X-0.10137 Y-0.17302 Z0.0 E0.60158
G1 X-0.10465 Y-0.17105 Z0.0 E0.60158
G1 X-0.1079 Y-0.16902 Z0.0 E0.60158
G1 X-0.11111 Y-0.16693 Z0.0 E0.60158
G1 X-0.11428 Y-0.16478 Z0.0 E0.60158
G1 X-0.1174 Y-0.16257 Z0.0 E0.60158
G1 X-0.12048 Y-0.1603 Z0.0 E0.60158
G1 X-0.12352 Y-0.15797 Z0.0 E0.60158
G1 X-0.12652 Y-0.15558 Z0.0 E0.60158
G1 X-0.12947 Y-0.15313 Z0.0 E0.60158
G1 X-0.13237 Y-0.15063 Z0.0 E0.60158
G1 X-0.13522 Y-0.14808 Z0.0 E0.60158
G1 X-0.13802 Y-0.14547 Z0.0 E0.60158
G1 X-0.14078 Y-0.14281 Z0.0 E0.60158
G1 X-0.14348 Y-0.14009 Z0.0 E0.60158
G1 X-0.14613 Y-0.13733 Z0.0 E0.60158
G1 X-0.14872 Y-0.13451 Z0.0 E0.60158
G1 X-0.15126 Y-0.13165 Z0.0 E0.60158
G1 X-0.15375 Y-0.12873 Z0.0 E0.60158
G1 X-0.15618 Y-0.12577 Z0.0 E0.60158
G1 X-0.15855 Y-0.12277 Z0.0 E0.60158
G1 X-0.16087 Y-0.11972 Z0.0 E0.60158
G1 X-0.16313 Y-0.11662 Z0.0 E0.60158
G1 X-0.16532 Y-0.11349 Z0.0 E0.60158
G1 X-0.16746 Y-0.11031 Z0.0 E0.60158
G1 X-0.16954 Y-0.10709 Z0.0 E0.60158
G1 X-0.17155 Y-0.10383 Z0.0 E0.60158
G1 X-0.1735 Y-0.10054 Z0.0 E0.60158
G1 X-0.17539 Y-0.09721 Z0.0 E0.60158
G1 X-0.17721 Y-0.09384 Z0.0 E0.60158
G1 X-0.17897 Y-0.09044 Z0.0 E0.60158
G1 X-0.18067 Y-0.08701 Z0.0 E0.60158
G1 X-0.1823 Y-0.08354 Z0.0 E0.60158
G1 X-0.18386 Y-0.08004 Z0.0 E0.60158
G1 X-0.18535 Y-0.07652 Z0.0 E0.60158
G1 X-0.18678 Y-0.07296 Z0.0 E0.60158
G1 X-0.18814 Y-0.06938 Z0.0 E0.60158
G1 X-0.18943 Y-0.06578 Z0.0 E0.60158
G1 X-0.19065 Y-0.06215 Z0.0 E0.60158
G1 X-0.19181 Y-0.0585 Z0.0 E0.60158
G1 X-0.19289 Y-0.05482 Z0.0 E0.60158
G1 X-0.1939 Y-0.05113 Z0.0 E0.60158
G1 X-0.19484 Y-0.04742 Z0.0 E0.60158
G1 X-0.19571 Y-0.04369 Z0.0 E0.60158
G1 X-0.19651 Y-0.03994 Z0.0 E0.60158
G1 X-0.19724 Y-0.03618 Z0.0 E0.60158
G1 X-0.19789 Y-0.03241 Z0.0 E0.60158
G1 X-0.19847 Y-0.02862 Z0.0 E0.60158
G1 X-0.19898 Y-0.02483 Z0.0 E0.60158
G1 X-0.19942 Y-0.02102 Z0.0 E0.60158
G1 X-0.19979 Y-0.01721 Z0.0 E0.60158
G1 X-0.20008 Y-0.01339 Z0.0 E0.60158
G1 X-0.2003 Y-0.00957 Z0.0 E0.60158
G1 X-0.20044 Y-0.00574 Z0.0 E0.60158
G1 X-0.20052 Y-0.00191 Z0.0 E0.60158
G1 X-0.20052 Y0.00191 Z0.0 E0.60158
G1 X-0.20044 Y0.00574 Z0.0 E0.60158
G1 X-0.2003 Y0.00957 Z0.0 E0.60158
G1 X-0.20008 Y0.01339 Z0.0 E0.60158
G1 X-0.19979 Y0.01721 Z0.0 E0.60158
G1 X-0.19942 Y0.02102 Z0.0 E0.60158
G1 X-0.19898 Y0.02483 Z0.0 E0.60158
G1 X-0.19847 Y0.02862 Z0.0 E0.60158
G1 X-0.19789 Y0.03241 Z0.0 E0.60158
G1 X-0.19724 Y0.03618 Z0.0 E0.60158
G1 X-0.19651 Y0.03994 Z0.0 E0.60158
G1 X-0.19571 Y0.04369 Z0.0 E0.60158
G1 X-0.19484 Y0.04742 Z0.0 E0.60158
G1 X-0.1939 Y0.05113 Z0.0 E0.60158
G1 X-0.19289 Y0.05482 Z0.0 E0.60158
G1 X-0.19181 Y0.0585 Z0.0 E0.60158
G1 X-0.19065 Y0.06215 Z0.0 E0.60158
G1 X-0.18943 Y0.06578 Z0.0 E0.60158
G1 X-0.18814 Y0.06938 Z0.0 E0.60158
G1 X-0.18678 Y0.07296 Z0.0 E0.60158
G1 X-0.18535 Y0.07652 Z0.0 E0.60158
G1 X-0.18386 Y0.08004 Z0.0 E0.60158
G1 X-0.1823 Y0.08354 Z0.0 E0.60158
G1 X-0.18067 Y0.08701 Z0.0 E0.60158
G1 X-0.17897 Y0.09044 Z0.0 E0.60158
G1 X-0.17721 Y0.09384 Z0.0 E0.60158
G1 X-0.17539 Y0.09721 Z0.0 E0.60158
G1 X-0.1735 Y0.10054 Z0.0 E0.60158
G1 X-0.17155 Y0.10383 Z0.0 E0.60158
G1 X-0.16954 Y0.10709 Z0.0 E0.60158
G1 X-0.16746 Y0.11031 Z0.0 E0.60158
G1 X-0.16532 Y0.11349 Z0.0 E0.60158
G1 X-0.16313 Y0.11662 Z0.0 E0.60158
G1 X-0.16087 Y0.11972 Z0.0 E0.60158
G1 X-0.15855 Y0.12277 Z0.0 E0.60158
G1 X-0.15618 Y0.12577 Z0.0 E0.60158
G1 X-0.15375 Y0.12873 Z0.0 E0.60158
G1 X-0.15126 Y0.13165 Z0.0 E0.60158
G1 X-0.14872 Y0.13451 Z0.0 E0.60158
G1 X-0.14613 Y0.13733 Z0.0 E0.60158
G1 X-0.14348 Y0.14009 Z0.0 E0.60158
G1 X-0.14078 Y0.14281 Z0.0 E0.60158
G1 X-0.13802 Y0.14547 Z0.0 E0.60158
G1 X-0.13522 Y0.14808 Z0.0 E0.60158
G1 X-0.13237 Y0.15063 Z0.0 E0.60158
G1 X-0.12947 Y0.15313 Z0.0 E0.60158
G1 X-0.12652 Y0.15558 Z0.0 E0.60158
G1 X-0.12352 Y0.15797 Z0.0 E0.60158
G1 X-0.12048 Y0.1603 Z0.0 E0.60158
G1 X-0.1174 Y0.16257 Z0.0 E0.60158
G1 X-0.11428 Y0.16478 Z0.0 E0.60158
G1 X-0.11111 Y0.16693 Z0.0 E0.60158
G1 X-0.1079 Y0.16902 Z0.0 E0.60158
G1 X-0.10465 Y0.17105 Z0.0 E0.60158
G1 X-0.10137 Y0.17302 Z0.0 E0.60158
G1 X-0.09804 Y0.17492 Z0.0 E0.60158
G1 X-0.09469 Y0.17676 Z0.0 E0.60158
G1 X-0.09129 Y0.17854 Z0.0 E0.60158
G1 X-0.08787 Y0.18025 Z0.0 E0.60158
G1 X-0.08441 Y0.1819 Z0.0 E0.60158
G1 X-0.08092 Y0.18348 Z0.0 E0.60158
G1 X-0.0774 Y0.18499 Z0.0 E0.60158
G1 X-0.07385 Y0.18643 Z0.0 E0.60158
G1 X-0.07028 Y0.18781 Z0.0 E0.60158
G1 X-0.06668 Y0.18912 Z0.0 E0.60158
G1 X-0.06306 Y0.19035 Z0.0 E0.60158
G1 X-0.05941 Y0.19152 Z0.0 E0.60158
G1 X-0.05574 Y0.19262 Z0.0 E0.60158
G1 X-0.05205 Y0.19365 Z0.0 E0.60158
G1 X-0.04835 Y0.19461 Z0.0 E0.60158
G1 X-0.04462 Y0.1955 Z0.0 E0.60158
G1 X-0.04088 Y0.19632 Z0.0 E0.60158
G1 X-0.03712 Y0.19706 Z0.0 E0.60158
G1 X-0.03335 Y0.19773 Z0.0 E0.60158
G1 X-0.02957 Y0.19833 Z0.0 E0.60158
G1 X-0.02578 Y0.19886 Z0.0 E0.60158
G1 X-0.02198 Y0.19932 Z0.0 E0.60158
G1 X-0.01817 Y0.1997 Z0.0 E0.60158
G1 X-0.01435 Y0.20001 Z0.0 E0.60158
G1 X-0.01053 Y0.20025 Z0.0 E0.60158
G1 X-0.0067 Y0.20042 Z0.0 E0.60158
G1 X-0.00287 Y0.20051 Z0.0 E0.60158
G1 X0.00096 Y0.20052 Z0.0 E0.60158
G1 X0.00479 Y0.20047 Z0.0 E0.60158
G1 X0.00861 Y0.20034 Z0.0 E0.60158
G1 X0.01244 Y0.20014 Z0.0 E0.60158
G1 X0.01626 Y0.19987 Z0.0 E0.60158
G1 X0.02007 Y0.19952 Z0.0 E0.60158
G1 X0.02388 Y0.1991 Z0.0 E0.60158
G1 X0.02768 Y0.19861 Z0.0 E0.60158
G1 X0.03146 Y0.19804 Z0.0 E0.60158
G1 X0.03524 Y0.19741 Z0.0 E0.60158
G1 X0.039 Y0.1967 Z0.0 E0.60158
G1 X0.04275 Y0.19592 Z0.0 E0.60158
G1 X0.04649 Y0.19506 Z0.0 E0.60158
G1 X0.0502 Y0.19414 Z0.0 E0.60158
G1 X0.0539 Y0.19315 Z0.0 E0.60158
G1 X0.05758 Y0.19208 Z0.0 E0.60158
G1 X0.06124 Y0.19095 Z0.0 E0.60158
G1 X0.06487 Y0.18974 Z0.0 E0.60158
G1 X0.06848 Y0.18847 Z0.0 E0.60158
G1 X0.07207 Y0.18713 Z0.0 E0.60158
G1 X0.07563 Y0.18572 Z0.0 E0.60158
G1 X0.07916 Y0.18424 Z0.0 E0.60158
G1 X0.08267 Y0.18269 Z0.0 E0.60158
G1 X0.08614 Y0.18108 Z0.0 E0.60158
G1 X0.08958 Y0.1794 Z0.0 E0.60158
G1 X0.09299 Y0.17766 Z0.0 E0.60158
G1 X0.09637 Y0.17585 Z0.0 E0.60158
G1 X0.09971 Y0.17398 Z0.0 E0.60158
G1 X0.10301 Y0.17204 Z0.0 E0.60158
G1 X0.10628 Y0.17005 Z0.0 E0.60158
G1 X0.10951 Y0.16798 Z0.0 E0.60158
G1 X0.1127 Y0.16586 Z0.0 E0.60158
G1 X0.11584 Y0.16368 Z0.0 E0.60158
G1 X0.11895 Y0.16144 Z0.0 E0.60158
G1 X0.12201 Y0.15914 Z0.0 E0.60158
G1 X0.12503 Y0.15678 Z0.0 E0.60158
G1 X0.128 Y0.15436 Z0.0 E0.60158
G1 X0.13092 Y0.15189 Z0.0 E0.60158
G1 X0.1338 Y0.14936 Z0.0 E0.60158
G1 X0.13663 Y0.14678 Z0.0 E0.60158
G1 X0.1394 Y0.14414 Z0.0 E0.60158
G1 X0.14213 Y0.14146 Z0.0 E0.60158
G1 X0.14481 Y0.13872 Z0.0 E0.60158
G1 X0.14743 Y0.13592 Z0.0 E0.60158
G1 X0.15 Y0.13308 Z0.0 E0.60158
G1 X0.15251 Y0.1302 Z0.0 E0.60158
G1 X0.15497 Y0.12726 Z0.0 E0.60158
G1 X0.15737 Y0.12428 Z0.0 E0.60158
G1 X0.15972 Y0.12125 Z0.0 E0.60158
G1 X0.162 Y0.11818 Z0.0 E0.60158
G1 X0.16423 Y0.11506 Z0.0 E0.60158
G1 X0.1664 Y0.1119 Z0.0 E0.60158
G1 X0.16851 Y0.10871 Z0.0 E0.60158
G1 X0.17055 Y0.10547 Z0.0 E0.60158
G1 X0.17253 Y0.10219 Z0.0 E0.60158
G1 X0.17445 Y0.09888 Z0.0 E0.60158
G1 X0.17631 Y0.09553 Z0.0 E0.60158
G1 X0.1781 Y0.09214 Z0.0 E0.60158
G1 X0.17983 Y0.08873 Z0.0 E0.60158
G1 X0.18149 Y0.08528 Z0.0 E0.60158
G1 X0.18309 Y0.08179 Z0.0 E0.60158
G1 X0.18462 Y0.07828 Z0.0 E0.60158
G1 X0.18608 Y0.07474 Z0.0 E0.60158
G1 X0.18747 Y0.07118 Z0.0 E0.60158
G1 X0.1888 Y0.06758 Z0.0 E0.60158
G1 X0.19005 Y0.06397 Z0.0 E0.60158
G1 X0.19124 Y0.06033 Z0.0 E0.60158
G1 X0.19236 Y0.05666 Z0.0 E0.60158
G1 X0.1934 Y0.05298 Z0.0 E0.60158
G1 X0.19438 Y0.04928 Z0.0 E0.60158
G1 X0.19528 Y0.04555 Z0.0 E0.60158
G1 X0.19612 Y0.04182 Z0.0 E0.60158
G1 X0.19688 Y0.03806 Z0.0 E0.60158
G1 X0.19757 Y0.0343 Z0.0 E0.60158
G1 X0.19819 Y0.03052 Z0.0 E0.60158
G1 X0.19874 Y0.02673 Z0.0 E0.60158
G1 X0.19921 Y0.02293 Z0.0 E0.60158
G1 X0.19961 Y0.01912 Z0.0 E0.60158
G1 X0.19994 Y0.0153 Z0.0 E0.60158
G1 X0.2002 Y0.01148 Z0.0 E0.60158
G1 X0.20038 Y0.00766 Z0.0 E0.60158
G1 X0.20049 Y0.00383 Z0.0 E0.60158
G1 X-0.0 Y3.5 Z0.0 E10.5
; starting polygon
G1 X0.24435 Y0.0 Z0.0 E0.73304
G1 X0.24431 Y-0.00426 Z0.0 E0.73304
G1 X0.2442 Y-0.00853 Z0.0 E0.73304
G1 X0.24401 Y-0.01279 Z0.0 E0.73304
G1 X0.24375 Y-0.01704 Z0.0 E0.73304
G1 X0.24342 Y-0.0213 Z0.0 E0.73304
G1 X0.24301 Y-0.02554 Z0.0 E0.73304
G1 X0.24252 Y-0.02978 Z0.0 E0.73304
G1 X0.24197 Y-0.03401 Z0.0 E0.73304
G1 X0.24134 Y-0.03822 Z0.0 E0.73304
G1 X0.24063 Y-0.04243 Z0.0 E0.73304
G1 X0.23986 Y-0.04662 Z0.0 E0.73304
G1 X0.23901 Y-0.0508 Z0.0 E0.73304
G1 X0.23808 Y-0.05497 Z0.0 E0.73304
G1 X0.23709 Y-0.05911 Z0.0 E0.73304
G1 X0.23602 Y-0.06324 Z0.0 E0.73304
G1 X0.23488 Y-0.06735 Z0.0 E0.73304
G1 X0.23367 Y-0.07144 Z0.0 E0.73304
G1 X0.23239 Y-0.07551 Z0.0 E0.73304
G1 X0.23103 Y-0.07955 Z0.0 E0.73304
G1 X0.22961 Y-0.08357 Z0.0 E0.73304
G1 X0.22812 Y-0.08757 Z0.0 E0.73304
G1 X0.22655 Y-0.09153 Z0.0 E0.73304
G1 X0.22492 Y-0.09547 Z0.0 E0.73304
G1 X0.22322 Y-0.09938 Z0.0 E0.73304
G1 X0.22145 Y-0.10327 Z0.0 E0.73304
G1 X0.21962 Y-0.10711 Z0.0 E0.73304
G1 X0.21771 Y-0.11093 Z0.0 E0.73304
G1 X0.21574 Y-0.11471 Z0.0 E0.73304
G1 X0.21371 Y-0.11846 Z0.0 E0.73304
G1 X0.21161 Y-0.12217 Z0.0 E0.73304
G1 X0.20945 Y-0.12585 Z0.0 E0.73304
G1 X0.20722 Y-0.12948 Z0.0 E0.73304
G1 X0.20493 Y-0.13308 Z0.0 E0.73304
G1 X0.20257 Y-0.13664 Z0.0 E0.73304
G1 X0.20016 Y-0.14015 Z0.0 E0.73304
G1 X0.19768 Y-0.14362 Z0.0 E0.73304
G1 X0.19514 Y-0.14705 Z0.0 E0.73304
G1 X0.19255 Y-0.15043 Z0.0 E0.73304
G1 X0.18989 Y-0.15377 Z0.0 E0.73304
G1 X0.18718 Y-0.15706 Z0.0 E0.73304
G1 X0.18441 Y-0.16031 Z0.0 E0.73304
G1 X0.18158 Y-0.1635 Z0.0 E0.73304
G1 X0.1787 Y-0.16664 Z0.0 E0.73304
G1 X0.17577 Y-0.16974 Z0.0 E0.73304
G1 X0.17278 Y-0.17278 Z0.0 E0.73304
G1 X0.16974 Y-0.17577 Z0.0 E0.73304
G1 X0.16664 Y-0.1787 Z0.0 E0.73304
G1 X0.1635 Y-0.18158 Z0.0 E0.73304
G1 X0.16031 Y-0.18441 Z0.0 E0.73304
G1 X0.15706 Y-0.18718 Z0.0 E0.73304
G1 X0.15377 Y-0.18989 Z0.0 E0.73304
G1 X0.15043 Y-0.19255 Z0.0 E0.73304
G1 X0.14705 Y-0.19514 Z0.0 E0.73304
G1 X0.14362 Y-0.19768 Z0.0 E0.73304
G1 X0.14015 Y-0.20016 Z0.0 E0.73304
G1 X0.13664 Y-0.20257 Z0.0 E0.73304
G1 X0.13308 Y-0.20493 Z0.0 E0.73304
G1 X0.12948 Y-0.20722 Z0.0 E0.73304
G1 X0.12585 Y-0.20945 Z0.0 E0.73304
G1 X0.12217 Y-0.21161 Z0.0 E0.73304
G1 X0.11846 Y-0.21371 Z0.0 E0.73304
G1 X0.11471 Y-0.21574 Z0.0 E0.73304
G1 X0.11093 Y-0.21771 Z0.0 E0.73304
G1 X0.10711 Y-0.21962 Z0.0 E0.73304
G1 X0.10327 Y-0.22145 Z0.0 E0.73304
G1 X0.09938 Y-0.22322 Z0.0 E0.73304
G1 X0.09547 Y-0.22492 Z0.0 E0.73304
G1 X0.09153 Y-0.22655 Z0.0 E0.73304
G1 X0.08757 Y-0.22812 Z0.0 E0.73304
G1 X0.08357 Y-0.22961 Z0.0 E0.73304
G1 X0.07955 Y-0.23103 Z0.0 E0.73304
G1 X0.07551 Y-0.23239 Z0.0 E0.73304
G1 X0.07144 Y-0.23367 Z0.0 E0.73304
G1 X0.06735 Y-0.23488 Z0.0 E0.73304
G1 X0.06324 Y-0.23602 Z0.0 E0.73304
G1 X0.05911 Y-0.23709 Z0.0 E0.73304
G1 X0.05497 Y-0.23808 Z0.0 E0.73304
G1 X0.0508 Y-0.23901 Z0.0 E0.73304
G1 X0.04662 Y-0.23986 Z0.0 E0.73304
G1 X0.04243 Y-0.24063 Z0.0 E0.73304
G1 X0.03822 Y-0.24134 Z0.0 E0.73304
G1 X0.03401 Y-0.24197 Z0.0 E0.73304
G1 X0.02978 Y-0.24252 Z0.0 E0.73304
G1 X0.02554 Y-0.24301 Z0.0 E0.73304
G1 X0.0213 Y-0.24342 Z0.0 E0.73304
G1 X0.01704 Y-0.24375 Z0.0 E0.73304
G1 X0.01279 Y-0.24401 Z0.0 E0.73304
G1 X0.00853 Y-0.2442 Z0.0 E0.73304
G1 X0.00426 Y-0.24431 Z0.0 E0.73304
G1 X0.0 Y-0.24435 Z0.0 E0.73304
G1 X-0.00426 Y-0.24431 Z0.0 E0.73304
G1 X-0.00853 Y-0.2442 Z0.0 E0.73304
G1 X-0.01279 Y-0.24401 Z0.0 E0.73304
G1 X-0.01704 Y-0.24375 Z0.0 E0.73304
G1 X-0.0213 Y-0.24342 Z0.0 E0.73304
G1 X-0.02554 Y-0.24301 Z0.0 E0.73304
G1 X-0.02978 Y-0.24252 Z0.0 E0.73304
G1 X-0.03401 Y-0.24197 Z0.0 E0.73304
G1 X-0.03822 Y-0.24134 Z0.0 E0.73304
G1 X-0.04243 Y-0.24063 Z0.0 E0.73304
G1 X-0.04662 Y-0.23986 Z0.0 E0.73304
G1 X-0.0508 Y-0.23901 Z0.0 E0.73304
G1 X-0.05497 Y-0.23808 Z0.0 E0.73304
G1 X-0.05911 Y-0.23709 Z0.0 E0.73304
G1 X-0.06324 Y-0.23602 Z0.0 E0.73304
G1 X-0.06735 Y-0.23488 Z0.0 E0.73304
G1 X-0.07144 Y-0.23367 Z0.0 E0.73304
G1 X-0.07551 Y-0.23239 Z0.0 E0.73304
G1 X-0.07955 Y-0.23103 Z0.0 E0.73304
G1 X-0.08357 Y-0.22961 Z0.0 E0.73304
G1 X-0.08757 Y-0.22812 Z0.0 E0.73304
G1 X-0.09153 Y-0.22655 Z0.0 E0.73304
G1 X-0.09547 Y-0.22492 Z0.0 E0.73304
G1 X-0.09938 Y-0.22322 Z0.0 E0.73304
G1 X-0.10327 Y-0.22145 Z0.0 E0.73304
G1 X-0.10711 Y-0.21962 Z0.0 E0.73304
G1 X-0.11093 Y-0.21771 Z0.0 E0.73304
G1 X-0.11471 Y-0.21574 Z0.0 E0.73304
G1 X-0.11846 Y-0.21371 Z0.0 E0.73304
G1 X-0.12217 Y-0.21161 Z0.0 E0.73304
G1 X-0.12585 Y-0.20945 Z0.0 E0.73304
G1 X-0.12948 Y-0.20722 Z0.0 E0.73304
G1 X-0.13308 Y-0.20493 Z0.0 E0.73304
G1 X-0.13664 Y-0.20257 Z0.0 E0.73304
G1 X-0.14015 Y-0.20016 Z0.0 E0.73304
G1 X-0.14362 Y-0.19768 Z0.0 E0.73304
G1 X-0.14705 Y-0.19514 Z0.0 E0.73304
G1 X-0.15043 Y-0.19255 Z0.0 E0.73304
G1 X-0.15377 Y-0.18989 Z0.0 E0.73304
G1 X-0.15706 Y-0.18718 Z0.0 E0.73304
G1 X-0.16031 Y-0.18441 Z0.0 E0.73304
G1 X-0.1635 Y-0.18158 Z0.0 E0.73304
G1 X-0.16664 Y-0.1787 Z0.0 E0.73304
G1 X-0.16974 Y-0.17577 Z0.0 E0.73304
G1 X-0.17278 Y-0.17278 Z0.0 E0.73304
G1 X-0.17577 Y-0.16974 Z0.0 E0.73304
G1 X-0.1787 Y-0.16664 Z0.0 E0.73304
G1 X-0.18158 Y-0.1635 Z0.0 E0.73304
G1 X-0.18441 Y-0.16031 Z0.0 E0.73304
G1 X-0.18718 Y-0.15706 Z0.0 E0.73304
G1 X-0.18989 Y-0.15377 Z0.0 E0.73304
G1 X-0.19255 Y-0.15043 Z0.0 E0.73304
G1 X-0.19514 Y-0.14705 Z0.0 E0.73304
G1 X-0.19768 Y-0.14362 Z0.0 E0.73304
G1 X-0.20016 Y-0.14015 Z0.0 E0.73304
G1 X-0.20257 Y-0.13664 Z0.0 E0.73304
G1 X-0.20493 Y-0.13308 Z0.0 E0.73304
G1 X-0.20722 Y-0.12948 Z0.0 E0.73304
G1 X-0.20945 Y-0.12585 Z0.0 E0.73304
G1 X-0.21161 Y-0.12217 Z0.0 E0.73304
G1 X-0.21371 Y-0.11846 Z0.0 E0.73304
G1 X-0.21574 Y-0.11471 Z0.0 E0.73304
G1 X-0.21771 Y-0.11093 Z0.0 E0.73304
G1 X-0.21962 Y-0.10711 Z0.0 E0.73304
G1 X-0.22145 Y-0.10327 Z0.0 E0.73304
G1 X-0.22322 Y-0.09938 Z0.0 E0.73304
G1 X-0.22492 Y-0.09547 Z0.0 E0.73304
G1 X-0.22655 Y-0.09153 Z0.0 E0.73304
G1 X-0.22812 Y-0.08757 Z0.0 E0.73304
G1 X-0.22961 Y-0.08357 Z0.0 E0.73304
G1 X-0.23103 Y-0.07955 Z0.0 E0.73304
G1 X-0.23239 Y-0.07551 Z0.0 E0.73304
G1 X-0.23367 Y-0.07144 Z0.0 E0.73304
G1 X-0.23488 Y-0.06735 Z0.0 E0.73304
G1 X-0.23602 Y-0.06324 Z0.0 E0.73304
G1 X-0.23709 Y-0.05911 Z0.0 E0.73304
G1 X-0.23808 Y-0.05497 Z0.0 E0.73304
G1 X-0.23901 Y-0.0508 Z0.0 E0.73304
G1 X-0.23986 Y-0.04662 Z0.0 E0.73304
G1 X-0.24063 Y-0.04243 Z0.0 E0.73304
G1 X-0.24134 Y-0.03822 Z0.0 E0.73304
G1 X-0.24197 Y-0.03401 Z0.0 E0.73304
G1 X-0.24252 Y-0.02978 Z0.0 E0.73304
G1 X-0.24301 Y-0.02554 Z0.0 E0.73304
G1 X-0.24342 Y-0.0213 Z0.0 E0.73304
G1 X-0.24375 Y-0.01704 Z0.0 E0.73304
G1 X-0.24401 Y-0.01279 Z0.0 E0.73304
G1 X-0.2442 Y-0.00853 Z0.0 E0.73304
G1 X-0.24431 Y-0.00426 Z0.0 E0.73304
G1 X-0.24435 Y-0.0 Z0.0 E0.73304
G1 X-0.24431 Y0.00426 Z0.0 E0.73304
G1 X-0.2442 Y0.00853 Z0.0 E0.73304
G1 X-0.24401 Y0.01279 Z0.0 E0.73304
G1 X-0.24375 Y0.01704 Z0.0 E0.73304
G1 X-0.24342 Y0.0213 Z0.0 E0.73304
G1 X-0.24301 Y0.02554 Z0.0 E0.73304
G1 X-0.24252 Y0.02978 Z0.0 E0.73304
G1 X-0.24197 Y0.03401 Z0.0 E0.73304
G1 X-0.24134 Y0.03822 Z0.0 E0.73304
G1 X-0.24063 Y0.04243 Z0.0 E0.73304
G1 X-0.23986 Y0.04662 Z0.0 E0.73304
G1 X-0.23901 Y0.0508 Z0.0 E0.73304
G1 X-0.23808 Y0.05497 Z0.0 E0.73304
G1 X-0.23709 Y0.05911 Z0.0 E0.73304
G1 X-0.23602 Y0.06324 Z0.0 E0.73304
G1 X-0.23488 Y0.06735 Z0.0 E0.73304
G1 X-0.23367 Y0.07144 Z0.0 E0.73304
G1 X-0.23239 Y0.07551 Z0.0 E0.73304
G1 X-0.23103 Y0.07955 Z0.0 E0.73304
G1 X-0.22961 Y0.08357 Z0.0 E0.73304
G1 X-0.22812 Y0.08757 Z0.0 E0.73304
G1 X-0.22655 Y0.09153 Z0.0 E0.73304
G1 X-0.22492 Y0.09547 Z0.0 E0.73304
G1 X-0.22322 Y0.09938 Z0.0 E0.73304
G1 X-0.22145 Y0.10327 Z0.0 E0.73304
G1 X-0.21962 Y0.10711 Z0.0 E0.73304
G1 X-0.21771 Y0.11093 Z0.0 E0.73304
G1 X-0.21574 Y0.11471 Z0.0 E0.73304
G1 X-0.21371 Y0.11846 Z0.0 E0.73304
G1 X-0.21161 Y0.12217 Z0.0 E0.73304
G1 X-0.20945 Y0.12585 Z0.0 E0.73304
G1 X-0.20722 Y0.12948 Z0.0 E0.73304
G1 X-0.20493 Y0.13308 Z0.0 E0.73304
G1 X-0.20257 Y0.13664 Z0.0 E0.73304
G1 X-0.20016 Y0.14015 Z0.0 E0.73304
G1 X-0.19768 Y0.14362 Z0.0 E0.73304
G1 X-0.19514 Y0.14705 Z0.0 E0.73304
G1 X-0.19255 Y0.15043 Z0.0 E0.73304
G1 X-0.18989 Y0.15377 Z0.0 E0.73304
G1 X-0.18718 Y0.15706 Z0.0 E0.73304
G1 X-0.18441 Y0.16031 Z0.0 E0.73304
G1 X-0.18158 Y0.1635 Z0.0 E0.73304
G1 X-0.1787 Y0.16664 Z0.0 E0.73304
G1 X-0.17577 Y0.16974 Z0.0 E0.73304
G1 X-0.17278 Y0.17278 Z0.0 E0.73304
G1 X-0.16974 Y0.17577 Z0.0 E0.73304
G1 X-0.16664 Y0.1787 Z0.0 E0.73304
G1 X-0.1635 Y0.18158 Z0.0 E0.73304
G1 X-0.16031 Y0.18441 Z0.0 E0.73304
G1 X-0.15706 Y0.18718 Z0.0 E0.73304
G1 X-0.15377 Y0.18989 Z0.0 E0.73304
G1 X-0.15043 Y0.19255 Z0.0 E0.73304
G1 X-0.14705 Y0.19514 Z0.0 E0.73304
G1 X-0.14362 Y0.19768 Z0.0 E0.73304
G1 X-0.14015 Y0.20016 Z0.0 E0.73304
G1 X-0.13664 Y0.20257 Z0.0 E0.73304
G1 X-0.13308 Y0.20493 Z0.0 E0.73304
G1 X-0.12948 Y0.20722 Z0.0 E0.73304
G1 X-0.12585 Y0.20945 Z0.0 E0.73304
G1 X-0.12217 Y0.21161 Z0.0 E0.73304
G1 X-0.11846 Y0.21371 Z0.0 E0.73304
G1 X-0.11471 Y0.21574 Z0.0 E0.73304
G1 X-0.11093 Y0.21771 Z0.0 E0.73304
G1 X-0.10711 Y0.21962 Z0.0 E0.73304
G1 X-0.10327 Y0.22145 Z0.0 E0.73304
G1 X-0.09938 Y0.22322 Z0.0 E0.73304
G1 X-0.09547 Y0.22492 Z0.0 E0.73304
G1 X-0.09153 Y0.22655 Z0.0 E0.73304
G1 X-0.08757 Y0.22812 Z0.0 E0.73304
G1 X-0.08357 Y0.22961 Z0.0 E0.73304
G1 X-0.07955 Y0.23103 Z0.0 E0.73304
G1 X-0.07551 Y0.23239 Z0.0 E0.73304
G1 X-0.07144 Y0.23367 Z0.0 E0.73304
G1 X-0.06735 Y0.23488 Z0.0 E0.73304
G1 X-0.06324 Y0.23602 Z0.0 E0.73304
G1 X-0.05911 Y0.23709 Z0.0 E0.73304
G1 X-0.05497 Y0.23808 Z0.0 E0.73304
G1 X-0.0508 Y0.23901 Z0.0 E0.73304
G1 X-0.04662 Y0.23986 Z0.0 E0.73304
G1 X-0.04243 Y0.24063 Z0.0 E0.73304
G1 X-0.03822 Y0.24134 Z0.0 E0.73304
G1 X-0.03401 Y0.24197 Z0.0 E0.73304
G1 X-0.02978 Y0.24252 Z0.0 E0.73304
G1 X-0.02554 Y0.24301 Z0.0 E0.73304
G1 X-0.0213 Y0.24342 Z0.0 E0.73304
G1 X-0.01704 Y0.24375 Z0.0 E0.73304
G1 X-0.01279 Y0.24401 Z0.0 E0.73304
G1 X-0.00853 Y0.2442 Z0.0 E0.73304
G1 X-0.00426 Y0.24431 Z0.0 E0.73304
G1 X-0.0 Y0.24435 Z0.0 E0.73304
G1 X0.00426 Y0.24431 Z0.0 E0.73304
G1 X0.00853 Y0.2442 Z0.0 E0.73304
G1 X0.01279 Y0.24401 Z0.0 E0.73304
G1 X0.01704 Y0.24375 Z0.0 E0.73304
G1 X0.0213 Y0.24342 Z0.0 E0.73304
G1 X0.02554 Y0.24301 Z0.0 E0.73304
G1 X0.02978 Y0.24252 Z0.0 E0.73304
G1 X0.03401 Y0.24197 Z0.0 E0.73304
G1 X0.03822 Y0.24134 Z0.0 E0.73304
G1 X0.04243 Y0.24063 Z0.0 E0.73304
G1 X0.04662 Y0.23986 Z0.0 E0.73304
G1 X0.0508 Y0.23901 Z0.0 E0.73304
G1 X0.05497 Y0.23808 Z0.0 E0.73304
G1 X0.05911 Y0.23709 Z0.0 E0.73304
G1 X0.06324 Y0.23602 Z0.0 E0.73304
G1 X0.06735 Y0.23488 Z0.0 E0.73304
G1 X0.07144 Y0.23367 Z0.0 E0.73304
G1 X0.07551 Y0.23239 Z0.0 E0.73304
G1 X0.07955 Y0.23103 Z0.0 E0.73304
G1 X0.08357 Y0.22961 Z0.0 E0.73304
G1 X0.08757 Y0.22812 Z0.0 E0.73304
G1 X0.09153 Y0.22655 Z0.0 E0.73304
G1 X0.09547 Y0.22492 Z0.0 E0.73304
G1 X0.09938 Y0.22322 Z0.0 E0.73304
G1 X0.10327 Y0.22145 Z0.0 E0.73304
G1 X0.10711 Y0.21962 Z0.0 E0.73304
G1 X0.11093 Y0.21771 Z0.0 E0.73304
G1 X0.11471 Y0.21574 Z0.0 E0.73304
G1 X0.11846 Y0.21371 Z0.0 E0.73304
G1 X0.12217 Y0.21161 Z0.0 E0.73304
G1 X0.12585 Y0.20945 Z0.0 E0.73304
G1 X0.12948 Y0.20722 Z0.0 E0.73304
G1 X0.13308 Y0.20493 Z0.0 E0.73304
G1 X0.13664 Y0.20257 Z0.0 E0.73304
G1 X0.14015 Y0.20016 Z0.0 E0.73304
G1 X0.14362 Y0.19768 Z0.0 E0.73304
G1 X0.14705 Y0.19514 Z0.0 E0.73304
G1 X0.15043 Y0.19255 Z0.0 E0.73304
G1 X0.15377 Y0.18989 Z0.0 E0.73304
G1 X0.15706 Y0.18718 Z0.0 E0.73304
G1 X0.16031 Y0.18441 Z0.0 E0.73304
G1 X0.1635 Y0.18158 Z0.0 E0.73304
G1 X0.16664 Y0.1787 Z0.0 E0.73304
G1 X0.16974 Y0.17577 Z0.0 E0.73304
G1 X0.17278 Y0.17278 Z0.0 E0.73304
G1 X0.17577 Y0.16974 Z0.0 E0.73304
G1 X0.1787 Y0.16664 Z0.0 E0.73304
G1 X0.18158 Y0.1635 Z0.0 E0.73304
G1 X0.18441 Y0.16031 Z0.0 E0.73304
G1 X0.18718 Y0.15706 Z0.0 E0.73304
G1 X0.18989 Y0.15377 Z0.0 E0.73304
G1 X0.19255 Y0.15043 Z0.0 E0.73304
G1 X0.19514 Y0.14705 Z0.0 E0.73304
G1 X0.19768 Y0.14362 Z0.0 E0.73304
G1 X0.20016 Y0.14015 Z0.0 E0.73304
G1 X0.20257 Y0.13664 Z0.0 E0.73304
G1 X0.20493 Y0.13308 Z0.0 E0.73304
G1 X0.20722 Y0.12948 Z0.0 E0.73304
G1 X0.20945 Y0.12585 Z0.0 E0.73304
G1 X0.21161 Y0.12217 Z0.0 E0.73304
G1 X0.21371 Y0.11846 Z0.0 E0.73304
G1 X0.21574 Y0.11471 Z0.0 E0.73304
G1 X0.21771 Y0.11093 Z0.0 E0.73304
G1 X0.21962 Y0.10711 Z0.0 E0.73304
G1 X0.22145 Y0.10327 Z0.0 E0.73304
G1 X0.22322 Y0.09938 Z0.0 E0.73304
G1 X0.22492 Y0.09547 Z0.0 E0.73304
G1 X0.22655 Y0.09153 Z0.0 E0.73304
G1 X0.22812 Y0.08757 Z0.0 E0.73304
G1 X0.22961 Y0.08357 Z0.0 E0.73304
G1 X0.23103 Y0.07955 Z0.0 E0.73304
G1 X0.23239 Y0.07551 Z0.0 E0.73304
G1 X0.23367 Y0.07144 Z0.0 E0.73304
G1 X0.23488 Y0.06735 Z0.0 E0.73304
G1 X0.23602 Y0.06324 Z0.0 E0.73304
G1 X0.23709 Y0.05911 Z0.0 E0.73304
G1 X0.23808 Y0.05497 Z0.0 E0.73304
G1 X0.23901 Y0.0508 Z0.0 E0.73304
G1 X0.23986 Y0.04662 Z0.0 E0.73304
G1 X0.24063 Y0.04243 Z0.0 E0.73304
G1 X0.24134 Y0.03822 Z0.0 E0.73304
G1 X0.24197 Y0.03401 Z0.0 E0.73304
G1 X0.24252 Y0.02978 Z0.0 E0.73304
G1 X0.24301 Y0.02554 Z0.0 E0.73304
G1 X0.24342 Y0.0213 Z0.0 E0.73304
G1 X0.24375 Y0.01704 Z0.0 E0.73304
G1 X0.24401 Y0.01279 Z0.0 E0.73304
G1 X0.2442 Y0.00853 Z0.0 E0.73304
G1 X0.24431 Y0.00426 Z0.0 E0.73304
G1 X-0.0 Y3.5 Z0.0 E10.5
; starting polygon
G1 X0.30543 Y0.0 Z0.0 E0.9163
G1 X0.30539 Y-0.00533 Z0.0 E0.9163
G1 X0.30525 Y-0.01066 Z0.0 E0.9163
G1 X0.30501 Y-0.01599 Z0.0 E0.9163
G1 X0.30469 Y-0.02131 Z0.0 E0.9163
G1 X0.30427 Y-0.02662 Z0.0 E0.9163
G1 X0.30376 Y-0.03193 Z0.0 E0.9163
G1 X0.30316 Y-0.03722 Z0.0 E0.9163
G1 X0.30246 Y-0.04251 Z0.0 E0.9163
G1 X0.30167 Y-0.04778 Z0.0 E0.9163
G1 X0.30079 Y-0.05304 Z0.0 E0.9163
G1 X0.29982 Y-0.05828 Z0.0 E0.9163
G1 X0.29876 Y-0.0635 Z0.0 E0.9163
G1 X0.2976 Y-0.06871 Z0.0 E0.9163
G1 X0.29636 Y-0.07389 Z0.0 E0.9163
G1 X0.29503 Y-0.07905 Z0.0 E0.9163
G1 X0.2936 Y-0.08419 Z0.0 E0.9163
G1 X0.29209 Y-0.0893 Z0.0 E0.9163
G1 X0.29048 Y-0.09438 Z0.0 E0.9163
G1 X0.28879 Y-0.09944 Z0.0 E0.9163
G1 X0.28701 Y-0.10446 Z0.0 E0.9163
G1 X0.28515 Y-0.10946 Z0.0 E0.9163
G1 X0.28319 Y-0.11442 Z0.0 E0.9163
G1 X0.28115 Y-0.11934 Z0.0 E0.9163
G1 X0.27903 Y-0.12423 Z0.0 E0.9163
G1 X0.27682 Y-0.12908 Z0.0 E0.9163
G1 X0.27452 Y-0.13389 Z0.0 E0.9163
G1 X0.27214 Y-0.13866 Z0.0 E0.9163
G1 X0.26968 Y-0.14339 Z0.0 E0.9163
G1 X0.26714 Y-0.14808 Z0.0 E0.9163
G1 X0.26451 Y-0.15272 Z0.0 E0.9163
G1 X0.26181 Y-0.15731 Z0.0 E0.9163
G1 X0.25902 Y-0.16185 Z0.0 E0.9163
G1 X0.25616 Y-0.16635 Z0.0 E0.9163
G1 X0.25322 Y-0.1708 Z0.0 E0.9163
G1 X0.2502 Y-0.17519 Z0.0 E0.9163
G1 X0.2471 Y-0.17953 Z0.0 E0.9163
G1 X0.24393 Y-0.18381 Z0.0 E0.9163
G1 X0.24068 Y-0.18804 Z0.0 E0.9163
G1 X0.23737 Y-0.19221 Z0.0 E0.9163
G1 X0.23397 Y-0.19633 Z0.0 E0.9163
G1 X0.23051 Y-0.20038 Z0.0 E0.9163
G1 X0.22698 Y-0.20437 Z0.0 E0.9163
G1 X0.22338 Y-0.2083 Z0.0 E0.9163
G1 X0.21971 Y-0.21217 Z0.0 E0.9163
G1 X0.21597 Y-0.21597 Z0.0 E0.9163
G1 X0.21217 Y-0.21971 Z0.0 E0.9163
G1 X0.2083 Y-0.22338 Z0.0 E0.9163
G1 X0.20437 Y-0.22698 Z0.0 E0.9163
G1 X0.20038 Y-0.23051 Z0.0 E0.9163
G1 X0.19633 Y-0.23397 Z0.0 E0.9163
G1 X0.19221 Y-0.23737 Z0.0 E0.9163
G1 X0.18804 Y-0.24068 Z0.0 E0.9163
G1 X0.18381 Y-0.24393 Z0.0 E0.9163
G1 X0.17953 Y-0.2471 Z0.0 E0.9163
G1 X0.17519 Y-0.2502 Z0.0 E0.9163
G1 X0.1708 Y-0.25322 Z0.0 E0.9163
G1 X0.16635 Y-0.25616 Z0.0 E0.9163
G1 X0.16185 Y-0.25902 Z0.0 E0.9163
G1 X0.15731 Y-0.26181 Z0.0 E0.9163
G1 X0.15272 Y-0.26451 Z0.0 E0.9163
G1 X0.14808 Y-0.26714 Z0.0 E0.9163
G1 X0.14339 Y-0.26968 Z0.0 E0.9163
G1 X0.13866 Y-0.27214 Z0.0 E0.9163
G1 X0.13389 Y-0.27452 Z0.0 E0.9163
G1 X0.12908 Y-0.27682 Z0.0 E0.9163
G1 X0.12423 Y-0.27903 Z0.0 E0.9163
G1 X0.11934 Y-0.28115 Z0.0 E0.9163
G1 X0.11442 Y-0.28319 Z0.0 E0.9163
G1 X0.10946 Y-0.28515 Z0.0 E0.9163
G1 X0.10446 Y-0.28701 Z0.0 E0.9163
G1 X0.09944 Y-0.28879 Z0.0 E0.9163
G1 X0.09438 Y-0.29048 Z0.0 E0.9163
G1 X0.0893 Y-0.29209 Z0.0 E0.9163
G1 X0.08419 Y-0.2936 Z0.0 E0.9163
G1 X0.07905 Y-0.29503 Z0.0 E0.9163
G1 X0.07389 Y-0.29636 Z0.0 E0.9163
G1 X0.06871 Y-0.2976 Z0.0 E0.9163
G1 X0.0635 Y-0.29876 Z0.0 E0.9163
G1 X0.05828 Y-0.29982 Z0.0 E0.9163
G1 X0.05304 Y-0.30079 Z0.0 E0.9163
G1 X0.04778 Y-0.30167 Z0.0 E0.9163
G1 X0.04251 Y-0.30246 Z0.0 E0.9163
G1 X0.03722 Y-0.30316 Z0.0 E0.9163
G1 X0.03193 Y-0.30376 Z0.0 E0.9163
G1 X0.02662 Y-0.30427 Z0.0 E0.9163
G1 X0.02131 Y-0.30469 Z0.0 E0.9163
G1 X0.01599 Y-0.30501 Z0.0 E0.9163
G1 X0.01066 Y-0.30525 Z0.0 E0.9163
G1 X0.00533 Y-0.30539 Z0.0 E0.9163
G1 X0.0 Y-0.30543 Z0.0 E0.9163
G1 X-0.00533 Y-0.30539 Z0.0 E0.9163
G1 X-0.01066 Y-0.30525 Z0.0 E0.9163
G1 X-0.01599 Y-0.30501 Z0.0 E0.9163
G1 X-0.02131 Y-0.30469 Z0.0 E0.9163
G1 X-0.02662 Y-0.30427 Z0.0 E0.9163
G1 X-0.03193 Y-0.30376 Z0.0 E0.9163
G1 X-0.03722 Y-0.30316 Z0.0 E0.9163
G1 X-0.04251 Y-0.30246 Z0.0 E0.9163
G1 X-0.04778 Y-0.30167 Z0.0 E0.9163
G1 X-0.05304 Y-0.30079 Z0.0 E0.9163
G1 X-0.05828 Y-0.29982 Z0.0 E0.9163
G1 X-0.0635 Y-0.29876 Z0.0 E0.9163
G1 X-0.06871 Y-0.2976 Z0.0 E0.9163
G1 X-0.07389 Y-0.29636 Z0.0 E0.9163
G1 X-0.07905 Y-0.29503 Z0.0 E0.9163
G1 X-0.08419 Y-0.2936 Z0.0 E0.9163
G1 X-0.0893 Y-0.29209 Z0.0 E0.9163
G1 X-0.09438 Y-0.29048 Z0.0 E0.9163
G1 X-0.09944 Y-0.28879 Z0.0 E0.9163
G1 X-0.10446 Y-0.28701 Z0.0 E0.9163
G1 X-0.10946 Y-0.28515 Z0.0 E0.9163
G1 X-0.11442 Y-0.28319 Z0.0 E0.9163
G1 X-0.11934 Y-0.28115 Z0.0 E0.9163
G1 X-0.12423 Y-0.27903 Z0.0 E0.9163
G1 X-0.12908 Y-0.27682 Z0.0 E0.9163
G1 X-0.13389 Y-0.27452 Z0.0 E0.9163
G1 X-0.13866 Y-0.27214 Z0.0 E0.9163
G1 X-0.14339 Y-0.26968 Z0.0 E0.9163
G1 X-0.14808 Y-0.26714 Z0.0 E0.9163
G1 X-0.15272 Y-0.26451 Z0.0 E0.9163
G1 X-0.15731 Y-0.26181 Z0.0 E0.9163
G1 X-0.16185 Y-0.25902 Z0.0 E0.9163
G1 X-0.16635 Y-0.25616 Z0.0 E0.9163
G1 X-0.1708 Y-0.25322 Z0.0 E0.9163
G1 X-0.17519 Y-0.2502 Z0.0 E0.9163
G1 X-0.17953 Y-0.2471 Z0.0 E0.9163
G1 X-0.18381 Y-0.24393 Z0.0 E0.9163
G1 X-0.18804 Y-0.24068 Z0.0 E0.9163
G1 X-0.19221 Y-0.23737 Z0.0 E0.9163
G1 X-0.19633 Y-0.23397 Z0.0 E0.9163
G1 X-0.20038 Y-0.23051 Z0.0 E0.9163
G1 X-0.20437 Y-0.22698 Z0.0 E0.9163
G1 X-0.2083 Y-0.22338 Z0.0 E0.9163
G1 X-0.21217 Y-0.21971 Z0.0 E0.9163
G1 X-0.21597 Y-0.21597 Z0.0 E0.9163
G1 X-0.21971 Y-0.21217 Z0.0 E0.9163
G1 X-0.22338 Y-0.2083 Z0.0 E0.9163
G1 X-0.22698 Y-0.20437 Z0.0 E0.9163
G1 X-0.23051 Y-0.20038 Z0.0 E0.9163
G1 X-0.23397 Y-0.19633 Z0.0 E0.9163
G1 X-0.23737 Y-0.19221 Z0.0 E0.9163
G1 X-0.24068 Y-0.18804 Z0.0 E0.9163
G1 X-0.24393 Y-0.18381 Z0.0 E0.9163
G1 X-0.2471 Y-0.17953 Z0.0 E0.9163
G1 X-0.2502 Y-0.17519 Z0.0 E0.9163
G1 X-0.25322 Y-0.1708 Z0.0 E0.9163
G1 X-0.25616 Y-0.16635 Z0.0 E0.9163
G1 X-0.25902 Y-0.16185 Z0.0 E0.9163
G1 X-0.26181 Y-0.15731 Z0.0 E0.9163
G1 X-0.26451 Y-0.15272 Z0.0 E0.9163
G1 X-0.26714 Y-0.14808 Z0.0 E0.9163
G1 X-0.26968 Y-0.14339 Z0.0 E0.9163
G1 X-0.27214 Y-0.13866 Z0.0 E0.9163
G1 X-0.27452 Y-0.13389 Z0.0 E0.9163
G1 X-0.27682 Y-0.12908 Z0.0 E0.9163
G1 X-0.27903 Y-0.12423 Z0.0 E0.9163
G1 X-0.28115 Y-0.11934 Z0.0 E0.9163
G1 X-0.28319 Y-0.11442 Z0.0 E0.9163
G1 X-0.28515 Y-0.10946 Z0.0 E0.9163
G1 X-0.28701 Y-0.10446 Z0.0 E0.9163
G1 X-0.28879 Y-0.09944 Z0.0 E0.9163
G1 X-0.29048 Y-0.09438 Z0.0 E0.9163
G1 X-0.29209 Y-0.0893 Z0.0 E0.9163
G1 X-0.2936 Y-0.08419 Z0.0 E0.9163
G1 X-0.29503 Y-0.07905 Z0.0 E0.9163
G1 X-0.29636 Y-0.07389 Z0.0 E0.9163
G1 X-0.2976 Y-0.06871 Z0.0 E0.9163
G1 X-0.29876 Y-0.0635 Z0.0 E0.9163
G1 X-0.29982 Y-0.05828 Z0.0 E0.9163
G1 X-0.30079 Y-0.05304 Z0.0 E0.9163
G1 X-0.30167 Y-0.04778 Z0.0 E0.9163
G1 X-0.30246 Y-0.04251 Z0.0 E0.9163
G1 X-0.30316 Y-0.03722 Z0.0 E0.9163
G1 X-0.30376 Y-0.03193 Z0.0 E0.9163
G1 X-0.30427 Y-0.02662 Z0.0 E0.9163
G1 X-0.30469 Y-0.02131 Z0.0 E0.9163
G1 X-0.30501 Y-0.01599 Z0.0 E0.9163
G1 X-0.30525 Y-0.01066 Z0.0 E0.9163
G1 X-0.30539 Y-0.00533 Z0.0 E0.9163
G1 X-0.30543 Y-0.0 Z0.0 E0.9163
G1 X-0.30539 Y0.00533 Z0.0 E0.9163
G1 X-0.30525 Y0.01066 Z0.0 E0.9163
G1 X-0.30501 Y0.01599 Z0.0 E0.9163
G1 X-0.30469 Y0.02131 Z0.0 E0.9163
G1 X-0.30427 Y0.02662 Z0.0 E0.9163
G1 X-0.30376 Y0.03193 Z0.0 E0.9163
G1 X-0.30316 Y0.03722 Z0.0 E0.9163
G1 X-0.30246 Y0.04251 Z0.0 E0.9163
G1 X-0.30167 Y0.04778 Z0.0 E0.9163
G1 X-0.30079 Y0.05304 Z0.0 E0.9163
G1 X-0.29982 Y0.05828 Z0.0 E0.9163
G1 X-0.29876 Y0.0635 Z0.0 E0.9163
G1 X-0.2976 Y0.06871 Z0.0 E0.9163
G1 X-0.29636 Y0.07389 Z0.0 E0.9163
G1 X-0.29503 Y0.07905 Z0.0 E0.9163
G1 X-0.2936 Y0.08419 Z0.0 E0.9163
G1 X-0.29209 Y0.0893 Z0.0 E0.9163
G1 X-0.29048 Y0.09438 Z0.0 E0.9163
G1 X-0.28879 Y0.09944 Z0.0 E0.9163
G1 X-0.28701 Y0.10446 Z0.0 E0.9163
G1 X-0.28515 Y0.10946 Z0.0 E0.9163
G1 X-0.28319 Y0.11442 Z0.0 E0.9163
G1 X-0.28115 Y0.11934 Z0.0 E0.9163
G1 X-0.27903 Y0.12423 Z0.0 E0.9163
G1 X-0.27682 Y0.12908 Z0.0 E0.9163
G1 X-0.27452 Y0.13389 Z0.0 E0.9163
G1 X-0.27214 Y0.13866 Z0.0 E0.9163
G1 X-0.26968 Y0.14339 Z0.0 E0.9163
G1 X-0.26714 Y0.14808 Z0.0 E0.9163
G1 X-0.26451 Y0.15272 Z0.0 E0.9163
G1 X-0.26181 Y0.15731 Z0.0 E0.9163
G1 X-0.25902 Y0.16185 Z0.0 E0.9163
G1 X-0.25616 Y0.16635 Z0.0 E0.9163
G1 X-0.25322 Y0.1708 Z0.0 E0.9163
G1 X-0.2502 Y0.17519 Z0.0 E0.9163
G1 X-0.2471 Y0.17953 Z0.0 E0.9163
G1 X-0.24393 Y0.18381 Z0.0 E0.9163
G1 X-0.24068 Y0.18804 Z0.0 E0.9163
G1 X-0.23737 Y0.19221 Z0.0 E0.9163
G1 X-0.23397 Y0.19633 Z0.0 E0.9163
G1 X-0.23051 Y0.20038 Z0.0 E0.9163
G1 X-0.22698 Y0.20437 Z0.0 E0.9163
G1 X-0.22338 Y0.2083 Z0.0 E0.9163
G1 X-0.21971 Y0.21217 Z0.0 E0.9163
G1 X-0.21597 Y0.21597 Z0.0 E0.9163
G1 X-0.21217 Y0.21971 Z0.0 E0.9163
G1 X-0.2083 Y0.22338 Z0.0 E0.9163
G1 X-0.20437 Y0.22698 Z0.0 E0.9163
G1 X-0.20038 Y0.23051 Z0.0 E0.9163
G1 X-0.19633 Y0.23397 Z0.0 E0.9163
G1 X-0.19221 Y0.23737 Z0.0 E0.9163
G1 X-0.18804 Y0.24068 Z0.0 E0.9163
G1 X-0.18381 Y0.24393 Z0.0 E0.9163
G1 X-0.17953 Y0.2471 Z0.0 E0.9163
G1 X-0.17519 Y0.2502 Z0.0 E0.9163
G1 X-0.1708 Y0.25322 Z0.0 E0.9163
G1 X-0.16635 Y0.25616 Z0.0 E0.9163
G1 X-0.16185 Y0.25902 Z0.0 E0.9163
G1 X-0.15731 Y0.26181 Z0.0 E0.9163
G1 X-0.15272 Y0.26451 Z0.0 E0.9163
G1 X-0.14808 Y0.26714 Z0.0 E0.9163
G1 X-0.14339 Y0.26968 Z0.0 E0.9163
G1 X-0.13866 Y0.27214 Z0.0 E0.9163
G1 X-0.13389 Y0.27452 Z0.0 E0.9163
G1 X-0.12908 Y0.27682 Z0.0 E0.9163
G1 X-0.12423 Y0.27903 Z0.0 E0.9163
G1 X-0.11934 Y0.28115 Z0.0 E0.9163
G1 X-0.11442 Y0.28319 Z0.0 E0.9163
G1 X-0.10946 Y0.28515 Z0.0 E0.9163
G1 X-0.10446 Y0.28701 Z0.0 E0.9163
G1 X-0.09944 Y0.28879 Z0.0 E0.9163
G1 X-0.09438 Y0.29048 Z0.0 E0.9163
G1 X-0.0893 Y0.29209 Z0.0 E0.9163
G1 X-0.08419 Y0.2936 Z0.0 E0.9163
G1 X-0.07905 Y0.29503 Z0.0 E0.9163
G1 X-0.07389 Y0.29636 Z0.0 E0.9163
G1 X-0.06871 Y0.2976 Z0.0 E0.9163
G1 X-0.0635 Y0.29876 Z0.0 E0.9163
G1 X-0.05828 Y0.29982 Z0.0 E0.9163
G1 X-0.05304 Y0.30079 Z0.0 E0.9163
G1 X-0.04778 Y0.30167 Z0.0 E0.9163
G1 X-0.04251 Y0.30246 Z0.0 E0.9163
G1 X-0.03722 Y0.30316 Z0.0 E0.9163
G1 X-0.03193 Y0.30376 Z0.0 E0.9163
G1 X-0.02662 Y0.30427 Z0.0 E0.9163
G1 X-0.02131 Y0.30469 Z0.0 E0.9163
G1 X-0.01599 Y0.30501 Z0.0 E0.9163
G1 X-0.01066 Y0.30525 Z0.0 E0.9163
G1 X-0.00533 Y0.30539 Z0.0 E0.9163
G1 X-0.0 Y0.30543 Z0.0 E0.9163
G1 X0.00533 Y0.30539 Z0.0 E0.9163
G1 X0.01066 Y0.30525 Z0.0 E0.9163
G1 X0.01599 Y0.30501 Z0.0 E0.9163
G1 X0.02131 Y0.30469 Z0.0 E0.9163
G1 X0.02662 Y0.30427 Z0.0 E0.9163
G1 X0.03193 Y0.30376 Z0.0 E0.9163
G1 X0.03722 Y0.30316 Z0.0 E0.9163
G1 X0.04251 Y0.30246 Z0.0 E0.9163
G1 X0.04778 Y0.30167 Z0.0 E0.9163
G1 X0.05304 Y0.30079 Z0.0 E0.9163
G1 X0.05828 Y0.29982 Z0.0 E0.9163
G1 X0.0635 Y0.29876 Z0.0 E0.9163
G1 X0.06871 Y0.2976 Z0.0 E0.9163
G1 X0.07389 Y0.29636 Z0.0 E0.9163
G1 X0.07905 Y0.29503 Z0.0 E0.9163
G1 X0.08419 Y0.2936 Z0.0 E0.9163
G1 X0.0893 Y0.29209 Z0.0 E0.9163
G1 X0.09438 Y0.29048 Z0.0 E0.9163
G1 X0.09944 Y0.28879 Z0.0 E0.9163
G1 X0.10446 Y0.28701 Z0.0 E0.9163
G1 X0.10946 Y0.28515 Z0.0 E0.9163
G1 X0.11442 Y0.28319 Z0.0 E0.9163
G1 X0.11934 Y0.28115 Z0.0 E0.9163
G1 X0.12423 Y0.27903 Z0.0 E0.9163
G1 X0.12908 Y0.27682 Z0.0 E0.9163
G1 X0.13389 Y0.27452 Z0.0 E0.9163
G1 X0.13866 Y0.27214 Z0.0 E0.9163
G1 X0.14339 Y0.26968 Z0.0 E0.9163
G1 X0.14808 Y0.26714 Z0.0 E0.9163
G1 X0.15272 Y0.26451 Z0.0 E0.9163
G1 X0.15731 Y0.26181 Z0.0 E0.9163
G1 X0.16185 Y0.25902 Z0.0 E0.9163
G1 X0.16635 Y0.25616 Z0.0 E0.9163
G1 X0.1708 Y0.25322 Z0.0 E0.9163
G1 X0.17519 Y0.2502 Z0.0 E0.9163
G1 X0.17953 Y0.2471 Z0.0 E0.9163
G1 X0.18381 Y0.24393 Z0.0 E0.9163
G1 X0.18804 Y0.24068 Z0.0 E0.9163
G1 X0.19221 Y0.23737 Z0.0 E0.9163
G1 X0.19633 Y0.23397 Z0.0 E0.9163
G1 X0.20038 Y0.23051 Z0.0 E0.9163
G1 X0.20437 Y0.22698 Z0.0 E0.9163
G1 X0.2083 Y0.22338 Z0.0 E0.9163
G1 X0.21217 Y0.21971 Z0.0 E0.9163
G1 X0.21597 Y0.21597 Z0.0 E0.9163
G1 X0.21971 Y0.21217 Z0.0 E0.9163
G1 X0.22338 Y0.2083 Z0.0 E0.9163
G1 X0.22698 Y0.20437 Z0.0 E0.9163
G1 X0.23051 Y0.20038 Z0.0 E0.9163
G1 X0.23397 Y0.19633 Z0.0 E0.9163
G1 X0.23737 Y0.19221 Z0.0 E0.9163
G1 X0.24068 Y0.18804 Z0.0 E0.9163
G1 X0.24393 Y0.18381 Z0.0 E0.9163
G1 X0.2471 Y0.17953 Z0.0 E0.9163
G1 X0.2502 Y0.17519 Z0.0 E0.9163
G1 X0.25322 Y0.1708 Z0.0 E0.9163
G1 X0.25616 Y0.16635 Z0.0 E0.9163
G1 X0.25902 Y0.16185 Z0.0 E0.9163
G1 X0.26181 Y0.15731 Z0.0 E0.9163
G1 X0.26451 Y0.15272 Z0.0 E0.9163
G1 X0.26714 Y0.14808 Z0.0 E0.9163
G1 X0.26968 Y0.14339 Z0.0 E0.9163
G1 X0.27214 Y0.13866 Z0.0 E0.9163
G1 X0.27452 Y0.13389 Z0.0 E0.9163
G1 X0.27682 Y0.12908 Z0.0 E0.9163
G1 X0.27903 Y0.12423 Z0.0 E0.9163
G1 X0.28115 Y0.11934 Z0.0 E0.9163
G1 X0.28319 Y0.11442 Z0.0 E0.9163
G1 X0.28515 Y0.10946 Z0.0 E0.9163
G1 X0.28701 Y0.10446 Z0.0 E0.9163
G1 X0.28879 Y0.09944 Z0.0 E0.9163
G1 X0.29048 Y0.09438 Z0.0 E0.9163
G1 X0.29209 Y0.0893 Z0.0 E0.9163
G1 X0.2936 Y0.08419 Z0.0 E0.9163
G1 X0.29503 Y0.07905 Z0.0 E0.9163
G1 X0.29636 Y0.07389 Z0.0 E0.9163
G1 X0.2976 Y0.06871 Z0.0 E0.9163
G1 X0.29876 Y0.0635 Z0.0 E0.9163
G1 X0.29982 Y0.05828 Z0.0 E0.9163
G1 X0.30079 Y0.05304 Z0.0 E0.9163
G1 X0.30167 Y0.04778 Z0.0 E0.9163
G1 X0.30246 Y0.04251 Z0.0 E0.9163
G1 X0.30316 Y0.03722 Z0.0 E0.9163
G1 X0.30376 Y0.03193 Z0.0 E0.9163
G1 X0.30427 Y0.02662 Z0.0 E0.9163
G1 X0.30469 Y0.02131 Z0.0 E0.9163
G1 X0.30501 Y0.01599 Z0.0 E0.9163
G1 X0.30525 Y0.01066 Z0.0 E0.9163
G1 X0.30539 Y0.00533 Z0.0 E0.9163
G1 X-0.0 Y3.5 Z0.0 E10.5
; starting polygon
G1 X0.36652 Y0.0 Z0.0 E1.09956
G1 X0.36646 Y-0.0064 Z0.0 E1.09956
G1 X0.3663 Y-0.01279 Z0.0 E1.09956
G1 X0.36602 Y-0.01918 Z0.0 E1.09956
G1 X0.36563 Y-0.02557 Z0.0 E1.09956
G1 X0.36512 Y-0.03194 Z0.0 E1.09956
G1 X0.36451 Y-0.03831 Z0.0 E1.09956
G1 X0.36379 Y-0.04467 Z0.0 E1.09956
G1 X0.36295 Y-0.05101 Z0.0 E1.09956
G1 X0.36201 Y-0.05734 Z0.0 E1.09956
G1 X0.36095 Y-0.06365 Z0.0 E1.09956
G1 X0.35979 Y-0.06994 Z0.0 E1.09956
G1 X0.35851 Y-0.0762 Z0.0 E1.09956
G1 X0.35713 Y-0.08245 Z0.0 E1.09956
G1 X0.35563 Y-0.08867 Z0.0 E1.09956
G1 X0.35403 Y-0.09486 Z0.0 E1.09956
G1 X0.35232 Y-0.10103 Z0.0 E1.09956
G1 X0.3505 Y-0.10716 Z0.0 E1.09956
G1 X0.34858 Y-0.11326 Z0.0 E1.09956
G1 X0.34655 Y-0.11933 Z0.0 E1.09956
G1 X0.34442 Y-0.12536 Z0.0 E1.09956
G1 X0.34218 Y-0.13135 Z0.0 E1.09956
G1 X0.33983 Y-0.1373 Z0.0 E1.09956
G1 X0.33738 Y-0.14321 Z0.0 E1.09956
G1 X0.33483 Y-0.14908 Z0.0 E1.09956
G1 X0.33218 Y-0.1549 Z0.0 E1.09956
G1 X0.32943 Y-0.16067 Z0.0 E1.09956
G1 X0.32657 Y-0.1664 Z0.0 E1.09956
G1 X0.32362 Y-0.17207 Z0.0 E1.09956
G1 X0.32056 Y-0.17769 Z0.0 E1.09956
G1 X0.31741 Y-0.18326 Z0.0 E1.09956
G1 X0.31417 Y-0.18877 Z0.0 E1.09956
G1 X0.31083 Y-0.19423 Z0.0 E1.09956
G1 X0.30739 Y-0.19962 Z0.0 E1.09956
G1 X0.30386 Y-0.20495 Z0.0 E1.09956
G1 X0.30023 Y-0.21023 Z0.0 E1.09956
G1 X0.29652 Y-0.21543 Z0.0 E1.09956
G1 X0.29272 Y-0.22058 Z0.0 E1.09956
G1 X0.28882 Y-0.22565 Z0.0 E1.09956
G1 X0.28484 Y-0.23066 Z0.0 E1.09956
G1 X0.28077 Y-0.23559 Z0.0 E1.09956
G1 X0.27662 Y-0.24046 Z0.0 E1.09956
G1 X0.27238 Y-0.24525 Z0.0 E1.09956
G1 X0.26806 Y-0.24997 Z0.0 E1.09956
G1 X0.26365 Y-0.25461 Z0.0 E1.09956
G1 X0.25917 Y-0.25917 Z0.0 E1.09956
G1 X0.25461 Y-0.26365 Z0.0 E1.09956
G1 X0.24997 Y-0.26806 Z0.0 E1.09956
G1 X0.24525 Y-0.27238 Z0.0 E1.09956
G1 X0.24046 Y-0.27662 Z0.0 E1.09956
G1 X0.23559 Y-0.28077 Z0.0 E1.09956
G1 X0.23066 Y-0.28484 Z0.0 E1.09956
G1 X0.22565 Y-0.28882 Z0.0 E1.09956
G1 X0.22058 Y-0.29272 Z0.0 E1.09956
G1 X0.21543 Y-0.29652 Z0.0 E1.09956
G1 X0.21023 Y-0.30023 Z0.0 E1.09956
G1 X0.20495 Y-0.30386 Z0.0 E1.09956
G1 X0.19962 Y-0.30739 Z0.0 E1.09956
G1 X0.19423 Y-0.31083 Z0.0 E1.09956
G1 X0.18877 Y-0.31417 Z0.0 E1.09956
G1 X0.18326 Y-0.31741 Z0.0 E1.09956
G1 X0.17769 Y-0.32056 Z0.0 E1.09956
G1 X0.17207 Y-0.32362 Z0.0 E1.09956
G1 X0.1664 Y-0.32657 Z0.0 E1.09956
G1 X0.16067 Y-0.32943 Z0.0 E1.09956
G1 X0.1549 Y-0.33218 Z0.0 E1.09956
G1 X0.14908 Y-0.33483 Z0.0 E1.09956
G1 X0.14321 Y-0.33738 Z0.0 E1.09956
G1 X0.1373 Y-0.33983 Z0.0 E1.09956
G1 X0.13135 Y-0.34218 Z0.0 E1.09956
G1 X0.12536 Y-0.34442 Z0.0 E1.09956
G1 X0.11933 Y-0.34655 Z0.0 E1.09956
G1 X0.11326 Y-0.34858 Z0.0 E1.09956
G1 X0.10716 Y-0.3505 Z0.0 E1.09956
G1 X0.10103 Y-0.35232 Z0.0 E1.09956
G1 X0.09486 Y-0.35403 Z0.0 E1.09956
G1 X0.08867 Y-0.35563 Z0.0 E1.09956
G1 X0.08245 Y-0.35713 Z0.0 E1.09956
G1 X0.0762 Y-0.35851 Z0.0 E1.09956
G1 X0.06994 Y-0.35979 Z0.0 E1.09956
G1 X0.06365 Y-0.36095 Z0.0 E1.09956
G1 X0.05734 Y-0.36201 Z0.0 E1.09956
G1 X0.05101 Y-0.36295 Z0.0 E1.09956
G1 X0.04467 Y-0.36379 Z0.0 E1.09956
G1 X0.03831 Y-0.36451 Z0.0 E1.09956
G1 X0.03194 Y-0.36512 Z0.0 E1.09956
G1 X0.02557 Y-0.36563 Z0.0 E1.09956
G1 X0.01918 Y-0.36602 Z0.0 E1.09956
G1 X0.01279 Y-0.3663 Z0.0 E1.09956
G1 X0.0064 Y-0.36646 Z0.0 E1.09956
G1 X0.0 Y-0.36652 Z0.0 E1.09956
G1 X-0.0064 Y-0.36646 Z0.0 E1.09956
G1 X-0.01279 Y-0.3663 Z0.0 E1.09956
G1 X-0.01918 Y-0.36602 Z0.0 E1.09956
G1 X-0.02557 Y-0.36563 Z0.0 E1.09956
G1 X-0.03194 Y-0.36512 Z0.0 E1.09956
G1 X-0.03831 Y-0.36451 Z0.0 E1.09956
G1 X-0.04467 Y-0.36379 Z0.0 E1.09956
G1 X-0.05101 Y-0.36295 Z0.0 E1.09956
G1 X-0.05734 Y-0.36201 Z0.0 E1.09956
G1 X-0.06365 Y-0.36095 Z0.0 E1.09956
G1 X-0.06994 Y-0.35979 Z0.0 E1.09956
G1 X-0.0762 Y-0.35851 Z0.0 E1.09956
G1 X-0.08245 Y-0.35713 Z0.0 E1.09956
G1 X-0.08867 Y-0.35563 Z0.0 E1.09956
G1 X-0.09486 Y-0.35403 Z0.0 E1.09956
G1 X-0.10103 Y-0.35232 Z0.0 E1.09956
G1 X-0.10716 Y-0.3505 Z0.0 E1.09956
G1 X-0.11326 Y-0.34858 Z0.0 E1.09956
G1 X-0.11933 Y-0.34655 Z0.0 E1.09956
G1 X-0.12536 Y-0.34442 Z0.0 E1.09956
G1 X-0.13135 Y-0.34218 Z0.0 E1.09956
G1 X-0.1373 Y-0.33983 Z0.0 E1.09956
G1 X-0.14321 Y-0.33738 Z0.0 E1.09956
G1 X-0.14908 Y-0.33483 Z0.0 E1.09956
G1 X-0.1549 Y-0.33218 Z0.0 E1.09956
G1 X-0.16067 Y-0.32943 Z0.0 E1.09956
G1 X-0.1664 Y-0.32657 Z0.0 E1.09956
G1 X-0.17207 Y-0.32362 Z0.0 E1.09956
G1 X-0.17769 Y-0.32056 Z0.0 E1.09956
G1 X-0.18326 Y-0.31741 Z0.0 E1.09956
G1 X-0.18877 Y-0.31417 Z0.0 E1.09956
G1 X-0.19423 Y-0.31083 Z0.0 E1.09956
G1 X-0.19962 Y-0.30739 Z0.0 E1.09956
G1 X-0.20495 Y-0.30386 Z0.0 E1.09956
G1 X-0.21023 Y-0.30023 Z0.0 E1.09956
G1 X-0.21543 Y-0.29652 Z0.0 E1.09956
G1 X-0.22058 Y-0.29272 Z0.0 E1.09956
G1 X-0.22565 Y-0.28882 Z0.0 E1.09956
G1 X-0.23066 Y-0.28484 Z0.0 E1.09956
G1 X-0.23559 Y-0.28077 Z0.0 E1.09956
G1 X-0.24046 Y-0.27662 Z0.0 E1.09956
G1 X-0.24525 Y-0.27238 Z0.0 E1.09956
G1 X-0.24997 Y-0.26806 Z0.0 E1.09956
G1 X-0.25461 Y-0.26365 Z0.0 E1.09956
G1 X-0.25917 Y-0.25917 Z0.0 E1.09956
G1 X-0.26365 Y-0.25461 Z0.0 E1.09956
G1 X-0.26806 Y-0.24997 Z0.0 E1.09956
G1 X-0.27238 Y-0.24525 Z0.0 E1.09956
G1 X-0.27662 Y-0.24046 Z0.0 E1.09956
G1 X-0.28077 Y-0.23559 Z0.0 E1.09956
G1 X-0.28484 Y-0.23066 Z0.0 E1.09956
G1 X-0.28882 Y-0.22565 Z0.0 E1.09956
G1 X-0.29272 Y-0.22058 Z0.0 E1.09956
G1 X-0.29652 Y-0.21543 Z0.0 E1.09956
G1 X-0.30023 Y-0.21023 Z0.0 E1.09956
G1 X-0.30386 Y-0.20495 Z0.0 E1.09956
G1 X-0.30739 Y-0.19962 Z0.0 E1.09956
G1 X-0.31083 Y-0.19423 Z0.0 E1.09956
G1 X-0.31417 Y-0.18877 Z0.0 E1.09956
G1 X-0.31741 Y-0.18326 Z0.0 E1.09956
G1 X-0.32056 Y-0.17769 Z0.0 E1.09956
G1 X-0.32362 Y-0.17207 Z0.0 E1.09956
G1 X-0.32657 Y-0.1664 Z0.0 E1.09956
G1 X-0.32943 Y-0.16067 Z0.0 E1.09956
G1 X-0.33218 Y-0.1549 Z0.0 E1.09956
G1 X-0.33483 Y-0.14908 Z0.0 E1.09956
G1 X-0.33738 Y-0.14321 Z0.0 E1.09956
G1 X-0.33983 Y-0.1373 Z0.0 E1.09956
G1 X-0.34218 Y-0.13135 Z0.0 E1.09956
G1 X-0.34442 Y-0.12536 Z0.0 E1.09956
G1 X-0.34655 Y-0.11933 Z0.0 E1.09956
G1 X-0.34858 Y-0.11326 Z0.0 E1.09956
G1 X-0.3505 Y-0.10716 Z0.0 E1.09956
G1 X-0.35232 Y-0.10103 Z0.0 E1.09956
G1 X-0.35403 Y-0.09486 Z0.0 E1.09956
G1 X-0.35563 Y-0.08867 Z0.0 E1.09956
G1 X-0.35713 Y-0.08245 Z0.0 E1.09956
G1 X-0.35851 Y-0.0762 Z0.0 E1.09956
G1 X-0.35979 Y-0.06994 Z0.0 E1.09956
G1 X-0.36095 Y-0.06365 Z0.0 E1.09956
G1 X-0.36201 Y-0.05734 Z0.0 E1.09956
G1 X-0.36295 Y-0.05101 Z0.0 E1.09956
G1 X-0.36379 Y-0.04467 Z0.0 E1.09956
G1 X-0.36451 Y-0.03831 Z0.0 E1.09956
G1 X-0.36512 Y-0.03194 Z0.0 E1.09956
G1 X-0.36563 Y-0.02557 Z0.0 E1.09956
G1 X-0.36602 Y-0.01918 Z0.0 E1.09956
G1 X-0.3663 Y-0.01279 Z0.0 E1.09956
G1 X-0.36646 Y-0.0064 Z0.0 E1.09956
G1 X-0.36652 Y-0.0 Z0.0 E1.09956
G1 X-0.36646 Y0.0064 Z0.0 E1.09956
G1 X-0.3663 Y0.01279 Z0.0 E1.09956
G1 X-0.36602 Y0.01918 Z0.0 E1.09956
G1 X-0.36563 Y0.02557 Z0.0 E1.09956
G1 X-0.36512 Y0.03194 Z0.0 E1.09956
G1 X-0.36451 Y0.03831 Z0.0 E1.09956
G1 X-0.36379 Y0.04467 Z0.0 E1.09956
G1 X-0.36295 Y0.05101 Z0.0 E1.09956
G1 X-0.36201 Y0.05734 Z0.0 E1.09956
G1 X-0.36095 Y0.06365 Z0.0 E1.09956
G1 X-0.35979 Y0.06994 Z0.0 E1.09956
G1 X-0.35851 Y0.0762 Z0.0 E1.09956
G1 X-0.35713 Y0.08245 Z0.0 E1.09956
G1 X-0.35563 Y0.08867 Z0.0 E1.09956
G1 X-0.35403 Y0.09486 Z0.0 E1.09956
G1 X-0.35232 Y0.10103 Z0.0 E1.09956
G1 X-0.3505 Y0.10716 Z0.0 E1.09956
G1 X-0.34858 Y0.11326 Z0.0 E1.09956
G1 X-0.34655 Y0.11933 Z0.0 E1.09956
G1 X-0.34442 Y0.12536 Z0.0 E1.09956
G1 X-0.34218 Y0.13135 Z0.0 E1.09956
G1 X-0.33983 Y0.1373 Z0.0 E1.09956
G1 X-0.33738 Y0.14321 Z0.0 E1.09956
G1 X-0.33483 Y0.14908 Z0.0 E1.09956
G1 X-0.33218 Y0.1549 Z0.0 E1.09956
G1 X-0.32943 Y0.16067 Z0.0 E1.09956
G1 X-0.32657 Y0.1664 Z0.0 E1.09956
G1 X-0.32362 Y0.17207 Z0.0 E1.09956
G1 X-0.32056 Y0.17769 Z0.0 E1.09956
G1 X-0.31741 Y0.18326 Z0.0 E1.09956
G1 X-0.31417 Y0.18877 Z0.0 E1.09956
G1 X-0.31083 Y0.19423 Z0.0 E1.09956
G1 X-0.30739 Y0.19962 Z0.0 E1.09956
G1 X-0.30386 Y0.20495 Z0.0 E1.09956
G1 X-0.30023 Y0.21023 Z0.0 E1.09956
G1 X-0.29652 Y0.21543 Z0.0 E1.09956
G1 X-0.29272 Y0.22058 Z0.0 E1.09956
G1 X-0.28882 Y0.22565 Z0.0 E1.09956
G1 X-0.28484 Y0.23066 Z0.0 E1.09956
G1 X-0.28077 Y0.23559 Z0.0 E1.09956
G1 X-0.27662 Y0.24046 Z0.0 E1.09956
G1 X-0.27238 Y0.24525 Z0.0 E1.09956
G1 X-0.26806 Y0.24997 Z0.0 E1.09956
G1 X-0.26365 Y0.25461 Z0.0 E1.09956
G1 X-0.25917 Y0.25917 Z0.0 E1.09956
G1 X-0.25461 Y0.26365 Z0.0 E1.09956
G1 X-0.24997 Y0.26806 Z0.0 E1.09956
G1 X-0.24525 Y0.27238 Z0.0 E1.09956
G1 X-0.24046 Y0.27662 Z0.0 E1.09956
G1 X-0.23559 Y0.28077 Z0.0 E1.09956
G1 X-0.23066 Y0.28484 Z0.0 E1.09956
G1 X-0.22565 Y0.28882 Z0.0 E1.09956
G1 X-0.22058 Y0.29272 Z0.0 E1.09956
G1 X-0.21543 Y0.29652 Z0.0 E1.09956
G1 X-0.21023 Y0.30023 Z0.0 E1.09956
G1 X-0.20495 Y0.30386 Z0.0 E1.09956
G1 X-0.19962 Y0.30739 Z0.0 E1.09956
G1 X-0.19423 Y0.31083 Z0.0 E1.09956
G1 X-0.18877 Y0.31417 Z0.0 E1.09956
G1 X-0.18326 Y0.31741 Z0.0 E1.09956
G1 X-0.17769 Y0.32056 Z0.0 E1.09956
G1 X-0.17207 Y0.32362 Z0.0 E1.09956
G1 X-0.1664 Y0.32657 Z0.0 E1.09956
G1 X-0.16067 Y0.32943 Z0.0 E1.09956
G1 X-0.1549 Y0.33218 Z0.0 E1.09956
G1 X-0.14908 Y0.33483 Z0.0 E1.09956
G1 X-0.14321 Y0.33738 Z0.0 E1.09956
G1 X-0.1373 Y0.33983 Z0.0 E1.09956
G1 X-0.13135 Y0.34218 Z0.0 E1.09956
G1 X-0.12536 Y0.34442 Z0.0 E1.09956
G1 X-0.11933 Y0.34655 Z0.0 E1.09956
G1 X-0.11326 Y0.34858 Z0.0 E1.09956
G1 X-0.10716 Y0.3505 Z0.0 E1.09956
G1 X-0.10103 Y0.35232 Z0.0 E1.09956
G1 X-0.09486 Y0.35403 Z0.0 E1.09956
G1 X-0.08867 Y0.35563 Z0.0 E1.09956
G1 X-0.08245 Y0.35713 Z0.0 E1.09956
G1 X-0.0762 Y0.35851 Z0.0 E1.09956
G1 X-0.06994 Y0.35979 Z0.0 E1.09956
G1 X-0.06365 Y0.36095 Z0.0 E1.09956
G1 X-0.05734 Y0.36201 Z0.0 E1.09956
G1 X-0.05101 Y0.36295 Z0.0 E1.09956
G1 X-0.04467 Y0.36379 Z0.0 E1.09956
G1 X-0.03831 Y0.36451 Z0.0 E1.09956
G1 X-0.03194 Y0.36512 Z0.0 E1.09956
G1 X-0.02557 Y0.36563 Z0.0 E1.09956
G1 X-0.01918 Y0.36602 Z0.0 E1.09956
G1 X-0.01279 Y0.3663 Z0.0 E1.09956
G1 X-0.0064 Y0.36646 Z0.0 E1.09956
G1 X-0.0 Y0.36652 Z0.0 E1.09956
G1 X0.0064 Y0.36646 Z0.0 E1.09956
G1 X0.01279 Y0.3663 Z0.0 E1.09956
G1 X0.01918 Y0.36602 Z0.0 E1.09956
G1 X0.02557 Y0.36563 Z0.0 E1.09956
G1 X0.03194 Y0.36512 Z0.0 E1.09956
G1 X0.03831 Y0.36451 Z0.0 E1.09956
G1 X0.04467 Y0.36379 Z0.0 E1.09956
G1 X0.05101 Y0.36295 Z0.0 E1.09956
G1 X0.05734 Y0.36201 Z0.0 E1.09956
G1 X0.06365 Y0.36095 Z0.0 E1.09956
G1 X0.06994 Y0.35979 Z0.0 E1.09956
G1 X0.0762 Y0.35851 Z0.0 E1.09956
G1 X0.08245 Y0.35713 Z0.0 E1.09956
G1 X0.08867 Y0.35563 Z0.0 E1.09956
G1 X0.09486 Y0.35403 Z0.0 E1.09956
G1 X0.10103 Y0.35232 Z0.0 E1.09956
G1 X0.10716 Y0.3505 Z0.0 E1.09956
G1 X0.11326 Y0.34858 Z0.0 E1.09956
G1 X0.11933 Y0.34655 Z0.0 E1.09956
G1 X0.12536 Y0.34442 Z0.0 E1.09956
G1 X0.13135 Y0.34218 Z0.0 E1.09956
G1 X0.1373 Y0.33983 Z0.0 E1.09956
G1 X0.14321 Y0.33738 Z0.0 E1.09956
G1 X0.14908 Y0.33483 Z0.0 E1.09956
G1 X0.1549 Y0.33218 Z0.0 E1.09956
G1 X0.16067 Y0.32943 Z0.0 E1.09956
G1 X0.1664 Y0.32657 Z0.0 E1.09956
G1 X0.17207 Y0.32362 Z0.0 E1.09956
G1 X0.17769 Y0.32056 Z0.0 E1.09956
G1 X0.18326 Y0.31741 Z0.0 E1.09956
G1 X0.18877 Y0.31417 Z0.0 E1.09956
G1 X0.19423 Y0.31083 Z0.0 E1.09956
G1 X0.19962 Y0.30739 Z0.0 E1.09956
G1 X0.20495 Y0.30386 Z0.0 E1.09956
G1 X0.21023 Y0.30023 Z0.0 E1.09956
G1 X0.21543 Y0.29652 Z0.0 E1.09956
G1 X0.22058 Y0.29272 Z0.0 E1.09956
G1 X0.22565 Y0.28882 Z0.0 E1.09956
G1 X0.23066 Y0.28484 Z0.0 E1.09956
G1 X0.23559 Y0.28077 Z0.0 E1.09956
G1 X0.24046 Y0.27662 Z0.0 E1.09956
G1 X0.24525 Y0.27238 Z0.0 E1.09956
G1 X0.24997 Y0.26806 Z0.0 E1.09956
G1 X0.25461 Y0.26365 Z0.0 E1.09956
G1 X0.25917 Y0.25917 Z0.0 E1.09956
G1 X0.26365 Y0.25461 Z0.0 E1.09956
G1 X0.26806 Y0.24997 Z0.0 E1.09956
G1 X0.27238 Y0.24525 Z0.0 E1.09956
G1 X0.27662 Y0.24046 Z0.0 E1.09956
G1 X0.28077 Y0.23559 Z0.0 E1.09956
G1 X0.28484 Y0.23066 Z0.0 E1.09956
G1 X0.28882 Y0.22565 Z0.0 E1.09956
G1 X0.29272 Y0.22058 Z0.0 E1.09956
G1 X0.29652 Y0.21543 Z0.0 E1.09956
G1 X0.30023 Y0.21023 Z0.0 E1.09956
G1 X0.30386 Y0.20495 Z0.0 E1.09956
G1 X0.30739 Y0.19962 Z0.0 E1.09956
G1 X0.31083 Y0.19423 Z0.0 E1.09956
G1 X0.31417 Y0.18877 Z0.0 E1.09956
G1 X0.31741 Y0.18326 Z0.0 E1.09956
G1 X0.32056 Y0.17769 Z0.0 E1.09956
G1 X0.32362 Y0.17207 Z0.0 E1.09956
G1 X0.32657 Y0.1664 Z0.0 E1.09956
G1 X0.32943 Y0.16067 Z0.0 E1.09956
G1 X0.33218 Y0.1549 Z0.0 E1.09956
G1 X0.33483 Y0.14908 Z0.0 E1.09956
G1 X0.33738 Y0.14321 Z0.0 E1.09956
G1 X0.33983 Y0.1373 Z0.0 E1.09956
G1 X0.34218 Y0.13135 Z0.0 E1.09956
G1 X0.34442 Y0.12536 Z0.0 E1.09956
G1 X0.34655 Y0.11933 Z0.0 E1.09956
G1 X0.34858 Y0.11326 Z0.0 E1.09956
G1 X0.3505 Y0.10716 Z0.0 E1.09956
G1 X0.35232 Y0.10103 Z0.0 E1.09956
G1 X0.35403 Y0.09486 Z0.0 E1.09956
G1 X0.35563 Y0.08867 Z0.0 E1.09956
G1 X0.35713 Y0.08245 Z0.0 E1.09956
G1 X0.35851 Y0.0762 Z0.0 E1.09956
G1 X0.35979 Y0.06994 Z0.0 E1.09956
G1 X0.36095 Y0.06365 Z0.0 E1.09956
G1 X0.36201 Y0.05734 Z0.0 E1.09956
G1 X0.36295 Y0.05101 Z0.0 E1.09956
G1 X0.36379 Y0.04467 Z0.0 E1.09956
G1 X0.36451 Y0.03831 Z0.0 E1.09956
G1 X0.36512 Y0.03194 Z0.0 E1.09956
G1 X0.36563 Y0.02557 Z0.0 E1.09956
G1 X0.36602 Y0.01918 Z0.0 E1.09956
G1 X0.3663 Y0.01279 Z0.0 E1.09956
G1 X0.36646 Y0.0064 Z0.0 E1.09956
G1 X-0.0 Y3.5 Z0.0 E10.5
; starting polygon
G1 X0.42761 Y0.0 Z0.0 E1.28282
G1 X0.42754 Y-0.00746 Z0.0 E1.28282
G1 X0.42735 Y-0.01492 Z0.0 E1.28282
G1 X0.42702 Y-0.02238 Z0.0 E1.28282
G1 X0.42656 Y-0.02983 Z0.0 E1.28282
G1 X0.42598 Y-0.03727 Z0.0 E1.28282
G1 X0.42526 Y-0.0447 Z0.0 E1.28282
G1 X0.42442 Y-0.05211 Z0.0 E1.28282
G1 X0.42344 Y-0.05951 Z0.0 E1.28282
G1 X0.42234 Y-0.06689 Z0.0 E1.28282
G1 X0.42111 Y-0.07425 Z0.0 E1.28282
G1 X0.41975 Y-0.08159 Z0.0 E1.28282
G1 X0.41826 Y-0.0889 Z0.0 E1.28282
G1 X0.41665 Y-0.09619 Z0.0 E1.28282
G1 X0.4149 Y-0.10345 Z0.0 E1.28282
G1 X0.41304 Y-0.11067 Z0.0 E1.28282
G1 X0.41104 Y-0.11786 Z0.0 E1.28282
G1 X0.40892 Y-0.12502 Z0.0 E1.28282
G1 X0.40668 Y-0.13214 Z0.0 E1.28282
G1 X0.40431 Y-0.13921 Z0.0 E1.28282
G1 X0.40182 Y-0.14625 Z0.0 E1.28282
G1 X0.3992 Y-0.15324 Z0.0 E1.28282
G1 X0.39647 Y-0.16018 Z0.0 E1.28282
G1 X0.39361 Y-0.16708 Z0.0 E1.28282
G1 X0.39064 Y-0.17392 Z0.0 E1.28282
G1 X0.38754 Y-0.18071 Z0.0 E1.28282
G1 X0.38433 Y-0.18745 Z0.0 E1.28282
G1 X0.381 Y-0.19413 Z0.0 E1.28282
G1 X0.37755 Y-0.20075 Z0.0 E1.28282
G1 X0.37399 Y-0.20731 Z0.0 E1.28282
G1 X0.37032 Y-0.2138 Z0.0 E1.28282
G1 X0.36653 Y-0.22023 Z0.0 E1.28282
G1 X0.36263 Y-0.2266 Z0.0 E1.28282
G1 X0.35862 Y-0.23289 Z0.0 E1.28282
G1 X0.3545 Y-0.23911 Z0.0 E1.28282
G1 X0.35027 Y-0.24526 Z0.0 E1.28282
G1 X0.34594 Y-0.25134 Z0.0 E1.28282
G1 X0.3415 Y-0.25734 Z0.0 E1.28282
G1 X0.33696 Y-0.26326 Z0.0 E1.28282
G1 X0.33231 Y-0.2691 Z0.0 E1.28282
G1 X0.32756 Y-0.27486 Z0.0 E1.28282
G1 X0.32272 Y-0.28053 Z0.0 E1.28282
G1 X0.31777 Y-0.28612 Z0.0 E1.28282
G1 X0.31273 Y-0.29163 Z0.0 E1.28282
G1 X0.30759 Y-0.29704 Z0.0 E1.28282
G1 X0.30236 Y-0.30236 Z0.0 E1.28282
G1 X0.29704 Y-0.30759 Z0.0 E1.28282
G1 X0.29163 Y-0.31273 Z0.0 E1.28282
G1 X0.28612 Y-0.31777 Z0.0 E1.28282
G1 X0.28053 Y-0.32272 Z0.0 E1.28282
G1 X0.27486 Y-0.32756 Z0.0 E1.28282
G1 X0.2691 Y-0.33231 Z0.0 E1.28282
G1 X0.26326 Y-0.33696 Z0.0 E1.28282
G1 X0.25734 Y-0.3415 Z0.0 E1.28282
G1 X0.25134 Y-0.34594 Z0.0 E1.28282
G1 X0.24526 Y-0.35027 Z0.0 E1.28282
G1 X0.23911 Y-0.3545 Z0.0 E1.28282
G1 X0.23289 Y-0.35862 Z0.0 E1.28282
G1 X0.2266 Y-0.36263 Z0.0 E1.28282
G1 X0.22023 Y-0.36653 Z0.0 E1.28282
G1 X0.2138 Y-0.37032 Z0.0 E1.28282
G1 X0.20731 Y-0.37399 Z0.0 E1.28282
G1 X0.20075 Y-0.37755 Z0.0 E1.28282
G1 X0.19413 Y-0.381 Z0.0 E1.28282
G1 X0.18745 Y-0.38433 Z0.0 E1.28282
G1 X0.18071 Y-0.38754 Z0.0 E1.28282
G1 X0.17392 Y-0.39064 Z0.0 E1.28282
G1 X0.16708 Y-0.39361 Z0.0 E1.28282
G1 X0.16018 Y-0.39647 Z0.0 E1.28282
G1 X0.15324 Y-0.3992 Z0.0 E1.28282
G1 X0.14625 Y-0.40182 Z0.0 E1.28282
G1 X0.13921 Y-0.40431 Z0.0 E1.28282
G1 X0.13214 Y-0.40668 Z0.0 E1.28282
G1 X0.12502 Y-0.40892 Z0.0 E1.28282
G1 X0.11786 Y-0.41104 Z0.0 E1.28282
G1 X0.11067 Y-0.41304 Z0.0 E1.28282
G1 X0.10345 Y-0.4149 Z0.0 E1.28282
G1 X0.09619 Y-0.41665 Z0.0 E1.28282
G1 X0.0889 Y-0.41826 Z0.0 E1.28282
G1 X0.08159 Y-0.41975 Z0.0 E1.28282
G1 X0.07425 Y-0.42111 Z0.0 E1.28282
G1 X0.06689 Y-0.42234 Z0.0 E1.28282
G1 X0.05951 Y-0.42344 Z0.0 E1.28282
G1 X0.05211 Y-0.42442 Z0.0 E1.28282
G1 X0.0447 Y-0.42526 Z0.0 E1.28282
G1 X0.03727 Y-0.42598 Z0.0 E1.28282
G1 X0.02983 Y-0.42656 Z0.0 E1.28282
G1 X0.02238 Y-0.42702 Z0.0 E1.28282
G1 X0.01492 Y-0.42735 Z0.0 E1.28282
G1 X0.00746 Y-0.42754 Z0.0 E1.28282
G1 X0.0 Y-0.42761 Z0.0 E1.28282
G1 X-0.00746 Y-0.42754 Z0.0 E1.28282
G1 X-0.01492 Y-0.42735 Z0.0 E1.28282
G1 X-0.02238 Y-0.42702 Z0.0 E1.28282
G1 X-0.02983 Y-0.42656 Z0.0 E1.28282
G1 X-0.03727 Y-0.42598 Z0.0 E1.28282
G1 X-0.0447 Y-0.42526 Z0.0 E1.28282
G1 X-0.05211 Y-0.42442 Z0.0 E1.28282
G1 X-0.05951 Y-0.42344 Z0.0 E1.28282
G1 X-0.06689 Y-0.42234 Z0.0 E1.28282
G1 X-0.07425 Y-0.42111 Z0.0 E1.28282
G1 X-0.08159 Y-0.41975 Z0.0 E1.28282
G1 X-0.0889 Y-0.41826 Z0.0 E1.28282
G1 X-0.09619 Y-0.41665 Z0.0 E1.28282
G1 X-0.10345 Y-0.4149 Z0.0 E1.28282
G1 X-0.11067 Y-0.41304 Z0.0 E1.28282
G1 X-0.11786 Y-0.41104 Z0.0 E1.28282
G1 X-0.12502 Y-0.40892 Z0.0 E1.28282
G1 X-0.13214 Y-0.40668 Z0.0 E1.28282
G1 X-0.13921 Y-0.40431 Z0.0 E1.28282
G1 X-0.14625 Y-0.40182 Z0.0 E1.28282
G1 X-0.15324 Y-0.3992 Z0.0 E1.28282
G1 X-0.16018 Y-0.39647 Z0.0 E1.28282
G1 X-0.16708 Y-0.39361 Z0.0 E1.28282
G1 X-0.17392 Y-0.39064 Z0.0 E1.28282
G1 X-0.18071 Y-0.38754 Z0.0 E1.28282
G1 X-0.18745 Y-0.38433 Z0.0 E1.28282
G1 X-0.19413 Y-0.381 Z0.0 E1.28282
G1 X-0.20075 Y-0.37755 Z0.0 E1.28282
G1 X-0.20731 Y-0.37399 Z0.0 E1.28282
G1 X-0.2138 Y-0.37032 Z0.0 E1.28282
G1 X-0.22023 Y-0.36653 Z0.0 E1.28282
G1 X-0.2266 Y-0.36263 Z0.0 E1.28282
G1 X-0.23289 Y-0.35862 Z0.0 E1.28282
G1 X-0.23911 Y-0.3545 Z0.0 E1.28282
G1 X-0.24526 Y-0.35027 Z0.0 E1.28282
G1 X-0.25134 Y-0.34594 Z0.0 E1.28282
G1 X-0.25734 Y-0.3415 Z0.0 E1.28282
G1 X-0.26326 Y-0.33696 Z0.0 E1.28282
G1 X-0.2691 Y-0.33231 Z0.0 E1.28282
G1 X-0.27486 Y-0.32756 Z0.0 E1.28282
G1 X-0.28053 Y-0.32272 Z0.0 E1.28282
G1 X-0.28612 Y-0.31777 Z0.0 E1.28282
G1 X-0.29163 Y-0.31273 Z0.0 E1.28282
G1 X-0.29704 Y-0.30759 Z0.0 E1.28282
G1 X-0.30236 Y-0.30236 Z0.0 E1.28282
G1 X-0.30759 Y-0.29704 Z0.0 E1.28282
G1 X-0.31273 Y-0.29163 Z0.0 E1.28282
G1 X-0.31777 Y-0.28612 Z0.0 E1.28282
G1 X-0.32272 Y-0.28053 Z0.0 E1.28282
G1 X-0.32756 Y-0.27486 Z0.0 E1.28282
G1 X-0.33231 Y-0.2691 Z0.0 E1.28282
G1 X-0.33696 Y-0.26326 Z0.0 E1.28282
G1 X-0.3415 Y-0.25734 Z0.0 E1.28282
G1 X-0.34594 Y-0.25134 Z0.0 E1.28282
G1 X-0.35027 Y-0.24526 Z0.0 E1.28282
G1 X-0.3545 Y-0.23911 Z0.0 E1.28282
G1 X-0.35862 Y-0.23289 Z0.0 E1.28282
G1 X-0.36263 Y-0.2266 Z0.0 E1.28282
G1 X-0.36653 Y-0.22023 Z0.0 E1.28282
G1 X-0.37032 Y-0.2138 Z0.0 E1.28282
G1 X-0.37399 Y-0.20731 Z0.0 E1.28282
G1 X-0.37755 Y-0.20075 Z0.0 E1.28282
G1 X-0.381 Y-0.19413 Z0.0 E1.28282
G1 X-0.38433 Y-0.18745 Z0.0 E1.28282
G1 X-0.38754 Y-0.18071 Z0.0 E1.28282
G1 X-0.39064 Y-0.17392 Z0.0 E1.28282
G1 X-0.39361 Y-0.16708 Z0.0 E1.28282
G1 X-0.39647 Y-0.16018 Z0.0 E1.28282
G1 X-0.3992 Y-0.15324 Z0.0 E1.28282
G1 X-0.40182 Y-0.14625 Z0.0 E1.28282
G1 X-0.40431 Y-0.13921 Z0.0 E1.28282
G1 X-0.40668 Y-0.13214 Z0.0 E1.28282
G1 X-0.40892 Y-0.12502 Z0.0 E1.28282
G1 X-0.41104 Y-0.11786 Z0.0 E1.28282
G1 X-0.41304 Y-0.11067 Z0.0 E1.28282
G1 X-0.4149 Y-0.10345 Z0.0 E1.28282
G1 X-0.41665 Y-0.09619 Z0.0 E1.28282
G1 X-0.41826 Y-0.0889 Z0.0 E1.28282
G1 X-0.41975 Y-0.08159 Z0.0 E1.28282
G1 X-0.42111 Y-0.07425 Z0.0 E1.28282
G1 X-0.42234 Y-0.06689 Z0.0 E1.28282
G1 X-0.42344 Y-0.05951 Z0.0 E1.28282
G1 X-0.42442 Y-0.05211 Z0.0 E1.28282
G1 X-0.42526 Y-0.0447 Z0.0 E1.28282
G1 X-0.42598 Y-0.03727 Z0.0 E1.28282
G1 X-0.42656 Y-0.02983 Z0.0 E1.28282
G1 X-0.42702 Y-0.02238 Z0.0 E1.28282
G1 X-0.42735 Y-0.01492 Z0.0 E1.28282
G1 X-0.42754 Y-0.00746 Z0.0 E1.28282
G1 X-0.42761 Y-0.0 Z0.0 E1.28282
G1 X-0.42754 Y0.00746 Z0.0 E1.28282
G1 X-0.42735 Y0.01492 Z0.0 E1.28282
G1 X-0.42702 Y0.02238 Z0.0 E1.28282
G1 X-0.42656 Y0.02983 Z0.0 E1.28282
G1 X-0.42598 Y0.03727 Z0.0 E1.28282
G1 X-0.42526 Y0.0447 Z0.0 E1.28282
G1 X-0.42442 Y0.05211 Z0.0 E1.28282
G1 X-0.42344 Y0.05951 Z0.0 E1.28282
G1 X-0.42234 Y0.06689 Z0.0 E1.28282
G1 X-0.42111 Y0.07425 Z0.0 E1.28282
G1 X-0.41975 Y0.08159 Z0.0 E1.28282
G1 X-0.41826 Y0.0889 Z0.0 E1.28282
G1 X-0.41665 Y0.09619 Z0.0 E1.28282
G1 X-0.4149 Y0.10345 Z0.0 E1.28282
G1 X-0.41304 Y0.11067 Z0.0 E1.28282
G1 X-0.41104 Y0.11786 Z0.0 E1.28282
G1 X-0.40892 Y0.12502 Z0.0 E1.28282
G1 X-0.40668 Y0.13214 Z0.0 E1.28282
G1 X-0.40431 Y0.13921 Z0.0 E1.28282
G1 X-0.40182 Y0.14625 Z0.0 E1.28282
G1 X-0.3992 Y0.15324 Z0.0 E1.28282
G1 X-0.39647 Y0.16018 Z0.0 E1.28282
G1 X-0.39361 Y0.16708 Z0.0 E1.28282
G1 X-0.39064 Y0.17392 Z0.0 E1.28282
G1 X-0.38754 Y0.18071 Z0.0 E1.28282
G1 X-0.38433 Y0.18745 Z0.0 E1.28282
G1 X-0.381 Y0.19413 Z0.0 E1.28282
G1 X-0.37755 Y0.20075 Z0.0 E1.28282
G1 X-0.37399 Y0.20731 Z0.0 E1.28282
G1 X-0.37032 Y0.2138 Z0.0 E1.28282
G1 X-0.36653 Y0.22023 Z0.0 E1.28282
G1 X-0.36263 Y0.2266 Z0.0 E1.28282
G1 X-0.35862 Y0.23289 Z0.0 E1.28282
G1 X-0.3545 Y0.23911 Z0.0 E1.28282
G1 X-0.35027 Y0.24526 Z0.0 E1.28282
G1 X-0.34594 Y0.25134 Z0.0 E1.28282
G1 X-0.3415 Y0.25734 Z0.0 E1.28282
G1 X-0.33696 Y0.26326 Z0.0 E1.28282
G1 X-0.33231 Y0.2691 Z0.0 E1.28282
G1 X-0.32756 Y0.27486 Z0.0 E1.28282
G1 X-0.32272 Y0.28053 Z0.0 E1.28282
G1 X-0.31777 Y0.28612 Z0.0 E1.28282
G1 X-0.31273 Y0.29163 Z0.0 E1.28282
G1 X-0.30759 Y0.29704 Z0.0 E1.28282
G1 X-0.30236 Y0.30236 Z0.0 E1.28282
G1 X-0.29704 Y0.30759 Z0.0 E1.28282
G1 X-0.29163 Y0.31273 Z0.0 E1.28282
G1 X-0.28612 Y0.31777 Z0.0 E1.28282
G1 X-0.28053 Y0.32272 Z0.0 E1.28282
G1 X-0.27486 Y0.32756 Z0.0 E1.28282
G1 X-0.2691 Y0.33231 Z0.0 E1.28282
G1 X-0.26326 Y0.33696 Z0.0 E1.28282
G1 X-0.25734 Y0.3415 Z0.0 E1.28282
G1 X-0.25134 Y0.34594 Z0.0 E1.28282
G1 X-0.24526 Y0.35027 Z0.0 E1.28282
G1 X-0.23911 Y0.3545 Z0.0 E1.28282
G1 X-0.23289 Y0.35862 Z0.0 E1.28282
G1 X-0.2266 Y0.36263 Z0.0 E1.28282
G1 X-0.22023 Y0.36653 Z0.0 E1.28282
G1 X-0.2138 Y0.37032 Z0.0 E1.28282
G1 X-0.20731 Y0.37399 Z0.0 E1.28282
G1 X-0.20075 Y0.37755 Z0.0 E1.28282
G1 X-0.19413 Y0.381 Z0.0 E1.28282
G1 X-0.18745 Y0.38433 Z0.0 E1.28282
G1 X-0.18071 Y0.38754 Z0.0 E1.28282
G1 X-0.17392 Y0.39064 Z0.0 E1.28282
G1 X-0.16708 Y0.39361 Z0.0 E1.28282
G1 X-0.16018 Y0.39647 Z0.0 E1.28282
G1 X-0.15324 Y0.3992 Z0.0 E1.28282
G1 X-0.14625 Y0.40182 Z0.0 E1.28282
G1 X-0.13921 Y0.40431 Z0.0 E1.28282
G1 X-0.13214 Y0.40668 Z0.0 E1.28282
G1 X-0.12502 Y0.40892 Z0.0 E1.28282
G1 X-0.11786 Y0.41104 Z0.0 E1.28282
G1 X-0.11067 Y0.41304 Z0.0 E1.28282
G1 X-0.10345 Y0.4149 Z0.0 E1.28282
G1 X-0.09619 Y0.41665 Z0.0 E1.28282
G1 X-0.0889 Y0.41826 Z0.0 E1.28282
G1 X-0.08159 Y0.41975 Z0.0 E1.28282
G1 X-0.07425 Y0.42111 Z0.0 E1.28282
G1 X-0.06689 Y0.42234 Z0.0 E1.28282
G1 X-0.05951 Y0.42344 Z0.0 E1.28282
G1 X-0.05211 Y0.42442 Z0.0 E1.28282
G1 X-0.0447 Y0.42526 Z0.0 E1.28282
G1 X-0.03727 Y0.42598 Z0.0 E1.28282
G1 X-0.02983 Y0.42656 Z0.0 E1.28282
G1 X-0.02238 Y0.42702 Z0.0 E1.28282
G1 X-0.01492 Y0.42735 Z0.0 E1.28282
G1 X-0.00746 Y0.42754 Z0.0 E1.28282
G1 X-0.0 Y0.42761 Z0.0 E1.28282
G1 X0.00746 Y0.42754 Z0.0 E1.28282
G1 X0.01492 Y0.42735 Z0.0 E1.28282
G1 X0.02238 Y0.42702 Z0.0 E1.28282
G1 X0.02983 Y0.42656 Z0.0 E1.28282
G1 X0.03727 Y0.42598 Z0.0 E1.28282
G1 X0.0447 Y0.42526 Z0.0 E1.28282
G1 X0.05211 Y0.42442 Z0.0 E1.28282
G1 X0.05951 Y0.42344 Z0.0 E1.28282
G1 X0.06689 Y0.42234 Z0.0 E1.28282
G1 X0.07425 Y0.42111 Z0.0 E1.28282
G1 X0.08159 Y0.41975 Z0.0 E1.28282
G1 X0.0889 Y0.41826 Z0.0 E1.28282
G1 X0.09619 Y0.41665 Z0.0 E1.28282
G1 X0.10345 Y0.4149 Z0.0 E1.28282
G1 X0.11067 Y0.41304 Z0.0 E1.28282
G1 X0.11786 Y0.41104 Z0.0 E1.28282
G1 X0.12502 Y0.40892 Z0.0 E1.28282
G1 X0.13214 Y0.40668 Z0.0 E1.28282
G1 X0.13921 Y0.40431 Z0.0 E1.28282
G1 X0.14625 Y0.40182 Z0.0 E1.28282
G1 X0.15324 Y0.3992 Z0.0 E1.28282
G1 X0.16018 Y0.39647 Z0.0 E1.28282
G1 X0.16708 Y0.39361 Z0.0 E1.28282
G1 X0.17392 Y0.39064 Z0.0 E1.28282
G1 X0.18071 Y0.38754 Z0.0 E1.28282
G1 X0.18745 Y0.38433 Z0.0 E1.28282
G1 X0.19413 Y0.381 Z0.0 E1.28282
G1 X0.20075 Y0.37755 Z0.0 E1.28282
G1 X0.20731 Y0.37399 Z0.0 E1.28282
G1 X0.2138 Y0.37032 Z0.0 E1.28282
G1 X0.22023 Y0.36653 Z0.0 E1.28282
G1 X0.2266 Y0.36263 Z0.0 E1.28282
G1 X0.23289 Y0.35862 Z0.0 E1.28282
G1 X0.23911 Y0.3545 Z0.0 E1.28282
G1 X0.24526 Y0.35027 Z0.0 E1.28282
G1 X0.25134 Y0.34594 Z0.0 E1.28282
G1 X0.25734 Y0.3415 Z0.0 E1.28282
G1 X0.26326 Y0.33696 Z0.0 E1.28282
G1 X0.2691 Y0.33231 Z0.0 E1.28282
G1 X0.27486 Y0.32756 Z0.0 E1.28282
G1 X0.28053 Y0.32272 Z0.0 E1.28282
G1 X0.28612 Y0.31777 Z0.0 E1.28282
G1 X0.29163 Y0.31273 Z0.0 E1.28282
G1 X0.29704 Y0.30759 Z0.0 E1.28282
G1 X0.30236 Y0.30236 Z0.0 E1.28282
G1 X0.30759 Y0.29704 Z0.0 E1.28282
G1 X0.31273 Y0.29163 Z0.0 E1.28282
G1 X0.31777 Y0.28612 Z0.0 E1.28282
G1 X0.32272 Y0.28053 Z0.0 E1.28282
G1 X0.32756 Y0.27486 Z0.0 E1.28282
G1 X0.33231 Y0.2691 Z0.0 E1.28282
G1 X0.33696 Y0.26326 Z0.0 E1.28282
G1 X0.3415 Y0.25734 Z0.0 E1.28282
G1 X0.34594 Y0.25134 Z0.0 E1.28282
G1 X0.35027 Y0.24526 Z0.0 E1.28282
G1 X0.3545 Y0.23911 Z0.0 E1.28282
G1 X0.35862 Y0.23289 Z0.0 E1.28282
G1 X0.36263 Y0.2266 Z0.0 E1.28282
G1 X0.36653 Y0.22023 Z0.0 E1.28282
G1 X0.37032 Y0.2138 Z0.0 E1.28282
G1 X0.37399 Y0.20731 Z0.0 E1.28282
G1 X0.37755 Y0.20075 Z0.0 E1.28282
G1 X0.381 Y0.19413 Z0.0 E1.28282
G1 X0.38433 Y0.18745 Z0.0 E1.28282
G1 X0.38754 Y0.18071 Z0.0 E1.28282
G1 X0.39064 Y0.17392 Z0.0 E1.28282
G1 X0.39361 Y0.16708 Z0.0 E1.28282
G1 X0.39647 Y0.16018 Z0.0 E1.28282
G1 X0.3992 Y0.15324 Z0.0 E1.28282
G1 X0.40182 Y0.14625 Z0.0 E1.28282
G1 X0.40431 Y0.13921 Z0.0 E1.28282
G1 X0.40668 Y0.13214 Z0.0 E1.28282
G1 X0.40892 Y0.12502 Z0.0 E1.28282
G1 X0.41104 Y0.11786 Z0.0 E1.28282
G1 X0.41304 Y0.11067 Z0.0 E1.28282
G1 X0.4149 Y0.10345 Z0.0 E1.28282
G1 X0.41665 Y0.09619 Z0.0 E1.28282
G1 X0.41826 Y0.0889 Z0.0 E1.28282
G1 X0.41975 Y0.08159 Z0.0 E1.28282
G1 X0.42111 Y0.07425 Z0.0 E1.28282
G1 X0.42234 Y0.06689 Z0.0 E1.28282
G1 X0.42344 Y0.05951 Z0.0 E1.28282
G1 X0.42442 Y0.05211 Z0.0 E1.28282
G1 X0.42526 Y0.0447 Z0.0 E1.28282
G1 X0.42598 Y0.03727 Z0.0 E1.28282
G1 X0.42656 Y0.02983 Z0.0 E1.28282
G1 X0.42702 Y0.02238 Z0.0 E1.28282
G1 X0.42735 Y0.01492 Z0.0 E1.28282
G1 X0.42754 Y0.00746 Z0.0 E1.28282
G1 X-0.0 Y0.5 Z0.0 E1.5
; starting polygon
G1 X0.43633 Y0.0 Z0.0 E1.309
G1 X0.43627 Y-0.00762 Z0.0 E1.309
G1 X0.43607 Y-0.01523 Z0.0 E1.309
G1 X0.43573 Y-0.02284 Z0.0 E1.309
G1 X0.43527 Y-0.03044 Z0.0 E1.309
G1 X0.43467 Y-0.03803 Z0.0 E1.309
G1 X0.43394 Y-0.04561 Z0.0 E1.309
G1 X0.43308 Y-0.05318 Z0.0 E1.309
G1 X0.43209 Y-0.06073 Z0.0 E1.309
G1 X0.43096 Y-0.06826 Z0.0 E1.309
G1 X0.4297 Y-0.07577 Z0.0 E1.309
G1 X0.42832 Y-0.08326 Z0.0 E1.309
G1 X0.4268 Y-0.09072 Z0.0 E1.309
G1 X0.42515 Y-0.09815 Z0.0 E1.309
G1 X0.42337 Y-0.10556 Z0.0 E1.309
G1 X0.42146 Y-0.11293 Z0.0 E1.309
G1 X0.41943 Y-0.12027 Z0.0 E1.309
G1 X0.41727 Y-0.12757 Z0.0 E1.309
G1 X0.41498 Y-0.13483 Z0.0 E1.309
G1 X0.41256 Y-0.14206 Z0.0 E1.309
G1 X0.41002 Y-0.14923 Z0.0 E1.309
G1 X0.40735 Y-0.15637 Z0.0 E1.309
G1 X0.40456 Y-0.16345 Z0.0 E1.309
G1 X0.40165 Y-0.17049 Z0.0 E1.309
G1 X0.39861 Y-0.17747 Z0.0 E1.309
G1 X0.39545 Y-0.1844 Z0.0 E1.309
G1 X0.39217 Y-0.19128 Z0.0 E1.309
G1 X0.38877 Y-0.19809 Z0.0 E1.309
G1 X0.38526 Y-0.20485 Z0.0 E1.309
G1 X0.38162 Y-0.21154 Z0.0 E1.309
G1 X0.37787 Y-0.21817 Z0.0 E1.309
G1 X0.37401 Y-0.22473 Z0.0 E1.309
G1 X0.37003 Y-0.23122 Z0.0 E1.309
G1 X0.36594 Y-0.23764 Z0.0 E1.309
G1 X0.36174 Y-0.24399 Z0.0 E1.309
G1 X0.35742 Y-0.25027 Z0.0 E1.309
G1 X0.353 Y-0.25647 Z0.0 E1.309
G1 X0.34847 Y-0.26259 Z0.0 E1.309
G1 X0.34383 Y-0.26863 Z0.0 E1.309
G1 X0.33909 Y-0.27459 Z0.0 E1.309
G1 X0.33425 Y-0.28047 Z0.0 E1.309
G1 X0.3293 Y-0.28626 Z0.0 E1.309
G1 X0.32426 Y-0.29196 Z0.0 E1.309
G1 X0.31911 Y-0.29758 Z0.0 E1.309
G1 X0.31387 Y-0.3031 Z0.0 E1.309
G1 X0.30853 Y-0.30853 Z0.0 E1.309
G1 X0.3031 Y-0.31387 Z0.0 E1.309
G1 X0.29758 Y-0.31911 Z0.0 E1.309
G1 X0.29196 Y-0.32426 Z0.0 E1.309
G1 X0.28626 Y-0.3293 Z0.0 E1.309
G1 X0.28047 Y-0.33425 Z0.0 E1.309
G1 X0.27459 Y-0.33909 Z0.0 E1.309
G1 X0.26863 Y-0.34383 Z0.0 E1.309
G1 X0.26259 Y-0.34847 Z0.0 E1.309
G1 X0.25647 Y-0.353 Z0.0 E1.309
G1 X0.25027 Y-0.35742 Z0.0 E1.309
G1 X0.24399 Y-0.36174 Z0.0 E1.309
G1 X0.23764 Y-0.36594 Z0.0 E1.309
G1 X0.23122 Y-0.37003 Z0.0 E1.309
G1 X0.22473 Y-0.37401 Z0.0 E1.309
G1 X0.21817 Y-0.37787 Z0.0 E1.309
G1 X0.21154 Y-0.38162 Z0.0 E1.309
G1 X0.20485 Y-0.38526 Z0.0 E1.309
G1 X0.19809 Y-0.38877 Z0.0 E1.309
G1 X0.19128 Y-0.39217 Z0.0 E1.309
G1 X0.1844 Y-0.39545 Z0.0 E1.309
G1 X0.17747 Y-0.39861 Z0.0 E1.309
G1 X0.17049 Y-0.40165 Z0.0 E1.309
G1 X0.16345 Y-0.40456 Z0.0 E1.309
G1 X0.15637 Y-0.40735 Z0.0 E1.309
G1 X0.14923 Y-0.41002 Z0.0 E1.309
G1 X0.14206 Y-0.41256 Z0.0 E1.309
G1 X0.13483 Y-0.41498 Z0.0 E1.309
G1 X0.12757 Y-0.41727 Z0.0 E1.309
G1 X0.12027 Y-0.41943 Z0.0 E1.309
G1 X0.11293 Y-0.42146 Z0.0 E1.309
G1 X0.10556 Y-0.42337 Z0.0 E1.309
G1 X0.09815 Y-0.42515 Z0.0 E1.309
G1 X0.09072 Y-0.4268 Z0.0 E1.309
G1 X0.08326 Y-0.42832 Z0.0 E1.309
G1 X0.07577 Y-0.4297 Z0.0 E1.309
G1 X0.06826 Y-0.43096 Z0.0 E1.309
G1 X0.06073 Y-0.43209 Z0.0 E1.309
G1 X0.05318 Y-0.43308 Z0.0 E1.309
G1 X0.04561 Y-0.43394 Z0.0 E1.309
G1 X0.03803 Y-0.43467 Z0.0 E1.309
G1 X0.03044 Y-0.43527 Z0.0 E1.309
G1 X0.02284 Y-0.43573 Z0.0 E1.309
G1 X0.01523 Y-0.43607 Z0.0 E1.309
G1 X0.00762 Y-0.43627 Z0.0 E1.309
G1 X0.0 Y-0.43633 Z0.0 E1.309
G1 X-0.00762 Y-0.43627 Z0.0 E1.309
G1 X-0.01523 Y-0.43607 Z0.0 E1.309
G1 X-0.02284 Y-0.43573 Z0.0 E1.309
G1 X-0.03044 Y-0.43527 Z0.0 E1.309
G1 X-0.03803 Y-0.43467 Z0.0 E1.309
G1 X-0.04561 Y-0.43394 Z0.0 E1.309
G1 X-0.05318 Y-0.43308 Z0.0 E1.309
G1 X-0.06073 Y-0.43209 Z0.0 E1.309
G1 X-0.06826 Y-0.43096 Z0.0 E1.309
G1 X-0.07577 Y-0.4297 Z0.0 E1.309
G1 X-0.08326 Y-0.42832 Z0.0 E1.309
G1 X-0.09072 Y-0.4268 Z0.0 E1.309
G1 X-0.09815 Y-0.42515 Z0.0 E1.309
G1 X-0.10556 Y-0.42337 Z0.0 E1.309
G1 X-0.11293 Y-0.42146 Z0.0 E1.309
G1 X-0.12027 Y-0.41943 Z0.0 E1.309
G1 X-0.12757 Y-0.41727 Z0.0 E1.309
G1 X-0.13483 Y-0.41498 Z0.0 E1.309
G1 X-0.14206 Y-0.41256 Z0.0 E1.309
G1 X-0.14923 Y-0.41002 Z0.0 E1.309
G1 X-0.15637 Y-0.40735 Z0.0 E1.309
G1 X-0.16345 Y-0.40456 Z0.0 E1.309
G1 X-0.17049 Y-0.40165 Z0.0 E1.309
G1 X-0.17747 Y-0.39861 Z0.0 E1.309
G1 X-0.1844 Y-0.39545 Z0.0 E1.309
G1 X-0.19128 Y-0.39217 Z0.0 E1.309
G1 X-0.19809 Y-0.38877 Z0.0 E1.309
G1 X-0.20485 Y-0.38526 Z0.0 E1.309
G1 X-0.21154 Y-0.38162 Z0.0 E1.309
G1 X-0.21817 Y-0.37787 Z0.0 E1.309
G1 X-0.22473 Y-0.37401 Z0.0 E1.309
G1 X-0.23122 Y-0.37003 Z0.0 E1.309
G1 X-0.23764 Y-0.36594 Z0.0 E1.309
G1 X-0.24399 Y-0.36174 Z0.0 E1.309
G1 X-0.25027 Y-0.35742 Z0.0 E1.309
G1 X-0.25647 Y-0.353 Z0.0 E1.309
G1 X-0.26259 Y-0.34847 Z0.0 E1.309
G1 X-0.26863 Y-0.34383 Z0.0 E1.309
G1 X-0.27459 Y-0.33909 Z0.0 E1.309
G1 X-0.28047 Y-0.33425 Z0.0 E1.309
G1 X-0.28626 Y-0.3293 Z0.0 E1.309
G1 X-0.29196 Y-0.32426 Z0.0 E1.309
G1 X-0.29758 Y-0.31911 Z0.0 E1.309
G1 X-0.3031 Y-0.31387 Z0.0 E1.309
G1 X-0.30853 Y-0.30853 Z0.0 E1.309
G1 X-0.31387 Y-0.3031 Z0.0 E1.309
G1 X-0.31911 Y-0.29758 Z0.0 E1.309
G1 X-0.32426 Y-0.29196 Z0.0 E1.309
G1 X-0.3293 Y-0.28626 Z0.0 E1.309
G1 X-0.33425 Y-0.28047 Z0.0 E1.309
G1 X-0.33909 Y-0.27459 Z0.0 E1.309
G1 X-0.34383 Y-0.26863 Z0.0 E1.309
G1 X-0.34847 Y-0.26259 Z0.0 E1.309
G1 X-0.353 Y-0.25647 Z0.0 E1.309
G1 X-0.35742 Y-0.25027 Z0.0 E1.309
G1 X-0.36174 Y-0.24399 Z0.0 E1.309
G1 X-0.36594 Y-0.23764 Z0.0 E1.309
G1 X-0.37003 Y-0.23122 Z0.0 E1.309
G1 X-0.37401 Y-0.22473 Z0.0 E1.309
G1 X-0.37787 Y-0.21817 Z0.0 E1.309
G1 X-0.38162 Y-0.21154 Z0.0 E1.309
G1 X-0.38526 Y-0.20485 Z0.0 E1.309
G1 X-0.38877 Y-0.19809 Z0.0 E1.309
G1 X-0.39217 Y-0.19128 Z0.0 E1.309
G1 X-0.39545 Y-0.1844 Z0.0 E1.309
G1 X-0.39861 Y-0.17747 Z0.0 E1.309
G1 X-0.40165 Y-0.17049 Z0.0 E1.309
G1 X-0.40456 Y-0.16345 Z0.0 E1.309
G1 X-0.40735 Y-0.15637 Z0.0 E1.309
G1 X-0.41002 Y-0.14923 Z0.0 E1.309
G1 X-0.41256 Y-0.14206 Z0.0 E1.309
G1 X-0.41498 Y-0.13483 Z0.0 E1.309
G1 X-0.41727 Y-0.12757 Z0.0 E1.309
G1 X-0.41943 Y-0.12027 Z0.0 E1.309
G1 X-0.42146 Y-0.11293 Z0.0 E1.309
G1 X-0.42337 Y-0.10556 Z0.0 E1.309
G1 X-0.42515 Y-0.09815 Z0.0 E1.309
G1 X-0.4268 Y-0.09072 Z0.0 E1.309
G1 X-0.42832 Y-0.08326 Z0.0 E1.309
G1 X-0.4297 Y-0.07577 Z0.0 E1.309
G1 X-0.43096 Y-0.06826 Z0.0 E1.309
G1 X-0.43209 Y-0.06073 Z0.0 E1.309
G1 X-0.43308 Y-0.05318 Z0.0 E1.309
G1 X-0.43394 Y-0.04561 Z0.0 E1.309
G1 X-0.43467 Y-0.03803 Z0.0 E1.309
G1 X-0.43527 Y-0.03044 Z0.0 E1.309
G1 X-0.43573 Y-0.02284 Z0.0 E1.309
G1 X-0.43607 Y-0.01523 Z0.0 E1.309
G1 X-0.43627 Y-0.00762 Z0.0 E1.309
G1 X-0.43633 Y-0.0 Z0.0 E1.309
G1 X-0.43627 Y0.00762 Z0.0 E1.309
G1 X-0.43607 Y0.01523 Z0.0 E1.309
G1 X-0.43573 Y0.02284 Z0.0 E1.309
G1 X-0.43527 Y0.03044 Z0.0 E1.309
G1 X-0.43467 Y0.03803 Z0.0 E1.309
G1 X-0.43394 Y0.04561 Z0.0 E1.309
G1 X-0.43308 Y0.05318 Z0.0 E1.309
G1 X-0.43209 Y0.06073 Z0.0 E1.309
G1 X-0.43096 Y0.06826 Z0.0 E1.309
G1 X-0.4297 Y0.07577 Z0.0 E1.309
G1 X-0.42832 Y0.08326 Z0.0 E1.309
G1 X-0.4268 Y0.09072 Z0.0 E1.309
G1 X-0.42515 Y0.09815 Z0.0 E1.309
G1 X-0.42337 Y0.10556 Z0.0 E1.309
G1 X-0.42146 Y0.11293 Z0.0 E1.309
G1 X-0.41943 Y0.12027 Z0.0 E1.309
G1 X-0.41727 Y0.12757 Z0.0 E1.309
G1 X-0.41498 Y0.13483 Z0.0 E1.309
G1 X-0.41256 Y0.14206 Z0.0 E1.309
G1 X-0.41002 Y0.14923 Z0.0 E1.309
G1 X-0.40735 Y0.15637 Z0.0 E1.309
G1 X-0.40456 Y0.16345 Z0.0 E1.309
G1 X-0.40165 Y0.17049 Z0.0 E1.309
G1 X-0.39861 Y0.17747 Z0.0 E1.309
G1 X-0.39545 Y0.1844 Z0.0 E1.309
G1 X-0.39217 Y0.19128 Z0.0 E1.309
G1 X-0.38877 Y0.19809 Z0.0 E1.309
G1 X-0.38526 Y0.20485 Z0.0 E1.309
G1 X-0.38162 Y0.21154 Z0.0 E1.309
G1 X-0.37787 Y0.21817 Z0.0 E1.309
G1 X-0.37401 Y0.22473 Z0.0 E1.309
G1 X-0.37003 Y0.23122 Z0.0 E1.309
G1 X-0.36594 Y0.23764 Z0.0 E1.309
G1 X-0.36174 Y0.24399 Z0.0 E1.309
G1 X-0.35742 Y0.25027 Z0.0 E1.309
G1 X-0.353 Y0.25647 Z0.0 E1.309
G1 X-0.34847 Y0.26259 Z0.0 E1.309
G1 X-0.34383 Y0.26863 Z0.0 E1.309
G1 X-0.33909 Y0.27459 Z0.0 E1.309
G1 X-0.33425 Y0.28047 Z0.0 E1.309
G1 X-0.3293 Y0.28626 Z0.0 E1.309
G1 X-0.32426 Y0.29196 Z0.0 E1.309
G1 X-0.31911 Y0.29758 Z0.0 E1.309
G1 X-0.31387 Y0.3031 Z0.0 E1.309
G1 X-0.30853 Y0.30853 Z0.0 E1.309
G1 X-0.3031 Y0.31387 Z0.0 E1.309
G1 X-0.29758 Y0.31911 Z0.0 E1.309
G1 X-0.29196 Y0.32426 Z0.0 E1.309
G1 X-0.28626 Y0.3293 Z0.0 E1.309
G1 X-0.28047 Y0.33425 Z0.0 E1.309
G1 X-0.27459 Y0.33909 Z0.0 E1.309
G1 X-0.26863 Y0.34383 Z0.0 E1.309
G1 X-0.26259 Y0.34847 Z0.0 E1.309
G1 X-0.25647 Y0.353 Z0.0 E1.309
G1 X-0.25027 Y0.35742 Z0.0 E1.309
G1 X-0.24399 Y0.36174 Z0.0 E1.309
G1 X-0.23764 Y0.36594 Z0.0 E1.309
G1 X-0.23122 Y0.37003 Z0.0 E1.309
G1 X-0.22473 Y0.37401 Z0.0 E1.309
G1 X-0.21817 Y0.37787 Z0.0 E1.309
G1 X-0.21154 Y0.38162 Z0.0 E1.309
G1 X-0.20485 Y0.38526 Z0.0 E1.309
G1 X-0.19809 Y0.38877 Z0.0 E1.309
G1 X-0.19128 Y0.39217 Z0.0 E1.309
G1 X-0.1844 Y0.39545 Z0.0 E1.309
G1 X-0.17747 Y0.39861 Z0.0 E1.309
G1 X-0.17049 Y0.40165 Z0.0 E1.309
G1 X-0.16345 Y0.40456 Z0.0 E1.309
G1 X-0.15637 Y0.40735 Z0.0 E1.309
G1 X-0.14923 Y0.41002 Z0.0 E1.309
G1 X-0.14206 Y0.41256 Z0.0 E1.309
G1 X-0.13483 Y0.41498 Z0.0 E1.309
G1 X-0.12757 Y0.41727 Z0.0 E1.309
G1 X-0.12027 Y0.41943 Z0.0 E1.309
G1 X-0.11293 Y0.42146 Z0.0 E1.309
G1 X-0.10556 Y0.42337 Z0.0 E1.309
G1 X-0.09815 Y0.42515 Z0.0 E1.309
G1 X-0.09072 Y0.4268 Z0.0 E1.309
G1 X-0.08326 Y0.42832 Z0.0 E1.309
G1 X-0.07577 Y0.4297 Z0.0 E1.309
G1 X-0.06826 Y0.43096 Z0.0 E1.309
G1 X-0.06073 Y0.43209 Z0.0 E1.309
G1 X-0.05318 Y0.43308 Z0.0 E1.309
G1 X-0.04561 Y0.43394 Z0.0 E1.309
G1 X-0.03803 Y0.43467 Z0.0 E1.309
G1 X-0.03044 Y0.43527 Z0.0 E1.309
G1 X-0.02284 Y0.43573 Z0.0 E1.309
G1 X-0.01523 Y0.43607 Z0.0 E1.309
G1 X-0.00762 Y0.43627 Z0.0 E1.309
G1 X-0.0 Y0.43633 Z0.0 E1.309
G1 X0.00762 Y0.43627 Z0.0 E1.309
G1 X0.01523 Y0.43607 Z0.0 E1.309
G1 X0.02284 Y0.43573 Z0.0 E1.309
G1 X0.03044 Y0.43527 Z0.0 E1.309
G1 X0.03803 Y0.43467 Z0.0 E1.309
G1 X0.04561 Y0.43394 Z0.0 E1.309
G1 X0.05318 Y0.43308 Z0.0 E1.309
G1 X0.06073 Y0.43209 Z0.0 E1.309
G1 X0.06826 Y0.43096 Z0.0 E1.309
G1 X0.07577 Y0.4297 Z0.0 E1.309
G1 X0.08326 Y0.42832 Z0.0 E1.309
G1 X0.09072 Y0.4268 Z0.0 E1.309
G1 X0.09815 Y0.42515 Z0.0 E1.309
G1 X0.10556 Y0.42337 Z0.0 E1.309
G1 X0.11293 Y0.42146 Z0.0 E1.309
G1 X0.12027 Y0.41943 Z0.0 E1.309
G1 X0.12757 Y0.41727 Z0.0 E1.309
G1 X0.13483 Y0.41498 Z0.0 E1.309
G1 X0.14206 Y0.41256 Z0.0 E1.309
G1 X0.14923 Y0.41002 Z0.0 E1.309
G1 X0.15637 Y0.40735 Z0.0 E1.309
G1 X0.16345 Y0.40456 Z0.0 E1.309
G1 X0.17049 Y0.40165 Z0.0 E1.309
G1 X0.17747 Y0.39861 Z0.0 E1.309
G1 X0.1844 Y0.39545 Z0.0 E1.309
G1 X0.19128 Y0.39217 Z0.0 E1.309
G1 X0.19809 Y0.38877 Z0.0 E1.309
G1 X0.20485 Y0.38526 Z0.0 E1.309
G1 X0.21154 Y0.38162 Z0.0 E1.309
G1 X0.21817 Y0.37787 Z0.0 E1.309
G1 X0.22473 Y0.37401 Z0.0 E1.309
G1 X0.23122 Y0.37003 Z0.0 E1.309
G1 X0.23764 Y0.36594 Z0.0 E1.309
G1 X0.24399 Y0.36174 Z0.0 E1.309
G1 X0.25027 Y0.35742 Z0.0 E1.309
G1 X0.25647 Y0.353 Z0.0 E1.309
G1 X0.26259 Y0.34847 Z0.0 E1.309
G1 X0.26863 Y0.34383 Z0.0 E1.309
G1 X0.27459 Y0.33909 Z0.0 E1.309
G1 X0.28047 Y0.33425 Z0.0 E1.309
G1 X0.28626 Y0.3293 Z0.0 E1.309
G1 X0.29196 Y0.32426 Z0.0 E1.309
G1 X0.29758 Y0.31911 Z0.0 E1.309
G1 X0.3031 Y0.31387 Z0.0 E1.309
G1 X0.30853 Y0.30853 Z0.0 E1.309
G1 X0.31387 Y0.3031 Z0.0 E1.309
G1 X0.31911 Y0.29758 Z0.0 E1.309
G1 X0.32426 Y0.29196 Z0.0 E1.309
G1 X0.3293 Y0.28626 Z0.0 E1.309
G1 X0.33425 Y0.28047 Z0.0 E1.309
G1 X0.33909 Y0.27459 Z0.0 E1.309
G1 X0.34383 Y0.26863 Z0.0 E1.309
G1 X0.34847 Y0.26259 Z0.0 E1.309
G1 X0.353 Y0.25647 Z0.0 E1.309
G1 X0.35742 Y0.25027 Z0.0 E1.309
G1 X0.36174 Y0.24399 Z0.0 E1.309
G1 X0.36594 Y0.23764 Z0.0 E1.309
G1 X0.37003 Y0.23122 Z0.0 E1.309
G1 X0.37401 Y0.22473 Z0.0 E1.309
G1 X0.37787 Y0.21817 Z0.0 E1.309
G1 X0.38162 Y0.21154 Z0.0 E1.309
G1 X0.38526 Y0.20485 Z0.0 E1.309
G1 X0.38877 Y0.19809 Z0.0 E1.309
G1 X0.39217 Y0.19128 Z0.0 E1.309
G1 X0.39545 Y0.1844 Z0.0 E1.309
G1 X0.39861 Y0.17747 Z0.0 E1.309
G1 X0.40165 Y0.17049 Z0.0 E1.309
G1 X0.40456 Y0.16345 Z0.0 E1.309
G1 X0.40735 Y0.15637 Z0.0 E1.309
G1 X0.41002 Y0.14923 Z0.0 E1.309
G1 X0.41256 Y0.14206 Z0.0 E1.309
G1 X0.41498 Y0.13483 Z0.0 E1.309
G1 X0.41727 Y0.12757 Z0.0 E1.309
G1 X0.41943 Y0.12027 Z0.0 E1.309
G1 X0.42146 Y0.11293 Z0.0 E1.309
G1 X0.42337 Y0.10556 Z0.0 E1.309
G1 X0.42515 Y0.09815 Z0.0 E1.309
G1 X0.4268 Y0.09072 Z0.0 E1.309
G1 X0.42832 Y0.08326 Z0.0 E1.309
G1 X0.4297 Y0.07577 Z0.0 E1.309
G1 X0.43096 Y0.06826 Z0.0 E1.309
G1 X0.43209 Y0.06073 Z0.0 E1.309
G1 X0.43308 Y0.05318 Z0.0 E1.309
G1 X0.43394 Y0.04561 Z0.0 E1.309
G1 X0.43467 Y0.03803 Z0.0 E1.309
G1 X0.43527 Y0.03044 Z0.0 E1.309
G1 X0.43573 Y0.02284 Z0.0 E1.309
G1 X0.43607 Y0.01523 Z0.0 E1.309
G1 X0.43627 Y0.00762 Z0.0 E1.309
G1 Z1
G1 X0.0 Y-25.0 Z-0.0
G1 Z-1
G1 Z2.75
; starting solid layer
G1 X3.03109 Y-1.75 Z0.0 E10.5
G1 E10
; starting polygon
G1 X-0.10088 Y-0.17472 Z0.0 E0.60526
G1 X-0.11078 Y-0.16862 Z0.0 E0.60526
G1 X-0.12031 Y-0.16196 Z0.0 E0.60526
G1 X-0.12944 Y-0.15476 Z0.0 E0.60526
G1 X-0.13814 Y-0.14705 Z0.0 E0.60526
G1 X-0.14638 Y-0.13884 Z0.0 E0.60526
G1 X-0.15414 Y-0.13018 Z0.0 E0.60526
G1 X-0.16138 Y-0.12108 Z0.0 E0.60526
G1 X-0.16809 Y-0.11158 Z0.0 E0.60526
G1 X-0.17424 Y-0.10171 Z0.0 E0.60526
G1 X-0.17981 Y-0.09151 Z0.0 E0.60526
G1 X-0.18478 Y-0.081 Z0.0 E0.60526
G1 X-0.18914 Y-0.07022 Z0.0 E0.60526
G1 X-0.19287 Y-0.0592 Z0.0 E0.60526
G1 X-0.19596 Y-0.04799 Z0.0 E0.60526
G1 X-0.1984 Y-0.03662 Z0.0 E0.60526
G1 X-0.20018 Y-0.02513 Z0.0 E0.60526
G1 X-0.2013 Y-0.01356 Z0.0 E0.60526
G1 X-0.20174 Y-0.00194 Z0.0 E0.60526
G1 X-0.20152 Y0.00969 Z0.0 E0.60526
G1 X-0.20063 Y0.02128 Z0.0 E0.60526
G1 X-0.19907 Y0.0328 Z0.0 E0.60526
G1 X-0.19685 Y0.04422 Z0.0 E0.60526
G1 X-0.19397 Y0.05549 Z0.0 E0.60526
G1 X-0.19045 Y0.06657 Z0.0 E0.60526
G1 X-0.1863 Y0.07743 Z0.0 E0.60526
G1 X-0.18153 Y0.08804 Z0.0 E0.60526
G1 X-0.17616 Y0.09835 Z0.0 E0.60526
G1 X-0.1702 Y0.10833 Z0.0 E0.60526
G1 X-0.16368 Y0.11796 Z0.0 E0.60526
G1 X-0.15661 Y0.12719 Z0.0 E0.60526
G1 X-0.14902 Y0.136 Z0.0 E0.60526
G1 X-0.14094 Y0.14436 Z0.0 E0.60526
G1 X-0.13239 Y0.15224 Z0.0 E0.60526
G1 X-0.1234 Y0.15962 Z0.0 E0.60526
G1 X-0.11399 Y0.16646 Z0.0 E0.60526
G1 X-0.10422 Y0.17275 Z0.0 E0.60526
G1 X-0.09409 Y0.17847 Z0.0 E0.60526
G1 X-0.08365 Y0.18359 Z0.0 E0.60526
G1 X-0.07293 Y0.18811 Z0.0 E0.60526
G1 X-0.06198 Y0.192 Z0.0 E0.60526
G1 X-0.05081 Y0.19525 Z0.0 E0.60526
G1 X-0.03948 Y0.19785 Z0.0 E0.60526
G1 X-0.02801 Y0.1998 Z0.0 E0.60526
G1 X-0.01646 Y0.20108 Z0.0 E0.60526
G1 X-0.00485 Y0.2017 Z0.0 E0.60526
G1 X0.00678 Y0.20164 Z0.0 E0.60526
G1 X0.01839 Y0.20091 Z0.0 E0.60526
G1 X0.02993 Y0.19952 Z0.0 E0.60526
G1 X0.04138 Y0.19746 Z0.0 E0.60526
G1 X0.05269 Y0.19475 Z0.0 E0.60526
G1 X0.06382 Y0.19139 Z0.0 E0.60526
G1 X0.07474 Y0.1874 Z0.0 E0.60526
G1 X0.08541 Y0.18278 Z0.0 E0.60526
G1 X0.0958 Y0.17756 Z0.0 E0.60526
G1 X0.10587 Y0.17174 Z0.0 E0.60526
G1 X0.11559 Y0.16536 Z0.0 E0.60526
G1 X0.12492 Y0.15843 Z0.0 E0.60526
G1 X0.13384 Y0.15097 Z0.0 E0.60526
G1 X0.14232 Y0.143 Z0.0 E0.60526
G1 X0.15032 Y0.13457 Z0.0 E0.60526
G1 X0.15782 Y0.12568 Z0.0 E0.60526
G1 X0.1648 Y0.11638 Z0.0 E0.60526
G1 X0.17123 Y0.10669 Z0.0 E0.60526
G1 X0.1771 Y0.09665 Z0.0 E0.60526
G1 X0.18237 Y0.08629 Z0.0 E0.60526
G1 X0.18704 Y0.07564 Z0.0 E0.60526
G1 X0.19109 Y0.06474 Z0.0 E0.60526
G1 X0.1945 Y0.05362 Z0.0 E0.60526
G1 X0.19726 Y0.04233 Z0.0 E0.60526
G1 X0.19937 Y0.03089 Z0.0 E0.60526
G1 X0.20082 Y0.01935 Z0.0 E0.60526
G1 X0.2016 Y0.00775 Z0.0 E0.60526
G1 X0.20172 Y-0.00388 Z0.0 E0.60526
G1 X0.20116 Y-0.01549 Z0.0 E0.60526
G1 X0.19993 Y-0.02705 Z0.0 E0.60526
G1 X0.19804 Y-0.03853 Z0.0 E0.60526
G1 X0.19549 Y-0.04987 Z0.0 E0.60526
G1 X0.19229 Y-0.06105 Z0.0 E0.60526
G1 X0.18846 Y-0.07203 Z0.0 E0.60526
G1 X0.18399 Y-0.08277 Z0.0 E0.60526
G1 X0.17892 Y-0.09323 Z0.0 E0.60526
G1 X0.17325 Y-0.10338 Z0.0 E0.60526
G1 X0.16701 Y-0.11319 Z0.0 E0.60526
G1 X0.16021 Y-0.12263 Z0.0 E0.60526
G1 X0.15288 Y-0.13165 Z0.0 E0.60526
G1 X0.14504 Y-0.14024 Z0.0 E0.60526
G1 X0.13672 Y-0.14837 Z0.0 E0.60526
G1 X0.12794 Y-0.156 Z0.0 E0.60526
G1 X0.11874 Y-0.16311 Z0.0 E0.60526
G1 X0.10915 Y-0.16968 Z0.0 E0.60526
G1 X0.09919 Y-0.17568 Z0.0 E0.60526
G1 X0.08891 Y-0.18111 Z0.0 E0.60526
G1 X0.07833 Y-0.18593 Z0.0 E0.60526
G1 X0.06748 Y-0.19013 Z0.0 E0.60526
G1 X0.05642 Y-0.1937 Z0.0 E0.60526
G1 X0.04516 Y-0.19663 Z0.0 E0.60526
G1 X0.03376 Y-0.19891 Z0.0 E0.60526
G1 X0.02225 Y-0.20052 Z0.0 E0.60526
G1 X0.01066 Y-0.20147 Z0.0 E0.60526
G1 X-0.00097 Y-0.20175 Z0.0 E0.60526
G1 X-0.01259 Y-0.20136 Z0.0 E0.60526
G1 X-0.02417 Y-0.2003 Z0.0 E0.60526
G1 X-0.03567 Y-0.19858 Z0.0 E0.60526
G1 X-0.04705 Y-0.19619 Z0.0 E0.60526
G1 X-0.05828 Y-0.19315 Z0.0 E0.60526
G1 X-0.06931 Y-0.18948 Z0.0 E0.60526
G1 X-0.08011 Y-0.18517 Z0.0 E0.60526
G1 X-0.09064 Y-0.18025 Z0.0 E0.60526
G1 X3.03109 Y-1.75 Z0.0 E10.5
; starting polygon
G1 X-0.10042 Y-0.17393 Z0.0 E0.6025
G1 X-0.10536 Y-0.17097 Z0.0 E0.6025
G1 X-0.11023 Y-0.16788 Z0.0 E0.6025
G1 X-0.115 Y-0.16465 Z0.0 E0.6025
G1 X-0.11967 Y-0.16128 Z0.0 E0.6025
G1 X-0.12425 Y-0.15778 Z0.0 E0.6025
G1 X-0.12872 Y-0.15415 Z0.0 E0.6025
G1 X-0.13309 Y-0.1504 Z0.0 E0.6025
G1 X-0.13735 Y-0.14652 Z0.0 E0.6025
G1 X-0.1415 Y-0.14252 Z0.0 E0.6025
G1 X-0.14553 Y-0.1384 Z0.0 E0.6025
G1 X-0.14944 Y-0.13417 Z0.0 E0.6025
G1 X-0.15323 Y-0.12983 Z0.0 E0.6025
G1 X-0.15689 Y-0.12538 Z0.0 E0.6025
G1 X-0.16042 Y-0.12083 Z0.0 E0.6025
G1 X-0.16382 Y-0.11617 Z0.0 E0.6025
G1 X-0.16709 Y-0.11143 Z0.0 E0.6025
G1 X-0.17021 Y-0.10659 Z0.0 E0.6025
G1 X-0.1732 Y-0.10166 Z0.0 E0.6025
G1 X-0.17605 Y-0.09665 Z0.0 E0.6025
G1 X-0.17875 Y-0.09156 Z0.0 E0.6025
G1 X-0.1813 Y-0.0864 Z0.0 E0.6025
G1 X-0.1837 Y-0.08116 Z0.0 E0.6025
G1 X-0.18596 Y-0.07586 Z0.0 E0.6025
G1 X-0.18806 Y-0.07049 Z0.0 E0.6025
G1 X-0.19 Y-0.06507 Z0.0 E0.6025
G1 X-0.19179 Y-0.05959 Z0.0 E0.6025
G1 X-0.19342 Y-0.05406 Z0.0 E0.6025
G1 X-0.19489 Y-0.04849 Z0.0 E0.6025
G1 X-0.1962 Y-0.04288 Z0.0 E0.6025
G1 X-0.19735 Y-0.03724 Z0.0 E0.6025
G1 X-0.19834 Y-0.03156 Z0.0 E0.6025
G1 X-0.19916 Y-0.02586 Z0.0 E0.6025
G1 X-0.19982 Y-0.02013 Z0.0 E0.6025
G1 X-0.20032 Y-0.01439 Z0.0 E0.6025
G1 X-0.20065 Y-0.00864 Z0.0 E0.6025
G1 X-0.20081 Y-0.00288 Z0.0 E0.6025
G1 X-0.20081 Y0.00288 Z0.0 E0.6025
G1 X-0.20065 Y0.00864 Z0.0 E0.6025
G1 X-0.20032 Y0.01439 Z0.0 E0.6025
G1 X-0.19982 Y0.02013 Z0.0 E0.6025
G1 X-0.19916 Y0.02586 Z0.0 E0.6025
G1 X-0.19834 Y0.03156 Z0.0 E0.6025
G1 X-0.19735 Y0.03724 Z0.0 E0.6025
G1 X-0.1962 Y0.04288 Z0.0 E0.6025
G1 X-0.19489 Y0.04849 Z0.0 E0.6025
G1 X-0.19342 Y0.05406 Z0.0 E0.6025
G1 X-0.19179 Y0.05959 Z0.0 E0.6025
G1 X-0.19 Y0.06507 Z0.0 E0.6025
G1 X-0.18806 Y0.07049 Z0.0 E0.6025
G1 X-0.18596 Y0.07586 Z0.0 E0.6025
G1 X-0.1837 Y0.08116 Z0.0 E0.6025
G1 X-0.1813 Y0.0864 Z0.0 E0.6025
G1 X-0.17875 Y0.09156 Z0.0 E0.6025
G1 X-0.17605 Y0.09665 Z0.0 E0.6025
G1 X-0.1732 Y0.10166 Z0.0 E0.6025
G1 X-0.17021 Y0.10659 Z0.0 E0.6025
G1 X-0.16709 Y0.11143 Z0.0 E0.6025
G1 X-0.16382 Y0.11617 Z0.0 E0.6025
G1 X-0.16042 Y0.12083 Z0.0 E0.6025
G1 X-0.15689 Y0.12538 Z0.0 E0.6025
G1 X-0.15323 Y0.12983 Z0.0 E0.6025
G1 X-0.14944 Y0.13417 Z0.0 E0.6025
G1 X-0.14553 Y0.1384 Z0.0 E0.6025
G1 X-0.1415 Y0.14252 Z0.0 E0.6025
G1 X-0.13735 Y0.14652 Z0.0 E0.6025
G1 X-0.13309 Y0.1504 Z0.0 E0.6025
G1 X-0.12872 Y0.15415 Z0.0 E0.6025
G1 X-0.12425 Y0.15778 Z0.0 E0.6025
G1 X-0.11967 Y0.16128 Z0.0 E0.6025
G1 X-0.115 Y0.16465 Z0.0 E0.6025
G1 X-0.11023 Y0.16788 Z0.0 E0.6025
G1 X-0.10536 Y0.17097 Z0.0 E0.6025
G1 X-0.10042 Y0.17393 Z0.0 E0.6025
G1 X-0.09539 Y0.17673 Z0.0 E0.6025
G1 X-0.09028 Y0.1794 Z0.0 E0.6025
G1 X-0.08509 Y0.18191 Z0.0 E0.6025
G1 X-0.07984 Y0.18428 Z0.0 E0.6025
G1 X-0.07452 Y0.18649 Z0.0 E0.6025
G1 X-0.06914 Y0.18856 Z0.0 E0.6025
G1 X-0.0637 Y0.19046 Z0.0 E0.6025
G1 X-0.05821 Y0.19221 Z0.0 E0.6025
G1 X-0.05267 Y0.1938 Z0.0 E0.6025
G1 X-0.04709 Y0.19523 Z0.0 E0.6025
G1 X-0.04147 Y0.1965 Z0.0 E0.6025
G1 X-0.03582 Y0.19761 Z0.0 E0.6025
G1 X-0.03014 Y0.19856 Z0.0 E0.6025
G1 X-0.02443 Y0.19934 Z0.0 E0.6025
G1 X-0.0187 Y0.19996 Z0.0 E0.6025
G1 X-0.01296 Y0.20041 Z0.0 E0.6025
G1 X-0.0072 Y0.2007 Z0.0 E0.6025
G1 X-0.00144 Y0.20083 Z0.0 E0.6025
G1 X0.00432 Y0.20079 Z0.0 E0.6025
G1 X0.01008 Y0.20058 Z0.0 E0.6025
G1 X0.01583 Y0.20021 Z0.0 E0.6025
G1 X0.02157 Y0.19967 Z0.0 E0.6025
G1 X0.02728 Y0.19897 Z0.0 E0.6025
G1 X0.03298 Y0.19811 Z0.0 E0.6025
G1 X0.03865 Y0.19708 Z0.0 E0.6025
G1 X0.04429 Y0.19589 Z0.0 E0.6025
G1 X0.04989 Y0.19454 Z0.0 E0.6025
G1 X0.05545 Y0.19303 Z0.0 E0.6025
G1 X0.06096 Y0.19136 Z0.0 E0.6025
G1 X0.06643 Y0.18953 Z0.0 E0.6025
G1 X0.07184 Y0.18754 Z0.0 E0.6025
G1 X0.07719 Y0.18541 Z0.0 E0.6025
G1 X0.08247 Y0.18312 Z0.0 E0.6025
G1 X0.08769 Y0.18068 Z0.0 E0.6025
G1 X0.09284 Y0.17809 Z0.0 E0.6025
G1 X0.09791 Y0.17535 Z0.0 E0.6025
G1 X0.1029 Y0.17247 Z0.0 E0.6025
G1 X0.10781 Y0.16944 Z0.0 E0.6025
G1 X0.11262 Y0.16628 Z0.0 E0.6025
G1 X0.11735 Y0.16298 Z0.0 E0.6025
G1 X0.12197 Y0.15955 Z0.0 E0.6025
G1 X0.1265 Y0.15599 Z0.0 E0.6025
G1 X0.13092 Y0.15229 Z0.0 E0.6025
G1 X0.13524 Y0.14847 Z0.0 E0.6025
G1 X0.13944 Y0.14453 Z0.0 E0.6025
G1 X0.14353 Y0.14047 Z0.0 E0.6025
G1 X0.1475 Y0.1363 Z0.0 E0.6025
G1 X0.15135 Y0.13201 Z0.0 E0.6025
G1 X0.15507 Y0.12762 Z0.0 E0.6025
G1 X0.15867 Y0.12311 Z0.0 E0.6025
G1 X0.16214 Y0.11851 Z0.0 E0.6025
G1 X0.16547 Y0.11381 Z0.0 E0.6025
G1 X0.16867 Y0.10902 Z0.0 E0.6025
G1 X0.17173 Y0.10414 Z0.0 E0.6025
G1 X0.17464 Y0.09917 Z0.0 E0.6025
G1 X0.17741 Y0.09412 Z0.0 E0.6025
G1 X0.18004 Y0.08899 Z0.0 E0.6025
G1 X0.18252 Y0.08379 Z0.0 E0.6025
G1 X0.18485 Y0.07852 Z0.0 E0.6025
G1 X0.18702 Y0.07318 Z0.0 E0.6025
G1 X0.18905 Y0.06779 Z0.0 E0.6025
G1 X0.19091 Y0.06233 Z0.0 E0.6025
G1 X0.19262 Y0.05683 Z0.0 E0.6025
G1 X0.19417 Y0.05128 Z0.0 E0.6025
G1 X0.19557 Y0.04569 Z0.0 E0.6025
G1 X0.1968 Y0.04006 Z0.0 E0.6025
G1 X0.19786 Y0.0344 Z0.0 E0.6025
G1 X0.19877 Y0.02871 Z0.0 E0.6025
G1 X0.19951 Y0.023 Z0.0 E0.6025
G1 X0.20009 Y0.01726 Z0.0 E0.6025
G1 X0.2005 Y0.01152 Z0.0 E0.6025
G1 X0.20075 Y0.00576 Z0.0 E0.6025
G1 X0.20083 Y0.0 Z0.0 E0.6025
G1 X0.20075 Y-0.00576 Z0.0 E0.6025
G1 X0.2005 Y-0.01152 Z0.0 E0.6025
G1 X0.20009 Y-0.01726 Z0.0 E0.6025
G1 X0.19951 Y-0.023 Z0.0 E0.6025
G1 X0.19877 Y-0.02871 Z0.0 E0.6025
G1 X0.19786 Y-0.0344 Z0.0 E0.6025
G1 X0.1968 Y-0.04006 Z0.0 E0.6025
G1 X0.19557 Y-0.04569 Z0.0 E0.6025
G1 X0.19417 Y-0.05128 Z0.0 E0.6025
G1 X0.19262 Y-0.05683 Z0.0 E0.6025
G1 X0.19091 Y-0.06233 Z0.0 E0.6025
G1 X0.18905 Y-0.06779 Z0.0 E0.6025
G1 X0.18702 Y-0.07318 Z0.0 E0.6025
G1 X0.18485 Y-0.07852 Z0.0 E0.6025
G1 X0.18252 Y-0.08379 Z0.0 E0.6025
G1 X0.18004 Y-0.08899 Z0.0 E0.6025
G1 X0.17741 Y-0.09412 Z0.0 E0.6025
G1 X0.17464 Y-0.09917 Z0.0 E0.6025
G1 X0.17173 Y-0.10414 Z0.0 E0.6025
G1 X0.16867 Y-0.10902 Z0.0 E0.6025
G1 X0.16547 Y-0.11381 Z0.0 E0.6025
G1 X0.16214 Y-0.11851 Z0.0 E0.6025
G1 X0.15867 Y-0.12311 Z0.0 E0.6025
G1 X0.15507 Y-0.12762 Z0.0 E0.6025
G1 X0.15135 Y-0.13201 Z0.0 E0.6025
G1 X0.1475 Y-0.1363 Z0.0 E0.6025
G1 X0.14353 Y-0.14047 Z0.0 E0.6025
G1 X0.13944 Y-0.14453 Z0.0 E0.6025
G1 X0.13524 Y-0.14847 Z0.0 E0.6025
G1 X0.13092 Y-0.15229 Z0.0 E0.6025
G1 X0.1265 Y-0.15599 Z0.0 E0.6025
G1 X0.12197 Y-0.15955 Z0.0 E0.6025
G1 X0.11735 Y-0.16298 Z0.0 E0.6025
G1 X0.11262 Y-0.16628 Z0.0 E0.6025
G1 X0.10781 Y-0.16944 Z0.0 E0.6025
G1 X0.1029 Y-0.17247 Z0.0 E0.6025
G1 X0.09791 Y-0.17535 Z0.0 E0.6025
G1 X0.09284 Y-0.17809 Z0.0 E0.6025
G1 X0.08769 Y-0.18068 Z0.0 E0.6025
G1 X0.08247 Y-0.18312 Z0.0 E0.6025
G1 X0.07719 Y-0.18541 Z0.0 E0.6025
G1 X0.07184 Y-0.18754 Z0.0 E0.6025
G1 X0.06643 Y-0.18953 Z0.0 E0.6025
G1 X0.06096 Y-0.19136 Z0.0 E0.6025
G1 X0.05545 Y-0.19303 Z0.0 E0.6025
G1 X0.04989 Y-0.19454 Z0.0 E0.6025
G1 X0.04429 Y-0.19589 Z0.0 E0.6025
G1 X0.03865 Y-0.19708 Z0.0 E0.6025
G1 X0.03298 Y-0.19811 Z0.0 E0.6025
G1 X0.02728 Y-0.19897 Z0.0 E0.6025
G1 X0.02157 Y-0.19967 Z0.0 E0.6025
G1 X0.01583 Y-0.20021 Z0.0 E0.6025
G1 X0.01008 Y-0.20058 Z0.0 E0.6025
G1 X0.00432 Y-0.20079 Z0.0 E0.6025
G1 X-0.00144 Y-0.20083 Z0.0 E0.6025
G1 X-0.0072 Y-0.2007 Z0.0 E0.6025
G1 X-0.01296 Y-0.20041 Z0.0 E0.6025
G1 X-0.0187 Y-0.19996 Z0.0 E0.6025
G1 X-0.02443 Y-0.19934 Z0.0 E0.6025
G1 X-0.03014 Y-0.19856 Z0.0 E0.6025
G1 X-0.03582 Y-0.19761 Z0.0 E0.6025
G1 X-0.04147 Y-0.1965 Z0.0 E0.6025
G1 X-0.04709 Y-0.19523 Z0.0 E0.6025
G1 X-0.05267 Y-0.1938 Z0.0 E0.6025
G1 X-0.05821 Y-0.19221 Z0.0 E0.6025
G1 X-0.0637 Y-0.19046 Z0.0 E0.6025
G1 X-0.06914 Y-0.18856 Z0.0 E0.6025
G1 X-0.07452 Y-0.18649 Z0.0 E0.6025
G1 X-0.07984 Y-0.18428 Z0.0 E0.6025
G1 X-0.08509 Y-0.18191 Z0.0 E0.6025
G1 X-0.09028 Y-0.1794 Z0.0 E0.6025
G1 X-0.09539 Y-0.17673 Z0.0 E0.6025
G1 X3.03109 Y-1.75 Z0.0 E10.5
; starting polygon
