; *************************************************
; *************************************************
; ******* File generated by Extruder Turtle *******
; ******* written by Leah Buechley and  ***********
; ******* and Franklin Pezutti-Dyer ***************
; **** Hand and Machine Lab, UNM, 2021-present ****
; *************************************************
; *************************************************
; *************** Eazao initialization **************
G21	           ; Metric units
G90            ; Absolute positioning
M82            ; Absolute extrusion
M302           ; Allow cold extrusion
G28            ; Home
G1 Z15.0 F1500 ; Move down 15mm

G92 E0         ; Zero extruder
G1 F2000 E20   ; Prime Extruder: Extrude 20mm of clay
G92 E0         ; Zero extruder

; Clay mix factor
M163 S0 P0.9   ; Set Mix Factor small auger extruder
M163 S1 P0.1   ; Set Mix Factor large plunger extruder
M164 S0		   ; Finalize mix


G0 F2000 X75.0 Y88.0 Z0 ; Move to starting position
M83 					; Relative extrustion
G91                     ; Relative coordinates for X,Y,Z axes
G1 F1000
; ********** End printer initialization ***********
; *************************************************

; ***************** Print parameters **************
; Nozzle size: 1.5
; Extrude width: 2.25
; Layer height: 1.0
; Extrude rate: 1.0
; Speed: 1000
; Mix Factor: 0.9
; *************************************************

G1 X20.0 Y0.0 E20.0
****************************************

; ***************** Print parameters **************
; Nozzle size: 0.2
; Extrude width: 0.4
; Layer height: 0.2
; Extrude rate: 0.05
; Speed: 1000
; Mix Factor: 0.9
; *************************************************

G1 X20.0 Y0.0 E1.0
6
G1 X-17.2385 Y22.0643 E28.0
G1 Z0.3306
G1 X28.643 Y4.5366 E29.0
G1 Z0.3306
G1 X-10.2606 Y-28.1908 E30.0
G1 Z0.3306
G1 X-20.3378 Y23.396 E31.0
G1 Z0.3306
G1 X31.3007 Y6.6532 E32.0
G1 Z0.3306
G1 X-9.6483 Y-31.5581 E33.0
G1 Z0.3306
G1 X-23.6184 Y24.4576 E34.0
G1 Z0.3306
G1 X33.8074 Y9.0587 E35.0
G1 Z0.3306
G1 X-8.7092 Y-34.9306 E36.0
G1 Z0.3306
G1 X-27.0601 Y25.2339 E37.0
G1 Z0.3306
G1 X36.1401 Y11.7426 E38.0
G1 Z0.3306
G1 X-7.4416 Y-38.2835 E39.0
G1 Z0.3306
G1 X-30.6418 Y25.7115 E40.0
G1 Z0.3306
G1 X38.2768 Y14.6931 E41.0
G1 Z0.3306
G1 X-5.8453 Y-41.5913 E42.0
G1 Z0.3306
G1 X-34.3413 Y25.878 E43.0
G1 Z0.3306
G1 X40.196 Y17.8964 E44.0
G1 Z0.3306
G1 X-3.922 Y-44.8288 E45.0
G1 Z0.3306
G1 X-38.1357 Y25.7229 E46.0
G1 Z0.3306
G1 X41.8773 Y21.3376 E47.0
G1 Z0.3306
G1 X-1.6752 Y-47.9708 E48.0
G1 Z0.3306
G1 X-42.0012 Y25.2369 E49.0
G1 Z0.3306
G1 X43.3013 Y25.0 E50.0
G1 Z0.3306
G1 X0.8901 Y-50.9922 E51.0
G1 Z0.3306
G1 X-45.9133 Y24.4125 E52.0
G1 Z0.3306
G1 X44.4495 Y28.8659 E53.0
G1 Z0.3306
G1 X3.7668 Y-53.8685 E54.0
G1 Z0.3306
G1 X-49.8469 Y23.244 E55.0
G1 Z0.3306
G1 X45.305 Y32.916 E56.0
G1 Z0.3306
G1 X6.9466 Y-56.5751 E57.0
G1 Z0.3306
G1 X-53.7767 Y21.7272 E58.0
G1 Z0.3306
G1 X45.8516 Y37.1299 E59.0
G1 Z0.3306
G1 X10.4189 Y-59.0885 E60.0
G1 Z0.3306
G1 X-57.6766 Y19.8597 E61.0
G1 Z0.3306
G1 X46.075 Y41.4861 E62.0
G1 Z0.3306
G1 X14.1719 Y-61.3853 E63.0
G1 Z0.3306
G1 X-61.5207 Y17.6408 E64.0
G1 Z0.3306
G1 X45.9619 Y45.9619 E65.0
G1 Z0.3306
G1 X18.1921 Y-63.4433 E66.0
G1 Z0.3306
G1 X-65.2828 Y15.0717 E67.0
G1 Z0.3306
G1 X45.5009 Y50.5338 E68.0
G1 Z0.3306
G1 X22.4642 Y-65.2408 E69.0
G1 Z0.3306
G1 X-68.9365 Y12.1554 E70.0
G1 Z0.3306
G1 X44.6817 Y55.1774 E71.0
G1 Z0.3306
G1 X26.9717 Y-66.7572 E72.0
G1 Z0.3306
G1 X-72.4559 Y8.8965 E73.0
G1 Z0.3306
G1 X43.4961 Y59.8673 E74.0
G1 Z0.3306
G1 X31.6964 Y-67.9731 E75.0
G1 Z0.3306
G1 X-75.8149 Y5.3015 E76.0
G1 Z0.3306
G1 X41.9372 Y64.5776 E77.0
G1 Z0.3306
G1 X36.6188 Y-68.8699 E78.0
G1 Z0.3306
G1 X-78.988 Y1.3787 E79.0
G1 Z0.3306
G1 X40.0 Y69.282 E80.0
G1 Z0.3306
G1 X41.7181 Y-69.4306 E81.0
G1 Z0.3306
G1 X-81.95 Y-2.8618 E82.0
G1 Z0.3306
G1 X37.6812 Y73.9535 E83.0
G1 Z0.3306
G1 X46.9722 Y-69.6392 E84.0
G1 Z0.3306
G1 X-84.6765 Y-7.4082 E85.0
G1 Z0.3306
G1 X34.9794 Y78.5649 E86.0
G1 Z0.3306
G1 X52.3579 Y-69.4813 E87.0
G1 Z0.3306
G1 X-87.1436 Y-12.2472 E88.0
G1 Z0.3306
G1 X31.8947 Y83.0887 E89.0
G1 Z0.3306
G1 X57.8509 Y-68.944 E90.0
G1 Z0.3306
G1 X-89.3281 Y-17.3636 E91.0
G1 Z0.3306
G1 X28.4296 Y87.4972 E92.0
G1 Z0.3306
G1 X63.4258 Y-68.0159 E93.0
G1 Z0.3306
G1 X-91.2078 Y-22.7407 E94.0
G1 Z0.3306
G1 X24.5878 Y91.763 E95.0
G1 Z0.3306
G1 X69.0566 Y-66.6872 E96.0
G1 Z0.3306
G1 X-92.7616 Y-28.3601 E97.0
G1 Z0.3306
G1 X20.3753 Y95.8585 E98.0
G1 Z0.3306
G1 X74.7162 Y-64.9498 E99.0
G1 Z0.3306
G1 X-93.9693 Y-34.202 E100.0
G1 Z0.3306
G1 X15.7999 Y99.7565 E101.0
G1 Z0.3306
G1 X80.3771 Y-62.7975 E102.0
G1 Z0.3306
G1 X-94.812 Y-40.2453 E103.0
G1 Z0.3306
G1 X10.871 Y103.4303 E104.0
G1 Z0.3306
G1 X86.011 Y-60.2255 E105.0
G1 Z0.3306
G1 X-95.2722 Y-46.4673 E106.0
G1 Z0.3306
G1 X5.5999 Y106.8534 E107.0
G1 Z0.3306
G1 X91.5892 Y-57.2313 E108.0
G1 Z0.3306
G1 X-95.3335 Y-52.8442 E109.0
G1 Z0.3306
G1 X-0.0 Y110.0 E110.0
G1 Z0.3306
G1 X97.0828 Y-53.8139 E111.0
G1 Z0.3306
G1 X-94.9814 Y-59.351 E112.0
G1 Z0.3306
G1 X-5.914 Y112.8451 E113.0
G1 Z0.3306
G1 X102.4625 Y-49.9743 E114.0
G1 Z0.3306
G1 X-94.2025 Y-65.9613 E115.0
G1 Z0.3306
G1 X-12.1253 Y115.3645 E116.0
G1 Z0.3306
G1 X107.6991 Y-45.7155 E117.0
G1 Z0.3306
G1 X-92.9853 Y-72.6481 E118.0
G1 Z0.3306
G1 X-18.6157 Y117.5349 E119.0
G1 Z0.3306
G1 X112.7631 Y-41.0424 E120.0
G1 Z0.3306
G1 X-91.3199 Y-79.3831 E121.0
G1 Z0.3306
G1 X-25.3652 Y119.334 E122.0
G1 Z0.3306
G1 X117.6255 Y-35.9617 E123.0
G1 Z0.3306
G1 X-89.1981 Y-86.1376 E124.0
G1 Z0.3306
G1 X-32.3524 Y120.7407 E125.0
G1 Z0.3306
G1 X122.2573 Y-30.4822 E126.0
G1 Z0.3306
G1 X-86.6138 Y-92.8819 E127.0
G1 Z0.3306
G1 X-39.5542 Y121.7352 E128.0
G1 Z0.3306
G1 X126.6299 Y-24.6144 E129.0
G1 Z0.3306
G1 X-83.5624 Y-99.5858 E130.0
G1 Z0.3306
G1 X-46.9462 Y122.299 E131.0
G1 Z0.3306
G1 X130.7154 Y-18.3708 E132.0
G1 Z0.3306
G1 X-80.0414 Y-106.2185 E133.0
G1 Z0.3306
G1 X-54.5027 Y122.4151 E134.0
G1 Z0.3306
G1 X134.4863 Y-11.766 E135.0
G1 Z0.3306
G1 X-76.0502 Y-112.7491 E136.0
G1 Z0.3306
G1 X-62.1967 Y122.0679 E137.0
G1 Z0.3306
G1 X137.9159 Y-4.8161 E138.0
G1 Z0.3306
G1 X-71.5903 Y-119.1463 E139.0
G1 Z0.3306
G1 X-70.0 Y121.2436 E140.0
G1 Z0.3306
G1 X140.9785 Y2.4608 E141.0
G1 Z0.3306
G1 X-66.665 Y-125.3786 E142.0
G1 Z0.3306
G1 X-77.8834 Y119.9299 E143.0
G1 Z0.3306
G1 X143.6492 Y10.0449 E144.0
G1 Z0.3306
G1 X-61.2796 Y-131.4146 E145.0
G1 Z0.3306
G1 X-85.8166 Y118.1165 E146.0
G1 Z0.3306
G1 X145.9043 Y17.9148 E147.0
G1 Z0.3306
G1 X-55.4418 Y-137.2232 E148.0
G1 Z0.3306
G1 X-93.7687 Y115.7947 E149.0
G1 Z0.3306
G1 X147.7212 Y26.0472 E150.0
G1 Z0.3306
G1 X-49.1608 Y-142.7733 E151.0
G1 Z0.3306
G1 X-101.7079 Y112.958 E152.0
G1 Z0.3306
G1 X149.0786 Y34.4175 E153.0
G1 Z0.3306
G1 X-42.4482 Y-148.0343 E154.0
G1 Z0.3306
G1 X-109.6016 Y109.6016 E155.0
G1 Z0.3306
G1 X149.9568 Y42.9994 E156.0
G1 Z0.3306
G1 X-35.3173 Y-152.9761 E157.0
G1 Z0.3306
G1 X-117.4169 Y105.7226 E158.0
G1 Z0.3306
G1 X150.3375 Y51.7653 E159.0
G1 Z0.3306
G1 X-27.7837 Y-157.5692 E160.0
G1 Z0.3306
G1 X-125.1205 Y101.3206 E161.0
G1 Z0.3306
G1 X150.2038 Y60.6863 E162.0
G1 Z0.3306
G1 X-19.8647 Y-161.785 E163.0
G1 Z0.3306
G1 X-132.6788 Y96.3968 E164.0
G1 Z0.3306
G1 X149.5408 Y69.732 E165.0
G1 Z0.3306
G1 X-11.5796 Y-165.5956 E166.0
G1 Z0.3306
G1 X-140.058 Y90.9547 E167.0
G1 Z0.3306
G1 X148.3352 Y78.8712 E168.0
G1 Z0.3306
G1 X-2.9495 Y-168.9743 E169.0
G1 Z0.3306
G1 X-147.2243 Y85.0 E170.0
G1 Z0.3306
G1 X146.5756 Y88.0715 E171.0
G1 Z0.3306
G1 X6.0027 Y-171.8952 E172.0
G1 Z0.3306
G1 X-154.1441 Y78.5404 E173.0
G1 Z0.3306
G1 X144.2525 Y97.2996 E174.0
G1 Z0.3306
G1 X15.2523 Y-174.3341 E175.0
G1 Z0.3306
G1 X-160.784 Y71.5856 E176.0
G1 Z0.3306
G1 X141.3585 Y106.5213 E177.0
G1 Z0.3306
G1 X24.7728 Y-176.2677 E178.0
G1 Z0.3306
G1 X-167.1109 Y64.1479 E179.0
G1 Z0.3306
G1 X137.888 Y115.7018 E180.0
G1 Z0.3306
G1 X34.5364 Y-177.6745 E181.0
G1 Z0.3306
G1 X-173.0923 Y56.2411 E182.0
G1 Z0.3306
G1 X133.8377 Y124.8057 E183.0
G1 Z0.3306
G1 X44.5136 Y-178.5344 E184.0
G1 Z0.3306
G1 X-178.6963 Y47.8815 E185.0
G1 Z0.3306
G1 X129.2065 Y133.7972 E186.0
G1 Z0.3306
G1 X54.6735 Y-178.829 E187.0
G1 Z0.3306
G1 X-183.8917 Y39.0874 E188.0
G1 Z0.3306
G1 X123.9952 Y142.6401 E189.0
G1 Z0.3306
G1 X64.9838 Y-178.5416 E190.0
G1 Z0.3306
G1 X-188.6485 Y29.879 E191.0
G1 Z0.3306
G1 X118.207 Y151.2981 E192.0
G1 Z0.3306
G1 X75.4111 Y-177.6574 E193.0
G1 Z0.3306
G1 X-192.9372 Y20.2785 E194.0
G1 Z0.3306
G1 X111.8474 Y159.7346 E195.0
G1 Z0.3306
G1 X85.9207 Y-176.1636 E196.0
G1 Z0.3306
G1 X-196.73 Y10.3102 E197.0
G1 Z0.3306
G1 X104.924 Y167.9135 E198.0
G1 Z0.3306
G1 X96.4771 Y-174.0493 E199.0
G1 Z0.3306
G1 X-200.0 Y-0.0 E200.0
G1 Z0.3306
G1 X97.4467 Y175.7986 E201.0
G1 Z0.3306
G1 X107.0437 Y-171.3057 E202.0
G1 Z0.3306
G1 X-202.7218 Y-10.6242 E203.0
G1 Z0.3306
G1 X89.4277 Y183.354 E204.0
G1 Z0.3306
G1 X117.5832 Y-167.9262 E205.0
G1 Z0.3306
G1 X-204.8715 Y-21.5329 E206.0
G1 Z0.3306
G1 X80.8813 Y190.5445 E207.0
G1 Z0.3306
G1 X128.0576 Y-163.9062 E208.0
G1 Z0.3306
G1 X-206.4269 Y-32.6948 E209.0
G1 Z0.3306
G1 X71.8242 Y197.3355 E210.0
G1 Z0.3306
G1 X138.4285 Y-159.2437 E211.0
G1 Z0.3306
G1 X-207.3673 Y-44.0773 E212.0
G1 Z0.3306
G1 X62.2752 Y203.6929 E213.0
G1 Z0.3306
G1 X148.6569 Y-153.9387 E214.0
G1 Z0.3306
G1 X-207.6741 Y-55.6461 E215.0
G1 Z0.3306
G1 X52.2551 Y209.5839 E216.0
G1 Z0.3306
G1 X158.7038 Y-147.9936 E217.0
G1 Z0.3306
G1 X-207.3303 Y-67.3657 E218.0
G1 Z0.3306
G1 X41.7872 Y214.9764 E219.0
G1 Z0.3306
; travel
G0 X132.6943 Y-114.2355 Z-66.1111
G1 X14.1799 Y-14.1043 E20.0
; new layer
G1 Z1.0
G1 X-17.1699 Y-12.0911 E21.0
; new layer
G1 Z1.0
G1 X-9.3509 Y19.9138 E22.0
; new layer
G1 Z1.0
G1 X22.2003 Y6.0122 E23.0
; new layer
G1 Z1.0
G1 X2.1557 Y-23.903 E24.0
; new layer
G1 Z1.0
G1 X-24.9106 Y2.1123 E25.0
; new layer
G1 Z1.0
G1 X6.6621 Y25.132 E26.0
; new layer
G1 Z1.0
G1 X24.5007 Y-11.3452 E27.0
; new layer
G1 Z1.0
G1 X-15.9988 Y-22.9791 E28.0
; new layer
G1 Z1.0
G1 X-20.5609 Y20.4512 E29.0
; new layer
G1 Z1.0
G1 X24.5285 Y17.2729 E30.0
; new layer
G1 Z1.0
G1 X13.1762 Y-28.0604 E31.0
; new layer
G1 Z1.0
G1 X-30.8874 Y-8.3648 E32.0
; new layer
G1 Z1.0
G1 X-2.964 Y32.8666 E33.0
; new layer
G1 Z1.0
G1 X33.8784 Y-2.8727 E34.0
; new layer
G1 Z1.0
G1 X-8.9682 Y-33.8315 E35.0
; new layer
G1 Z1.0
G1 X-32.6676 Y15.127 E36.0
; new layer
G1 Z1.0
G1 X21.1412 Y30.3653 E37.0
; new layer
G1 Z1.0
G1 X26.9418 Y-26.7981 E38.0
; new layer
G1 Z1.0
G1 X-31.887 Y-22.4548 E39.0
; new layer
G1 Z1.0
G1 X-17.0016 Y36.207 E40.0
; new layer
G1 Z1.0
G1 X39.5744 Y10.7174 E41.0
; new layer
G1 Z1.0
G1 X3.7724 Y-41.8302 E42.0
; new layer
G1 Z1.0
G1 X-42.8462 Y3.6331 E43.0
; new layer
G1 Z1.0
G1 X11.2743 Y42.531 E44.0
; new layer
G1 Z1.0
G1 X40.8346 Y-18.9087 E45.0
; new layer
G1 Z1.0
G1 X-26.2837 Y-37.7514 E46.0
; new layer
G1 Z1.0
G1 X-33.3228 Y33.145 E47.0
; new layer
G1 Z1.0
G1 X39.2455 Y27.6367 E48.0
; new layer
G1 Z1.0
G1 X20.827 Y-44.3535 E49.0
; new layer
G1 Z1.0
G1 X-48.2615 Y-13.0701 E50.0
; new layer
G1 Z1.0
G1 X-4.5808 Y50.7939 E51.0
; new layer
G1 Z1.0
G1 X51.8141 Y-4.3936 E52.0
; new layer
G1 Z1.0
G1 X-13.5805 Y-51.2306 E53.0
; new layer
G1 Z1.0
G1 X-49.0015 Y22.6904 E54.0
; new layer
G1 Z1.0
G1 X31.4261 Y45.1376 E55.0
; new layer
G1 Z1.0
G1 X39.7037 Y-39.492 E56.0
; new layer
G1 Z1.0
G1 X-46.6041 Y-32.8186 E57.0
; new layer
G1 Z1.0
G1 X-24.6523 Y52.5001 E58.0
; new layer
G1 Z1.0
G1 X56.9486 Y15.4227 E59.0
; new layer
G1 Z1.0
G1 X5.3892 Y-59.7575 E60.0
; new layer
G1 Z1.0
G1 X-60.7819 Y5.154 E61.0
; new layer
G1 Z1.0
G1 X15.8866 Y59.9301 E62.0
; new layer
G1 Z1.0
G1 X57.1684 Y-26.4722 E63.0
; new layer
G1 Z1.0
G1 X-36.5686 Y-52.5237 E64.0
; new layer
G1 Z1.0
G1 X-46.0847 Y45.8389 E65.0
; new layer
G1 Z1.0
G1 X53.9626 Y38.0005 E66.0
; new layer
G1 Z1.0
G1 X28.4777 Y-60.6467 E67.0
; new layer
G1 Z1.0
G1 X-65.6357 Y-17.7753 E68.0
; new layer
G1 Z1.0
G1 X-6.1975 Y68.7211 E69.0
; new layer
G1 Z1.0
G1 X69.7497 Y-5.9144 E70.0
; new layer
G1 Z1.0
G1 X-18.1927 Y-68.6296 E71.0
; new layer
G1 Z1.0
G1 X-65.3353 Y30.2539 E72.0
; new layer
G1 Z1.0
G1 X41.711 Y59.9099 E73.0
; new layer
G1 Z1.0
G1 X52.4656 Y-52.1858 E74.0
; new layer
G1 Z1.0
G1 X-61.3212 Y-43.1824 E75.0
; new layer
G1 Z1.0
G1 X-32.3031 Y68.7933 E76.0
; new layer
G1 Z1.0
G1 X74.3227 Y20.1279 E77.0
; new layer
G1 Z1.0
G1 X7.0059 Y-77.6847 E78.0
; new layer
G1 Z1.0
G1 X-78.7175 Y6.6748 E79.0
; new layer
G1 Z1.0
G1 X20.4988 Y77.3292 E80.0
; new layer
G1 Z1.0
G1 X73.5022 Y-34.0357 E81.0
; new layer
G1 Z1.0
G1 X-46.8535 Y-67.296 E82.0
; new layer
G1 Z1.0
G1 X-58.8466 Y58.5327 E83.0
; new layer
G1 Z1.0
G1 X68.6797 Y48.3642 E84.0
; new layer
G1 Z1.0
G1 X36.1284 Y-76.9398 E85.0
; new layer
G1 Z1.0
G1 X-83.0098 Y-22.4805 E86.0
; new layer
G1 Z1.0
G1 X-7.8143 Y86.6484 E87.0
; new layer
G1 Z1.0
G1 X87.6853 Y-7.4353 E88.0
; new layer
G1 Z1.0
G1 X-22.8049 Y-86.0287 E89.0
; new layer
G1 Z1.0
G1 X-81.6691 Y37.8174 E90.0
; new layer
G1 Z1.0
G1 X51.9959 Y74.6821 E91.0
; new layer
G1 Z1.0
G1 X65.2275 Y-64.8796 E92.0
; new layer
G1 Z1.0
G1 X-76.0382 Y-53.5461 E93.0
; new layer
G1 Z1.0
G1 X-39.9538 Y85.0864 E94.0
; new layer
G1 Z1.0
G1 X91.6969 Y24.8331 E95.0
; new layer
G1 Z1.0
G1 X8.6227 Y-95.612 E96.0
; new layer
G1 Z1.0
G1 X-96.6531 Y8.1957 E97.0
; new layer
G1 Z1.0
G1 X25.111 Y94.7282 E98.0
; new layer
G1 Z1.0
G1 X89.836 Y-41.5991 E99.0
; new layer
G1 Z1.0
G1 X-57.1384 Y-82.0683 E100.0
; new layer
G1 Z1.0
G1 X-71.6085 Y71.2266 E101.0
; new layer
G1 Z1.0
G1 X83.3968 Y58.728 E102.0
; new layer
G1 Z1.0
G1 X43.7791 Y-93.233 E103.0
; new layer
G1 Z1.0
G1 X-100.3839 Y-27.1857 E104.0
; new layer
G1 Z1.0
G1 X-9.431 Y104.5756 E105.0
; new layer
G1 Z1.0
G1 X105.621 Y-8.9561 E106.0
; new layer
G1 Z1.0
G1 X-27.4172 Y-103.4277 E107.0
; new layer
G1 Z1.0
G1 X-98.0029 Y45.3809 E108.0
; new layer
G1 Z1.0
G1 X62.2808 Y89.4544 E109.0
; new layer
G1 Z1.0
G1 X77.9895 Y-77.5735 E110.0
; new layer
G1 Z1.0
G1 X-90.7553 Y-63.9099 E111.0
; new layer
G1 Z1.0
G1 X-47.6045 Y101.3795 E112.0
; new layer
G1 Z1.0
G1 X109.071 Y29.5383 E113.0
; new layer
G1 Z1.0
G1 X10.2394 Y-113.5392 E114.0
; new layer
G1 Z1.0
G1 X-114.5888 Y9.7165 E115.0
; new layer
G1 Z1.0
G1 X29.7233 Y112.1273 E116.0
; new layer
G1 Z1.0
G1 X106.1699 Y-49.1626 E117.0
; new layer
G1 Z1.0
G1 X-67.4233 Y-96.8406 E118.0
; new layer
G1 Z1.0
G1 X-84.3704 Y83.9204 E119.0
; new layer
G1 Z1.0
; travel
G0 X-123.1744 Y5.8378 Z-100.0
G1 X-15.5167 Y12.6188 E20.0
G1 X3.1698 Y19.7472 E20.0
G1 X18.6865 Y7.1284 E20.0
G1 X15.5167 Y-12.6188 E20.0
G1 X-3.1698 Y-19.7472 E20.0
G1 X-18.6865 Y-7.1284 E20.0
G1 Z0.1667
G1 X-18.6865 Y-7.1284 E20.0
G1 X-15.5167 Y12.6188 E20.0
G1 X3.1698 Y19.7472 E20.0
G1 X18.6865 Y7.1284 E20.0
G1 X15.5167 Y-12.6188 E20.0
G1 X-3.1698 Y-19.7472 E20.0
G1 Z0.1667
G1 X-3.1698 Y-19.7472 E20.0
G1 X-18.6865 Y-7.1284 E20.0
G1 X-15.5167 Y12.6188 E20.0
G1 X3.1698 Y19.7472 E20.0
G1 X18.6865 Y7.1284 E20.0
G1 X15.5167 Y-12.6188 E20.0
G1 Z0.1667
G1 X15.5167 Y-12.6188 E20.0
G1 X-3.1698 Y-19.7472 E20.0
G1 X-18.6865 Y-7.1284 E20.0
G1 X-15.5167 Y12.6188 E20.0
G1 X3.1698 Y19.7472 E20.0
G1 X18.6865 Y7.1284 E20.0
G1 Z0.1667
G1 X18.6865 Y7.1284 E20.0
G1 X15.5167 Y-12.6188 E20.0
G1 X-3.1698 Y-19.7472 E20.0
G1 X-18.6865 Y-7.1284 E20.0
G1 X-15.5167 Y12.6188 E20.0
G1 X3.1698 Y19.7472 E20.0
G1 Z0.1667
G1 X3.1698 Y19.7472 E20.0
G1 X18.6865 Y7.1284 E20.0
G1 X15.5167 Y-12.6188 E20.0
G1 X-3.1698 Y-19.7472 E20.0
G1 X-18.6865 Y-7.1284 E20.0
G1 X-15.5167 Y12.6188 E20.0
G1 Z0.1667
G1 X-15.5167 Y12.6188 E20.0
G1 X3.1698 Y19.7472 E20.0
G1 X18.6865 Y7.1284 E20.0
G1 X15.5167 Y-12.6188 E20.0
G1 X-3.1698 Y-19.7472 E20.0
G1 X-18.6865 Y-7.1284 E20.0
G1 Z0.1667
G1 X-18.6865 Y-7.1284 E20.0
G1 X-15.5167 Y12.6188 E20.0
G1 X3.1698 Y19.7472 E20.0
G1 X18.6865 Y7.1284 E20.0
G1 X15.5167 Y-12.6188 E20.0
G1 X-3.1698 Y-19.7472 E20.0
G1 Z0.1667
G1 X-3.1698 Y-19.7472 E20.0
G1 X-18.6865 Y-7.1284 E20.0
G1 X-15.5167 Y12.6188 E20.0
G1 X3.1698 Y19.7472 E20.0
G1 X18.6865 Y7.1284 E20.0
G1 X15.5167 Y-12.6188 E20.0
G1 Z0.1667
G1 X15.5167 Y-12.6188 E20.0
G1 X-3.1698 Y-19.7472 E20.0
G1 X-18.6865 Y-7.1284 E20.0
G1 X-15.5167 Y12.6188 E20.0
G1 X3.1698 Y19.7472 E20.0
G1 X18.6865 Y7.1284 E20.0
G1 Z0.1667
G1 X18.6865 Y7.1284 E20.0
G1 X15.5167 Y-12.6188 E20.0
G1 X-3.1698 Y-19.7472 E20.0
G1 X-18.6865 Y-7.1284 E20.0
G1 X-15.5167 Y12.6188 E20.0
G1 X3.1698 Y19.7472 E20.0
G1 Z0.1667
G1 X3.1698 Y19.7472 E20.0
G1 X18.6865 Y7.1284 E20.0
G1 X15.5167 Y-12.6188 E20.0
G1 X-3.1698 Y-19.7472 E20.0
G1 X-18.6865 Y-7.1284 E20.0
G1 X-15.5167 Y12.6188 E20.0
G1 Z0.1667
G1 X-15.5167 Y12.6188 E20.0
G1 X3.1698 Y19.7472 E20.0
G1 X18.6865 Y7.1284 E20.0
G1 X15.5167 Y-12.6188 E20.0
G1 X-3.1698 Y-19.7472 E20.0
G1 X-18.6865 Y-7.1284 E20.0
G1 Z0.1667
G1 X-18.6865 Y-7.1284 E20.0
G1 X-15.5167 Y12.6188 E20.0
G1 X3.1698 Y19.7472 E20.0
G1 X18.6865 Y7.1284 E20.0
G1 X15.5167 Y-12.6188 E20.0
G1 X-3.1698 Y-19.7472 E20.0
G1 Z0.1667
G1 X-3.1698 Y-19.7472 E20.0
G1 X-18.6865 Y-7.1284 E20.0
G1 X-15.5167 Y12.6188 E20.0
G1 X3.1698 Y19.7472 E20.0
G1 X18.6865 Y7.1284 E20.0
G1 X15.5167 Y-12.6188 E20.0
G1 Z0.1667
G1 X15.5167 Y-12.6188 E20.0
G1 X-3.1698 Y-19.7472 E20.0
G1 X-18.6865 Y-7.1284 E20.0
G1 X-15.5167 Y12.6188 E20.0
G1 X3.1698 Y19.7472 E20.0
G1 X18.6865 Y7.1284 E20.0
G1 Z0.1667
G1 X18.6865 Y7.1284 E20.0
G1 X15.5167 Y-12.6188 E20.0
G1 X-3.1698 Y-19.7472 E20.0
G1 X-18.6865 Y-7.1284 E20.0
G1 X-15.5167 Y12.6188 E20.0
G1 X3.1698 Y19.7472 E20.0
G1 Z0.1667
G1 X3.1698 Y19.7472 E20.0
G1 X18.6865 Y7.1284 E20.0
G1 X15.5167 Y-12.6188 E20.0
G1 X-3.1698 Y-19.7472 E20.0
G1 X-18.6865 Y-7.1284 E20.0
G1 X-15.5167 Y12.6188 E20.0
G1 Z0.1667
G1 X-15.5167 Y12.6188 E20.0
G1 X3.1698 Y19.7472 E20.0
G1 X18.6865 Y7.1284 E20.0
G1 X15.5167 Y-12.6188 E20.0
G1 X-3.1698 Y-19.7472 E20.0
G1 X-18.6865 Y-7.1284 E20.0
G1 Z0.1667
G1 X-18.6865 Y-7.1284 E20.0
G1 X-15.5167 Y12.6188 E20.0
G1 X3.1698 Y19.7472 E20.0
G1 X18.6865 Y7.1284 E20.0
G1 X15.5167 Y-12.6188 E20.0
G1 X-3.1698 Y-19.7472 E20.0
G1 Z0.1667
G1 X-3.1698 Y-19.7472 E20.0
G1 X-18.6865 Y-7.1284 E20.0
G1 X-15.5167 Y12.6188 E20.0
G1 X3.1698 Y19.7472 E20.0
G1 X18.6865 Y7.1284 E20.0
G1 X15.5167 Y-12.6188 E20.0
G1 Z0.1667
G1 X15.5167 Y-12.6188 E20.0
G1 X-3.1698 Y-19.7472 E20.0
G1 X-18.6865 Y-7.1284 E20.0
G1 X-15.5167 Y12.6188 E20.0
G1 X3.1698 Y19.7472 E20.0
G1 X18.6865 Y7.1284 E20.0
G1 Z0.1667
G1 X18.6865 Y7.1284 E20.0
G1 X15.5167 Y-12.6188 E20.0
G1 X-3.1698 Y-19.7472 E20.0
G1 X-18.6865 Y-7.1284 E20.0
G1 X-15.5167 Y12.6188 E20.0
G1 X3.1698 Y19.7472 E20.0
G1 Z0.1667
G1 X3.1698 Y19.7472 E20.0
G1 X18.6865 Y7.1284 E20.0
G1 X15.5167 Y-12.6188 E20.0
G1 X-3.1698 Y-19.7472 E20.0
G1 X-18.6865 Y-7.1284 E20.0
G1 X-15.5167 Y12.6188 E20.0
G1 Z0.1667
G1 X-15.5167 Y12.6188 E20.0
G1 X3.1698 Y19.7472 E20.0
G1 X18.6865 Y7.1284 E20.0
G1 X15.5167 Y-12.6188 E20.0
G1 X-3.1698 Y-19.7472 E20.0
G1 X-18.6865 Y-7.1284 E20.0
G1 Z0.1667
G1 X-18.6865 Y-7.1284 E20.0
G1 X-15.5167 Y12.6188 E20.0
G1 X3.1698 Y19.7472 E20.0
G1 X18.6865 Y7.1284 E20.0
G1 X15.5167 Y-12.6188 E20.0
G1 X-3.1698 Y-19.7472 E20.0
G1 Z0.1667
G1 X-3.1698 Y-19.7472 E20.0
G1 X-18.6865 Y-7.1284 E20.0
G1 X-15.5167 Y12.6188 E20.0
G1 X3.1698 Y19.7472 E20.0
G1 X18.6865 Y7.1284 E20.0
G1 X15.5167 Y-12.6188 E20.0
G1 Z0.1667
G1 X15.5167 Y-12.6188 E20.0
G1 X-3.1698 Y-19.7472 E20.0
G1 X-18.6865 Y-7.1284 E20.0
G1 X-15.5167 Y12.6188 E20.0
G1 X3.1698 Y19.7472 E20.0
G1 X18.6865 Y7.1284 E20.0
G1 Z0.1667
G1 X18.6865 Y7.1284 E20.0
G1 X15.5167 Y-12.6188 E20.0
G1 X-3.1698 Y-19.7472 E20.0
G1 X-18.6865 Y-7.1284 E20.0
G1 X-15.5167 Y12.6188 E20.0
G1 X3.1698 Y19.7472 E20.0
G1 Z0.1667
G1 X3.1698 Y19.7472 E20.0
G1 X18.6865 Y7.1284 E20.0
G1 X15.5167 Y-12.6188 E20.0
G1 X-3.1698 Y-19.7472 E20.0
G1 X-18.6865 Y-7.1284 E20.0
G1 X-15.5167 Y12.6188 E20.0
G1 Z0.1667
G1 X-15.5167 Y12.6188 E20.0
G1 X3.1698 Y19.7472 E20.0
G1 X18.6865 Y7.1284 E20.0
G1 X15.5167 Y-12.6188 E20.0
G1 X-3.1698 Y-19.7472 E20.0
G1 X-18.6865 Y-7.1284 E20.0
G1 Z0.1667
G1 X-18.6865 Y-7.1284 E20.0
G1 X-15.5167 Y12.6188 E20.0
G1 X3.1698 Y19.7472 E20.0
G1 X18.6865 Y7.1284 E20.0
G1 X15.5167 Y-12.6188 E20.0
G1 X-3.1698 Y-19.7472 E20.0
G1 Z0.1667
G1 X-3.1698 Y-19.7472 E20.0
G1 X-18.6865 Y-7.1284 E20.0
G1 X-15.5167 Y12.6188 E20.0
G1 X3.1698 Y19.7472 E20.0
G1 X18.6865 Y7.1284 E20.0
G1 X15.5167 Y-12.6188 E20.0
G1 Z0.1667
G1 X15.5167 Y-12.6188 E20.0
G1 X-3.1698 Y-19.7472 E20.0
G1 X-18.6865 Y-7.1284 E20.0
G1 X-15.5167 Y12.6188 E20.0
G1 X3.1698 Y19.7472 E20.0
G1 X18.6865 Y7.1284 E20.0
G1 Z0.1667
G1 X18.6865 Y7.1284 E20.0
G1 X15.5167 Y-12.6188 E20.0
G1 X-3.1698 Y-19.7472 E20.0
G1 X-18.6865 Y-7.1284 E20.0
G1 X-15.5167 Y12.6188 E20.0
G1 X3.1698 Y19.7472 E20.0
G1 Z0.1667
G1 X3.1698 Y19.7472 E20.0
G1 X18.6865 Y7.1284 E20.0
G1 X15.5167 Y-12.6188 E20.0
G1 X-3.1698 Y-19.7472 E20.0
G1 X-18.6865 Y-7.1284 E20.0
G1 X-15.5167 Y12.6188 E20.0
G1 Z0.1667
G1 X-15.5167 Y12.6188 E20.0
G1 X3.1698 Y19.7472 E20.0
G1 X18.6865 Y7.1284 E20.0
G1 X15.5167 Y-12.6188 E20.0
G1 X-3.1698 Y-19.7472 E20.0
G1 X-18.6865 Y-7.1284 E20.0
G1 Z0.1667
G1 X-18.6865 Y-7.1284 E20.0
G1 X-15.5167 Y12.6188 E20.0
G1 X3.1698 Y19.7472 E20.0
G1 X18.6865 Y7.1284 E20.0
G1 X15.5167 Y-12.6188 E20.0
G1 X-3.1698 Y-19.7472 E20.0
G1 Z0.1667
G1 X-3.1698 Y-19.7472 E20.0
G1 X-18.6865 Y-7.1284 E20.0
G1 X-15.5167 Y12.6188 E20.0
G1 X3.1698 Y19.7472 E20.0
G1 X18.6865 Y7.1284 E20.0
G1 X15.5167 Y-12.6188 E20.0
G1 Z0.1667
G1 X15.5167 Y-12.6188 E20.0
G1 X-3.1698 Y-19.7472 E20.0
G1 X-18.6865 Y-7.1284 E20.0
G1 X-15.5167 Y12.6188 E20.0
G1 X3.1698 Y19.7472 E20.0
G1 X18.6865 Y7.1284 E20.0
G1 Z0.1667
G1 X18.6865 Y7.1284 E20.0
G1 X15.5167 Y-12.6188 E20.0
G1 X-3.1698 Y-19.7472 E20.0
G1 X-18.6865 Y-7.1284 E20.0
G1 X-15.5167 Y12.6188 E20.0
G1 X3.1698 Y19.7472 E20.0
G1 Z0.1667
G1 X3.1698 Y19.7472 E20.0
G1 X18.6865 Y7.1284 E20.0
G1 X15.5167 Y-12.6188 E20.0
G1 X-3.1698 Y-19.7472 E20.0
G1 X-18.6865 Y-7.1284 E20.0
G1 X-15.5167 Y12.6188 E20.0
G1 Z0.1667
G1 X-15.5167 Y12.6188 E20.0
G1 X3.1698 Y19.7472 E20.0
G1 X18.6865 Y7.1284 E20.0
G1 X15.5167 Y-12.6188 E20.0
G1 X-3.1698 Y-19.7472 E20.0
G1 X-18.6865 Y-7.1284 E20.0
G1 Z0.1667
G1 X-18.6865 Y-7.1284 E20.0
G1 X-15.5167 Y12.6188 E20.0
G1 X3.1698 Y19.7472 E20.0
G1 X18.6865 Y7.1284 E20.0
G1 X15.5167 Y-12.6188 E20.0
G1 X-3.1698 Y-19.7472 E20.0
G1 Z0.1667
G1 X-3.1698 Y-19.7472 E20.0
G1 X-18.6865 Y-7.1284 E20.0
G1 X-15.5167 Y12.6188 E20.0
G1 X3.1698 Y19.7472 E20.0
G1 X18.6865 Y7.1284 E20.0
G1 X15.5167 Y-12.6188 E20.0
G1 Z0.1667
G1 X15.5167 Y-12.6188 E20.0
G1 X-3.1698 Y-19.7472 E20.0
G1 X-18.6865 Y-7.1284 E20.0
G1 X-15.5167 Y12.6188 E20.0
G1 X3.1698 Y19.7472 E20.0
G1 X18.6865 Y7.1284 E20.0
G1 Z0.1667
G1 X18.6865 Y7.1284 E20.0
G1 X15.5167 Y-12.6188 E20.0
G1 X-3.1698 Y-19.7472 E20.0
G1 X-18.6865 Y-7.1284 E20.0
G1 X-15.5167 Y12.6188 E20.0
G1 X3.1698 Y19.7472 E20.0
G1 Z0.1667
G1 X3.1698 Y19.7472 E20.0
G1 X18.6865 Y7.1284 E20.0
G1 X15.5167 Y-12.6188 E20.0
G1 X-3.1698 Y-19.7472 E20.0
G1 X-18.6865 Y-7.1284 E20.0
G1 X-15.5167 Y12.6188 E20.0
G1 Z0.1667
G1 X-15.5167 Y12.6188 E20.0
G1 X3.1698 Y19.7472 E20.0
G1 X18.6865 Y7.1284 E20.0
G1 X15.5167 Y-12.6188 E20.0
G1 X-3.1698 Y-19.7472 E20.0
G1 X-18.6865 Y-7.1284 E20.0
G1 Z0.1667
G1 X-18.6865 Y-7.1284 E20.0
G1 X-15.5167 Y12.6188 E20.0
G1 X3.1698 Y19.7472 E20.0
G1 X18.6865 Y7.1284 E20.0
G1 X15.5167 Y-12.6188 E20.0
G1 X-3.1698 Y-19.7472 E20.0
G1 Z0.1667
G1 X-3.1698 Y-19.7472 E20.0
G1 X-18.6865 Y-7.1284 E20.0
G1 X-15.5167 Y12.6188 E20.0
G1 X3.1698 Y19.7472 E20.0
G1 X18.6865 Y7.1284 E20.0
G1 X15.5167 Y-12.6188 E20.0
G1 Z0.1667
G1 X15.5167 Y-12.6188 E20.0
G1 X-3.1698 Y-19.7472 E20.0
G1 X-18.6865 Y-7.1284 E20.0
G1 X-15.5167 Y12.6188 E20.0
G1 X3.1698 Y19.7472 E20.0
G1 X18.6865 Y7.1284 E20.0
G1 Z0.1667
G1 X18.6865 Y7.1284 E20.0
G1 X15.5167 Y-12.6188 E20.0
G1 X-3.1698 Y-19.7472 E20.0
G1 X-18.6865 Y-7.1284 E20.0
G1 X-15.5167 Y12.6188 E20.0
G1 X3.1698 Y19.7472 E20.0
G1 Z0.1667
G1 X3.1698 Y19.7472 E20.0
G1 X18.6865 Y7.1284 E20.0
G1 X15.5167 Y-12.6188 E20.0
G1 X-3.1698 Y-19.7472 E20.0
G1 X-18.6865 Y-7.1284 E20.0
G1 X-15.5167 Y12.6188 E20.0
G1 Z0.1667
G1 X-15.5167 Y12.6188 E20.0
G1 X3.1698 Y19.7472 E20.0
G1 X18.6865 Y7.1284 E20.0
G1 X15.5167 Y-12.6188 E20.0
G1 X-3.1698 Y-19.7472 E20.0
G1 X-18.6865 Y-7.1284 E20.0
G1 Z0.1667
G1 X-18.6865 Y-7.1284 E20.0
G1 X-15.5167 Y12.6188 E20.0
G1 X3.1698 Y19.7472 E20.0
G1 X18.6865 Y7.1284 E20.0
G1 X15.5167 Y-12.6188 E20.0
G1 X-3.1698 Y-19.7472 E20.0
G1 Z0.1667
G1 X-3.1698 Y-19.7472 E20.0
G1 X-18.6865 Y-7.1284 E20.0
G1 X-15.5167 Y12.6188 E20.0
G1 X3.1698 Y19.7472 E20.0
G1 X18.6865 Y7.1284 E20.0
G1 X15.5167 Y-12.6188 E20.0
G1 Z0.1667
G1 X15.5167 Y-12.6188 E20.0
G1 X-3.1698 Y-19.7472 E20.0
G1 X-18.6865 Y-7.1284 E20.0
G1 X-15.5167 Y12.6188 E20.0
G1 X3.1698 Y19.7472 E20.0
G1 X18.6865 Y7.1284 E20.0
G1 Z0.1667
G1 X18.6865 Y7.1284 E20.0
G1 X15.5167 Y-12.6188 E20.0
G1 X-3.1698 Y-19.7472 E20.0
G1 X-18.6865 Y-7.1284 E20.0
G1 X-15.5167 Y12.6188 E20.0
G1 X3.1698 Y19.7472 E20.0
G1 Z0.1667
G1 X3.1698 Y19.7472 E20.0
G1 X18.6865 Y7.1284 E20.0
G1 X15.5167 Y-12.6188 E20.0
G1 X-3.1698 Y-19.7472 E20.0
G1 X-18.6865 Y-7.1284 E20.0
G1 X-15.5167 Y12.6188 E20.0
G1 Z0.1667
G1 X-15.5167 Y12.6188 E20.0
G1 X3.1698 Y19.7472 E20.0
G1 X18.6865 Y7.1284 E20.0
G1 X15.5167 Y-12.6188 E20.0
G1 X-3.1698 Y-19.7472 E20.0
G1 X-18.6865 Y-7.1284 E20.0
G1 Z0.1667
G1 X-18.6865 Y-7.1284 E20.0
G1 X-15.5167 Y12.6188 E20.0
G1 X3.1698 Y19.7472 E20.0
G1 X18.6865 Y7.1284 E20.0
G1 X15.5167 Y-12.6188 E20.0
G1 X-3.1698 Y-19.7472 E20.0
G1 Z0.1667
G1 X-3.1698 Y-19.7472 E20.0
G1 X-18.6865 Y-7.1284 E20.0
G1 X-15.5167 Y12.6188 E20.0
G1 X3.1698 Y19.7472 E20.0
G1 X18.6865 Y7.1284 E20.0
G1 X15.5167 Y-12.6188 E20.0
G1 Z0.1667
G1 X15.5167 Y-12.6188 E20.0
G1 X-3.1698 Y-19.7472 E20.0
G1 X-18.6865 Y-7.1284 E20.0
G1 X-15.5167 Y12.6188 E20.0
G1 X3.1698 Y19.7472 E20.0
G1 X18.6865 Y7.1284 E20.0
G1 Z0.1667
G1 X18.6865 Y7.1284 E20.0
G1 X15.5167 Y-12.6188 E20.0
G1 X-3.1698 Y-19.7472 E20.0
G1 X-18.6865 Y-7.1284 E20.0
G1 X-15.5167 Y12.6188 E20.0
G1 X3.1698 Y19.7472 E20.0
G1 Z0.1667
G1 X3.1698 Y19.7472 E20.0
G1 X18.6865 Y7.1284 E20.0
G1 X15.5167 Y-12.6188 E20.0
G1 X-3.1698 Y-19.7472 E20.0
G1 X-18.6865 Y-7.1284 E20.0
G1 X-15.5167 Y12.6188 E20.0
G1 Z0.1667
G1 X-15.5167 Y12.6188 E20.0
G1 X3.1698 Y19.7472 E20.0
G1 X18.6865 Y7.1284 E20.0
G1 X15.5167 Y-12.6188 E20.0
G1 X-3.1698 Y-19.7472 E20.0
G1 X-18.6865 Y-7.1284 E20.0
G1 Z0.1667
G1 X-18.6865 Y-7.1284 E20.0
G1 X-15.5167 Y12.6188 E20.0
G1 X3.1698 Y19.7472 E20.0
G1 X18.6865 Y7.1284 E20.0
G1 X15.5167 Y-12.6188 E20.0
G1 X-3.1698 Y-19.7472 E20.0
G1 Z0.1667
G1 X-3.1698 Y-19.7472 E20.0
G1 X-18.6865 Y-7.1284 E20.0
G1 X-15.5167 Y12.6188 E20.0
G1 X3.1698 Y19.7472 E20.0
G1 X18.6865 Y7.1284 E20.0
G1 X15.5167 Y-12.6188 E20.0
G1 Z0.1667
G1 X15.5167 Y-12.6188 E20.0
G1 X-3.1698 Y-19.7472 E20.0
G1 X-18.6865 Y-7.1284 E20.0
G1 X-15.5167 Y12.6188 E20.0
G1 X3.1698 Y19.7472 E20.0
G1 X18.6865 Y7.1284 E20.0
G1 Z0.1667
G1 X18.6865 Y7.1284 E20.0
G1 X15.5167 Y-12.6188 E20.0
G1 X-3.1698 Y-19.7472 E20.0
G1 X-18.6865 Y-7.1284 E20.0
G1 X-15.5167 Y12.6188 E20.0
G1 X3.1698 Y19.7472 E20.0
G1 Z0.1667
G1 X3.1698 Y19.7472 E20.0
G1 X18.6865 Y7.1284 E20.0
G1 X15.5167 Y-12.6188 E20.0
G1 X-3.1698 Y-19.7472 E20.0
G1 X-18.6865 Y-7.1284 E20.0
G1 X-15.5167 Y12.6188 E20.0
G1 Z0.1667
G1 X-15.5167 Y12.6188 E20.0
G1 X3.1698 Y19.7472 E20.0
G1 X18.6865 Y7.1284 E20.0
G1 X15.5167 Y-12.6188 E20.0
G1 X-3.1698 Y-19.7472 E20.0
G1 X-18.6865 Y-7.1284 E20.0
G1 Z0.1667
G1 X-18.6865 Y-7.1284 E20.0
G1 X-15.5167 Y12.6188 E20.0
G1 X3.1698 Y19.7472 E20.0
G1 X18.6865 Y7.1284 E20.0
G1 X15.5167 Y-12.6188 E20.0
G1 X-3.1698 Y-19.7472 E20.0
G1 Z0.1667
G1 X-3.1698 Y-19.7472 E20.0
G1 X-18.6865 Y-7.1284 E20.0
G1 X-15.5167 Y12.6188 E20.0
G1 X3.1698 Y19.7472 E20.0
G1 X18.6865 Y7.1284 E20.0
G1 X15.5167 Y-12.6188 E20.0
G1 Z0.1667
G1 X15.5167 Y-12.6188 E20.0
G1 X-3.1698 Y-19.7472 E20.0
G1 X-18.6865 Y-7.1284 E20.0
G1 X-15.5167 Y12.6188 E20.0
G1 X3.1698 Y19.7472 E20.0
G1 X18.6865 Y7.1284 E20.0
G1 Z0.1667
G1 X18.6865 Y7.1284 E20.0
G1 X15.5167 Y-12.6188 E20.0
G1 X-3.1698 Y-19.7472 E20.0
G1 X-18.6865 Y-7.1284 E20.0
G1 X-15.5167 Y12.6188 E20.0
G1 X3.1698 Y19.7472 E20.0
G1 Z0.1667
G1 X3.1698 Y19.7472 E20.0
G1 X18.6865 Y7.1284 E20.0
G1 X15.5167 Y-12.6188 E20.0
G1 X-3.1698 Y-19.7472 E20.0
G1 X-18.6865 Y-7.1284 E20.0
G1 X-15.5167 Y12.6188 E20.0
G1 Z0.1667
G1 X-15.5167 Y12.6188 E20.0
G1 X3.1698 Y19.7472 E20.0
G1 X18.6865 Y7.1284 E20.0
G1 X15.5167 Y-12.6188 E20.0
G1 X-3.1698 Y-19.7472 E20.0
G1 X-18.6865 Y-7.1284 E20.0
G1 Z0.1667
G1 X-18.6865 Y-7.1284 E20.0
G1 X-15.5167 Y12.6188 E20.0
G1 X3.1698 Y19.7472 E20.0
G1 X18.6865 Y7.1284 E20.0
G1 X15.5167 Y-12.6188 E20.0
G1 X-3.1698 Y-19.7472 E20.0
G1 Z0.1667
G1 X-3.1698 Y-19.7472 E20.0
G1 X-18.6865 Y-7.1284 E20.0
G1 X-15.5167 Y12.6188 E20.0
G1 X3.1698 Y19.7472 E20.0
G1 X18.6865 Y7.1284 E20.0
G1 X15.5167 Y-12.6188 E20.0
G1 Z0.1667
G1 X15.5167 Y-12.6188 E20.0
G1 X-3.1698 Y-19.7472 E20.0
G1 X-18.6865 Y-7.1284 E20.0
G1 X-15.5167 Y12.6188 E20.0
G1 X3.1698 Y19.7472 E20.0
G1 X18.6865 Y7.1284 E20.0
G1 Z0.1667
G1 X18.6865 Y7.1284 E20.0
G1 X15.5167 Y-12.6188 E20.0
G1 X-3.1698 Y-19.7472 E20.0
G1 X-18.6865 Y-7.1284 E20.0
G1 X-15.5167 Y12.6188 E20.0
G1 X3.1698 Y19.7472 E20.0
G1 Z0.1667
G1 X3.1698 Y19.7472 E20.0
G1 X18.6865 Y7.1284 E20.0
G1 X15.5167 Y-12.6188 E20.0
G1 X-3.1698 Y-19.7472 E20.0
G1 X-18.6865 Y-7.1284 E20.0
G1 X-15.5167 Y12.6188 E20.0
G1 Z0.1667
G1 X-15.5167 Y12.6188 E20.0
G1 X3.1698 Y19.7472 E20.0
G1 X18.6865 Y7.1284 E20.0
G1 X15.5167 Y-12.6188 E20.0
G1 X-3.1698 Y-19.7472 E20.0
G1 X-18.6865 Y-7.1284 E20.0
G1 Z0.1667
G1 X-18.6865 Y-7.1284 E20.0
G1 X-15.5167 Y12.6188 E20.0
G1 X3.1698 Y19.7472 E20.0
G1 X18.6865 Y7.1284 E20.0
G1 X15.5167 Y-12.6188 E20.0
G1 X-3.1698 Y-19.7472 E20.0
G1 Z0.1667
G1 X-3.1698 Y-19.7472 E20.0
G1 X-18.6865 Y-7.1284 E20.0
G1 X-15.5167 Y12.6188 E20.0
G1 X3.1698 Y19.7472 E20.0
G1 X18.6865 Y7.1284 E20.0
G1 X15.5167 Y-12.6188 E20.0
G1 Z0.1667
G1 X15.5167 Y-12.6188 E20.0
G1 X-3.1698 Y-19.7472 E20.0
G1 X-18.6865 Y-7.1284 E20.0
G1 X-15.5167 Y12.6188 E20.0
G1 X3.1698 Y19.7472 E20.0
G1 X18.6865 Y7.1284 E20.0
G1 Z0.1667
G1 X18.6865 Y7.1284 E20.0
G1 X15.5167 Y-12.6188 E20.0
G1 X-3.1698 Y-19.7472 E20.0
G1 X-18.6865 Y-7.1284 E20.0
G1 X-15.5167 Y12.6188 E20.0
G1 X3.1698 Y19.7472 E20.0
G1 Z0.1667
G1 X3.1698 Y19.7472 E20.0
G1 X18.6865 Y7.1284 E20.0
G1 X15.5167 Y-12.6188 E20.0
G1 X-3.1698 Y-19.7472 E20.0
G1 X-18.6865 Y-7.1284 E20.0
G1 X-15.5167 Y12.6188 E20.0
G1 Z0.1667
G1 X-15.5167 Y12.6188 E20.0
G1 X3.1698 Y19.7472 E20.0
G1 X18.6865 Y7.1284 E20.0
G1 X15.5167 Y-12.6188 E20.0
G1 X-3.1698 Y-19.7472 E20.0
G1 X-18.6865 Y-7.1284 E20.0
G1 Z0.1667
G1 X-18.6865 Y-7.1284 E20.0
G1 X-15.5167 Y12.6188 E20.0
G1 X3.1698 Y19.7472 E20.0
G1 X18.6865 Y7.1284 E20.0
G1 X15.5167 Y-12.6188 E20.0
G1 X-3.1698 Y-19.7472 E20.0
G1 Z0.1667
G1 X-3.1698 Y-19.7472 E20.0
G1 X-18.6865 Y-7.1284 E20.0
G1 X-15.5167 Y12.6188 E20.0
G1 X3.1698 Y19.7472 E20.0
G1 X18.6865 Y7.1284 E20.0
G1 X15.5167 Y-12.6188 E20.0
G1 Z0.1667
G1 X15.5167 Y-12.6188 E20.0
G1 X-3.1698 Y-19.7472 E20.0
G1 X-18.6865 Y-7.1284 E20.0
G1 X-15.5167 Y12.6188 E20.0
G1 X3.1698 Y19.7472 E20.0
G1 X18.6865 Y7.1284 E20.0
G1 Z0.1667
G1 X18.6865 Y7.1284 E20.0
G1 X15.5167 Y-12.6188 E20.0
G1 X-3.1698 Y-19.7472 E20.0
G1 X-18.6865 Y-7.1284 E20.0
G1 X-15.5167 Y12.6188 E20.0
G1 X3.1698 Y19.7472 E20.0
G1 Z0.1667
G1 X3.1698 Y19.7472 E20.0
G1 X18.6865 Y7.1284 E20.0
G1 X15.5167 Y-12.6188 E20.0
G1 X-3.1698 Y-19.7472 E20.0
G1 X-18.6865 Y-7.1284 E20.0
G1 X-15.5167 Y12.6188 E20.0
G1 Z0.1667
G1 X-15.5167 Y12.6188 E20.0
G1 X3.1698 Y19.7472 E20.0
G1 X18.6865 Y7.1284 E20.0
G1 X15.5167 Y-12.6188 E20.0
G1 X-3.1698 Y-19.7472 E20.0
G1 X-18.6865 Y-7.1284 E20.0
G1 Z0.1667
G1 X-18.6865 Y-7.1284 E20.0
G1 X-15.5167 Y12.6188 E20.0
G1 X3.1698 Y19.7472 E20.0
G1 X18.6865 Y7.1284 E20.0
G1 X15.5167 Y-12.6188 E20.0
G1 X-3.1698 Y-19.7472 E20.0
G1 Z0.1667
G1 X-3.1698 Y-19.7472 E20.0
G1 X-18.6865 Y-7.1284 E20.0
G1 X-15.5167 Y12.6188 E20.0
G1 X3.1698 Y19.7472 E20.0
G1 X18.6865 Y7.1284 E20.0
G1 X15.5167 Y-12.6188 E20.0
G1 Z0.1667
G1 X15.5167 Y-12.6188 E20.0
G1 X-3.1698 Y-19.7472 E20.0
G1 X-18.6865 Y-7.1284 E20.0
G1 X-15.5167 Y12.6188 E20.0
G1 X3.1698 Y19.7472 E20.0
G1 X18.6865 Y7.1284 E20.0
G1 Z0.1667
G1 X18.6865 Y7.1284 E20.0
G1 X15.5167 Y-12.6188 E20.0
G1 X-3.1698 Y-19.7472 E20.0
G1 X-18.6865 Y-7.1284 E20.0
G1 X-15.5167 Y12.6188 E20.0
G1 X3.1698 Y19.7472 E20.0
G1 Z0.1667
G1 X3.1698 Y19.7472 E20.0
G1 X18.6865 Y7.1284 E20.0
G1 X15.5167 Y-12.6188 E20.0
G1 X-3.1698 Y-19.7472 E20.0
G1 X-18.6865 Y-7.1284 E20.0
G1 X-15.5167 Y12.6188 E20.0
G1 Z0.1667
G1 X-15.5167 Y12.6188 E20.0
G1 X3.1698 Y19.7472 E20.0
G1 X18.6865 Y7.1284 E20.0
G1 X15.5167 Y-12.6188 E20.0
G1 X-3.1698 Y-19.7472 E20.0
G1 X-18.6865 Y-7.1284 E20.0
G1 Z0.1667
G1 X-18.6865 Y-7.1284 E20.0
G1 X-15.5167 Y12.6188 E20.0
G1 X3.1698 Y19.7472 E20.0
G1 X18.6865 Y7.1284 E20.0
G1 X15.5167 Y-12.6188 E20.0
G1 X-3.1698 Y-19.7472 E20.0
G1 Z0.1667
G1 X-3.1698 Y-19.7472 E20.0
G1 X-18.6865 Y-7.1284 E20.0
G1 X-15.5167 Y12.6188 E20.0
G1 X3.1698 Y19.7472 E20.0
G1 X18.6865 Y7.1284 E20.0
G1 X15.5167 Y-12.6188 E20.0
G1 Z0.1667
G1 X15.5167 Y-12.6188 E20.0
G1 X-3.1698 Y-19.7472 E20.0
G1 X-18.6865 Y-7.1284 E20.0
G1 X-15.5167 Y12.6188 E20.0
G1 X3.1698 Y19.7472 E20.0
G1 X18.6865 Y7.1284 E20.0
G1 Z0.1667
G1 X18.6865 Y7.1284 E20.0
G1 X15.5167 Y-12.6188 E20.0
G1 X-3.1698 Y-19.7472 E20.0
G1 X-18.6865 Y-7.1284 E20.0
G1 X-15.5167 Y12.6188 E20.0
G1 X3.1698 Y19.7472 E20.0
G1 Z0.1667
G1 X3.1698 Y19.7472 E20.0
G1 X18.6865 Y7.1284 E20.0
G1 X15.5167 Y-12.6188 E20.0
G1 X-3.1698 Y-19.7472 E20.0
G1 X-18.6865 Y-7.1284 E20.0
G1 X-15.5167 Y12.6188 E20.0
G1 Z0.1667
G1 X-15.5167 Y12.6188 E20.0
G1 X3.1698 Y19.7472 E20.0
G1 X18.6865 Y7.1284 E20.0
G1 X15.5167 Y-12.6188 E20.0
G1 X-3.1698 Y-19.7472 E20.0
G1 X-18.6865 Y-7.1284 E20.0
G1 Z0.1667
G1 X-18.6865 Y-7.1284 E20.0
G1 X-15.5167 Y12.6188 E20.0
G1 X3.1698 Y19.7472 E20.0
G1 X18.6865 Y7.1284 E20.0
G1 X15.5167 Y-12.6188 E20.0
G1 X-3.1698 Y-19.7472 E20.0
G1 Z0.1667
G1 X-3.1698 Y-19.7472 E20.0
G1 X-18.6865 Y-7.1284 E20.0
G1 X-15.5167 Y12.6188 E20.0
G1 X3.1698 Y19.7472 E20.0
G1 X18.6865 Y7.1284 E20.0
G1 X15.5167 Y-12.6188 E20.0
G1 Z0.1667
G1 X15.5167 Y-12.6188 E20.0
G1 X-3.1698 Y-19.7472 E20.0
G1 X-18.6865 Y-7.1284 E20.0
G1 X-15.5167 Y12.6188 E20.0
G1 X3.1698 Y19.7472 E20.0
G1 X18.6865 Y7.1284 E20.0
G1 Z0.1667
G1 X18.6865 Y7.1284 E20.0
G1 X15.5167 Y-12.6188 E20.0
G1 X-3.1698 Y-19.7472 E20.0
G1 X-18.6865 Y-7.1284 E20.0
G1 X-15.5167 Y12.6188 E20.0
G1 X3.1698 Y19.7472 E20.0
G1 Z0.1667
G1 X3.1698 Y19.7472 E20.0
G1 X18.6865 Y7.1284 E20.0
G1 X15.5167 Y-12.6188 E20.0
G1 X-3.1698 Y-19.7472 E20.0
G1 X-18.6865 Y-7.1284 E20.0
G1 X-15.5167 Y12.6188 E20.0
G1 Z0.1667
G1 X-15.5167 Y12.6188 E20.0
G1 X3.1698 Y19.7472 E20.0
G1 X18.6865 Y7.1284 E20.0
G1 X15.5167 Y-12.6188 E20.0
G1 X-3.1698 Y-19.7472 E20.0
G1 X-18.6865 Y-7.1284 E20.0
G1 Z0.1667
G1 X-18.6865 Y-7.1284 E20.0
G1 X-15.5167 Y12.6188 E20.0
G1 X3.1698 Y19.7472 E20.0
G1 X18.6865 Y7.1284 E20.0
G1 X15.5167 Y-12.6188 E20.0
G1 X-3.1698 Y-19.7472 E20.0
G1 Z0.1667
G1 X-3.1698 Y-19.7472 E20.0
G1 X-18.6865 Y-7.1284 E20.0
G1 X-15.5167 Y12.6188 E20.0
G1 X3.1698 Y19.7472 E20.0
G1 X18.6865 Y7.1284 E20.0
G1 X15.5167 Y-12.6188 E20.0
G1 Z0.1667
G1 X15.5167 Y-12.6188 E20.0
G1 X-3.1698 Y-19.7472 E20.0
G1 X-18.6865 Y-7.1284 E20.0
G1 X-15.5167 Y12.6188 E20.0
G1 X3.1698 Y19.7472 E20.0
G1 X18.6865 Y7.1284 E20.0
G1 Z0.1667
G1 X18.6865 Y7.1284 E20.0
G1 X15.5167 Y-12.6188 E20.0
G1 X-3.1698 Y-19.7472 E20.0
G1 X-18.6865 Y-7.1284 E20.0
G1 X-15.5167 Y12.6188 E20.0
G1 X3.1698 Y19.7472 E20.0
G1 Z0.1667
G1 X3.1698 Y19.7472 E20.0
G1 X18.6865 Y7.1284 E20.0
G1 X15.5167 Y-12.6188 E20.0
G1 X-3.1698 Y-19.7472 E20.0
G1 X-18.6865 Y-7.1284 E20.0
G1 X-15.5167 Y12.6188 E20.0
G1 Z0.1667
G1 X-15.5167 Y12.6188 E20.0
G1 X3.1698 Y19.7472 E20.0
G1 X18.6865 Y7.1284 E20.0
G1 X15.5167 Y-12.6188 E20.0
G1 X-3.1698 Y-19.7472 E20.0
G1 X-18.6865 Y-7.1284 E20.0
G1 Z0.1667
G1 X-18.6865 Y-7.1284 E20.0
G1 X-15.5167 Y12.6188 E20.0
G1 X3.1698 Y19.7472 E20.0
G1 X18.6865 Y7.1284 E20.0
G1 X15.5167 Y-12.6188 E20.0
G1 X-3.1698 Y-19.7472 E20.0
G1 Z0.1667
G1 X-3.1698 Y-19.7472 E20.0
G1 X-18.6865 Y-7.1284 E20.0
G1 X-15.5167 Y12.6188 E20.0
G1 X3.1698 Y19.7472 E20.0
G1 X18.6865 Y7.1284 E20.0
G1 X15.5167 Y-12.6188 E20.0
G1 Z0.1667
G1 X15.5167 Y-12.6188 E20.0
G1 X-3.1698 Y-19.7472 E20.0
G1 X-18.6865 Y-7.1284 E20.0
G1 X-15.5167 Y12.6188 E20.0
G1 X3.1698 Y19.7472 E20.0
G1 X18.6865 Y7.1284 E20.0
G1 Z0.1667
G1 X18.6865 Y7.1284 E20.0
G1 X15.5167 Y-12.6188 E20.0
G1 X-3.1698 Y-19.7472 E20.0
G1 X-18.6865 Y-7.1284 E20.0
G1 X-15.5167 Y12.6188 E20.0
G1 X3.1698 Y19.7472 E20.0
G1 Z0.1667
G1 X3.1698 Y19.7472 E20.0
G1 X18.6865 Y7.1284 E20.0
G1 X15.5167 Y-12.6188 E20.0
G1 X-3.1698 Y-19.7472 E20.0
G1 X-18.6865 Y-7.1284 E20.0
G1 X-15.5167 Y12.6188 E20.0
G1 Z0.1667
G1 X-15.5167 Y12.6188 E20.0
G1 X3.1698 Y19.7472 E20.0
G1 X18.6865 Y7.1284 E20.0
G1 X15.5167 Y-12.6188 E20.0
G1 X-3.1698 Y-19.7472 E20.0
G1 X-18.6865 Y-7.1284 E20.0
G1 Z0.1667
G1 X-18.6865 Y-7.1284 E20.0
G1 X-15.5167 Y12.6188 E20.0
G1 X3.1698 Y19.7472 E20.0
G1 X18.6865 Y7.1284 E20.0
G1 X15.5167 Y-12.6188 E20.0
G1 X-3.1698 Y-19.7472 E20.0
G1 Z0.1667
G1 X-3.1698 Y-19.7472 E20.0
G1 X-18.6865 Y-7.1284 E20.0
G1 X-15.5167 Y12.6188 E20.0
G1 X3.1698 Y19.7472 E20.0
G1 X18.6865 Y7.1284 E20.0
G1 X15.5167 Y-12.6188 E20.0
G1 Z0.1667
G1 X15.5167 Y-12.6188 E20.0
G1 X-3.1698 Y-19.7472 E20.0
G1 X-18.6865 Y-7.1284 E20.0
G1 X-15.5167 Y12.6188 E20.0
G1 X3.1698 Y19.7472 E20.0
G1 X18.6865 Y7.1284 E20.0
G1 Z0.1667
G1 X18.6865 Y7.1284 E20.0
G1 X15.5167 Y-12.6188 E20.0
G1 X-3.1698 Y-19.7472 E20.0
G1 X-18.6865 Y-7.1284 E20.0
G1 X-15.5167 Y12.6188 E20.0
G1 X3.1698 Y19.7472 E20.0
G1 Z0.1667
G1 X3.1698 Y19.7472 E20.0
G1 X18.6865 Y7.1284 E20.0
G1 X15.5167 Y-12.6188 E20.0
G1 X-3.1698 Y-19.7472 E20.0
G1 X-18.6865 Y-7.1284 E20.0
G1 X-15.5167 Y12.6188 E20.0
G1 Z0.1667
G1 X-15.5167 Y12.6188 E20.0
G1 X3.1698 Y19.7472 E20.0
G1 X18.6865 Y7.1284 E20.0
G1 X15.5167 Y-12.6188 E20.0
G1 X-3.1698 Y-19.7472 E20.0
G1 X-18.6865 Y-7.1284 E20.0
G1 Z0.1667
G1 X-18.6865 Y-7.1284 E20.0
G1 X-15.5167 Y12.6188 E20.0
G1 X3.1698 Y19.7472 E20.0
G1 X18.6865 Y7.1284 E20.0
G1 X15.5167 Y-12.6188 E20.0
G1 X-3.1698 Y-19.7472 E20.0
G1 Z0.1667
G1 X-3.1698 Y-19.7472 E20.0
G1 X-18.6865 Y-7.1284 E20.0
G1 X-15.5167 Y12.6188 E20.0
G1 X3.1698 Y19.7472 E20.0
G1 X18.6865 Y7.1284 E20.0
G1 X15.5167 Y-12.6188 E20.0
G1 Z0.1667
G1 X15.5167 Y-12.6188 E20.0
G1 X-3.1698 Y-19.7472 E20.0
G1 X-18.6865 Y-7.1284 E20.0
G1 X-15.5167 Y12.6188 E20.0
G1 X3.1698 Y19.7472 E20.0
G1 X18.6865 Y7.1284 E20.0
G1 Z0.1667
G1 X18.6865 Y7.1284 E20.0
G1 X15.5167 Y-12.6188 E20.0
G1 X-3.1698 Y-19.7472 E20.0
G1 X-18.6865 Y-7.1284 E20.0
G1 X-15.5167 Y12.6188 E20.0
G1 X3.1698 Y19.7472 E20.0
G1 Z0.1667
G1 X3.1698 Y19.7472 E20.0
G1 X18.6865 Y7.1284 E20.0
G1 X15.5167 Y-12.6188 E20.0
G1 X-3.1698 Y-19.7472 E20.0
G1 X-18.6865 Y-7.1284 E20.0
G1 X-15.5167 Y12.6188 E20.0
G1 Z0.1667
G1 X-15.5167 Y12.6188 E20.0
G1 X3.1698 Y19.7472 E20.0
G1 X18.6865 Y7.1284 E20.0
G1 X15.5167 Y-12.6188 E20.0
G1 X-3.1698 Y-19.7472 E20.0
G1 X-18.6865 Y-7.1284 E20.0
G1 Z0.1667
G1 X-18.6865 Y-7.1284 E20.0
G1 X-15.5167 Y12.6188 E20.0
G1 X3.1698 Y19.7472 E20.0
G1 X18.6865 Y7.1284 E20.0
G1 X15.5167 Y-12.6188 E20.0
G1 X-3.1698 Y-19.7472 E20.0
G1 Z0.1667
G1 X-3.1698 Y-19.7472 E20.0
G1 X-18.6865 Y-7.1284 E20.0
G1 X-15.5167 Y12.6188 E20.0
G1 X3.1698 Y19.7472 E20.0
G1 X18.6865 Y7.1284 E20.0
G1 X15.5167 Y-12.6188 E20.0
G1 Z0.1667
G1 X15.5167 Y-12.6188 E20.0
G1 X-3.1698 Y-19.7472 E20.0
G1 X-18.6865 Y-7.1284 E20.0
G1 X-15.5167 Y12.6188 E20.0
G1 X3.1698 Y19.7472 E20.0
G1 X18.6865 Y7.1284 E20.0
G1 Z0.1667
G1 X18.6865 Y7.1284 E20.0
G1 X15.5167 Y-12.6188 E20.0
G1 X-3.1698 Y-19.7472 E20.0
G1 X-18.6865 Y-7.1284 E20.0
G1 X-15.5167 Y12.6188 E20.0
G1 X3.1698 Y19.7472 E20.0
G1 Z0.1667
G1 X3.1698 Y19.7472 E20.0
G1 X18.6865 Y7.1284 E20.0
G1 X15.5167 Y-12.6188 E20.0
G1 X-3.1698 Y-19.7472 E20.0
G1 X-18.6865 Y-7.1284 E20.0
G1 X-15.5167 Y12.6188 E20.0
G1 Z0.1667
G1 X-15.5167 Y12.6188 E20.0
G1 X3.1698 Y19.7472 E20.0
G1 X18.6865 Y7.1284 E20.0
G1 X15.5167 Y-12.6188 E20.0
G1 X-3.1698 Y-19.7472 E20.0
G1 X-18.6865 Y-7.1284 E20.0
G1 Z0.1667
G1 X-18.6865 Y-7.1284 E20.0
G1 X-15.5167 Y12.6188 E20.0
G1 X3.1698 Y19.7472 E20.0
G1 X18.6865 Y7.1284 E20.0
G1 X15.5167 Y-12.6188 E20.0
G1 X-3.1698 Y-19.7472 E20.0
G1 Z0.1667
G1 X-3.1698 Y-19.7472 E20.0
G1 X-18.6865 Y-7.1284 E20.0
G1 X-15.5167 Y12.6188 E20.0
G1 X3.1698 Y19.7472 E20.0
G1 X18.6865 Y7.1284 E20.0
G1 X15.5167 Y-12.6188 E20.0
G1 Z0.1667
G1 X15.5167 Y-12.6188 E20.0
G1 X-3.1698 Y-19.7472 E20.0
G1 X-18.6865 Y-7.1284 E20.0
G1 X-15.5167 Y12.6188 E20.0
G1 X3.1698 Y19.7472 E20.0
G1 X18.6865 Y7.1284 E20.0
G1 Z0.1667
G1 X18.6865 Y7.1284 E20.0
G1 X15.5167 Y-12.6188 E20.0
G1 X-3.1698 Y-19.7472 E20.0
G1 X-18.6865 Y-7.1284 E20.0
G1 X-15.5167 Y12.6188 E20.0
G1 X3.1698 Y19.7472 E20.0
G1 Z0.1667
G1 X3.1698 Y19.7472 E20.0
G1 X18.6865 Y7.1284 E20.0
G1 X15.5167 Y-12.6188 E20.0
G1 X-3.1698 Y-19.7472 E20.0
G1 X-18.6865 Y-7.1284 E20.0
G1 X-15.5167 Y12.6188 E20.0
G1 Z0.1667
G1 X-15.5167 Y12.6188 E20.0
G1 X3.1698 Y19.7472 E20.0
G1 X18.6865 Y7.1284 E20.0
G1 X15.5167 Y-12.6188 E20.0
G1 X-3.1698 Y-19.7472 E20.0
G1 X-18.6865 Y-7.1284 E20.0
G1 Z0.1667
G1 X-18.6865 Y-7.1284 E20.0
G1 X-15.5167 Y12.6188 E20.0
G1 X3.1698 Y19.7472 E20.0
G1 X18.6865 Y7.1284 E20.0
G1 X15.5167 Y-12.6188 E20.0
G1 X-3.1698 Y-19.7472 E20.0
G1 Z0.1667
G1 X-3.1698 Y-19.7472 E20.0
G1 X-18.6865 Y-7.1284 E20.0
G1 X-15.5167 Y12.6188 E20.0
G1 X3.1698 Y19.7472 E20.0
G1 X18.6865 Y7.1284 E20.0
G1 X15.5167 Y-12.6188 E20.0
G1 Z0.1667
G1 X15.5167 Y-12.6188 E20.0
G1 X-3.1698 Y-19.7472 E20.0
G1 X-18.6865 Y-7.1284 E20.0
G1 X-15.5167 Y12.6188 E20.0
G1 X3.1698 Y19.7472 E20.0
G1 X18.6865 Y7.1284 E20.0
G1 Z0.1667
G1 X18.6865 Y7.1284 E20.0
G1 X15.5167 Y-12.6188 E20.0
G1 X-3.1698 Y-19.7472 E20.0
G1 X-18.6865 Y-7.1284 E20.0
G1 X-15.5167 Y12.6188 E20.0
G1 X3.1698 Y19.7472 E20.0
G1 Z0.1667
G1 X3.1698 Y19.7472 E20.0
G1 X18.6865 Y7.1284 E20.0
G1 X15.5167 Y-12.6188 E20.0
G1 X-3.1698 Y-19.7472 E20.0
G1 X-18.6865 Y-7.1284 E20.0
G1 X-15.5167 Y12.6188 E20.0
G1 Z0.1667
G1 X-15.5167 Y12.6188 E20.0
G1 X3.1698 Y19.7472 E20.0
G1 X18.6865 Y7.1284 E20.0
G1 X15.5167 Y-12.6188 E20.0
G1 X-3.1698 Y-19.7472 E20.0
G1 X-18.6865 Y-7.1284 E20.0
G1 Z0.1667
G1 X-18.6865 Y-7.1284 E20.0
G1 X-15.5167 Y12.6188 E20.0
G1 X3.1698 Y19.7472 E20.0
G1 X18.6865 Y7.1284 E20.0
G1 X15.5167 Y-12.6188 E20.0
G1 X-3.1698 Y-19.7472 E20.0
G1 Z0.1667
G1 X-3.1698 Y-19.7472 E20.0
G1 X-18.6865 Y-7.1284 E20.0
G1 X-15.5167 Y12.6188 E20.0
G1 X3.1698 Y19.7472 E20.0
G1 X18.6865 Y7.1284 E20.0
G1 X15.5167 Y-12.6188 E20.0
G1 Z0.1667
G1 X15.5167 Y-12.6188 E20.0
G1 X-3.1698 Y-19.7472 E20.0
G1 X-18.6865 Y-7.1284 E20.0
G1 X-15.5167 Y12.6188 E20.0
G1 X3.1698 Y19.7472 E20.0
G1 X18.6865 Y7.1284 E20.0
G1 Z0.1667
G1 X18.6865 Y7.1284 E20.0
G1 X15.5167 Y-12.6188 E20.0
G1 X-3.1698 Y-19.7472 E20.0
G1 X-18.6865 Y-7.1284 E20.0
G1 X-15.5167 Y12.6188 E20.0
G1 X3.1698 Y19.7472 E20.0
G1 Z0.1667
G1 X3.1698 Y19.7472 E20.0
G1 X18.6865 Y7.1284 E20.0
G1 X15.5167 Y-12.6188 E20.0
G1 X-3.1698 Y-19.7472 E20.0
G1 X-18.6865 Y-7.1284 E20.0
G1 X-15.5167 Y12.6188 E20.0
G1 Z0.1667
G1 X-15.5167 Y12.6188 E20.0
G1 X3.1698 Y19.7472 E20.0
G1 X18.6865 Y7.1284 E20.0
G1 X15.5167 Y-12.6188 E20.0
G1 X-3.1698 Y-19.7472 E20.0
G1 X-18.6865 Y-7.1284 E20.0
G1 Z0.1667
G1 X-18.6865 Y-7.1284 E20.0
G1 X-15.5167 Y12.6188 E20.0
G1 X3.1698 Y19.7472 E20.0
G1 X18.6865 Y7.1284 E20.0
G1 X15.5167 Y-12.6188 E20.0
G1 X-3.1698 Y-19.7472 E20.0
G1 Z0.1667
G1 X-3.1698 Y-19.7472 E20.0
G1 X-18.6865 Y-7.1284 E20.0
G1 X-15.5167 Y12.6188 E20.0
G1 X3.1698 Y19.7472 E20.0
G1 X18.6865 Y7.1284 E20.0
G1 X15.5167 Y-12.6188 E20.0
G1 Z0.1667
G1 X15.5167 Y-12.6188 E20.0
G1 X-3.1698 Y-19.7472 E20.0
G1 X-18.6865 Y-7.1284 E20.0
G1 X-15.5167 Y12.6188 E20.0
G1 X3.1698 Y19.7472 E20.0
G1 X18.6865 Y7.1284 E20.0
G1 Z0.1667
G1 X18.6865 Y7.1284 E20.0
G1 X15.5167 Y-12.6188 E20.0
G1 X-3.1698 Y-19.7472 E20.0
G1 X-18.6865 Y-7.1284 E20.0
G1 X-15.5167 Y12.6188 E20.0
G1 X3.1698 Y19.7472 E20.0
G1 Z0.1667
G1 X3.1698 Y19.7472 E20.0
G1 X18.6865 Y7.1284 E20.0
G1 X15.5167 Y-12.6188 E20.0
G1 X-3.1698 Y-19.7472 E20.0
G1 X-18.6865 Y-7.1284 E20.0
G1 X-15.5167 Y12.6188 E20.0
G1 Z0.1667
G1 X-15.5167 Y12.6188 E20.0
G1 X3.1698 Y19.7472 E20.0
G1 X18.6865 Y7.1284 E20.0
G1 X15.5167 Y-12.6188 E20.0
G1 X-3.1698 Y-19.7472 E20.0
G1 X-18.6865 Y-7.1284 E20.0
G1 Z0.1667
G1 X-18.6865 Y-7.1284 E20.0
G1 X-15.5167 Y12.6188 E20.0
G1 X3.1698 Y19.7472 E20.0
G1 X18.6865 Y7.1284 E20.0
G1 X15.5167 Y-12.6188 E20.0
G1 X-3.1698 Y-19.7472 E20.0
G1 Z0.1667
G1 X-3.1698 Y-19.7472 E20.0
G1 X-18.6865 Y-7.1284 E20.0
G1 X-15.5167 Y12.6188 E20.0
G1 X3.1698 Y19.7472 E20.0
G1 X18.6865 Y7.1284 E20.0
G1 X15.5167 Y-12.6188 E20.0
G1 Z0.1667
G1 X15.5167 Y-12.6188 E20.0
G1 X-3.1698 Y-19.7472 E20.0
G1 X-18.6865 Y-7.1284 E20.0
G1 X-15.5167 Y12.6188 E20.0
G1 X3.1698 Y19.7472 E20.0
G1 X18.6865 Y7.1284 E20.0
G1 Z0.1667
G1 X18.6865 Y7.1284 E20.0
G1 X15.5167 Y-12.6188 E20.0
G1 X-3.1698 Y-19.7472 E20.0
G1 X-18.6865 Y-7.1284 E20.0
G1 X-15.5167 Y12.6188 E20.0
G1 X3.1698 Y19.7472 E20.0
G1 Z0.1667
G1 X3.1698 Y19.7472 E20.0
G1 X18.6865 Y7.1284 E20.0
G1 X15.5167 Y-12.6188 E20.0
G1 X-3.1698 Y-19.7472 E20.0
G1 X-18.6865 Y-7.1284 E20.0
G1 X-15.5167 Y12.6188 E20.0
G1 Z0.1667
G1 X-15.5167 Y12.6188 E20.0
G1 X3.1698 Y19.7472 E20.0
G1 X18.6865 Y7.1284 E20.0
G1 X15.5167 Y-12.6188 E20.0
G1 X-3.1698 Y-19.7472 E20.0
G1 X-18.6865 Y-7.1284 E20.0
G1 Z0.1667
G1 X-18.6865 Y-7.1284 E20.0
G1 X-15.5167 Y12.6188 E20.0
G1 X3.1698 Y19.7472 E20.0
G1 X18.6865 Y7.1284 E20.0
G1 X15.5167 Y-12.6188 E20.0
G1 X-3.1698 Y-19.7472 E20.0
G1 Z0.1667
G1 X-3.1698 Y-19.7472 E20.0
G1 X-18.6865 Y-7.1284 E20.0
G1 X-15.5167 Y12.6188 E20.0
G1 X3.1698 Y19.7472 E20.0
G1 X18.6865 Y7.1284 E20.0
G1 X15.5167 Y-12.6188 E20.0
G1 Z0.1667
G1 X15.5167 Y-12.6188 E20.0
G1 X-3.1698 Y-19.7472 E20.0
G1 X-18.6865 Y-7.1284 E20.0
G1 X-15.5167 Y12.6188 E20.0
G1 X3.1698 Y19.7472 E20.0
G1 X18.6865 Y7.1284 E20.0
G1 Z0.1667
G1 X18.6865 Y7.1284 E20.0
G1 X15.5167 Y-12.6188 E20.0
G1 X-3.1698 Y-19.7472 E20.0
G1 X-18.6865 Y-7.1284 E20.0
G1 X-15.5167 Y12.6188 E20.0
G1 X3.1698 Y19.7472 E20.0
G1 Z0.1667
G1 X3.1698 Y19.7472 E20.0
G1 X18.6865 Y7.1284 E20.0
G1 X15.5167 Y-12.6188 E20.0
G1 X-3.1698 Y-19.7472 E20.0
G1 X-18.6865 Y-7.1284 E20.0
G1 X-15.5167 Y12.6188 E20.0
G1 Z0.1667
G1 X-15.5167 Y12.6188 E20.0
G1 X3.1698 Y19.7472 E20.0
G1 X18.6865 Y7.1284 E20.0
G1 X15.5167 Y-12.6188 E20.0
G1 X-3.1698 Y-19.7472 E20.0
G1 X-18.6865 Y-7.1284 E20.0
G1 Z0.1667
G1 X-18.6865 Y-7.1284 E20.0
G1 X-15.5167 Y12.6188 E20.0
G1 X3.1698 Y19.7472 E20.0
G1 X18.6865 Y7.1284 E20.0
G1 X15.5167 Y-12.6188 E20.0
G1 X-3.1698 Y-19.7472 E20.0
G1 Z0.1667
G1 X-3.1698 Y-19.7472 E20.0
G1 X-18.6865 Y-7.1284 E20.0
G1 X-15.5167 Y12.6188 E20.0
G1 X3.1698 Y19.7472 E20.0
G1 X18.6865 Y7.1284 E20.0
G1 X15.5167 Y-12.6188 E20.0
G1 Z0.1667
G1 X15.5167 Y-12.6188 E20.0
G1 X-3.1698 Y-19.7472 E20.0
G1 X-18.6865 Y-7.1284 E20.0
G1 X-15.5167 Y12.6188 E20.0
G1 X3.1698 Y19.7472 E20.0
G1 X18.6865 Y7.1284 E20.0
G1 Z0.1667
G1 X18.6865 Y7.1284 E20.0
G1 X15.5167 Y-12.6188 E20.0
G1 X-3.1698 Y-19.7472 E20.0
G1 X-18.6865 Y-7.1284 E20.0
G1 X-15.5167 Y12.6188 E20.0
G1 X3.1698 Y19.7472 E20.0
G1 Z0.1667
G1 X3.1698 Y19.7472 E20.0
G1 X18.6865 Y7.1284 E20.0
G1 X15.5167 Y-12.6188 E20.0
G1 X-3.1698 Y-19.7472 E20.0
G1 X-18.6865 Y-7.1284 E20.0
G1 X-15.5167 Y12.6188 E20.0
G1 Z0.1667
G1 X-15.5167 Y12.6188 E20.0
G1 X3.1698 Y19.7472 E20.0
G1 X18.6865 Y7.1284 E20.0
G1 X15.5167 Y-12.6188 E20.0
G1 X-3.1698 Y-19.7472 E20.0
G1 X-18.6865 Y-7.1284 E20.0
G1 Z0.1667
G1 X-18.6865 Y-7.1284 E20.0
G1 X-15.5167 Y12.6188 E20.0
G1 X3.1698 Y19.7472 E20.0
G1 X18.6865 Y7.1284 E20.0
G1 X15.5167 Y-12.6188 E20.0
G1 X-3.1698 Y-19.7472 E20.0
G1 Z0.1667
G1 X-3.1698 Y-19.7472 E20.0
G1 X-18.6865 Y-7.1284 E20.0
G1 X-15.5167 Y12.6188 E20.0
G1 X3.1698 Y19.7472 E20.0
G1 X18.6865 Y7.1284 E20.0
G1 X15.5167 Y-12.6188 E20.0
G1 Z0.1667
G1 X15.5167 Y-12.6188 E20.0
G1 X-3.1698 Y-19.7472 E20.0
G1 X-18.6865 Y-7.1284 E20.0
G1 X-15.5167 Y12.6188 E20.0
G1 X3.1698 Y19.7472 E20.0
G1 X18.6865 Y7.1284 E20.0
G1 Z0.1667
G1 X18.6865 Y7.1284 E20.0
G1 X15.5167 Y-12.6188 E20.0
G1 X-3.1698 Y-19.7472 E20.0
G1 X-18.6865 Y-7.1284 E20.0
G1 X-15.5167 Y12.6188 E20.0
G1 X3.1698 Y19.7472 E20.0
G1 Z0.1667
G1 X3.1698 Y19.7472 E20.0
G1 X18.6865 Y7.1284 E20.0
G1 X15.5167 Y-12.6188 E20.0
G1 X-3.1698 Y-19.7472 E20.0
G1 X-18.6865 Y-7.1284 E20.0
G1 X-15.5167 Y12.6188 E20.0
G1 Z0.1667
G1 X-15.5167 Y12.6188 E20.0
G1 X3.1698 Y19.7472 E20.0
G1 X18.6865 Y7.1284 E20.0
G1 X15.5167 Y-12.6188 E20.0
G1 X-3.1698 Y-19.7472 E20.0
G1 X-18.6865 Y-7.1284 E20.0
G1 Z0.1667
G1 X-18.6865 Y-7.1284 E20.0
G1 X-15.5167 Y12.6188 E20.0
G1 X3.1698 Y19.7472 E20.0
G1 X18.6865 Y7.1284 E20.0
G1 X15.5167 Y-12.6188 E20.0
G1 X-3.1698 Y-19.7472 E20.0
G1 Z0.1667
G1 X-3.1698 Y-19.7472 E20.0
G1 X-18.6865 Y-7.1284 E20.0
G1 X-15.5167 Y12.6188 E20.0
G1 X3.1698 Y19.7472 E20.0
G1 X18.6865 Y7.1284 E20.0
G1 X15.5167 Y-12.6188 E20.0
G1 Z0.1667
G1 X15.5167 Y-12.6188 E20.0
G1 X-3.1698 Y-19.7472 E20.0
G1 X-18.6865 Y-7.1284 E20.0
G1 X-15.5167 Y12.6188 E20.0
G1 X3.1698 Y19.7472 E20.0
G1 X18.6865 Y7.1284 E20.0
G1 Z0.1667
G1 X18.6865 Y7.1284 E20.0
G1 X15.5167 Y-12.6188 E20.0
G1 X-3.1698 Y-19.7472 E20.0
G1 X-18.6865 Y-7.1284 E20.0
G1 X-15.5167 Y12.6188 E20.0
G1 X3.1698 Y19.7472 E20.0
G1 Z0.1667
G1 X3.1698 Y19.7472 E20.0
G1 X18.6865 Y7.1284 E20.0
G1 X15.5167 Y-12.6188 E20.0
G1 X-3.1698 Y-19.7472 E20.0
G1 X-18.6865 Y-7.1284 E20.0
G1 X-15.5167 Y12.6188 E20.0
G1 Z0.1667
G1 X-15.5167 Y12.6188 E20.0
G1 X3.1698 Y19.7472 E20.0
G1 X18.6865 Y7.1284 E20.0
G1 X15.5167 Y-12.6188 E20.0
G1 X-3.1698 Y-19.7472 E20.0
G1 X-18.6865 Y-7.1284 E20.0
G1 Z0.1667
G1 X-18.6865 Y-7.1284 E20.0
G1 X-15.5167 Y12.6188 E20.0
G1 X3.1698 Y19.7472 E20.0
G1 X18.6865 Y7.1284 E20.0
G1 X15.5167 Y-12.6188 E20.0
G1 X-3.1698 Y-19.7472 E20.0
G1 Z0.1667
; *************** End of print ***************
G91                     ; Relative coordinates for X,Y,Z axes
G1 Z25 F2000            ; move up 25 in the z direction
G90                     ; Absolute coordinates 
G1 F5000 X0 Y0          ; Move extruder to 0,0 in XY
M84 X Y                 ; X Y steppers off
M104 S0					; Set Hot-end to 0C (off)
M140 S0					; Set bed to 0C (off)
