; *************************************************
; *************************************************
; ******* File generated by Extruder Turtle *******
; ******* written by Leah Buechley and  ***********
; ******* and Franklin Pezutti-Dyer ***************
; **** Hand and Machine Lab, UNM, 2021-present ****
; *************************************************
; *************************************************
; *************** Ender initialization **************
G92 E0 ; Reset Extruder 
G28 ; Home all axes
G90 ; Absolute coordinates for X,Y,Z   
M190 S60 ; Set bed temperature and wait 
M109 S205 ; Set extruder temperature and wait 
G1 Z2.0 F3000 ; Move Z to 2mm above bed 
G1 X0.1 Y20 Z0.3 F5000.0 ; Move to start position
G1 X0.1 Y200.0 Z0.3 F1500.0 E15 ; Draw the first line
G1 X0.4 Y200.0 Z0.3 F5000.0 ; Move to side a little
G1 X0.4 Y20 Z0.3 F1500.0 E30 ; Draw the second line
G92 E0 ; Reset Extruder
G1 Z2.0 F3000 ; Move Z Axis up little to prevent scratching of Heat Bed 
G1 X5 Y20 Z0.3 F5000.0 ; Move over to prevent blob squish 
G92 E0 ; Reset extruder position to zero 
G1 F300 E-3 
G1 F2000
G1 0 0 .3               ; Lift nozzle above bed a little
G1 X100 Y100 Z.1        ; Go to the starting position 
F300 E3                 ; Extrude to get ready
M83 					; Relative extrustion
G91                     ; Relative coordinates for X,Y,Z axes
G1 F1000
; ********** End printer initialization ***********
; *************************************************

; ***************** Print parameters **************
; Nozzle size: 0.2
; Extrude width: 0.4
; Layer height: 0.2
; Extrude rate: 0.05
; Speed: 1000
; Mix Factor: 0.9
; *************************************************

G1 X30.0 Y0.0 E1.5
G1 X-0.0046 Y0.5236 E0.0262
G1 X-0.0137 Y0.5234 E0.0262
G1 X-0.0228 Y0.5231 E0.0262
G1 X-0.032 Y0.5226 E0.0262
G1 X-0.0411 Y0.522 E0.0262
G1 X-0.0502 Y0.5212 E0.0262
G1 X-0.0593 Y0.5202 E0.0262
G1 X-0.0683 Y0.5191 E0.0262
G1 X-0.0774 Y0.5178 E0.0262
G1 X-0.0864 Y0.5164 E0.0262
G1 X4.9314 Y0.8252 E0.25
G1 X-4.9314 Y-0.8252 E0.25
G1 X-0.0954 Y0.5148 E0.0262
G1 X-0.1044 Y0.5131 E0.0262
G1 X-0.1133 Y0.5112 E0.0262
G1 X-0.1222 Y0.5091 E0.0262
G1 X-0.1311 Y0.5069 E0.0262
G1 X-0.1399 Y0.5045 E0.0262
G1 X-0.1487 Y0.502 E0.0262
G1 X-0.1574 Y0.4994 E0.0262
G1 X-0.1661 Y0.4965 E0.0262
G1 X-0.1748 Y0.4936 E0.0262
G1 X4.7132 Y1.669 E0.25
G1 X-4.7132 Y-1.669 E0.25
G1 X-0.1834 Y0.4904 E0.0262
G1 X-0.1919 Y0.4872 E0.0262
G1 X-0.2004 Y0.4837 E0.0262
G1 X-0.2088 Y0.4802 E0.0262
G1 X-0.2171 Y0.4764 E0.0262
G1 X-0.2254 Y0.4726 E0.0262
G1 X-0.2336 Y0.4686 E0.0262
G1 X-0.2418 Y0.4644 E0.0262
G1 X-0.2498 Y0.4601 E0.0262
G1 X-0.2578 Y0.4557 E0.0262
G1 X4.3518 Y2.4621 E0.25
G1 X-4.3518 Y-2.4621 E0.25
G1 X-0.2657 Y0.4511 E0.0262
G1 X-0.2736 Y0.4464 E0.0262
G1 X-0.2813 Y0.4416 E0.0262
G1 X-0.289 Y0.4366 E0.0262
G1 X-0.2966 Y0.4315 E0.0262
G1 X-0.3041 Y0.4263 E0.0262
G1 X-0.3114 Y0.4209 E0.0262
G1 X-0.3187 Y0.4154 E0.0262
G1 X-0.3259 Y0.4098 E0.0262
G1 X-0.333 Y0.404 E0.0262
G1 X3.8581 Y3.1804 E0.25
G1 X-3.8581 Y-3.1804 E0.25
G1 X-0.34 Y0.3981 E0.0262
G1 X-0.3469 Y0.3921 E0.0262
G1 X-0.3537 Y0.386 E0.0262
G1 X-0.3604 Y0.3798 E0.0262
G1 X-0.367 Y0.3735 E0.0262
G1 X-0.3735 Y0.367 E0.0262
G1 X-0.3798 Y0.3604 E0.0262
G1 X-0.386 Y0.3537 E0.0262
G1 X-0.3921 Y0.3469 E0.0262
G1 X-0.3981 Y0.34 E0.0262
G1 X3.2472 Y3.802 E0.25
G1 X-3.2472 Y-3.802 E0.25
G1 X-0.404 Y0.333 E0.0262
G1 X-0.4098 Y0.3259 E0.0262
G1 X-0.4154 Y0.3187 E0.0262
G1 X-0.4209 Y0.3114 E0.0262
G1 X-0.4263 Y0.3041 E0.0262
G1 X-0.4315 Y0.2966 E0.0262
G1 X-0.4366 Y0.289 E0.0262
G1 X-0.4416 Y0.2813 E0.0262
G1 X-0.4464 Y0.2736 E0.0262
G1 X-0.4511 Y0.2657 E0.0262
G1 X2.5377 Y4.3081 E0.25
G1 X-2.5377 Y-4.3081 E0.25
G1 X-0.4557 Y0.2578 E0.0262
G1 X-0.4601 Y0.2498 E0.0262
G1 X-0.4644 Y0.2418 E0.0262
G1 X-0.4686 Y0.2336 E0.0262
G1 X-0.4726 Y0.2254 E0.0262
G1 X-0.4764 Y0.2171 E0.0262
G1 X-0.4802 Y0.2088 E0.0262
G1 X-0.4837 Y0.2004 E0.0262
G1 X-0.4872 Y0.1919 E0.0262
G1 X-0.4904 Y0.1834 E0.0262
G1 X1.751 Y4.6834 E0.25
G1 X-1.751 Y-4.6834 E0.25
G1 X-0.4936 Y0.1748 E0.0262
G1 X-0.4965 Y0.1661 E0.0262
G1 X-0.4994 Y0.1574 E0.0262
G1 X-0.502 Y0.1487 E0.0262
G1 X-0.5045 Y0.1399 E0.0262
G1 X-0.5069 Y0.1311 E0.0262
G1 X-0.5091 Y0.1222 E0.0262
G1 X-0.5112 Y0.1133 E0.0262
G1 X-0.5131 Y0.1044 E0.0262
G1 X-0.5148 Y0.0954 E0.0262
G1 X0.9112 Y4.9163 E0.25
G1 X-0.9112 Y-4.9163 E0.25
G1 X-0.5164 Y0.0864 E0.0262
G1 X-0.5178 Y0.0774 E0.0262
G1 X-0.5191 Y0.0683 E0.0262
G1 X-0.5202 Y0.0593 E0.0262
G1 X-0.5212 Y0.0502 E0.0262
G1 X-0.522 Y0.0411 E0.0262
G1 X-0.5226 Y0.032 E0.0262
G1 X-0.5231 Y0.0228 E0.0262
G1 X-0.5234 Y0.0137 E0.0262
G1 X-0.5236 Y0.0046 E0.0262
G1 X0.0436 Y4.9998 E0.25
G1 X-0.0436 Y-4.9998 E0.25
G1 X-0.5236 Y-0.0046 E0.0262
G1 X-0.5234 Y-0.0137 E0.0262
G1 X-0.5231 Y-0.0228 E0.0262
G1 X-0.5226 Y-0.032 E0.0262
G1 X-0.522 Y-0.0411 E0.0262
G1 X-0.5212 Y-0.0502 E0.0262
G1 X-0.5202 Y-0.0593 E0.0262
G1 X-0.5191 Y-0.0683 E0.0262
G1 X-0.5178 Y-0.0774 E0.0262
G1 X-0.5164 Y-0.0864 E0.0262
G1 X-0.8252 Y4.9314 E0.25
G1 X0.8252 Y-4.9314 E0.25
G1 X-0.5148 Y-0.0954 E0.0262
G1 X-0.5131 Y-0.1044 E0.0262
G1 X-0.5112 Y-0.1133 E0.0262
G1 X-0.5091 Y-0.1222 E0.0262
G1 X-0.5069 Y-0.1311 E0.0262
G1 X-0.5045 Y-0.1399 E0.0262
G1 X-0.502 Y-0.1487 E0.0262
G1 X-0.4994 Y-0.1574 E0.0262
G1 X-0.4965 Y-0.1661 E0.0262
G1 X-0.4936 Y-0.1748 E0.0262
G1 X-1.669 Y4.7132 E0.25
G1 X1.669 Y-4.7132 E0.25
G1 X-0.4904 Y-0.1834 E0.0262
G1 X-0.4872 Y-0.1919 E0.0262
G1 X-0.4837 Y-0.2004 E0.0262
G1 X-0.4802 Y-0.2088 E0.0262
G1 X-0.4764 Y-0.2171 E0.0262
G1 X-0.4726 Y-0.2254 E0.0262
G1 X-0.4686 Y-0.2336 E0.0262
G1 X-0.4644 Y-0.2418 E0.0262
G1 X-0.4601 Y-0.2498 E0.0262
G1 X-0.4557 Y-0.2578 E0.0262
G1 X-2.4621 Y4.3518 E0.25
G1 X2.4621 Y-4.3518 E0.25
G1 X-0.4511 Y-0.2657 E0.0262
G1 X-0.4464 Y-0.2736 E0.0262
G1 X-0.4416 Y-0.2813 E0.0262
G1 X-0.4366 Y-0.289 E0.0262
G1 X-0.4315 Y-0.2966 E0.0262
G1 X-0.4263 Y-0.3041 E0.0262
G1 X-0.4209 Y-0.3114 E0.0262
G1 X-0.4154 Y-0.3187 E0.0262
G1 X-0.4098 Y-0.3259 E0.0262
G1 X-0.404 Y-0.333 E0.0262
G1 X-3.1804 Y3.8581 E0.25
G1 X3.1804 Y-3.8581 E0.25
G1 X-0.3981 Y-0.34 E0.0262
G1 X-0.3921 Y-0.3469 E0.0262
G1 X-0.386 Y-0.3537 E0.0262
G1 X-0.3798 Y-0.3604 E0.0262
G1 X-0.3735 Y-0.367 E0.0262
G1 X-0.367 Y-0.3735 E0.0262
G1 X-0.3604 Y-0.3798 E0.0262
G1 X-0.3537 Y-0.386 E0.0262
G1 X-0.3469 Y-0.3921 E0.0262
G1 X-0.34 Y-0.3981 E0.0262
G1 X-3.802 Y3.2472 E0.25
G1 X3.802 Y-3.2472 E0.25
G1 X-0.333 Y-0.404 E0.0262
G1 X-0.3259 Y-0.4098 E0.0262
G1 X-0.3187 Y-0.4154 E0.0262
G1 X-0.3114 Y-0.4209 E0.0262
G1 X-0.3041 Y-0.4263 E0.0262
G1 X-0.2966 Y-0.4315 E0.0262
G1 X-0.289 Y-0.4366 E0.0262
G1 X-0.2813 Y-0.4416 E0.0262
G1 X-0.2736 Y-0.4464 E0.0262
G1 X-0.2657 Y-0.4511 E0.0262
G1 X-4.3081 Y2.5377 E0.25
G1 X4.3081 Y-2.5377 E0.25
G1 X-0.2578 Y-0.4557 E0.0262
G1 X-0.2498 Y-0.4601 E0.0262
G1 X-0.2418 Y-0.4644 E0.0262
G1 X-0.2336 Y-0.4686 E0.0262
G1 X-0.2254 Y-0.4726 E0.0262
G1 X-0.2171 Y-0.4764 E0.0262
G1 X-0.2088 Y-0.4802 E0.0262
G1 X-0.2004 Y-0.4837 E0.0262
G1 X-0.1919 Y-0.4872 E0.0262
G1 X-0.1834 Y-0.4904 E0.0262
G1 X-4.6834 Y1.751 E0.25
G1 X4.6834 Y-1.751 E0.25
G1 X-0.1748 Y-0.4936 E0.0262
G1 X-0.1661 Y-0.4965 E0.0262
G1 X-0.1574 Y-0.4994 E0.0262
G1 X-0.1487 Y-0.502 E0.0262
G1 X-0.1399 Y-0.5045 E0.0262
G1 X-0.1311 Y-0.5069 E0.0262
G1 X-0.1222 Y-0.5091 E0.0262
G1 X-0.1133 Y-0.5112 E0.0262
G1 X-0.1044 Y-0.5131 E0.0262
G1 X-0.0954 Y-0.5148 E0.0262
G1 X-4.9163 Y0.9112 E0.25
G1 X4.9163 Y-0.9112 E0.25
G1 X-0.0864 Y-0.5164 E0.0262
G1 X-0.0774 Y-0.5178 E0.0262
G1 X-0.0683 Y-0.5191 E0.0262
G1 X-0.0593 Y-0.5202 E0.0262
G1 X-0.0502 Y-0.5212 E0.0262
G1 X-0.0411 Y-0.522 E0.0262
G1 X-0.032 Y-0.5226 E0.0262
G1 X-0.0228 Y-0.5231 E0.0262
G1 X-0.0137 Y-0.5234 E0.0262
G1 X-0.0046 Y-0.5236 E0.0262
G1 X-4.9998 Y0.0436 E0.25
G1 X4.9998 Y-0.0436 E0.25
G1 X0.0046 Y-0.5236 E0.0262
G1 X0.0137 Y-0.5234 E0.0262
G1 X0.0228 Y-0.5231 E0.0262
G1 X0.032 Y-0.5226 E0.0262
G1 X0.0411 Y-0.522 E0.0262
G1 X0.0502 Y-0.5212 E0.0262
G1 X0.0593 Y-0.5202 E0.0262
G1 X0.0683 Y-0.5191 E0.0262
G1 X0.0774 Y-0.5178 E0.0262
G1 X0.0864 Y-0.5164 E0.0262
G1 X-4.9314 Y-0.8252 E0.25
G1 X4.9314 Y0.8252 E0.25
G1 X0.0954 Y-0.5148 E0.0262
G1 X0.1044 Y-0.5131 E0.0262
G1 X0.1133 Y-0.5112 E0.0262
G1 X0.1222 Y-0.5091 E0.0262
G1 X0.1311 Y-0.5069 E0.0262
G1 X0.1399 Y-0.5045 E0.0262
G1 X0.1487 Y-0.502 E0.0262
G1 X0.1574 Y-0.4994 E0.0262
G1 X0.1661 Y-0.4965 E0.0262
G1 X0.1748 Y-0.4936 E0.0262
G1 X-4.7132 Y-1.669 E0.25
G1 X4.7132 Y1.669 E0.25
G1 X0.1834 Y-0.4904 E0.0262
G1 X0.1919 Y-0.4872 E0.0262
G1 X0.2004 Y-0.4837 E0.0262
G1 X0.2088 Y-0.4802 E0.0262
G1 X0.2171 Y-0.4764 E0.0262
G1 X0.2254 Y-0.4726 E0.0262
G1 X0.2336 Y-0.4686 E0.0262
G1 X0.2418 Y-0.4644 E0.0262
G1 X0.2498 Y-0.4601 E0.0262
G1 X0.2578 Y-0.4557 E0.0262
G1 X-4.3518 Y-2.4621 E0.25
G1 X4.3518 Y2.4621 E0.25
G1 X0.2657 Y-0.4511 E0.0262
G1 X0.2736 Y-0.4464 E0.0262
G1 X0.2813 Y-0.4416 E0.0262
G1 X0.289 Y-0.4366 E0.0262
G1 X0.2966 Y-0.4315 E0.0262
G1 X0.3041 Y-0.4263 E0.0262
G1 X0.3114 Y-0.4209 E0.0262
G1 X0.3187 Y-0.4154 E0.0262
G1 X0.3259 Y-0.4098 E0.0262
G1 X0.333 Y-0.404 E0.0262
G1 X-3.8581 Y-3.1804 E0.25
G1 X3.8581 Y3.1804 E0.25
G1 X0.34 Y-0.3981 E0.0262
G1 X0.3469 Y-0.3921 E0.0262
G1 X0.3537 Y-0.386 E0.0262
G1 X0.3604 Y-0.3798 E0.0262
G1 X0.367 Y-0.3735 E0.0262
G1 X0.3735 Y-0.367 E0.0262
G1 X0.3798 Y-0.3604 E0.0262
G1 X0.386 Y-0.3537 E0.0262
G1 X0.3921 Y-0.3469 E0.0262
G1 X0.3981 Y-0.34 E0.0262
G1 X-3.2472 Y-3.802 E0.25
G1 X3.2472 Y3.802 E0.25
G1 X0.404 Y-0.333 E0.0262
G1 X0.4098 Y-0.3259 E0.0262
G1 X0.4154 Y-0.3187 E0.0262
G1 X0.4209 Y-0.3114 E0.0262
G1 X0.4263 Y-0.3041 E0.0262
G1 X0.4315 Y-0.2966 E0.0262
G1 X0.4366 Y-0.289 E0.0262
G1 X0.4416 Y-0.2813 E0.0262
G1 X0.4464 Y-0.2736 E0.0262
G1 X0.4511 Y-0.2657 E0.0262
G1 X-2.5377 Y-4.3081 E0.25
G1 X2.5377 Y4.3081 E0.25
G1 X0.4557 Y-0.2578 E0.0262
G1 X0.4601 Y-0.2498 E0.0262
G1 X0.4644 Y-0.2418 E0.0262
G1 X0.4686 Y-0.2336 E0.0262
G1 X0.4726 Y-0.2254 E0.0262
G1 X0.4764 Y-0.2171 E0.0262
G1 X0.4802 Y-0.2088 E0.0262
G1 X0.4837 Y-0.2004 E0.0262
G1 X0.4872 Y-0.1919 E0.0262
G1 X0.4904 Y-0.1834 E0.0262
G1 X-1.751 Y-4.6834 E0.25
G1 X1.751 Y4.6834 E0.25
G1 X0.4936 Y-0.1748 E0.0262
G1 X0.4965 Y-0.1661 E0.0262
G1 X0.4994 Y-0.1574 E0.0262
G1 X0.502 Y-0.1487 E0.0262
G1 X0.5045 Y-0.1399 E0.0262
G1 X0.5069 Y-0.1311 E0.0262
G1 X0.5091 Y-0.1222 E0.0262
G1 X0.5112 Y-0.1133 E0.0262
G1 X0.5131 Y-0.1044 E0.0262
G1 X0.5148 Y-0.0954 E0.0262
G1 X-0.9112 Y-4.9163 E0.25
G1 X0.9112 Y4.9163 E0.25
G1 X0.5164 Y-0.0864 E0.0262
G1 X0.5178 Y-0.0774 E0.0262
G1 X0.5191 Y-0.0683 E0.0262
G1 X0.5202 Y-0.0593 E0.0262
G1 X0.5212 Y-0.0502 E0.0262
G1 X0.522 Y-0.0411 E0.0262
G1 X0.5226 Y-0.032 E0.0262
G1 X0.5231 Y-0.0228 E0.0262
G1 X0.5234 Y-0.0137 E0.0262
G1 X0.5236 Y-0.0046 E0.0262
G1 X-0.0436 Y-4.9998 E0.25
G1 X0.0436 Y4.9998 E0.25
G1 X0.5236 Y0.0046 E0.0262
G1 X0.5234 Y0.0137 E0.0262
G1 X0.5231 Y0.0228 E0.0262
G1 X0.5226 Y0.032 E0.0262
G1 X0.522 Y0.0411 E0.0262
G1 X0.5212 Y0.0502 E0.0262
G1 X0.5202 Y0.0593 E0.0262
G1 X0.5191 Y0.0683 E0.0262
G1 X0.5178 Y0.0774 E0.0262
G1 X0.5164 Y0.0864 E0.0262
G1 X0.8252 Y-4.9314 E0.25
G1 X-0.8252 Y4.9314 E0.25
G1 X0.5148 Y0.0954 E0.0262
G1 X0.5131 Y0.1044 E0.0262
G1 X0.5112 Y0.1133 E0.0262
G1 X0.5091 Y0.1222 E0.0262
G1 X0.5069 Y0.1311 E0.0262
G1 X0.5045 Y0.1399 E0.0262
G1 X0.502 Y0.1487 E0.0262
G1 X0.4994 Y0.1574 E0.0262
G1 X0.4965 Y0.1661 E0.0262
G1 X0.4936 Y0.1748 E0.0262
G1 X1.669 Y-4.7132 E0.25
G1 X-1.669 Y4.7132 E0.25
G1 X0.4904 Y0.1834 E0.0262
G1 X0.4872 Y0.1919 E0.0262
G1 X0.4837 Y0.2004 E0.0262
G1 X0.4802 Y0.2088 E0.0262
G1 X0.4764 Y0.2171 E0.0262
G1 X0.4726 Y0.2254 E0.0262
G1 X0.4686 Y0.2336 E0.0262
G1 X0.4644 Y0.2418 E0.0262
G1 X0.4601 Y0.2498 E0.0262
G1 X0.4557 Y0.2578 E0.0262
G1 X2.4621 Y-4.3518 E0.25
G1 X-2.4621 Y4.3518 E0.25
G1 X0.4511 Y0.2657 E0.0262
G1 X0.4464 Y0.2736 E0.0262
G1 X0.4416 Y0.2813 E0.0262
G1 X0.4366 Y0.289 E0.0262
G1 X0.4315 Y0.2966 E0.0262
G1 X0.4263 Y0.3041 E0.0262
G1 X0.4209 Y0.3114 E0.0262
G1 X0.4154 Y0.3187 E0.0262
G1 X0.4098 Y0.3259 E0.0262
G1 X0.404 Y0.333 E0.0262
G1 X3.1804 Y-3.8581 E0.25
G1 X-3.1804 Y3.8581 E0.25
G1 X0.3981 Y0.34 E0.0262
G1 X0.3921 Y0.3469 E0.0262
G1 X0.386 Y0.3537 E0.0262
G1 X0.3798 Y0.3604 E0.0262
G1 X0.3735 Y0.367 E0.0262
G1 X0.367 Y0.3735 E0.0262
G1 X0.3604 Y0.3798 E0.0262
G1 X0.3537 Y0.386 E0.0262
G1 X0.3469 Y0.3921 E0.0262
G1 X0.34 Y0.3981 E0.0262
G1 X3.802 Y-3.2472 E0.25
G1 X-3.802 Y3.2472 E0.25
G1 X0.333 Y0.404 E0.0262
G1 X0.3259 Y0.4098 E0.0262
G1 X0.3187 Y0.4154 E0.0262
G1 X0.3114 Y0.4209 E0.0262
G1 X0.3041 Y0.4263 E0.0262
G1 X0.2966 Y0.4315 E0.0262
G1 X0.289 Y0.4366 E0.0262
G1 X0.2813 Y0.4416 E0.0262
G1 X0.2736 Y0.4464 E0.0262
G1 X0.2657 Y0.4511 E0.0262
G1 X4.3081 Y-2.5377 E0.25
G1 X-4.3081 Y2.5377 E0.25
G1 X0.2578 Y0.4557 E0.0262
G1 X0.2498 Y0.4601 E0.0262
G1 X0.2418 Y0.4644 E0.0262
G1 X0.2336 Y0.4686 E0.0262
G1 X0.2254 Y0.4726 E0.0262
G1 X0.2171 Y0.4764 E0.0262
G1 X0.2088 Y0.4802 E0.0262
G1 X0.2004 Y0.4837 E0.0262
G1 X0.1919 Y0.4872 E0.0262
G1 X0.1834 Y0.4904 E0.0262
G1 X4.6834 Y-1.751 E0.25
G1 X-4.6834 Y1.751 E0.25
G1 X0.1748 Y0.4936 E0.0262
G1 X0.1661 Y0.4965 E0.0262
G1 X0.1574 Y0.4994 E0.0262
G1 X0.1487 Y0.502 E0.0262
G1 X0.1399 Y0.5045 E0.0262
G1 X0.1311 Y0.5069 E0.0262
G1 X0.1222 Y0.5091 E0.0262
G1 X0.1133 Y0.5112 E0.0262
G1 X0.1044 Y0.5131 E0.0262
G1 X0.0954 Y0.5148 E0.0262
G1 X4.9163 Y-0.9112 E0.25
G1 X-4.9163 Y0.9112 E0.25
G1 X0.0864 Y0.5164 E0.0262
G1 X0.0774 Y0.5178 E0.0262
G1 X0.0683 Y0.5191 E0.0262
G1 X0.0593 Y0.5202 E0.0262
G1 X0.0502 Y0.5212 E0.0262
G1 X0.0411 Y0.522 E0.0262
G1 X0.032 Y0.5226 E0.0262
G1 X0.0228 Y0.5231 E0.0262
G1 X0.0137 Y0.5234 E0.0262
G1 X0.0046 Y0.5236 E0.0262
G1 X4.9998 Y-0.0436 E0.25
G1 X-4.9998 Y0.0436 E0.25
; *************** End of print ***************
G91                     ; Relative coordinates for X,Y,Z axes
G1 Z25 F2000            ; move up 25 in the z direction
G90                     ; Absolute coordinates 
G1 F5000 X0 Y0          ; Move extruder to 0,0 in XY
M84 X Y                 ; X Y steppers off
M104 S0					; Set Hot-end to 0C (off)
M140 S0					; Set bed to 0C (off)
