; *************************************************
; *************************************************
; ******* File generated by Extruder Turtle *******
; ******* written by Leah Buechley and  ***********
; ******* and Franklin Pezutti-Dyer ***************
; **** Hand and Machine Lab, UNM, 2021-present ****
; *************************************************
; *************************************************
; *************** Printer parameters **************
; Printer: eazao
; Nozzle size: 1.5
; Extrude width: 2.1
; Layer height: 1.0
; Extrude rate: 1.25
; Speed: 1000
; *************** Eazao initialization **************
G21	           ; Metric units
G90            ; Absolute positioning
M82            ; Absolute extrusion
M302           ; Allow cold extrusion
G28            ; Home
G1 Z15.0 F1500 ; Move down 15mm

G92 E0         ; Zero extruder
G1 F300 E20    ; Prime Extruder: Extrude 20mm of clay
G92 E0         ; Zero extruder

; Play dough mix factor
M163 S0 P0.92  ; Set Mix Factor small auger extruder
M163 S1 P0.08  ; Set Mix Factor large plunger extruder
M164 S0		   ; Finalize mix

; Clay mix factor
; M163 S0 P0.9   ; Set Mix Factor small auger extruder
; M163 S1 P0.1   ; Set Mix Factor large plunger extruder
; M164 S0		 ; Finalize mix

; mix factor for metal, testing
; M163 S0 P0.98  ; Set Mix Factor small auger extruder
; M163 S1 P0.02  ; Set Mix Factor large plunger extruder
; M164 S0		 ; Finalize mix

G0 F1000 X75.0 Y88.0 Z0 ; Move to starting position
M83 					; Relative extrustion
G91                     ; Relative coordinates for X,Y,Z axes
G1 F1000
; ********** End printer initialization *********** 
; *************************************************

; *************** Begin print *********************
G1 X20.0 Y0.0 Z0.0 E25.0
G1 X-0.003 Y0.349 Z0.0 E0.436
G1 X-0.0091 Y0.3489 Z0.0 E0.436
G1 X-0.0152 Y0.3487 Z0.0 E0.436
G1 X-0.0213 Y0.3484 Z0.0 E0.436
G1 X-0.0274 Y0.348 Z0.0 E0.436
G1 X-0.0335 Y0.3475 Z0.0 E0.436
G1 X-0.0395 Y0.3468 Z0.0 E0.436
G1 X-0.0456 Y0.3461 Z0.0 E0.436
G1 X-0.0516 Y0.3452 Z0.0 E0.436
G1 X-0.0576 Y0.3443 Z0.0 E0.436
G1 X4.9314 Y0.8252 Z0.0 E6.25
G1 X-4.9314 Y-0.8252 Z-0.0 E6.25
G1 X-0.0636 Y0.3432 Z0.0 E0.436
G1 X-0.0696 Y0.3421 Z0.0 E0.436
G1 X-0.0756 Y0.3408 Z0.0 E0.436
G1 X-0.0815 Y0.3394 Z0.0 E0.436
G1 X-0.0874 Y0.3379 Z0.0 E0.436
G1 X-0.0933 Y0.3364 Z0.0 E0.436
G1 X-0.0991 Y0.3347 Z0.0 E0.436
G1 X-0.105 Y0.3329 Z0.0 E0.436
G1 X-0.1108 Y0.331 Z0.0 E0.436
G1 X-0.1165 Y0.329 Z0.0 E0.436
G1 X4.7132 Y1.669 Z0.0 E6.25
G1 X-4.7132 Y-1.669 Z-0.0 E6.25
G1 X-0.1222 Y0.327 Z0.0 E0.436
G1 X-0.1279 Y0.3248 Z0.0 E0.436
G1 X-0.1336 Y0.3225 Z0.0 E0.436
G1 X-0.1392 Y0.3201 Z0.0 E0.436
G1 X-0.1448 Y0.3176 Z0.0 E0.436
G1 X-0.1503 Y0.3151 Z0.0 E0.436
G1 X-0.1558 Y0.3124 Z0.0 E0.436
G1 X-0.1612 Y0.3096 Z0.0 E0.436
G1 X-0.1666 Y0.3068 Z0.0 E0.436
G1 X-0.1719 Y0.3038 Z0.0 E0.436
G1 X4.3518 Y2.4621 Z0.0 E6.25
G1 X-4.3518 Y-2.4621 Z-0.0 E6.25
G1 X-0.1772 Y0.3008 Z0.0 E0.436
G1 X-0.1824 Y0.2976 Z0.0 E0.436
G1 X-0.1876 Y0.2944 Z0.0 E0.436
G1 X-0.1927 Y0.2911 Z0.0 E0.436
G1 X-0.1977 Y0.2877 Z0.0 E0.436
G1 X-0.2027 Y0.2842 Z0.0 E0.436
G1 X-0.2076 Y0.2806 Z0.0 E0.436
G1 X-0.2125 Y0.2769 Z0.0 E0.436
G1 X-0.2173 Y0.2732 Z0.0 E0.436
G1 X-0.222 Y0.2693 Z0.0 E0.436
G1 X3.8581 Y3.1804 Z0.0 E6.25
G1 X-3.8581 Y-3.1804 Z-0.0 E6.25
G1 X-0.2267 Y0.2654 Z0.0 E0.436
G1 X-0.2313 Y0.2614 Z0.0 E0.436
G1 X-0.2358 Y0.2574 Z0.0 E0.436
G1 X-0.2403 Y0.2532 Z0.0 E0.436
G1 X-0.2447 Y0.249 Z0.0 E0.436
G1 X-0.249 Y0.2447 Z0.0 E0.436
G1 X-0.2532 Y0.2403 Z0.0 E0.436
G1 X-0.2574 Y0.2358 Z0.0 E0.436
G1 X-0.2614 Y0.2313 Z0.0 E0.436
G1 X-0.2654 Y0.2267 Z0.0 E0.436
G1 X3.2472 Y3.802 Z0.0 E6.25
G1 X-3.2472 Y-3.802 Z-0.0 E6.25
G1 X-0.2693 Y0.222 Z0.0 E0.436
G1 X-0.2732 Y0.2173 Z0.0 E0.436
G1 X-0.2769 Y0.2125 Z0.0 E0.436
G1 X-0.2806 Y0.2076 Z0.0 E0.436
G1 X-0.2842 Y0.2027 Z0.0 E0.436
G1 X-0.2877 Y0.1977 Z0.0 E0.436
G1 X-0.2911 Y0.1927 Z0.0 E0.436
G1 X-0.2944 Y0.1876 Z0.0 E0.436
G1 X-0.2976 Y0.1824 Z0.0 E0.436
G1 X-0.3008 Y0.1772 Z0.0 E0.436
G1 X2.5377 Y4.3081 Z0.0 E6.25
G1 X-2.5377 Y-4.3081 Z-0.0 E6.25
G1 X-0.3038 Y0.1719 Z0.0 E0.436
G1 X-0.3068 Y0.1666 Z0.0 E0.436
G1 X-0.3096 Y0.1612 Z0.0 E0.436
G1 X-0.3124 Y0.1558 Z0.0 E0.436
G1 X-0.3151 Y0.1503 Z0.0 E0.436
G1 X-0.3176 Y0.1448 Z0.0 E0.436
G1 X-0.3201 Y0.1392 Z0.0 E0.436
G1 X-0.3225 Y0.1336 Z0.0 E0.436
G1 X-0.3248 Y0.1279 Z0.0 E0.436
G1 X-0.327 Y0.1222 Z0.0 E0.436
G1 X1.751 Y4.6834 Z0.0 E6.25
G1 X-1.751 Y-4.6834 Z-0.0 E6.25
G1 X-0.329 Y0.1165 Z0.0 E0.436
G1 X-0.331 Y0.1108 Z0.0 E0.436
G1 X-0.3329 Y0.105 Z0.0 E0.436
G1 X-0.3347 Y0.0991 Z0.0 E0.436
G1 X-0.3364 Y0.0933 Z0.0 E0.436
G1 X-0.3379 Y0.0874 Z0.0 E0.436
G1 X-0.3394 Y0.0815 Z0.0 E0.436
G1 X-0.3408 Y0.0756 Z0.0 E0.436
G1 X-0.3421 Y0.0696 Z0.0 E0.436
G1 X-0.3432 Y0.0636 Z0.0 E0.436
G1 X0.9112 Y4.9163 Z0.0 E6.25
G1 X-0.9112 Y-4.9163 Z-0.0 E6.25
G1 X-0.3443 Y0.0576 Z0.0 E0.436
G1 X-0.3452 Y0.0516 Z0.0 E0.436
G1 X-0.3461 Y0.0456 Z0.0 E0.436
G1 X-0.3468 Y0.0395 Z0.0 E0.436
G1 X-0.3475 Y0.0335 Z0.0 E0.436
G1 X-0.348 Y0.0274 Z0.0 E0.436
G1 X-0.3484 Y0.0213 Z0.0 E0.436
G1 X-0.3487 Y0.0152 Z0.0 E0.436
G1 X-0.3489 Y0.0091 Z0.0 E0.436
G1 X-0.349 Y0.003 Z0.0 E0.436
G1 X0.0436 Y4.9998 Z0.0 E6.25
G1 X-0.0436 Y-4.9998 Z-0.0 E6.25
G1 X-0.349 Y-0.003 Z0.0 E0.436
G1 X-0.3489 Y-0.0091 Z0.0 E0.436
G1 X-0.3487 Y-0.0152 Z0.0 E0.436
G1 X-0.3484 Y-0.0213 Z0.0 E0.436
G1 X-0.348 Y-0.0274 Z0.0 E0.436
G1 X-0.3475 Y-0.0335 Z0.0 E0.436
G1 X-0.3468 Y-0.0395 Z0.0 E0.436
G1 X-0.3461 Y-0.0456 Z0.0 E0.436
G1 X-0.3452 Y-0.0516 Z0.0 E0.436
G1 X-0.3443 Y-0.0576 Z0.0 E0.436
G1 X-0.8252 Y4.9314 Z0.0 E6.25
G1 X0.8252 Y-4.9314 Z-0.0 E6.25
G1 X-0.3432 Y-0.0636 Z0.0 E0.436
G1 X-0.3421 Y-0.0696 Z0.0 E0.436
G1 X-0.3408 Y-0.0756 Z0.0 E0.436
G1 X-0.3394 Y-0.0815 Z0.0 E0.436
G1 X-0.3379 Y-0.0874 Z0.0 E0.436
G1 X-0.3364 Y-0.0933 Z0.0 E0.436
G1 X-0.3347 Y-0.0991 Z0.0 E0.436
G1 X-0.3329 Y-0.105 Z0.0 E0.436
G1 X-0.331 Y-0.1108 Z0.0 E0.436
G1 X-0.329 Y-0.1165 Z0.0 E0.436
G1 X-1.669 Y4.7132 Z0.0 E6.25
G1 X1.669 Y-4.7132 Z-0.0 E6.25
G1 X-0.327 Y-0.1222 Z0.0 E0.436
G1 X-0.3248 Y-0.1279 Z0.0 E0.436
G1 X-0.3225 Y-0.1336 Z0.0 E0.436
G1 X-0.3201 Y-0.1392 Z0.0 E0.436
G1 X-0.3176 Y-0.1448 Z0.0 E0.436
G1 X-0.3151 Y-0.1503 Z0.0 E0.436
G1 X-0.3124 Y-0.1558 Z0.0 E0.436
G1 X-0.3096 Y-0.1612 Z0.0 E0.436
G1 X-0.3068 Y-0.1666 Z0.0 E0.436
G1 X-0.3038 Y-0.1719 Z0.0 E0.436
G1 X-2.4621 Y4.3518 Z0.0 E6.25
G1 X2.4621 Y-4.3518 Z-0.0 E6.25
G1 X-0.3008 Y-0.1772 Z0.0 E0.436
G1 X-0.2976 Y-0.1824 Z0.0 E0.436
G1 X-0.2944 Y-0.1876 Z0.0 E0.436
G1 X-0.2911 Y-0.1927 Z0.0 E0.436
G1 X-0.2877 Y-0.1977 Z0.0 E0.436
G1 X-0.2842 Y-0.2027 Z0.0 E0.436
G1 X-0.2806 Y-0.2076 Z0.0 E0.436
G1 X-0.2769 Y-0.2125 Z0.0 E0.436
G1 X-0.2732 Y-0.2173 Z0.0 E0.436
G1 X-0.2693 Y-0.222 Z0.0 E0.436
G1 X-3.1804 Y3.8581 Z0.0 E6.25
G1 X3.1804 Y-3.8581 Z-0.0 E6.25
G1 X-0.2654 Y-0.2267 Z0.0 E0.436
G1 X-0.2614 Y-0.2313 Z0.0 E0.436
G1 X-0.2574 Y-0.2358 Z0.0 E0.436
G1 X-0.2532 Y-0.2403 Z0.0 E0.436
G1 X-0.249 Y-0.2447 Z0.0 E0.436
G1 X-0.2447 Y-0.249 Z0.0 E0.436
G1 X-0.2403 Y-0.2532 Z0.0 E0.436
G1 X-0.2358 Y-0.2574 Z0.0 E0.436
G1 X-0.2313 Y-0.2614 Z0.0 E0.436
G1 X-0.2267 Y-0.2654 Z0.0 E0.436
G1 X-3.802 Y3.2472 Z0.0 E6.25
G1 X3.802 Y-3.2472 Z-0.0 E6.25
G1 X-0.222 Y-0.2693 Z0.0 E0.436
G1 X-0.2173 Y-0.2732 Z0.0 E0.436
G1 X-0.2125 Y-0.2769 Z0.0 E0.436
G1 X-0.2076 Y-0.2806 Z0.0 E0.436
G1 X-0.2027 Y-0.2842 Z0.0 E0.436
G1 X-0.1977 Y-0.2877 Z0.0 E0.436
G1 X-0.1927 Y-0.2911 Z0.0 E0.436
G1 X-0.1876 Y-0.2944 Z0.0 E0.436
G1 X-0.1824 Y-0.2976 Z0.0 E0.436
G1 X-0.1772 Y-0.3008 Z0.0 E0.436
G1 X-4.3081 Y2.5377 Z0.0 E6.25
G1 X4.3081 Y-2.5377 Z-0.0 E6.25
G1 X-0.1719 Y-0.3038 Z0.0 E0.436
G1 X-0.1666 Y-0.3068 Z0.0 E0.436
G1 X-0.1612 Y-0.3096 Z0.0 E0.436
G1 X-0.1558 Y-0.3124 Z0.0 E0.436
G1 X-0.1503 Y-0.3151 Z0.0 E0.436
G1 X-0.1448 Y-0.3176 Z0.0 E0.436
G1 X-0.1392 Y-0.3201 Z0.0 E0.436
G1 X-0.1336 Y-0.3225 Z0.0 E0.436
G1 X-0.1279 Y-0.3248 Z0.0 E0.436
G1 X-0.1222 Y-0.327 Z0.0 E0.436
G1 X-4.6834 Y1.751 Z0.0 E6.25
G1 X4.6834 Y-1.751 Z-0.0 E6.25
G1 X-0.1165 Y-0.329 Z0.0 E0.436
G1 X-0.1108 Y-0.331 Z0.0 E0.436
G1 X-0.105 Y-0.3329 Z0.0 E0.436
G1 X-0.0991 Y-0.3347 Z0.0 E0.436
G1 X-0.0933 Y-0.3364 Z0.0 E0.436
G1 X-0.0874 Y-0.3379 Z0.0 E0.436
G1 X-0.0815 Y-0.3394 Z0.0 E0.436
G1 X-0.0756 Y-0.3408 Z0.0 E0.436
G1 X-0.0696 Y-0.3421 Z0.0 E0.436
G1 X-0.0636 Y-0.3432 Z0.0 E0.436
G1 X-4.9163 Y0.9112 Z0.0 E6.25
G1 X4.9163 Y-0.9112 Z-0.0 E6.25
G1 X-0.0576 Y-0.3443 Z0.0 E0.436
G1 X-0.0516 Y-0.3452 Z0.0 E0.436
G1 X-0.0456 Y-0.3461 Z0.0 E0.436
G1 X-0.0395 Y-0.3468 Z0.0 E0.436
G1 X-0.0335 Y-0.3475 Z0.0 E0.436
G1 X-0.0274 Y-0.348 Z0.0 E0.436
G1 X-0.0213 Y-0.3484 Z0.0 E0.436
G1 X-0.0152 Y-0.3487 Z0.0 E0.436
G1 X-0.0091 Y-0.3489 Z0.0 E0.436
G1 X-0.003 Y-0.349 Z0.0 E0.436
G1 X-4.9998 Y0.0436 Z0.0 E6.25
G1 X4.9998 Y-0.0436 Z-0.0 E6.25
G1 X0.003 Y-0.349 Z0.0 E0.436
G1 X0.0091 Y-0.3489 Z0.0 E0.436
G1 X0.0152 Y-0.3487 Z0.0 E0.436
G1 X0.0213 Y-0.3484 Z0.0 E0.436
G1 X0.0274 Y-0.348 Z0.0 E0.436
G1 X0.0335 Y-0.3475 Z0.0 E0.436
G1 X0.0395 Y-0.3468 Z0.0 E0.436
G1 X0.0456 Y-0.3461 Z0.0 E0.436
G1 X0.0516 Y-0.3452 Z0.0 E0.436
G1 X0.0576 Y-0.3443 Z0.0 E0.436
G1 X-4.9314 Y-0.8252 Z0.0 E6.25
G1 X4.9314 Y0.8252 Z-0.0 E6.25
G1 X0.0636 Y-0.3432 Z0.0 E0.436
G1 X0.0696 Y-0.3421 Z0.0 E0.436
G1 X0.0756 Y-0.3408 Z0.0 E0.436
G1 X0.0815 Y-0.3394 Z0.0 E0.436
G1 X0.0874 Y-0.3379 Z0.0 E0.436
G1 X0.0933 Y-0.3364 Z0.0 E0.436
G1 X0.0991 Y-0.3347 Z0.0 E0.436
G1 X0.105 Y-0.3329 Z0.0 E0.436
G1 X0.1108 Y-0.331 Z0.0 E0.436
G1 X0.1165 Y-0.329 Z0.0 E0.436
G1 X-4.7132 Y-1.669 Z0.0 E6.25
G1 X4.7132 Y1.669 Z-0.0 E6.25
G1 X0.1222 Y-0.327 Z0.0 E0.436
G1 X0.1279 Y-0.3248 Z0.0 E0.436
G1 X0.1336 Y-0.3225 Z0.0 E0.436
G1 X0.1392 Y-0.3201 Z0.0 E0.436
G1 X0.1448 Y-0.3176 Z0.0 E0.436
G1 X0.1503 Y-0.3151 Z0.0 E0.436
G1 X0.1558 Y-0.3124 Z0.0 E0.436
G1 X0.1612 Y-0.3096 Z0.0 E0.436
G1 X0.1666 Y-0.3068 Z0.0 E0.436
G1 X0.1719 Y-0.3038 Z0.0 E0.436
G1 X-4.3518 Y-2.4621 Z0.0 E6.25
G1 X4.3518 Y2.4621 Z-0.0 E6.25
G1 X0.1772 Y-0.3008 Z0.0 E0.436
G1 X0.1824 Y-0.2976 Z0.0 E0.436
G1 X0.1876 Y-0.2944 Z0.0 E0.436
G1 X0.1927 Y-0.2911 Z0.0 E0.436
G1 X0.1977 Y-0.2877 Z0.0 E0.436
G1 X0.2027 Y-0.2842 Z0.0 E0.436
G1 X0.2076 Y-0.2806 Z0.0 E0.436
G1 X0.2125 Y-0.2769 Z0.0 E0.436
G1 X0.2173 Y-0.2732 Z0.0 E0.436
G1 X0.222 Y-0.2693 Z0.0 E0.436
G1 X-3.8581 Y-3.1804 Z0.0 E6.25
G1 X3.8581 Y3.1804 Z-0.0 E6.25
G1 X0.2267 Y-0.2654 Z0.0 E0.436
G1 X0.2313 Y-0.2614 Z0.0 E0.436
G1 X0.2358 Y-0.2574 Z0.0 E0.436
G1 X0.2403 Y-0.2532 Z0.0 E0.436
G1 X0.2447 Y-0.249 Z0.0 E0.436
G1 X0.249 Y-0.2447 Z0.0 E0.436
G1 X0.2532 Y-0.2403 Z0.0 E0.436
G1 X0.2574 Y-0.2358 Z0.0 E0.436
G1 X0.2614 Y-0.2313 Z0.0 E0.436
G1 X0.2654 Y-0.2267 Z0.0 E0.436
G1 X-3.2472 Y-3.802 Z0.0 E6.25
G1 X3.2472 Y3.802 Z-0.0 E6.25
G1 X0.2693 Y-0.222 Z0.0 E0.436
G1 X0.2732 Y-0.2173 Z0.0 E0.436
G1 X0.2769 Y-0.2125 Z0.0 E0.436
G1 X0.2806 Y-0.2076 Z0.0 E0.436
G1 X0.2842 Y-0.2027 Z0.0 E0.436
G1 X0.2877 Y-0.1977 Z0.0 E0.436
G1 X0.2911 Y-0.1927 Z0.0 E0.436
G1 X0.2944 Y-0.1876 Z0.0 E0.436
G1 X0.2976 Y-0.1824 Z0.0 E0.436
G1 X0.3008 Y-0.1772 Z0.0 E0.436
G1 X-2.5377 Y-4.3081 Z0.0 E6.25
G1 X2.5377 Y4.3081 Z-0.0 E6.25
G1 X0.3038 Y-0.1719 Z0.0 E0.436
G1 X0.3068 Y-0.1666 Z0.0 E0.436
G1 X0.3096 Y-0.1612 Z0.0 E0.436
G1 X0.3124 Y-0.1558 Z0.0 E0.436
G1 X0.3151 Y-0.1503 Z0.0 E0.436
G1 X0.3176 Y-0.1448 Z0.0 E0.436
G1 X0.3201 Y-0.1392 Z0.0 E0.436
G1 X0.3225 Y-0.1336 Z0.0 E0.436
G1 X0.3248 Y-0.1279 Z0.0 E0.436
G1 X0.327 Y-0.1222 Z0.0 E0.436
G1 X-1.751 Y-4.6834 Z0.0 E6.25
G1 X1.751 Y4.6834 Z-0.0 E6.25
G1 X0.329 Y-0.1165 Z0.0 E0.436
G1 X0.331 Y-0.1108 Z0.0 E0.436
G1 X0.3329 Y-0.105 Z0.0 E0.436
G1 X0.3347 Y-0.0991 Z0.0 E0.436
G1 X0.3364 Y-0.0933 Z0.0 E0.436
G1 X0.3379 Y-0.0874 Z0.0 E0.436
G1 X0.3394 Y-0.0815 Z0.0 E0.436
G1 X0.3408 Y-0.0756 Z0.0 E0.436
G1 X0.3421 Y-0.0696 Z0.0 E0.436
G1 X0.3432 Y-0.0636 Z0.0 E0.436
G1 X-0.9112 Y-4.9163 Z0.0 E6.25
G1 X0.9112 Y4.9163 Z-0.0 E6.25
G1 X0.3443 Y-0.0576 Z0.0 E0.436
G1 X0.3452 Y-0.0516 Z0.0 E0.436
G1 X0.3461 Y-0.0456 Z0.0 E0.436
G1 X0.3468 Y-0.0395 Z0.0 E0.436
G1 X0.3475 Y-0.0335 Z0.0 E0.436
G1 X0.348 Y-0.0274 Z0.0 E0.436
G1 X0.3484 Y-0.0213 Z0.0 E0.436
G1 X0.3487 Y-0.0152 Z0.0 E0.436
G1 X0.3489 Y-0.0091 Z0.0 E0.436
G1 X0.349 Y-0.003 Z0.0 E0.436
G1 X-0.0436 Y-4.9998 Z0.0 E6.25
G1 X0.0436 Y4.9998 Z-0.0 E6.25
G1 X0.349 Y0.003 Z0.0 E0.436
G1 X0.3489 Y0.0091 Z0.0 E0.436
G1 X0.3487 Y0.0152 Z0.0 E0.436
G1 X0.3484 Y0.0213 Z0.0 E0.436
G1 X0.348 Y0.0274 Z0.0 E0.436
G1 X0.3475 Y0.0335 Z0.0 E0.436
G1 X0.3468 Y0.0395 Z0.0 E0.436
G1 X0.3461 Y0.0456 Z0.0 E0.436
G1 X0.3452 Y0.0516 Z0.0 E0.436
G1 X0.3443 Y0.0576 Z0.0 E0.436
G1 X0.8252 Y-4.9314 Z0.0 E6.25
G1 X-0.8252 Y4.9314 Z-0.0 E6.25
G1 X0.3432 Y0.0636 Z0.0 E0.436
G1 X0.3421 Y0.0696 Z0.0 E0.436
G1 X0.3408 Y0.0756 Z0.0 E0.436
G1 X0.3394 Y0.0815 Z0.0 E0.436
G1 X0.3379 Y0.0874 Z0.0 E0.436
G1 X0.3364 Y0.0933 Z0.0 E0.436
G1 X0.3347 Y0.0991 Z0.0 E0.436
G1 X0.3329 Y0.105 Z0.0 E0.436
G1 X0.331 Y0.1108 Z0.0 E0.436
G1 X0.329 Y0.1165 Z0.0 E0.436
G1 X1.669 Y-4.7132 Z0.0 E6.25
G1 X-1.669 Y4.7132 Z-0.0 E6.25
G1 X0.327 Y0.1222 Z0.0 E0.436
G1 X0.3248 Y0.1279 Z0.0 E0.436
G1 X0.3225 Y0.1336 Z0.0 E0.436
G1 X0.3201 Y0.1392 Z0.0 E0.436
G1 X0.3176 Y0.1448 Z0.0 E0.436
G1 X0.3151 Y0.1503 Z0.0 E0.436
G1 X0.3124 Y0.1558 Z0.0 E0.436
G1 X0.3096 Y0.1612 Z0.0 E0.436
G1 X0.3068 Y0.1666 Z0.0 E0.436
G1 X0.3038 Y0.1719 Z0.0 E0.436
G1 X2.4621 Y-4.3518 Z0.0 E6.25
G1 X-2.4621 Y4.3518 Z-0.0 E6.25
G1 X0.3008 Y0.1772 Z0.0 E0.436
G1 X0.2976 Y0.1824 Z0.0 E0.436
G1 X0.2944 Y0.1876 Z0.0 E0.436
G1 X0.2911 Y0.1927 Z0.0 E0.436
G1 X0.2877 Y0.1977 Z0.0 E0.436
G1 X0.2842 Y0.2027 Z0.0 E0.436
G1 X0.2806 Y0.2076 Z0.0 E0.436
G1 X0.2769 Y0.2125 Z0.0 E0.436
G1 X0.2732 Y0.2173 Z0.0 E0.436
G1 X0.2693 Y0.222 Z0.0 E0.436
G1 X3.1804 Y-3.8581 Z0.0 E6.25
G1 X-3.1804 Y3.8581 Z-0.0 E6.25
G1 X0.2654 Y0.2267 Z0.0 E0.436
G1 X0.2614 Y0.2313 Z0.0 E0.436
G1 X0.2574 Y0.2358 Z0.0 E0.436
G1 X0.2532 Y0.2403 Z0.0 E0.436
G1 X0.249 Y0.2447 Z0.0 E0.436
G1 X0.2447 Y0.249 Z0.0 E0.436
G1 X0.2403 Y0.2532 Z0.0 E0.436
G1 X0.2358 Y0.2574 Z0.0 E0.436
G1 X0.2313 Y0.2614 Z0.0 E0.436
G1 X0.2267 Y0.2654 Z0.0 E0.436
G1 X3.802 Y-3.2472 Z0.0 E6.25
G1 X-3.802 Y3.2472 Z-0.0 E6.25
G1 X0.222 Y0.2693 Z0.0 E0.436
G1 X0.2173 Y0.2732 Z0.0 E0.436
G1 X0.2125 Y0.2769 Z0.0 E0.436
G1 X0.2076 Y0.2806 Z0.0 E0.436
G1 X0.2027 Y0.2842 Z0.0 E0.436
G1 X0.1977 Y0.2877 Z0.0 E0.436
G1 X0.1927 Y0.2911 Z0.0 E0.436
G1 X0.1876 Y0.2944 Z0.0 E0.436
G1 X0.1824 Y0.2976 Z0.0 E0.436
G1 X0.1772 Y0.3008 Z0.0 E0.436
G1 X4.3081 Y-2.5377 Z0.0 E6.25
G1 X-4.3081 Y2.5377 Z-0.0 E6.25
G1 X0.1719 Y0.3038 Z0.0 E0.436
G1 X0.1666 Y0.3068 Z0.0 E0.436
G1 X0.1612 Y0.3096 Z0.0 E0.436
G1 X0.1558 Y0.3124 Z0.0 E0.436
G1 X0.1503 Y0.3151 Z0.0 E0.436
G1 X0.1448 Y0.3176 Z0.0 E0.436
G1 X0.1392 Y0.3201 Z0.0 E0.436
G1 X0.1336 Y0.3225 Z0.0 E0.436
G1 X0.1279 Y0.3248 Z0.0 E0.436
G1 X0.1222 Y0.327 Z0.0 E0.436
G1 X4.6834 Y-1.751 Z0.0 E6.25
G1 X-4.6834 Y1.751 Z-0.0 E6.25
G1 X0.1165 Y0.329 Z0.0 E0.436
G1 X0.1108 Y0.331 Z0.0 E0.436
G1 X0.105 Y0.3329 Z0.0 E0.436
G1 X0.0991 Y0.3347 Z0.0 E0.436
G1 X0.0933 Y0.3364 Z0.0 E0.436
G1 X0.0874 Y0.3379 Z0.0 E0.436
G1 X0.0815 Y0.3394 Z0.0 E0.436
G1 X0.0756 Y0.3408 Z0.0 E0.436
G1 X0.0696 Y0.3421 Z0.0 E0.436
G1 X0.0636 Y0.3432 Z0.0 E0.436
G1 X4.9163 Y-0.9112 Z0.0 E6.25
G1 X-4.9163 Y0.9112 Z-0.0 E6.25
G1 X0.0576 Y0.3443 Z0.0 E0.436
G1 X0.0516 Y0.3452 Z0.0 E0.436
G1 X0.0456 Y0.3461 Z0.0 E0.436
G1 X0.0395 Y0.3468 Z0.0 E0.436
G1 X0.0335 Y0.3475 Z0.0 E0.436
G1 X0.0274 Y0.348 Z0.0 E0.436
G1 X0.0213 Y0.3484 Z0.0 E0.436
G1 X0.0152 Y0.3487 Z0.0 E0.436
G1 X0.0091 Y0.3489 Z0.0 E0.436
G1 X0.003 Y0.349 Z0.0 E0.436
G1 X4.9998 Y-0.0436 Z0.0 E6.25
G1 X-4.9998 Y0.0436 Z-0.0 E6.25

; *************** End of print **************
; G1 F5000 Z20            ; Move extruder above print 50mm 
; G90                     ; Absolute coordinates  
; G1 F5000 X0 Y0          ; Move extruder to 0,0 in XY
; M104 S0                 ; Cool down hotend
; M140 S0                 ; Cool down bed
; M107                    ; Turn off fan

; *************** Eazao final sequence ***************
G92 
; G1 E-10 F300
G28 X0 Y0 ;move X Y to min endstops
M82
M84 ;steppers off
