; *************************************************
; *************************************************
; ******* File generated by Extruder Turtle *******
; ******* written by Leah Buechley and  ***********
; ******* and Franklin Pezutti-Dyer ***************
; **** Hand and Machine Lab, UNM, 2021-present ****
; *************************************************
; *************************************************
; *************** Lutum initialization **************
; 400 x 460 x 800 build volume
; T0 extruder 0
; T1 extruder 1

G28            ; Home
G21	           ; Metric units
G90            ; Absolute positioning
M82            ; Absolute extrusion
M302           ; Allow cold extrusion

G1 Z15.0 F1500 ; Move up 15mm to extrude
G92 E0         ; Zero extruder
G1 F2000 E5    ; Prime Extruder: Extrude some clay
G92 E0         ; Zero extruder

G0 F2000 X20.0 Y20.0 Z1.0 ; Move to starting position
M83 					  ; Relative extrustion
G91                       ; Relative coordinates for X,Y,Z axes
T0				; Use extruder 0

G1 F1500
; ********** End printer initialization ***********
; *************************************************

G1 X5.1006 Y-0.3733 E3.0685
G1 X4.9919 Y-1.112 E3.0685
G1 X4.7768 Y-1.827 E3.0685
G1 X4.4599 Y-2.503 E3.0685
G1 X4.0479 Y-3.1257 E3.0685
G1 X3.5496 Y-3.6817 E3.0685
G1 X2.9758 Y-4.1593 E3.0685
G1 X2.3384 Y-4.5483 E3.0685
G1 X1.6513 Y-4.8403 E3.0685
G1 X0.9289 Y-5.0291 E3.0685
T1
G1 X0.1868 Y-5.1108 E3.0685
T0
G1 X-0.5593 Y-5.0835 E3.0685
T1
G1 X-1.2936 Y-4.9479 E3.0685
T0
G1 X-2.0002 Y-4.7069 E3.0685
G1 X-2.6642 Y-4.3655 E3.0685
G1 X-3.2714 Y-3.931 E3.0685
G1 X-3.8089 Y-3.4128 E3.0685
G1 X-4.2652 Y-2.8219 E3.0685
G1 X-4.6307 Y-2.1708 E3.0685
G1 X-4.8974 Y-1.4734 E3.0685
G1 X-5.0597 Y-0.7446 E3.0685
G1 X-5.1142 Y0.0 E3.0685
G1 X-5.0597 Y0.7446 E3.0685
G1 X-4.8974 Y1.4734 E3.0685
G1 X-4.6307 Y2.1708 E3.0685
G1 X-4.2652 Y2.8219 E3.0685
G1 X-3.8089 Y3.4128 E3.0685
G1 X-3.2714 Y3.931 E3.0685
G1 X-2.6642 Y4.3655 E3.0685
G1 X-2.0002 Y4.7069 E3.0685
G1 X-1.2936 Y4.9479 E3.0685
G1 X-0.5593 Y5.0835 E3.0685
G1 X0.1868 Y5.1108 E3.0685
G1 X0.9289 Y5.0291 E3.0685
G1 X1.6513 Y4.8403 E3.0685
G1 X2.3384 Y4.5483 E3.0685
G1 X2.9758 Y4.1593 E3.0685
G1 X3.5496 Y3.6817 E3.0685
G1 X4.0479 Y3.1257 E3.0685
G1 X4.4599 Y2.503 E3.0685
G1 X4.7768 Y1.827 E3.0685
G1 X4.9919 Y1.112 E3.0685
G1 X5.1006 Y0.3733 E3.0685
; new layer
G1 Z1.0
G1 X5.1006 Y-0.3733 E3.0685
G1 X4.9919 Y-1.112 E3.0685
G1 X4.7768 Y-1.827 E3.0685
G1 X4.4599 Y-2.503 E3.0685
G1 X4.0479 Y-3.1257 E3.0685
G1 X3.5496 Y-3.6817 E3.0685
G1 X2.9758 Y-4.1593 E3.0685
G1 X2.3384 Y-4.5483 E3.0685
G1 X1.6513 Y-4.8403 E3.0685
G1 X0.9289 Y-5.0291 E3.0685
T1
G1 X0.1868 Y-5.1108 E3.0685
T0
G1 X-0.5593 Y-5.0835 E3.0685
T1
G1 X-1.2936 Y-4.9479 E3.0685
T0
G1 X-2.0002 Y-4.7069 E3.0685
G1 X-2.6642 Y-4.3655 E3.0685
G1 X-3.2714 Y-3.931 E3.0685
G1 X-3.8089 Y-3.4128 E3.0685
G1 X-4.2652 Y-2.8219 E3.0685
G1 X-4.6307 Y-2.1708 E3.0685
G1 X-4.8974 Y-1.4734 E3.0685
G1 X-5.0597 Y-0.7446 E3.0685
G1 X-5.1142 Y0.0 E3.0685
G1 X-5.0597 Y0.7446 E3.0685
G1 X-4.8974 Y1.4734 E3.0685
G1 X-4.6307 Y2.1708 E3.0685
G1 X-4.2652 Y2.8219 E3.0685
G1 X-3.8089 Y3.4128 E3.0685
G1 X-3.2714 Y3.931 E3.0685
G1 X-2.6642 Y4.3655 E3.0685
G1 X-2.0002 Y4.7069 E3.0685
G1 X-1.2936 Y4.9479 E3.0685
G1 X-0.5593 Y5.0835 E3.0685
G1 X0.1868 Y5.1108 E3.0685
G1 X0.9289 Y5.0291 E3.0685
G1 X1.6513 Y4.8403 E3.0685
G1 X2.3384 Y4.5483 E3.0685
G1 X2.9758 Y4.1593 E3.0685
G1 X3.5496 Y3.6817 E3.0685
G1 X4.0479 Y3.1257 E3.0685
G1 X4.4599 Y2.503 E3.0685
G1 X4.7768 Y1.827 E3.0685
G1 X4.9919 Y1.112 E3.0685
G1 X5.1006 Y0.3733 E3.0685
; new layer
G1 Z1.0
G1 X5.1006 Y-0.3733 E3.0685
G1 X4.9919 Y-1.112 E3.0685
G1 X4.7768 Y-1.827 E3.0685
G1 X4.4599 Y-2.503 E3.0685
G1 X4.0479 Y-3.1257 E3.0685
G1 X3.5496 Y-3.6817 E3.0685
G1 X2.9758 Y-4.1593 E3.0685
G1 X2.3384 Y-4.5483 E3.0685
G1 X1.6513 Y-4.8403 E3.0685
G1 X0.9289 Y-5.0291 E3.0685
T1
G1 X0.1868 Y-5.1108 E3.0685
T0
G1 X-0.5593 Y-5.0835 E3.0685
T1
G1 X-1.2936 Y-4.9479 E3.0685
T0
G1 X-2.0002 Y-4.7069 E3.0685
G1 X-2.6642 Y-4.3655 E3.0685
G1 X-3.2714 Y-3.931 E3.0685
G1 X-3.8089 Y-3.4128 E3.0685
G1 X-4.2652 Y-2.8219 E3.0685
G1 X-4.6307 Y-2.1708 E3.0685
G1 X-4.8974 Y-1.4734 E3.0685
G1 X-5.0597 Y-0.7446 E3.0685
G1 X-5.1142 Y0.0 E3.0685
G1 X-5.0597 Y0.7446 E3.0685
G1 X-4.8974 Y1.4734 E3.0685
G1 X-4.6307 Y2.1708 E3.0685
G1 X-4.2652 Y2.8219 E3.0685
G1 X-3.8089 Y3.4128 E3.0685
G1 X-3.2714 Y3.931 E3.0685
G1 X-2.6642 Y4.3655 E3.0685
G1 X-2.0002 Y4.7069 E3.0685
G1 X-1.2936 Y4.9479 E3.0685
G1 X-0.5593 Y5.0835 E3.0685
G1 X0.1868 Y5.1108 E3.0685
G1 X0.9289 Y5.0291 E3.0685
G1 X1.6513 Y4.8403 E3.0685
G1 X2.3384 Y4.5483 E3.0685
G1 X2.9758 Y4.1593 E3.0685
G1 X3.5496 Y3.6817 E3.0685
G1 X4.0479 Y3.1257 E3.0685
G1 X4.4599 Y2.503 E3.0685
G1 X4.7768 Y1.827 E3.0685
G1 X4.9919 Y1.112 E3.0685
G1 X5.1006 Y0.3733 E3.0685
; new layer
G1 Z1.0
G1 X5.1006 Y-0.3733 E3.0685
G1 X4.9919 Y-1.112 E3.0685
G1 X4.7768 Y-1.827 E3.0685
G1 X4.4599 Y-2.503 E3.0685
G1 X4.0479 Y-3.1257 E3.0685
G1 X3.5496 Y-3.6817 E3.0685
G1 X2.9758 Y-4.1593 E3.0685
G1 X2.3384 Y-4.5483 E3.0685
G1 X1.6513 Y-4.8403 E3.0685
G1 X0.9289 Y-5.0291 E3.0685
T1
G1 X0.1868 Y-5.1108 E3.0685
T0
G1 X-0.5593 Y-5.0835 E3.0685
T1
G1 X-1.2936 Y-4.9479 E3.0685
T0
G1 X-2.0002 Y-4.7069 E3.0685
G1 X-2.6642 Y-4.3655 E3.0685
G1 X-3.2714 Y-3.931 E3.0685
G1 X-3.8089 Y-3.4128 E3.0685
G1 X-4.2652 Y-2.8219 E3.0685
G1 X-4.6307 Y-2.1708 E3.0685
G1 X-4.8974 Y-1.4734 E3.0685
G1 X-5.0597 Y-0.7446 E3.0685
G1 X-5.1142 Y0.0 E3.0685
G1 X-5.0597 Y0.7446 E3.0685
G1 X-4.8974 Y1.4734 E3.0685
G1 X-4.6307 Y2.1708 E3.0685
G1 X-4.2652 Y2.8219 E3.0685
G1 X-3.8089 Y3.4128 E3.0685
G1 X-3.2714 Y3.931 E3.0685
G1 X-2.6642 Y4.3655 E3.0685
G1 X-2.0002 Y4.7069 E3.0685
G1 X-1.2936 Y4.9479 E3.0685
G1 X-0.5593 Y5.0835 E3.0685
G1 X0.1868 Y5.1108 E3.0685
G1 X0.9289 Y5.0291 E3.0685
G1 X1.6513 Y4.8403 E3.0685
G1 X2.3384 Y4.5483 E3.0685
G1 X2.9758 Y4.1593 E3.0685
G1 X3.5496 Y3.6817 E3.0685
G1 X4.0479 Y3.1257 E3.0685
G1 X4.4599 Y2.503 E3.0685
G1 X4.7768 Y1.827 E3.0685
G1 X4.9919 Y1.112 E3.0685
G1 X5.1006 Y0.3733 E3.0685
; new layer
G1 Z1.0
G1 X5.1006 Y-0.3733 E3.0685
G1 X4.9919 Y-1.112 E3.0685
G1 X4.7768 Y-1.827 E3.0685
G1 X4.4599 Y-2.503 E3.0685
G1 X4.0479 Y-3.1257 E3.0685
G1 X3.5496 Y-3.6817 E3.0685
G1 X2.9758 Y-4.1593 E3.0685
G1 X2.3384 Y-4.5483 E3.0685
G1 X1.6513 Y-4.8403 E3.0685
G1 X0.9289 Y-5.0291 E3.0685
T1
G1 X0.1868 Y-5.1108 E3.0685
T0
G1 X-0.5593 Y-5.0835 E3.0685
T1
G1 X-1.2936 Y-4.9479 E3.0685
T0
G1 X-2.0002 Y-4.7069 E3.0685
G1 X-2.6642 Y-4.3655 E3.0685
G1 X-3.2714 Y-3.931 E3.0685
G1 X-3.8089 Y-3.4128 E3.0685
G1 X-4.2652 Y-2.8219 E3.0685
G1 X-4.6307 Y-2.1708 E3.0685
G1 X-4.8974 Y-1.4734 E3.0685
G1 X-5.0597 Y-0.7446 E3.0685
G1 X-5.1142 Y0.0 E3.0685
G1 X-5.0597 Y0.7446 E3.0685
G1 X-4.8974 Y1.4734 E3.0685
G1 X-4.6307 Y2.1708 E3.0685
G1 X-4.2652 Y2.8219 E3.0685
G1 X-3.8089 Y3.4128 E3.0685
G1 X-3.2714 Y3.931 E3.0685
G1 X-2.6642 Y4.3655 E3.0685
G1 X-2.0002 Y4.7069 E3.0685
G1 X-1.2936 Y4.9479 E3.0685
G1 X-0.5593 Y5.0835 E3.0685
G1 X0.1868 Y5.1108 E3.0685
G1 X0.9289 Y5.0291 E3.0685
G1 X1.6513 Y4.8403 E3.0685
G1 X2.3384 Y4.5483 E3.0685
G1 X2.9758 Y4.1593 E3.0685
G1 X3.5496 Y3.6817 E3.0685
G1 X4.0479 Y3.1257 E3.0685
G1 X4.4599 Y2.503 E3.0685
G1 X4.7768 Y1.827 E3.0685
G1 X4.9919 Y1.112 E3.0685
G1 X5.1006 Y0.3733 E3.0685
; new layer
G1 Z1.0
G1 X5.1006 Y-0.3733 E3.0685
G1 X4.9919 Y-1.112 E3.0685
G1 X4.7768 Y-1.827 E3.0685
G1 X4.4599 Y-2.503 E3.0685
G1 X4.0479 Y-3.1257 E3.0685
G1 X3.5496 Y-3.6817 E3.0685
G1 X2.9758 Y-4.1593 E3.0685
G1 X2.3384 Y-4.5483 E3.0685
G1 X1.6513 Y-4.8403 E3.0685
G1 X0.9289 Y-5.0291 E3.0685
T1
G1 X0.1868 Y-5.1108 E3.0685
T0
G1 X-0.5593 Y-5.0835 E3.0685
T1
G1 X-1.2936 Y-4.9479 E3.0685
T0
G1 X-2.0002 Y-4.7069 E3.0685
G1 X-2.6642 Y-4.3655 E3.0685
G1 X-3.2714 Y-3.931 E3.0685
G1 X-3.8089 Y-3.4128 E3.0685
G1 X-4.2652 Y-2.8219 E3.0685
G1 X-4.6307 Y-2.1708 E3.0685
G1 X-4.8974 Y-1.4734 E3.0685
G1 X-5.0597 Y-0.7446 E3.0685
G1 X-5.1142 Y0.0 E3.0685
G1 X-5.0597 Y0.7446 E3.0685
G1 X-4.8974 Y1.4734 E3.0685
G1 X-4.6307 Y2.1708 E3.0685
G1 X-4.2652 Y2.8219 E3.0685
G1 X-3.8089 Y3.4128 E3.0685
G1 X-3.2714 Y3.931 E3.0685
G1 X-2.6642 Y4.3655 E3.0685
G1 X-2.0002 Y4.7069 E3.0685
G1 X-1.2936 Y4.9479 E3.0685
G1 X-0.5593 Y5.0835 E3.0685
G1 X0.1868 Y5.1108 E3.0685
G1 X0.9289 Y5.0291 E3.0685
G1 X1.6513 Y4.8403 E3.0685
G1 X2.3384 Y4.5483 E3.0685
G1 X2.9758 Y4.1593 E3.0685
G1 X3.5496 Y3.6817 E3.0685
G1 X4.0479 Y3.1257 E3.0685
G1 X4.4599 Y2.503 E3.0685
G1 X4.7768 Y1.827 E3.0685
G1 X4.9919 Y1.112 E3.0685
G1 X5.1006 Y0.3733 E3.0685
; new layer
G1 Z1.0
G1 X5.1006 Y-0.3733 E3.0685
G1 X4.9919 Y-1.112 E3.0685
G1 X4.7768 Y-1.827 E3.0685
G1 X4.4599 Y-2.503 E3.0685
G1 X4.0479 Y-3.1257 E3.0685
G1 X3.5496 Y-3.6817 E3.0685
G1 X2.9758 Y-4.1593 E3.0685
G1 X2.3384 Y-4.5483 E3.0685
G1 X1.6513 Y-4.8403 E3.0685
G1 X0.9289 Y-5.0291 E3.0685
T1
G1 X0.1868 Y-5.1108 E3.0685
T0
G1 X-0.5593 Y-5.0835 E3.0685
T1
G1 X-1.2936 Y-4.9479 E3.0685
T0
G1 X-2.0002 Y-4.7069 E3.0685
G1 X-2.6642 Y-4.3655 E3.0685
G1 X-3.2714 Y-3.931 E3.0685
G1 X-3.8089 Y-3.4128 E3.0685
G1 X-4.2652 Y-2.8219 E3.0685
G1 X-4.6307 Y-2.1708 E3.0685
G1 X-4.8974 Y-1.4734 E3.0685
G1 X-5.0597 Y-0.7446 E3.0685
G1 X-5.1142 Y0.0 E3.0685
G1 X-5.0597 Y0.7446 E3.0685
G1 X-4.8974 Y1.4734 E3.0685
G1 X-4.6307 Y2.1708 E3.0685
G1 X-4.2652 Y2.8219 E3.0685
G1 X-3.8089 Y3.4128 E3.0685
G1 X-3.2714 Y3.931 E3.0685
G1 X-2.6642 Y4.3655 E3.0685
G1 X-2.0002 Y4.7069 E3.0685
G1 X-1.2936 Y4.9479 E3.0685
G1 X-0.5593 Y5.0835 E3.0685
G1 X0.1868 Y5.1108 E3.0685
G1 X0.9289 Y5.0291 E3.0685
G1 X1.6513 Y4.8403 E3.0685
G1 X2.3384 Y4.5483 E3.0685
G1 X2.9758 Y4.1593 E3.0685
G1 X3.5496 Y3.6817 E3.0685
G1 X4.0479 Y3.1257 E3.0685
G1 X4.4599 Y2.503 E3.0685
G1 X4.7768 Y1.827 E3.0685
G1 X4.9919 Y1.112 E3.0685
G1 X5.1006 Y0.3733 E3.0685
; new layer
G1 Z1.0
G1 X5.1006 Y-0.3733 E3.0685
G1 X4.9919 Y-1.112 E3.0685
G1 X4.7768 Y-1.827 E3.0685
G1 X4.4599 Y-2.503 E3.0685
G1 X4.0479 Y-3.1257 E3.0685
G1 X3.5496 Y-3.6817 E3.0685
G1 X2.9758 Y-4.1593 E3.0685
G1 X2.3384 Y-4.5483 E3.0685
G1 X1.6513 Y-4.8403 E3.0685
G1 X0.9289 Y-5.0291 E3.0685
T1
G1 X0.1868 Y-5.1108 E3.0685
T0
G1 X-0.5593 Y-5.0835 E3.0685
T1
G1 X-1.2936 Y-4.9479 E3.0685
T0
G1 X-2.0002 Y-4.7069 E3.0685
G1 X-2.6642 Y-4.3655 E3.0685
G1 X-3.2714 Y-3.931 E3.0685
G1 X-3.8089 Y-3.4128 E3.0685
G1 X-4.2652 Y-2.8219 E3.0685
G1 X-4.6307 Y-2.1708 E3.0685
G1 X-4.8974 Y-1.4734 E3.0685
G1 X-5.0597 Y-0.7446 E3.0685
G1 X-5.1142 Y0.0 E3.0685
G1 X-5.0597 Y0.7446 E3.0685
G1 X-4.8974 Y1.4734 E3.0685
G1 X-4.6307 Y2.1708 E3.0685
G1 X-4.2652 Y2.8219 E3.0685
G1 X-3.8089 Y3.4128 E3.0685
G1 X-3.2714 Y3.931 E3.0685
G1 X-2.6642 Y4.3655 E3.0685
G1 X-2.0002 Y4.7069 E3.0685
G1 X-1.2936 Y4.9479 E3.0685
G1 X-0.5593 Y5.0835 E3.0685
G1 X0.1868 Y5.1108 E3.0685
G1 X0.9289 Y5.0291 E3.0685
G1 X1.6513 Y4.8403 E3.0685
G1 X2.3384 Y4.5483 E3.0685
G1 X2.9758 Y4.1593 E3.0685
G1 X3.5496 Y3.6817 E3.0685
G1 X4.0479 Y3.1257 E3.0685
G1 X4.4599 Y2.503 E3.0685
G1 X4.7768 Y1.827 E3.0685
G1 X4.9919 Y1.112 E3.0685
G1 X5.1006 Y0.3733 E3.0685
; new layer
G1 Z1.0
G1 X5.1006 Y-0.3733 E3.0685
G1 X4.9919 Y-1.112 E3.0685
G1 X4.7768 Y-1.827 E3.0685
G1 X4.4599 Y-2.503 E3.0685
G1 X4.0479 Y-3.1257 E3.0685
G1 X3.5496 Y-3.6817 E3.0685
G1 X2.9758 Y-4.1593 E3.0685
G1 X2.3384 Y-4.5483 E3.0685
G1 X1.6513 Y-4.8403 E3.0685
G1 X0.9289 Y-5.0291 E3.0685
T1
G1 X0.1868 Y-5.1108 E3.0685
T0
G1 X-0.5593 Y-5.0835 E3.0685
T1
G1 X-1.2936 Y-4.9479 E3.0685
T0
G1 X-2.0002 Y-4.7069 E3.0685
G1 X-2.6642 Y-4.3655 E3.0685
G1 X-3.2714 Y-3.931 E3.0685
G1 X-3.8089 Y-3.4128 E3.0685
G1 X-4.2652 Y-2.8219 E3.0685
G1 X-4.6307 Y-2.1708 E3.0685
G1 X-4.8974 Y-1.4734 E3.0685
G1 X-5.0597 Y-0.7446 E3.0685
G1 X-5.1142 Y0.0 E3.0685
G1 X-5.0597 Y0.7446 E3.0685
G1 X-4.8974 Y1.4734 E3.0685
G1 X-4.6307 Y2.1708 E3.0685
G1 X-4.2652 Y2.8219 E3.0685
G1 X-3.8089 Y3.4128 E3.0685
G1 X-3.2714 Y3.931 E3.0685
G1 X-2.6642 Y4.3655 E3.0685
G1 X-2.0002 Y4.7069 E3.0685
G1 X-1.2936 Y4.9479 E3.0685
G1 X-0.5593 Y5.0835 E3.0685
G1 X0.1868 Y5.1108 E3.0685
G1 X0.9289 Y5.0291 E3.0685
G1 X1.6513 Y4.8403 E3.0685
G1 X2.3384 Y4.5483 E3.0685
G1 X2.9758 Y4.1593 E3.0685
G1 X3.5496 Y3.6817 E3.0685
G1 X4.0479 Y3.1257 E3.0685
G1 X4.4599 Y2.503 E3.0685
G1 X4.7768 Y1.827 E3.0685
G1 X4.9919 Y1.112 E3.0685
G1 X5.1006 Y0.3733 E3.0685
; new layer
G1 Z1.0
G1 X5.1006 Y-0.3733 E3.0685
G1 X4.9919 Y-1.112 E3.0685
G1 X4.7768 Y-1.827 E3.0685
G1 X4.4599 Y-2.503 E3.0685
G1 X4.0479 Y-3.1257 E3.0685
G1 X3.5496 Y-3.6817 E3.0685
G1 X2.9758 Y-4.1593 E3.0685
G1 X2.3384 Y-4.5483 E3.0685
G1 X1.6513 Y-4.8403 E3.0685
G1 X0.9289 Y-5.0291 E3.0685
T1
G1 X0.1868 Y-5.1108 E3.0685
T0
G1 X-0.5593 Y-5.0835 E3.0685
T1
G1 X-1.2936 Y-4.9479 E3.0685
T0
G1 X-2.0002 Y-4.7069 E3.0685
G1 X-2.6642 Y-4.3655 E3.0685
G1 X-3.2714 Y-3.931 E3.0685
G1 X-3.8089 Y-3.4128 E3.0685
G1 X-4.2652 Y-2.8219 E3.0685
G1 X-4.6307 Y-2.1708 E3.0685
G1 X-4.8974 Y-1.4734 E3.0685
G1 X-5.0597 Y-0.7446 E3.0685
G1 X-5.1142 Y0.0 E3.0685
G1 X-5.0597 Y0.7446 E3.0685
G1 X-4.8974 Y1.4734 E3.0685
G1 X-4.6307 Y2.1708 E3.0685
G1 X-4.2652 Y2.8219 E3.0685
G1 X-3.8089 Y3.4128 E3.0685
G1 X-3.2714 Y3.931 E3.0685
G1 X-2.6642 Y4.3655 E3.0685
G1 X-2.0002 Y4.7069 E3.0685
G1 X-1.2936 Y4.9479 E3.0685
G1 X-0.5593 Y5.0835 E3.0685
G1 X0.1868 Y5.1108 E3.0685
G1 X0.9289 Y5.0291 E3.0685
G1 X1.6513 Y4.8403 E3.0685
G1 X2.3384 Y4.5483 E3.0685
G1 X2.9758 Y4.1593 E3.0685
G1 X3.5496 Y3.6817 E3.0685
G1 X4.0479 Y3.1257 E3.0685
G1 X4.4599 Y2.503 E3.0685
G1 X4.7768 Y1.827 E3.0685
G1 X4.9919 Y1.112 E3.0685
G1 X5.1006 Y0.3733 E3.0685
; new layer
G1 Z1.0
G1 X5.1006 Y-0.3733 E3.0685
G1 X4.9919 Y-1.112 E3.0685
G1 X4.7768 Y-1.827 E3.0685
G1 X4.4599 Y-2.503 E3.0685
G1 X4.0479 Y-3.1257 E3.0685
G1 X3.5496 Y-3.6817 E3.0685
G1 X2.9758 Y-4.1593 E3.0685
G1 X2.3384 Y-4.5483 E3.0685
G1 X1.6513 Y-4.8403 E3.0685
G1 X0.9289 Y-5.0291 E3.0685
T1
G1 X0.1868 Y-5.1108 E3.0685
T0
G1 X-0.5593 Y-5.0835 E3.0685
T1
G1 X-1.2936 Y-4.9479 E3.0685
T0
G1 X-2.0002 Y-4.7069 E3.0685
G1 X-2.6642 Y-4.3655 E3.0685
G1 X-3.2714 Y-3.931 E3.0685
G1 X-3.8089 Y-3.4128 E3.0685
G1 X-4.2652 Y-2.8219 E3.0685
G1 X-4.6307 Y-2.1708 E3.0685
G1 X-4.8974 Y-1.4734 E3.0685
G1 X-5.0597 Y-0.7446 E3.0685
G1 X-5.1142 Y0.0 E3.0685
G1 X-5.0597 Y0.7446 E3.0685
G1 X-4.8974 Y1.4734 E3.0685
G1 X-4.6307 Y2.1708 E3.0685
G1 X-4.2652 Y2.8219 E3.0685
G1 X-3.8089 Y3.4128 E3.0685
G1 X-3.2714 Y3.931 E3.0685
G1 X-2.6642 Y4.3655 E3.0685
G1 X-2.0002 Y4.7069 E3.0685
G1 X-1.2936 Y4.9479 E3.0685
G1 X-0.5593 Y5.0835 E3.0685
G1 X0.1868 Y5.1108 E3.0685
G1 X0.9289 Y5.0291 E3.0685
G1 X1.6513 Y4.8403 E3.0685
G1 X2.3384 Y4.5483 E3.0685
G1 X2.9758 Y4.1593 E3.0685
G1 X3.5496 Y3.6817 E3.0685
G1 X4.0479 Y3.1257 E3.0685
G1 X4.4599 Y2.503 E3.0685
G1 X4.7768 Y1.827 E3.0685
G1 X4.9919 Y1.112 E3.0685
G1 X5.1006 Y0.3733 E3.0685
; new layer
G1 Z1.0
G1 X5.1006 Y-0.3733 E3.0685
G1 X4.9919 Y-1.112 E3.0685
G1 X4.7768 Y-1.827 E3.0685
G1 X4.4599 Y-2.503 E3.0685
G1 X4.0479 Y-3.1257 E3.0685
G1 X3.5496 Y-3.6817 E3.0685
G1 X2.9758 Y-4.1593 E3.0685
G1 X2.3384 Y-4.5483 E3.0685
G1 X1.6513 Y-4.8403 E3.0685
G1 X0.9289 Y-5.0291 E3.0685
T1
G1 X0.1868 Y-5.1108 E3.0685
T0
G1 X-0.5593 Y-5.0835 E3.0685
T1
G1 X-1.2936 Y-4.9479 E3.0685
T0
G1 X-2.0002 Y-4.7069 E3.0685
G1 X-2.6642 Y-4.3655 E3.0685
G1 X-3.2714 Y-3.931 E3.0685
G1 X-3.8089 Y-3.4128 E3.0685
G1 X-4.2652 Y-2.8219 E3.0685
G1 X-4.6307 Y-2.1708 E3.0685
G1 X-4.8974 Y-1.4734 E3.0685
G1 X-5.0597 Y-0.7446 E3.0685
G1 X-5.1142 Y0.0 E3.0685
G1 X-5.0597 Y0.7446 E3.0685
G1 X-4.8974 Y1.4734 E3.0685
G1 X-4.6307 Y2.1708 E3.0685
G1 X-4.2652 Y2.8219 E3.0685
G1 X-3.8089 Y3.4128 E3.0685
G1 X-3.2714 Y3.931 E3.0685
G1 X-2.6642 Y4.3655 E3.0685
G1 X-2.0002 Y4.7069 E3.0685
G1 X-1.2936 Y4.9479 E3.0685
G1 X-0.5593 Y5.0835 E3.0685
G1 X0.1868 Y5.1108 E3.0685
G1 X0.9289 Y5.0291 E3.0685
G1 X1.6513 Y4.8403 E3.0685
G1 X2.3384 Y4.5483 E3.0685
G1 X2.9758 Y4.1593 E3.0685
G1 X3.5496 Y3.6817 E3.0685
G1 X4.0479 Y3.1257 E3.0685
G1 X4.4599 Y2.503 E3.0685
G1 X4.7768 Y1.827 E3.0685
G1 X4.9919 Y1.112 E3.0685
G1 X5.1006 Y0.3733 E3.0685
; new layer
G1 Z1.0
G1 X5.1006 Y-0.3733 E3.0685
G1 X4.9919 Y-1.112 E3.0685
G1 X4.7768 Y-1.827 E3.0685
G1 X4.4599 Y-2.503 E3.0685
G1 X4.0479 Y-3.1257 E3.0685
G1 X3.5496 Y-3.6817 E3.0685
G1 X2.9758 Y-4.1593 E3.0685
G1 X2.3384 Y-4.5483 E3.0685
G1 X1.6513 Y-4.8403 E3.0685
G1 X0.9289 Y-5.0291 E3.0685
T1
G1 X0.1868 Y-5.1108 E3.0685
T0
G1 X-0.5593 Y-5.0835 E3.0685
T1
G1 X-1.2936 Y-4.9479 E3.0685
T0
G1 X-2.0002 Y-4.7069 E3.0685
G1 X-2.6642 Y-4.3655 E3.0685
G1 X-3.2714 Y-3.931 E3.0685
G1 X-3.8089 Y-3.4128 E3.0685
G1 X-4.2652 Y-2.8219 E3.0685
G1 X-4.6307 Y-2.1708 E3.0685
G1 X-4.8974 Y-1.4734 E3.0685
G1 X-5.0597 Y-0.7446 E3.0685
G1 X-5.1142 Y0.0 E3.0685
G1 X-5.0597 Y0.7446 E3.0685
G1 X-4.8974 Y1.4734 E3.0685
G1 X-4.6307 Y2.1708 E3.0685
G1 X-4.2652 Y2.8219 E3.0685
G1 X-3.8089 Y3.4128 E3.0685
G1 X-3.2714 Y3.931 E3.0685
G1 X-2.6642 Y4.3655 E3.0685
G1 X-2.0002 Y4.7069 E3.0685
G1 X-1.2936 Y4.9479 E3.0685
G1 X-0.5593 Y5.0835 E3.0685
G1 X0.1868 Y5.1108 E3.0685
G1 X0.9289 Y5.0291 E3.0685
G1 X1.6513 Y4.8403 E3.0685
G1 X2.3384 Y4.5483 E3.0685
G1 X2.9758 Y4.1593 E3.0685
G1 X3.5496 Y3.6817 E3.0685
G1 X4.0479 Y3.1257 E3.0685
G1 X4.4599 Y2.503 E3.0685
G1 X4.7768 Y1.827 E3.0685
G1 X4.9919 Y1.112 E3.0685
G1 X5.1006 Y0.3733 E3.0685
; new layer
G1 Z1.0
G1 X5.1006 Y-0.3733 E3.0685
G1 X4.9919 Y-1.112 E3.0685
G1 X4.7768 Y-1.827 E3.0685
G1 X4.4599 Y-2.503 E3.0685
G1 X4.0479 Y-3.1257 E3.0685
G1 X3.5496 Y-3.6817 E3.0685
G1 X2.9758 Y-4.1593 E3.0685
G1 X2.3384 Y-4.5483 E3.0685
G1 X1.6513 Y-4.8403 E3.0685
G1 X0.9289 Y-5.0291 E3.0685
T1
G1 X0.1868 Y-5.1108 E3.0685
T0
G1 X-0.5593 Y-5.0835 E3.0685
T1
G1 X-1.2936 Y-4.9479 E3.0685
T0
G1 X-2.0002 Y-4.7069 E3.0685
G1 X-2.6642 Y-4.3655 E3.0685
G1 X-3.2714 Y-3.931 E3.0685
G1 X-3.8089 Y-3.4128 E3.0685
G1 X-4.2652 Y-2.8219 E3.0685
G1 X-4.6307 Y-2.1708 E3.0685
G1 X-4.8974 Y-1.4734 E3.0685
G1 X-5.0597 Y-0.7446 E3.0685
G1 X-5.1142 Y0.0 E3.0685
G1 X-5.0597 Y0.7446 E3.0685
G1 X-4.8974 Y1.4734 E3.0685
G1 X-4.6307 Y2.1708 E3.0685
G1 X-4.2652 Y2.8219 E3.0685
G1 X-3.8089 Y3.4128 E3.0685
G1 X-3.2714 Y3.931 E3.0685
G1 X-2.6642 Y4.3655 E3.0685
G1 X-2.0002 Y4.7069 E3.0685
G1 X-1.2936 Y4.9479 E3.0685
G1 X-0.5593 Y5.0835 E3.0685
G1 X0.1868 Y5.1108 E3.0685
G1 X0.9289 Y5.0291 E3.0685
G1 X1.6513 Y4.8403 E3.0685
G1 X2.3384 Y4.5483 E3.0685
G1 X2.9758 Y4.1593 E3.0685
G1 X3.5496 Y3.6817 E3.0685
G1 X4.0479 Y3.1257 E3.0685
G1 X4.4599 Y2.503 E3.0685
G1 X4.7768 Y1.827 E3.0685
G1 X4.9919 Y1.112 E3.0685
G1 X5.1006 Y0.3733 E3.0685
; new layer
G1 Z1.0
G1 X5.1006 Y-0.3733 E3.0685
G1 X4.9919 Y-1.112 E3.0685
G1 X4.7768 Y-1.827 E3.0685
G1 X4.4599 Y-2.503 E3.0685
G1 X4.0479 Y-3.1257 E3.0685
G1 X3.5496 Y-3.6817 E3.0685
G1 X2.9758 Y-4.1593 E3.0685
G1 X2.3384 Y-4.5483 E3.0685
G1 X1.6513 Y-4.8403 E3.0685
G1 X0.9289 Y-5.0291 E3.0685
T1
G1 X0.1868 Y-5.1108 E3.0685
T0
G1 X-0.5593 Y-5.0835 E3.0685
T1
G1 X-1.2936 Y-4.9479 E3.0685
T0
G1 X-2.0002 Y-4.7069 E3.0685
G1 X-2.6642 Y-4.3655 E3.0685
G1 X-3.2714 Y-3.931 E3.0685
G1 X-3.8089 Y-3.4128 E3.0685
G1 X-4.2652 Y-2.8219 E3.0685
G1 X-4.6307 Y-2.1708 E3.0685
G1 X-4.8974 Y-1.4734 E3.0685
G1 X-5.0597 Y-0.7446 E3.0685
G1 X-5.1142 Y0.0 E3.0685
G1 X-5.0597 Y0.7446 E3.0685
G1 X-4.8974 Y1.4734 E3.0685
G1 X-4.6307 Y2.1708 E3.0685
G1 X-4.2652 Y2.8219 E3.0685
G1 X-3.8089 Y3.4128 E3.0685
G1 X-3.2714 Y3.931 E3.0685
G1 X-2.6642 Y4.3655 E3.0685
G1 X-2.0002 Y4.7069 E3.0685
G1 X-1.2936 Y4.9479 E3.0685
G1 X-0.5593 Y5.0835 E3.0685
G1 X0.1868 Y5.1108 E3.0685
G1 X0.9289 Y5.0291 E3.0685
G1 X1.6513 Y4.8403 E3.0685
G1 X2.3384 Y4.5483 E3.0685
G1 X2.9758 Y4.1593 E3.0685
G1 X3.5496 Y3.6817 E3.0685
G1 X4.0479 Y3.1257 E3.0685
G1 X4.4599 Y2.503 E3.0685
G1 X4.7768 Y1.827 E3.0685
G1 X4.9919 Y1.112 E3.0685
G1 X5.1006 Y0.3733 E3.0685
; new layer
G1 Z1.0
G1 X5.1006 Y-0.3733 E3.0685
G1 X4.9919 Y-1.112 E3.0685
G1 X4.7768 Y-1.827 E3.0685
G1 X4.4599 Y-2.503 E3.0685
G1 X4.0479 Y-3.1257 E3.0685
G1 X3.5496 Y-3.6817 E3.0685
G1 X2.9758 Y-4.1593 E3.0685
G1 X2.3384 Y-4.5483 E3.0685
G1 X1.6513 Y-4.8403 E3.0685
G1 X0.9289 Y-5.0291 E3.0685
T1
G1 X0.1868 Y-5.1108 E3.0685
T0
G1 X-0.5593 Y-5.0835 E3.0685
T1
G1 X-1.2936 Y-4.9479 E3.0685
T0
G1 X-2.0002 Y-4.7069 E3.0685
G1 X-2.6642 Y-4.3655 E3.0685
G1 X-3.2714 Y-3.931 E3.0685
G1 X-3.8089 Y-3.4128 E3.0685
G1 X-4.2652 Y-2.8219 E3.0685
G1 X-4.6307 Y-2.1708 E3.0685
G1 X-4.8974 Y-1.4734 E3.0685
G1 X-5.0597 Y-0.7446 E3.0685
G1 X-5.1142 Y0.0 E3.0685
G1 X-5.0597 Y0.7446 E3.0685
G1 X-4.8974 Y1.4734 E3.0685
G1 X-4.6307 Y2.1708 E3.0685
G1 X-4.2652 Y2.8219 E3.0685
G1 X-3.8089 Y3.4128 E3.0685
G1 X-3.2714 Y3.931 E3.0685
G1 X-2.6642 Y4.3655 E3.0685
G1 X-2.0002 Y4.7069 E3.0685
G1 X-1.2936 Y4.9479 E3.0685
G1 X-0.5593 Y5.0835 E3.0685
G1 X0.1868 Y5.1108 E3.0685
G1 X0.9289 Y5.0291 E3.0685
G1 X1.6513 Y4.8403 E3.0685
G1 X2.3384 Y4.5483 E3.0685
G1 X2.9758 Y4.1593 E3.0685
G1 X3.5496 Y3.6817 E3.0685
G1 X4.0479 Y3.1257 E3.0685
G1 X4.4599 Y2.503 E3.0685
G1 X4.7768 Y1.827 E3.0685
G1 X4.9919 Y1.112 E3.0685
G1 X5.1006 Y0.3733 E3.0685
; new layer
G1 Z1.0
G1 X5.1006 Y-0.3733 E3.0685
G1 X4.9919 Y-1.112 E3.0685
G1 X4.7768 Y-1.827 E3.0685
G1 X4.4599 Y-2.503 E3.0685
G1 X4.0479 Y-3.1257 E3.0685
G1 X3.5496 Y-3.6817 E3.0685
G1 X2.9758 Y-4.1593 E3.0685
G1 X2.3384 Y-4.5483 E3.0685
G1 X1.6513 Y-4.8403 E3.0685
G1 X0.9289 Y-5.0291 E3.0685
T1
G1 X0.1868 Y-5.1108 E3.0685
T0
G1 X-0.5593 Y-5.0835 E3.0685
T1
G1 X-1.2936 Y-4.9479 E3.0685
T0
G1 X-2.0002 Y-4.7069 E3.0685
G1 X-2.6642 Y-4.3655 E3.0685
G1 X-3.2714 Y-3.931 E3.0685
G1 X-3.8089 Y-3.4128 E3.0685
G1 X-4.2652 Y-2.8219 E3.0685
G1 X-4.6307 Y-2.1708 E3.0685
G1 X-4.8974 Y-1.4734 E3.0685
G1 X-5.0597 Y-0.7446 E3.0685
G1 X-5.1142 Y0.0 E3.0685
G1 X-5.0597 Y0.7446 E3.0685
G1 X-4.8974 Y1.4734 E3.0685
G1 X-4.6307 Y2.1708 E3.0685
G1 X-4.2652 Y2.8219 E3.0685
G1 X-3.8089 Y3.4128 E3.0685
G1 X-3.2714 Y3.931 E3.0685
G1 X-2.6642 Y4.3655 E3.0685
G1 X-2.0002 Y4.7069 E3.0685
G1 X-1.2936 Y4.9479 E3.0685
G1 X-0.5593 Y5.0835 E3.0685
G1 X0.1868 Y5.1108 E3.0685
G1 X0.9289 Y5.0291 E3.0685
G1 X1.6513 Y4.8403 E3.0685
G1 X2.3384 Y4.5483 E3.0685
G1 X2.9758 Y4.1593 E3.0685
G1 X3.5496 Y3.6817 E3.0685
G1 X4.0479 Y3.1257 E3.0685
G1 X4.4599 Y2.503 E3.0685
G1 X4.7768 Y1.827 E3.0685
G1 X4.9919 Y1.112 E3.0685
G1 X5.1006 Y0.3733 E3.0685
; new layer
G1 Z1.0
G1 X5.1006 Y-0.3733 E3.0685
G1 X4.9919 Y-1.112 E3.0685
G1 X4.7768 Y-1.827 E3.0685
G1 X4.4599 Y-2.503 E3.0685
G1 X4.0479 Y-3.1257 E3.0685
G1 X3.5496 Y-3.6817 E3.0685
G1 X2.9758 Y-4.1593 E3.0685
G1 X2.3384 Y-4.5483 E3.0685
G1 X1.6513 Y-4.8403 E3.0685
G1 X0.9289 Y-5.0291 E3.0685
T1
G1 X0.1868 Y-5.1108 E3.0685
T0
G1 X-0.5593 Y-5.0835 E3.0685
T1
G1 X-1.2936 Y-4.9479 E3.0685
T0
G1 X-2.0002 Y-4.7069 E3.0685
G1 X-2.6642 Y-4.3655 E3.0685
G1 X-3.2714 Y-3.931 E3.0685
G1 X-3.8089 Y-3.4128 E3.0685
G1 X-4.2652 Y-2.8219 E3.0685
G1 X-4.6307 Y-2.1708 E3.0685
G1 X-4.8974 Y-1.4734 E3.0685
G1 X-5.0597 Y-0.7446 E3.0685
G1 X-5.1142 Y0.0 E3.0685
G1 X-5.0597 Y0.7446 E3.0685
G1 X-4.8974 Y1.4734 E3.0685
G1 X-4.6307 Y2.1708 E3.0685
G1 X-4.2652 Y2.8219 E3.0685
G1 X-3.8089 Y3.4128 E3.0685
G1 X-3.2714 Y3.931 E3.0685
G1 X-2.6642 Y4.3655 E3.0685
G1 X-2.0002 Y4.7069 E3.0685
G1 X-1.2936 Y4.9479 E3.0685
G1 X-0.5593 Y5.0835 E3.0685
G1 X0.1868 Y5.1108 E3.0685
G1 X0.9289 Y5.0291 E3.0685
G1 X1.6513 Y4.8403 E3.0685
G1 X2.3384 Y4.5483 E3.0685
G1 X2.9758 Y4.1593 E3.0685
G1 X3.5496 Y3.6817 E3.0685
G1 X4.0479 Y3.1257 E3.0685
G1 X4.4599 Y2.503 E3.0685
G1 X4.7768 Y1.827 E3.0685
G1 X4.9919 Y1.112 E3.0685
G1 X5.1006 Y0.3733 E3.0685
; new layer
G1 Z1.0
G1 X5.1006 Y-0.3733 E3.0685
G1 X4.9919 Y-1.112 E3.0685
G1 X4.7768 Y-1.827 E3.0685
G1 X4.4599 Y-2.503 E3.0685
G1 X4.0479 Y-3.1257 E3.0685
G1 X3.5496 Y-3.6817 E3.0685
G1 X2.9758 Y-4.1593 E3.0685
G1 X2.3384 Y-4.5483 E3.0685
G1 X1.6513 Y-4.8403 E3.0685
G1 X0.9289 Y-5.0291 E3.0685
T1
G1 X0.1868 Y-5.1108 E3.0685
T0
G1 X-0.5593 Y-5.0835 E3.0685
T1
G1 X-1.2936 Y-4.9479 E3.0685
T0
G1 X-2.0002 Y-4.7069 E3.0685
G1 X-2.6642 Y-4.3655 E3.0685
G1 X-3.2714 Y-3.931 E3.0685
G1 X-3.8089 Y-3.4128 E3.0685
G1 X-4.2652 Y-2.8219 E3.0685
G1 X-4.6307 Y-2.1708 E3.0685
G1 X-4.8974 Y-1.4734 E3.0685
G1 X-5.0597 Y-0.7446 E3.0685
G1 X-5.1142 Y0.0 E3.0685
G1 X-5.0597 Y0.7446 E3.0685
G1 X-4.8974 Y1.4734 E3.0685
G1 X-4.6307 Y2.1708 E3.0685
G1 X-4.2652 Y2.8219 E3.0685
G1 X-3.8089 Y3.4128 E3.0685
G1 X-3.2714 Y3.931 E3.0685
G1 X-2.6642 Y4.3655 E3.0685
G1 X-2.0002 Y4.7069 E3.0685
G1 X-1.2936 Y4.9479 E3.0685
G1 X-0.5593 Y5.0835 E3.0685
G1 X0.1868 Y5.1108 E3.0685
G1 X0.9289 Y5.0291 E3.0685
G1 X1.6513 Y4.8403 E3.0685
G1 X2.3384 Y4.5483 E3.0685
G1 X2.9758 Y4.1593 E3.0685
G1 X3.5496 Y3.6817 E3.0685
G1 X4.0479 Y3.1257 E3.0685
G1 X4.4599 Y2.503 E3.0685
G1 X4.7768 Y1.827 E3.0685
G1 X4.9919 Y1.112 E3.0685
G1 X5.1006 Y0.3733 E3.0685
; new layer
G1 Z1.0
G1 X5.1006 Y-0.3733 E3.0685
G1 X4.9919 Y-1.112 E3.0685
G1 X4.7768 Y-1.827 E3.0685
G1 X4.4599 Y-2.503 E3.0685
G1 X4.0479 Y-3.1257 E3.0685
G1 X3.5496 Y-3.6817 E3.0685
G1 X2.9758 Y-4.1593 E3.0685
G1 X2.3384 Y-4.5483 E3.0685
G1 X1.6513 Y-4.8403 E3.0685
G1 X0.9289 Y-5.0291 E3.0685
T1
G1 X0.1868 Y-5.1108 E3.0685
T0
G1 X-0.5593 Y-5.0835 E3.0685
T1
G1 X-1.2936 Y-4.9479 E3.0685
T0
G1 X-2.0002 Y-4.7069 E3.0685
G1 X-2.6642 Y-4.3655 E3.0685
G1 X-3.2714 Y-3.931 E3.0685
G1 X-3.8089 Y-3.4128 E3.0685
G1 X-4.2652 Y-2.8219 E3.0685
G1 X-4.6307 Y-2.1708 E3.0685
G1 X-4.8974 Y-1.4734 E3.0685
G1 X-5.0597 Y-0.7446 E3.0685
G1 X-5.1142 Y0.0 E3.0685
G1 X-5.0597 Y0.7446 E3.0685
G1 X-4.8974 Y1.4734 E3.0685
G1 X-4.6307 Y2.1708 E3.0685
G1 X-4.2652 Y2.8219 E3.0685
G1 X-3.8089 Y3.4128 E3.0685
G1 X-3.2714 Y3.931 E3.0685
G1 X-2.6642 Y4.3655 E3.0685
G1 X-2.0002 Y4.7069 E3.0685
G1 X-1.2936 Y4.9479 E3.0685
G1 X-0.5593 Y5.0835 E3.0685
G1 X0.1868 Y5.1108 E3.0685
G1 X0.9289 Y5.0291 E3.0685
G1 X1.6513 Y4.8403 E3.0685
G1 X2.3384 Y4.5483 E3.0685
G1 X2.9758 Y4.1593 E3.0685
G1 X3.5496 Y3.6817 E3.0685
G1 X4.0479 Y3.1257 E3.0685
G1 X4.4599 Y2.503 E3.0685
G1 X4.7768 Y1.827 E3.0685
G1 X4.9919 Y1.112 E3.0685
G1 X5.1006 Y0.3733 E3.0685
; new layer
G1 Z1.0
G1 X5.1006 Y-0.3733 E3.0685
G1 X4.9919 Y-1.112 E3.0685
G1 X4.7768 Y-1.827 E3.0685
G1 X4.4599 Y-2.503 E3.0685
G1 X4.0479 Y-3.1257 E3.0685
G1 X3.5496 Y-3.6817 E3.0685
G1 X2.9758 Y-4.1593 E3.0685
G1 X2.3384 Y-4.5483 E3.0685
G1 X1.6513 Y-4.8403 E3.0685
G1 X0.9289 Y-5.0291 E3.0685
T1
G1 X0.1868 Y-5.1108 E3.0685
T0
G1 X-0.5593 Y-5.0835 E3.0685
T1
G1 X-1.2936 Y-4.9479 E3.0685
T0
G1 X-2.0002 Y-4.7069 E3.0685
G1 X-2.6642 Y-4.3655 E3.0685
G1 X-3.2714 Y-3.931 E3.0685
G1 X-3.8089 Y-3.4128 E3.0685
G1 X-4.2652 Y-2.8219 E3.0685
G1 X-4.6307 Y-2.1708 E3.0685
G1 X-4.8974 Y-1.4734 E3.0685
G1 X-5.0597 Y-0.7446 E3.0685
G1 X-5.1142 Y0.0 E3.0685
G1 X-5.0597 Y0.7446 E3.0685
G1 X-4.8974 Y1.4734 E3.0685
G1 X-4.6307 Y2.1708 E3.0685
G1 X-4.2652 Y2.8219 E3.0685
G1 X-3.8089 Y3.4128 E3.0685
G1 X-3.2714 Y3.931 E3.0685
G1 X-2.6642 Y4.3655 E3.0685
G1 X-2.0002 Y4.7069 E3.0685
G1 X-1.2936 Y4.9479 E3.0685
G1 X-0.5593 Y5.0835 E3.0685
G1 X0.1868 Y5.1108 E3.0685
G1 X0.9289 Y5.0291 E3.0685
G1 X1.6513 Y4.8403 E3.0685
G1 X2.3384 Y4.5483 E3.0685
G1 X2.9758 Y4.1593 E3.0685
G1 X3.5496 Y3.6817 E3.0685
G1 X4.0479 Y3.1257 E3.0685
G1 X4.4599 Y2.503 E3.0685
G1 X4.7768 Y1.827 E3.0685
G1 X4.9919 Y1.112 E3.0685
G1 X5.1006 Y0.3733 E3.0685
; new layer
G1 Z1.0
G1 X5.1006 Y-0.3733 E3.0685
G1 X4.9919 Y-1.112 E3.0685
G1 X4.7768 Y-1.827 E3.0685
G1 X4.4599 Y-2.503 E3.0685
G1 X4.0479 Y-3.1257 E3.0685
G1 X3.5496 Y-3.6817 E3.0685
G1 X2.9758 Y-4.1593 E3.0685
G1 X2.3384 Y-4.5483 E3.0685
G1 X1.6513 Y-4.8403 E3.0685
G1 X0.9289 Y-5.0291 E3.0685
T1
G1 X0.1868 Y-5.1108 E3.0685
T0
G1 X-0.5593 Y-5.0835 E3.0685
T1
G1 X-1.2936 Y-4.9479 E3.0685
T0
G1 X-2.0002 Y-4.7069 E3.0685
G1 X-2.6642 Y-4.3655 E3.0685
G1 X-3.2714 Y-3.931 E3.0685
G1 X-3.8089 Y-3.4128 E3.0685
G1 X-4.2652 Y-2.8219 E3.0685
G1 X-4.6307 Y-2.1708 E3.0685
G1 X-4.8974 Y-1.4734 E3.0685
G1 X-5.0597 Y-0.7446 E3.0685
G1 X-5.1142 Y0.0 E3.0685
G1 X-5.0597 Y0.7446 E3.0685
G1 X-4.8974 Y1.4734 E3.0685
G1 X-4.6307 Y2.1708 E3.0685
G1 X-4.2652 Y2.8219 E3.0685
G1 X-3.8089 Y3.4128 E3.0685
G1 X-3.2714 Y3.931 E3.0685
G1 X-2.6642 Y4.3655 E3.0685
G1 X-2.0002 Y4.7069 E3.0685
G1 X-1.2936 Y4.9479 E3.0685
G1 X-0.5593 Y5.0835 E3.0685
G1 X0.1868 Y5.1108 E3.0685
G1 X0.9289 Y5.0291 E3.0685
G1 X1.6513 Y4.8403 E3.0685
G1 X2.3384 Y4.5483 E3.0685
G1 X2.9758 Y4.1593 E3.0685
G1 X3.5496 Y3.6817 E3.0685
G1 X4.0479 Y3.1257 E3.0685
G1 X4.4599 Y2.503 E3.0685
G1 X4.7768 Y1.827 E3.0685
G1 X4.9919 Y1.112 E3.0685
G1 X5.1006 Y0.3733 E3.0685
; new layer
G1 Z1.0
G1 X5.1006 Y-0.3733 E3.0685
G1 X4.9919 Y-1.112 E3.0685
G1 X4.7768 Y-1.827 E3.0685
G1 X4.4599 Y-2.503 E3.0685
G1 X4.0479 Y-3.1257 E3.0685
G1 X3.5496 Y-3.6817 E3.0685
G1 X2.9758 Y-4.1593 E3.0685
G1 X2.3384 Y-4.5483 E3.0685
G1 X1.6513 Y-4.8403 E3.0685
G1 X0.9289 Y-5.0291 E3.0685
T1
G1 X0.1868 Y-5.1108 E3.0685
T0
G1 X-0.5593 Y-5.0835 E3.0685
T1
G1 X-1.2936 Y-4.9479 E3.0685
T0
G1 X-2.0002 Y-4.7069 E3.0685
G1 X-2.6642 Y-4.3655 E3.0685
G1 X-3.2714 Y-3.931 E3.0685
G1 X-3.8089 Y-3.4128 E3.0685
G1 X-4.2652 Y-2.8219 E3.0685
G1 X-4.6307 Y-2.1708 E3.0685
G1 X-4.8974 Y-1.4734 E3.0685
G1 X-5.0597 Y-0.7446 E3.0685
G1 X-5.1142 Y0.0 E3.0685
G1 X-5.0597 Y0.7446 E3.0685
G1 X-4.8974 Y1.4734 E3.0685
G1 X-4.6307 Y2.1708 E3.0685
G1 X-4.2652 Y2.8219 E3.0685
G1 X-3.8089 Y3.4128 E3.0685
G1 X-3.2714 Y3.931 E3.0685
G1 X-2.6642 Y4.3655 E3.0685
G1 X-2.0002 Y4.7069 E3.0685
G1 X-1.2936 Y4.9479 E3.0685
G1 X-0.5593 Y5.0835 E3.0685
G1 X0.1868 Y5.1108 E3.0685
G1 X0.9289 Y5.0291 E3.0685
G1 X1.6513 Y4.8403 E3.0685
G1 X2.3384 Y4.5483 E3.0685
G1 X2.9758 Y4.1593 E3.0685
G1 X3.5496 Y3.6817 E3.0685
G1 X4.0479 Y3.1257 E3.0685
G1 X4.4599 Y2.503 E3.0685
G1 X4.7768 Y1.827 E3.0685
G1 X4.9919 Y1.112 E3.0685
G1 X5.1006 Y0.3733 E3.0685
; new layer
G1 Z1.0
G1 X5.1006 Y-0.3733 E3.0685
G1 X4.9919 Y-1.112 E3.0685
G1 X4.7768 Y-1.827 E3.0685
G1 X4.4599 Y-2.503 E3.0685
G1 X4.0479 Y-3.1257 E3.0685
G1 X3.5496 Y-3.6817 E3.0685
G1 X2.9758 Y-4.1593 E3.0685
G1 X2.3384 Y-4.5483 E3.0685
G1 X1.6513 Y-4.8403 E3.0685
G1 X0.9289 Y-5.0291 E3.0685
T1
G1 X0.1868 Y-5.1108 E3.0685
T0
G1 X-0.5593 Y-5.0835 E3.0685
T1
G1 X-1.2936 Y-4.9479 E3.0685
T0
G1 X-2.0002 Y-4.7069 E3.0685
G1 X-2.6642 Y-4.3655 E3.0685
G1 X-3.2714 Y-3.931 E3.0685
G1 X-3.8089 Y-3.4128 E3.0685
G1 X-4.2652 Y-2.8219 E3.0685
G1 X-4.6307 Y-2.1708 E3.0685
G1 X-4.8974 Y-1.4734 E3.0685
G1 X-5.0597 Y-0.7446 E3.0685
G1 X-5.1142 Y0.0 E3.0685
G1 X-5.0597 Y0.7446 E3.0685
G1 X-4.8974 Y1.4734 E3.0685
G1 X-4.6307 Y2.1708 E3.0685
G1 X-4.2652 Y2.8219 E3.0685
G1 X-3.8089 Y3.4128 E3.0685
G1 X-3.2714 Y3.931 E3.0685
G1 X-2.6642 Y4.3655 E3.0685
G1 X-2.0002 Y4.7069 E3.0685
G1 X-1.2936 Y4.9479 E3.0685
G1 X-0.5593 Y5.0835 E3.0685
G1 X0.1868 Y5.1108 E3.0685
G1 X0.9289 Y5.0291 E3.0685
G1 X1.6513 Y4.8403 E3.0685
G1 X2.3384 Y4.5483 E3.0685
G1 X2.9758 Y4.1593 E3.0685
G1 X3.5496 Y3.6817 E3.0685
G1 X4.0479 Y3.1257 E3.0685
G1 X4.4599 Y2.503 E3.0685
G1 X4.7768 Y1.827 E3.0685
G1 X4.9919 Y1.112 E3.0685
G1 X5.1006 Y0.3733 E3.0685
; new layer
G1 Z1.0
G1 X5.1006 Y-0.3733 E3.0685
G1 X4.9919 Y-1.112 E3.0685
G1 X4.7768 Y-1.827 E3.0685
G1 X4.4599 Y-2.503 E3.0685
G1 X4.0479 Y-3.1257 E3.0685
G1 X3.5496 Y-3.6817 E3.0685
G1 X2.9758 Y-4.1593 E3.0685
G1 X2.3384 Y-4.5483 E3.0685
G1 X1.6513 Y-4.8403 E3.0685
G1 X0.9289 Y-5.0291 E3.0685
T1
G1 X0.1868 Y-5.1108 E3.0685
T0
G1 X-0.5593 Y-5.0835 E3.0685
T1
G1 X-1.2936 Y-4.9479 E3.0685
T0
G1 X-2.0002 Y-4.7069 E3.0685
G1 X-2.6642 Y-4.3655 E3.0685
G1 X-3.2714 Y-3.931 E3.0685
G1 X-3.8089 Y-3.4128 E3.0685
G1 X-4.2652 Y-2.8219 E3.0685
G1 X-4.6307 Y-2.1708 E3.0685
G1 X-4.8974 Y-1.4734 E3.0685
G1 X-5.0597 Y-0.7446 E3.0685
G1 X-5.1142 Y0.0 E3.0685
G1 X-5.0597 Y0.7446 E3.0685
G1 X-4.8974 Y1.4734 E3.0685
G1 X-4.6307 Y2.1708 E3.0685
G1 X-4.2652 Y2.8219 E3.0685
G1 X-3.8089 Y3.4128 E3.0685
G1 X-3.2714 Y3.931 E3.0685
G1 X-2.6642 Y4.3655 E3.0685
G1 X-2.0002 Y4.7069 E3.0685
G1 X-1.2936 Y4.9479 E3.0685
G1 X-0.5593 Y5.0835 E3.0685
G1 X0.1868 Y5.1108 E3.0685
G1 X0.9289 Y5.0291 E3.0685
G1 X1.6513 Y4.8403 E3.0685
G1 X2.3384 Y4.5483 E3.0685
G1 X2.9758 Y4.1593 E3.0685
G1 X3.5496 Y3.6817 E3.0685
G1 X4.0479 Y3.1257 E3.0685
G1 X4.4599 Y2.503 E3.0685
G1 X4.7768 Y1.827 E3.0685
G1 X4.9919 Y1.112 E3.0685
G1 X5.1006 Y0.3733 E3.0685
; new layer
G1 Z1.0
G1 X5.1006 Y-0.3733 E3.0685
G1 X4.9919 Y-1.112 E3.0685
G1 X4.7768 Y-1.827 E3.0685
G1 X4.4599 Y-2.503 E3.0685
G1 X4.0479 Y-3.1257 E3.0685
G1 X3.5496 Y-3.6817 E3.0685
G1 X2.9758 Y-4.1593 E3.0685
G1 X2.3384 Y-4.5483 E3.0685
G1 X1.6513 Y-4.8403 E3.0685
G1 X0.9289 Y-5.0291 E3.0685
T1
G1 X0.1868 Y-5.1108 E3.0685
T0
G1 X-0.5593 Y-5.0835 E3.0685
T1
G1 X-1.2936 Y-4.9479 E3.0685
T0
G1 X-2.0002 Y-4.7069 E3.0685
G1 X-2.6642 Y-4.3655 E3.0685
G1 X-3.2714 Y-3.931 E3.0685
G1 X-3.8089 Y-3.4128 E3.0685
G1 X-4.2652 Y-2.8219 E3.0685
G1 X-4.6307 Y-2.1708 E3.0685
G1 X-4.8974 Y-1.4734 E3.0685
G1 X-5.0597 Y-0.7446 E3.0685
G1 X-5.1142 Y0.0 E3.0685
G1 X-5.0597 Y0.7446 E3.0685
G1 X-4.8974 Y1.4734 E3.0685
G1 X-4.6307 Y2.1708 E3.0685
G1 X-4.2652 Y2.8219 E3.0685
G1 X-3.8089 Y3.4128 E3.0685
G1 X-3.2714 Y3.931 E3.0685
G1 X-2.6642 Y4.3655 E3.0685
G1 X-2.0002 Y4.7069 E3.0685
G1 X-1.2936 Y4.9479 E3.0685
G1 X-0.5593 Y5.0835 E3.0685
G1 X0.1868 Y5.1108 E3.0685
G1 X0.9289 Y5.0291 E3.0685
G1 X1.6513 Y4.8403 E3.0685
G1 X2.3384 Y4.5483 E3.0685
G1 X2.9758 Y4.1593 E3.0685
G1 X3.5496 Y3.6817 E3.0685
G1 X4.0479 Y3.1257 E3.0685
G1 X4.4599 Y2.503 E3.0685
G1 X4.7768 Y1.827 E3.0685
G1 X4.9919 Y1.112 E3.0685
G1 X5.1006 Y0.3733 E3.0685
; new layer
G1 Z1.0
G1 X5.1006 Y-0.3733 E3.0685
G1 X4.9919 Y-1.112 E3.0685
G1 X4.7768 Y-1.827 E3.0685
G1 X4.4599 Y-2.503 E3.0685
G1 X4.0479 Y-3.1257 E3.0685
G1 X3.5496 Y-3.6817 E3.0685
G1 X2.9758 Y-4.1593 E3.0685
G1 X2.3384 Y-4.5483 E3.0685
G1 X1.6513 Y-4.8403 E3.0685
G1 X0.9289 Y-5.0291 E3.0685
T1
G1 X0.1868 Y-5.1108 E3.0685
T0
G1 X-0.5593 Y-5.0835 E3.0685
T1
G1 X-1.2936 Y-4.9479 E3.0685
T0
G1 X-2.0002 Y-4.7069 E3.0685
G1 X-2.6642 Y-4.3655 E3.0685
G1 X-3.2714 Y-3.931 E3.0685
G1 X-3.8089 Y-3.4128 E3.0685
G1 X-4.2652 Y-2.8219 E3.0685
G1 X-4.6307 Y-2.1708 E3.0685
G1 X-4.8974 Y-1.4734 E3.0685
G1 X-5.0597 Y-0.7446 E3.0685
G1 X-5.1142 Y0.0 E3.0685
G1 X-5.0597 Y0.7446 E3.0685
G1 X-4.8974 Y1.4734 E3.0685
G1 X-4.6307 Y2.1708 E3.0685
G1 X-4.2652 Y2.8219 E3.0685
G1 X-3.8089 Y3.4128 E3.0685
G1 X-3.2714 Y3.931 E3.0685
G1 X-2.6642 Y4.3655 E3.0685
G1 X-2.0002 Y4.7069 E3.0685
G1 X-1.2936 Y4.9479 E3.0685
G1 X-0.5593 Y5.0835 E3.0685
G1 X0.1868 Y5.1108 E3.0685
G1 X0.9289 Y5.0291 E3.0685
G1 X1.6513 Y4.8403 E3.0685
G1 X2.3384 Y4.5483 E3.0685
G1 X2.9758 Y4.1593 E3.0685
G1 X3.5496 Y3.6817 E3.0685
G1 X4.0479 Y3.1257 E3.0685
G1 X4.4599 Y2.503 E3.0685
G1 X4.7768 Y1.827 E3.0685
G1 X4.9919 Y1.112 E3.0685
G1 X5.1006 Y0.3733 E3.0685
; new layer
G1 Z1.0
G1 X5.1006 Y-0.3733 E3.0685
G1 X4.9919 Y-1.112 E3.0685
G1 X4.7768 Y-1.827 E3.0685
G1 X4.4599 Y-2.503 E3.0685
G1 X4.0479 Y-3.1257 E3.0685
G1 X3.5496 Y-3.6817 E3.0685
G1 X2.9758 Y-4.1593 E3.0685
G1 X2.3384 Y-4.5483 E3.0685
G1 X1.6513 Y-4.8403 E3.0685
G1 X0.9289 Y-5.0291 E3.0685
T1
G1 X0.1868 Y-5.1108 E3.0685
T0
G1 X-0.5593 Y-5.0835 E3.0685
T1
G1 X-1.2936 Y-4.9479 E3.0685
T0
G1 X-2.0002 Y-4.7069 E3.0685
G1 X-2.6642 Y-4.3655 E3.0685
G1 X-3.2714 Y-3.931 E3.0685
G1 X-3.8089 Y-3.4128 E3.0685
G1 X-4.2652 Y-2.8219 E3.0685
G1 X-4.6307 Y-2.1708 E3.0685
G1 X-4.8974 Y-1.4734 E3.0685
G1 X-5.0597 Y-0.7446 E3.0685
G1 X-5.1142 Y0.0 E3.0685
G1 X-5.0597 Y0.7446 E3.0685
G1 X-4.8974 Y1.4734 E3.0685
G1 X-4.6307 Y2.1708 E3.0685
G1 X-4.2652 Y2.8219 E3.0685
G1 X-3.8089 Y3.4128 E3.0685
G1 X-3.2714 Y3.931 E3.0685
G1 X-2.6642 Y4.3655 E3.0685
G1 X-2.0002 Y4.7069 E3.0685
G1 X-1.2936 Y4.9479 E3.0685
G1 X-0.5593 Y5.0835 E3.0685
G1 X0.1868 Y5.1108 E3.0685
G1 X0.9289 Y5.0291 E3.0685
G1 X1.6513 Y4.8403 E3.0685
G1 X2.3384 Y4.5483 E3.0685
G1 X2.9758 Y4.1593 E3.0685
G1 X3.5496 Y3.6817 E3.0685
G1 X4.0479 Y3.1257 E3.0685
G1 X4.4599 Y2.503 E3.0685
G1 X4.7768 Y1.827 E3.0685
G1 X4.9919 Y1.112 E3.0685
G1 X5.1006 Y0.3733 E3.0685
; new layer
G1 Z1.0
G1 X5.1006 Y-0.3733 E3.0685
G1 X4.9919 Y-1.112 E3.0685
G1 X4.7768 Y-1.827 E3.0685
G1 X4.4599 Y-2.503 E3.0685
G1 X4.0479 Y-3.1257 E3.0685
G1 X3.5496 Y-3.6817 E3.0685
G1 X2.9758 Y-4.1593 E3.0685
G1 X2.3384 Y-4.5483 E3.0685
G1 X1.6513 Y-4.8403 E3.0685
G1 X0.9289 Y-5.0291 E3.0685
T1
G1 X0.1868 Y-5.1108 E3.0685
T0
G1 X-0.5593 Y-5.0835 E3.0685
T1
G1 X-1.2936 Y-4.9479 E3.0685
T0
G1 X-2.0002 Y-4.7069 E3.0685
G1 X-2.6642 Y-4.3655 E3.0685
G1 X-3.2714 Y-3.931 E3.0685
G1 X-3.8089 Y-3.4128 E3.0685
G1 X-4.2652 Y-2.8219 E3.0685
G1 X-4.6307 Y-2.1708 E3.0685
G1 X-4.8974 Y-1.4734 E3.0685
G1 X-5.0597 Y-0.7446 E3.0685
G1 X-5.1142 Y0.0 E3.0685
G1 X-5.0597 Y0.7446 E3.0685
G1 X-4.8974 Y1.4734 E3.0685
G1 X-4.6307 Y2.1708 E3.0685
G1 X-4.2652 Y2.8219 E3.0685
G1 X-3.8089 Y3.4128 E3.0685
G1 X-3.2714 Y3.931 E3.0685
G1 X-2.6642 Y4.3655 E3.0685
G1 X-2.0002 Y4.7069 E3.0685
G1 X-1.2936 Y4.9479 E3.0685
G1 X-0.5593 Y5.0835 E3.0685
G1 X0.1868 Y5.1108 E3.0685
G1 X0.9289 Y5.0291 E3.0685
G1 X1.6513 Y4.8403 E3.0685
G1 X2.3384 Y4.5483 E3.0685
G1 X2.9758 Y4.1593 E3.0685
G1 X3.5496 Y3.6817 E3.0685
G1 X4.0479 Y3.1257 E3.0685
G1 X4.4599 Y2.503 E3.0685
G1 X4.7768 Y1.827 E3.0685
G1 X4.9919 Y1.112 E3.0685
G1 X5.1006 Y0.3733 E3.0685
; new layer
G1 Z1.0
G1 X5.1006 Y-0.3733 E3.0685
G1 X4.9919 Y-1.112 E3.0685
G1 X4.7768 Y-1.827 E3.0685
G1 X4.4599 Y-2.503 E3.0685
G1 X4.0479 Y-3.1257 E3.0685
G1 X3.5496 Y-3.6817 E3.0685
G1 X2.9758 Y-4.1593 E3.0685
G1 X2.3384 Y-4.5483 E3.0685
G1 X1.6513 Y-4.8403 E3.0685
G1 X0.9289 Y-5.0291 E3.0685
T1
G1 X0.1868 Y-5.1108 E3.0685
T0
G1 X-0.5593 Y-5.0835 E3.0685
T1
G1 X-1.2936 Y-4.9479 E3.0685
T0
G1 X-2.0002 Y-4.7069 E3.0685
G1 X-2.6642 Y-4.3655 E3.0685
G1 X-3.2714 Y-3.931 E3.0685
G1 X-3.8089 Y-3.4128 E3.0685
G1 X-4.2652 Y-2.8219 E3.0685
G1 X-4.6307 Y-2.1708 E3.0685
G1 X-4.8974 Y-1.4734 E3.0685
G1 X-5.0597 Y-0.7446 E3.0685
G1 X-5.1142 Y0.0 E3.0685
G1 X-5.0597 Y0.7446 E3.0685
G1 X-4.8974 Y1.4734 E3.0685
G1 X-4.6307 Y2.1708 E3.0685
G1 X-4.2652 Y2.8219 E3.0685
G1 X-3.8089 Y3.4128 E3.0685
G1 X-3.2714 Y3.931 E3.0685
G1 X-2.6642 Y4.3655 E3.0685
G1 X-2.0002 Y4.7069 E3.0685
G1 X-1.2936 Y4.9479 E3.0685
G1 X-0.5593 Y5.0835 E3.0685
G1 X0.1868 Y5.1108 E3.0685
G1 X0.9289 Y5.0291 E3.0685
G1 X1.6513 Y4.8403 E3.0685
G1 X2.3384 Y4.5483 E3.0685
G1 X2.9758 Y4.1593 E3.0685
G1 X3.5496 Y3.6817 E3.0685
G1 X4.0479 Y3.1257 E3.0685
G1 X4.4599 Y2.503 E3.0685
G1 X4.7768 Y1.827 E3.0685
G1 X4.9919 Y1.112 E3.0685
G1 X5.1006 Y0.3733 E3.0685
; new layer
G1 Z1.0
; *************** End of print ***************
G91                     ; Relative coordinates for X,Y,Z axes
G1 Z25 F2000            ; move up 25 in the z direction
G90                     ; Absolute coordinates 
G1 F5000 X0 Y0          ; Move extruder to 0,0 in XY
M84 X Y                 ; X Y steppers off
M104 S0					; Set Hot-end to 0C (off)
M140 S0					; Set bed to 0C (off)
