; *************************************************
; *************************************************
; ******* File generated by Extruder Turtle *******
; ******* written by Leah Buechley and  ***********
; ******* and Franklin Pezutti-Dyer ***************
; **** Hand and Machine Lab, UNM, 2021-present ****
; *************************************************
; *************************************************
; *************** Eazao initialization **************
G21	           ; Metric units
G90            ; Absolute positioning
M82            ; Absolute extrusion
M302           ; Allow cold extrusion
G28            ; Home
G1 Z15.0 F1500 ; Move down 15mm

G92 E0         ; Zero extruder
G1 F2000 E20   ; Prime Extruder: Extrude 20mm of clay
G92 E0         ; Zero extruder

; Clay mix factor
M163 S0 P0.9   ; Set Mix Factor small auger extruder
M163 S1 P0.1   ; Set Mix Factor large plunger extruder
M164 S0		   ; Finalize mix


G0 F2000 X75.0 Y88.0 Z0 ; Move to starting position
M83 					; Relative extrustion
G91                     ; Relative coordinates for X,Y,Z axes
G1 F1000
; ********** End printer initialization ***********
; *************************************************

; Layer height set to: 1.0
; *************************************************
; travel
G0 X67.0326 Y-26.0208 Z6.2539
; LAYER:1
G1 F1000 
G1 X-0.4484 Y3.2956 E3.3259
G1 X2.5714 Y-1.3823 E2.9194
G1 X-1.6103 Y3.2508 E3.6277
G1 X3.5101 Y-0.9163 E3.6277
G1 X-1.6103 Y3.2508 E3.6277
G1 X3.5101 Y-0.9163 E3.6277
G1 X-1.6103 Y3.2508 E3.6277
G1 X3.4459 Y-0.8829 E3.5573
G1 X-3.7279 Y0.8754 E3.8293
G1 X3.012 Y1.978 E3.6034
G1 X-3.8416 Y0.2708 E3.8511
G1 X2.8632 Y2.5755 E3.8511
G1 X-3.8416 Y0.2708 E3.8511
G1 X2.8632 Y2.5755 E3.8511
G1 X-3.8416 Y0.2708 E3.8511
G1 X2.8498 Y2.5704 E3.8377
G1 X-2.9696 Y-1.6294 E3.3872
G1 X0.4813 Y3.0362 E3.0741
G1 X-2.592 Y-2.9608 E3.9351
G1 X-0.2586 Y3.9266 E3.9351
G1 X-2.592 Y-2.9608 E3.9351
G1 X-0.2586 Y3.9266 E3.9351
G1 X-2.592 Y-2.9608 E3.9351
G1 X-0.2586 Y3.9266 E3.9351
G1 X-2.592 Y-2.9608 E3.9351
G1 X-0.2586 Y3.9266 E3.9351
G1 X-3.2437 Y-3.5514 E4.8098
G1 X1.0798 Y5.3294 E5.4377
G1 X-3.0587 Y1.4849 E3.4
G1 X3.0389 Y1.5249 E3.4
G1 X-3.0587 Y1.4849 E3.4
G1 X3.0389 Y1.5249 E3.4
G1 X-3.0587 Y1.4849 E3.4
G1 X3.0389 Y1.5249 E3.4
G1 X-3.0587 Y1.4849 E3.4
G1 X2.5942 Y1.1522 E2.8385
G1 X-2.0244 Y-2.6774 E3.3566
G1 X-0.9379 Y3.2094 E3.3437
G1 X-1.9902 Y-2.703 E3.3567
G1 X-0.9763 Y3.2115 E3.3567
G1 X-1.9902 Y-2.703 E3.3567
G1 X-0.9763 Y3.2115 E3.3567
G1 X-1.9902 Y-2.703 E3.3567
G1 X-0.9763 Y3.2115 E3.3567
G1 X-1.9902 Y-2.703 E3.3567
G1 X-0.9763 Y3.2115 E3.3567
G1 X-1.9902 Y-2.703 E3.3567
G1 X-0.9763 Y3.2115 E3.3567
G1 X-1.9902 Y-2.703 E3.3567
G1 X-0.9763 Y3.2115 E3.3567
G1 X-1.9902 Y-2.703 E3.3567
G1 X-0.9763 Y3.2115 E3.3567
G1 X-1.9902 Y-2.703 E3.3567
G1 X-0.9763 Y3.2115 E3.3567
G1 X-1.9902 Y-2.703 E3.3567
G1 X-0.9763 Y3.2115 E3.3567
G1 X-1.9974 Y-2.7449 E3.3947
G1 X-0.9882 Y2.9564 E3.1172
G1 X-1.3758 Y-3.1139 E3.4043
G1 X-1.3129 Y2.2476 E2.6029
G1 X2.7592 Y-5.0035 E5.7138
G1 X-4.919 Y2.9072 E5.7138
G1 X2.7592 Y-5.0035 E5.7138
G1 X-4.919 Y2.9072 E5.7138
G1 X2.7592 Y-5.0035 E5.7138
G1 X-4.919 Y2.9072 E5.7138
G1 X1.6405 Y-3.8509 E4.1858
G1 X-3.8002 Y1.7546 E4.1858
G1 X1.9212 Y-2.7549 E3.3586
G1 X-3.1189 Y0.0512 E3.1194
G1 X1.5913 Y-2.8809 E3.2912
G1 X-3.8505 Y1.3959 E4.0957
G1 X-0.6408 Y-3.2961 E3.3578
G1 X-2.2577 Y2.4854 E3.3578
G1 X-0.2698 Y-3.3603 E3.3711
G1 X-1.78 Y1.5053 E2.3312
G1 X6.1512 Y-4.8863 E7.8558
G1 X-7.5372 Y2.2146 E7.8558
G1 X10.6268 Y-7.2081 E12.8407
G1 X-12.0127 Y4.5364 E12.8407
G1 X5.0678 Y-4.3243 E6.662
G1 X-6.4538 Y1.6526 E6.662
G1 X2.383 Y-2.3295 E3.3325
G1 X-2.3347 Y-0.4362 E2.3751
G1 X3.3434 Y-0.3892 E3.366
G1 X-2.3181 Y-2.4405 E3.366
G1 X3.4125 Y2.0964 E4.005
G1 X-0.9252 Y-3.1761 E3.3081
G1 X4.2356 Y-3.8881 E5.7496
G1 X-5.6994 Y1.4036 E5.8696
G1 X3.9216 Y-4.2472 E5.7808
G1 X-5.5251 Y1.7002 E5.7808
G1 X3.5861 Y-4.0361 E5.3991
G1 X-5.1897 Y1.489 E5.3991
G1 X3.0093 Y-3.9421 E4.9595
G1 X-4.7827 Y1.5129 E5.0163
G1 X4.4062 Y-0.839 E4.4854
G1 X-3.4644 Y-1.6488 E3.8368
G1 X2.3798 Y2.3816 E3.3668
G1 X0.4663 Y-3.2785 E3.3115
G1 X3.0636 Y5.1844 E6.0219
G1 X-0.172 Y-6.0195 E6.0219
G1 X3.0636 Y5.1844 E6.0219
G1 X-0.172 Y-6.0195 E6.0219
G1 X2.5691 Y3.4719 E4.3191
G1 X0.3226 Y-4.307 E4.3191
G1 X2.0721 Y2.9426 E3.5989
G1 X0.8408 Y-2.8737 E2.9941
G1 X0.7525 Y3.332 E3.416
G1 X2.0006 Y-3.5835 E4.1041
G1 X3.3862 Y0.633 E3.4449
G1 X-1.5963 Y-3.0527 E3.4449
G1 X3.3862 Y0.633 E3.4449
G1 X-1.193 Y-2.3576 E2.6422
G1 X2.1515 Y5.3825 E5.7966
G1 X0.8375 Y-5.7358 E5.7966
G1 X2.7594 Y10.5254 E10.8811
G1 X0.2296 Y-10.8786 E10.8811
G1 X2.4623 Y8.012 E8.3818
G1 X0.5267 Y-8.3652 E8.3818
G1 X2.1799 Y5.623 E6.0307
G1 X0.809 Y-5.9762 E6.0307
G1 X1.9411 Y3.6021 E4.0918
G1 X1.0479 Y-3.9553 E4.0918
G1 X1.6646 Y2.9095 E3.352
G1 X1.3068 Y-2.7224 E3.0198
G1 X0.9352 Y3.224 E3.3568
G1 X2.0246 Y-2.6776 E3.3568
G1 X0.9352 Y3.224 E3.3568
G1 X2.0246 Y-2.6776 E3.3568
G1 X0.9352 Y3.224 E3.3568
G1 X2.0246 Y-2.6776 E3.3568
G1 X1.1176 Y3.2861 E3.471
G1 X1.7814 Y-2.8484 E3.3596
G1 X0.1711 Y3.3453 E3.3497
G1 X2.6319 Y-2.3097 E3.5017
G1 X0.5528 Y3.3122 E3.358
G1 X2.3231 Y-2.4247 E3.358
G1 X0.5528 Y3.3122 E3.358
G1 X2.3231 Y-2.4247 E3.358
G1 X0.5528 Y3.3122 E3.358
G1 X2.3231 Y-2.4247 E3.358
G1 X0.5528 Y3.3122 E3.358
G1 X2.3231 Y-2.4247 E3.358
G1 X0.5528 Y3.3122 E3.358
G1 X2.3231 Y-2.4247 E3.358
G1 X0.5446 Y3.3388 E3.3829
G1 X1.8859 Y0.0522 Z1.0 E2.1353
; LAYER:2
G1 F1000 
G1 X1.3907 Y-2.0546 E2.481
G1 X-0.0764 Y3.512 E3.5128
G1 X2.2465 Y-1.8131 E2.8869
G1 X-1.6057 Y3.2564 E3.6308
G1 X3.5147 Y-0.9107 E3.6308
G1 X-1.6057 Y3.2564 E3.6308
G1 X3.5147 Y-0.9107 E3.6308
G1 X-1.6057 Y3.2564 E3.6308
G1 X3.1071 Y-0.6984 E3.1847
G1 X-3.823 Y0.4255 E3.8466
G1 X2.9075 Y2.4364 E3.7934
G1 X-3.8439 Y0.2777 E3.854
G1 X2.8608 Y2.5824 E3.854
G1 X-3.8439 Y0.2777 E3.854
G1 X2.8608 Y2.5824 E3.854
G1 X-3.8133 Y0.2883 E3.8242
G1 X2.5558 Y2.2571 E3.4098
G1 X-2.8036 Y-1.9263 E3.4016
G1 X0.4021 Y3.5754 E3.5979
G1 X-2.5989 Y-2.9585 E3.9379
G1 X-0.2655 Y3.9289 E3.9379
G1 X-2.5989 Y-2.9585 E3.9379
G1 X-0.2655 Y3.9289 E3.9379
G1 X-2.5989 Y-2.9585 E3.9379
G1 X-0.2655 Y3.9289 E3.9379
G1 X-2.5989 Y-2.9585 E3.9379
G1 X-0.2455 Y3.9613 E3.9689
G1 X-4.2982 Y-2.1823 E4.8204
G1 X2.1521 Y4.3134 E4.8204
G1 X-3.1131 Y1.3518 E3.394
G1 X3.0365 Y1.6487 E3.4552
G1 X-3.0587 Y1.4922 E3.4033
G1 X3.0389 Y1.5322 E3.4033
G1 X-3.0587 Y1.4922 E3.4033
G1 X3.0389 Y1.5322 E3.4033
G1 X-3.0728 Y1.2985 E3.3359
G1 X1.5091 Y0.4322 E1.5697
G1 X-2.0316 Y-2.676 E3.3598
G1 X-0.9426 Y3.2249 E3.3598
G1 X-2.0044 Y-2.6961 E3.3596
G1 X-0.9758 Y3.211 E3.356
G1 X-1.9974 Y-2.7018 E3.3599
G1 X-0.9835 Y3.2128 E3.3599
G1 X-1.9974 Y-2.7018 E3.3599
G1 X-0.9835 Y3.2128 E3.3599
G1 X-1.9974 Y-2.7018 E3.3599
G1 X-0.9835 Y3.2128 E3.3599
G1 X-1.9974 Y-2.7018 E3.3599
G1 X-0.9835 Y3.2128 E3.3599
G1 X-1.9974 Y-2.7018 E3.3599
G1 X-0.9835 Y3.2128 E3.3599
G1 X-1.9974 Y-2.7018 E3.3599
G1 X-0.9835 Y3.2128 E3.3599
G1 X-1.9974 Y-2.7018 E3.3599
G1 X-0.9835 Y3.2128 E3.3599
G1 X-1.9974 Y-2.7018 E3.3599
G1 X-0.9898 Y3.115 E3.2684
G1 X-1.3831 Y-3.1142 E3.4075
G1 X-1.6386 Y2.9876 E3.4075
G1 X-1.3831 Y-3.1142 E3.4075
G1 X-1.6386 Y2.9876 E3.4075
G1 X0.9931 Y-3.7181 E3.8485
G1 X-3.238 Y1.7853 E3.6975
G1 X2.754 Y-5.0086 E5.7158
G1 X-4.9242 Y2.9021 E5.7158
G1 X1.1785 Y-3.3853 E3.5846
G1 X-3.2168 Y1.1956 E3.4318
G1 X2.3788 Y-2.4005 E3.3795
G1 X-3.3475 Y-0.4645 E3.3795
G1 X2.3788 Y-2.4005 E3.3795
G1 X-3.3475 Y-0.4645 E3.3795
G1 X0.5719 Y-3.2431 E3.2931
G1 X-3.1473 Y2.0728 E3.7685
G1 X-0.6479 Y-3.298 E3.3611
G1 X-2.2648 Y2.4835 E3.3611
G1 X-0.6479 Y-3.298 E3.3611
G1 X-2.2648 Y2.4835 E3.3611
G1 X-0.6479 Y-3.298 E3.3611
G1 X-2.2648 Y2.4835 E3.3611
G1 X-0.1209 Y-3.3924 E3.3946
G1 X-1.9025 Y1.4837 E2.4127
G1 X1.9982 Y-2.7101 E3.3671
G1 X-2.1675 Y-0.0547 E2.1682
G1 X3.3459 Y-0.3961 E3.3692
G1 X-2.3156 Y-2.4474 E3.3692
G1 X3.3459 Y-0.3961 E3.3692
G1 X-2.3156 Y-2.4474 E3.3692
G1 X3.3459 Y-0.3961 E3.3692
G1 X-2.3156 Y-2.4474 E3.3692
G1 X2.9655 Y2.7084 E4.0162
G1 X-0.2985 Y-3.5927 E3.605
G1 X2.1267 Y3.4803 E4.0787
G1 X-0.4285 Y-4.5613 E4.5814
G1 X3.9177 Y-4.2534 E5.7827
G1 X-5.529 Y1.694 E5.7827
G1 X3.5141 Y-3.9993 E5.3239
G1 X-5.1255 Y1.4399 E5.3239
G1 X2.9152 Y-4.0152 E4.9619
G1 X-4.7252 Y1.5935 E4.9866
G1 X2.8458 Y-4.065 E4.9621
G1 X-4.6769 Y1.658 E4.9621
G1 X4.4438 Y-0.6275 E4.4879
G1 X-3.4326 Y-1.8746 E3.9111
G1 X4.4296 Y1.1122 E4.5671
G1 X-2.7093 Y-3.5626 E4.4758
G1 X2.2857 Y2.4645 E3.3613
G1 X0.6199 Y-3.3036 E3.3613
G1 X2.2895 Y2.4774 E3.3733
G1 X0.621 Y-3.1101 E3.1715
G1 X0.7096 Y3.5436 E3.614
G1 X2.2323 Y-2.8421 E3.614
G1 X0.7096 Y3.5436 E3.614
G1 X2.2323 Y-2.8421 E3.614
G1 X1.7065 Y2.8534 E3.3247
G1 X1.0184 Y-3.7174 E3.8544
G1 X3.3906 Y0.6271 E3.4481
G1 X-1.592 Y-3.0586 E3.4481
G1 X3.3906 Y0.6271 E3.4481
G1 X-1.592 Y-3.0586 E3.4481
G1 X3.3906 Y0.6271 E3.4481
G1 X-1.592 Y-3.0586 E3.4481
G1 X3.6757 Y1.0617 E3.8259
G1 X-1.2574 Y-1.9408 E2.3125
G1 X0.9424 Y3.2253 E3.3601
G1 X2.0318 Y-2.6762 E3.3601
G1 X0.9424 Y3.2253 E3.3601
G1 X2.0318 Y-2.6762 E3.3601
G1 X0.9424 Y3.2253 E3.3601
G1 X2.0318 Y-2.6762 E3.3601
G1 X0.9424 Y3.2253 E3.3601
G1 X2.0318 Y-2.6762 E3.3601
G1 X0.9424 Y3.2253 E3.3601
G1 X2.0318 Y-2.6762 E3.3601
G1 X0.9424 Y3.2253 E3.3601
G1 X2.0318 Y-2.6762 E3.3601
G1 X0.9424 Y3.2253 E3.3601
G1 X2.0318 Y-2.6762 E3.3601
G1 X0.9948 Y3.3304 E3.4758
G1 X2.0066 Y-3.1372 E3.724
G1 X1.3286 Y3.1805 E3.4468
G1 X1.3821 Y-2.2363 E2.6289
G1 X0.2578 Y3.3446 E3.3545
G1 X2.5743 Y-2.3355 E3.4758
G1 X0.5598 Y3.3143 E3.3613
G1 X2.3301 Y-2.4225 E3.3613
G1 X0.5598 Y3.3143 E3.3613
G1 X2.3301 Y-2.4225 E3.3613
G1 X0.5598 Y3.3143 E3.3613
G1 X2.3301 Y-2.4225 E3.3613
G1 X0.5598 Y3.3143 E3.3613
G1 X2.3301 Y-2.4225 E3.3613
G1 X0.5598 Y3.3144 E3.3613
G1 X2.3505 Y-2.5295 E3.453
G1 X1.2535 Y-0.1658 Z1.0 E1.612
; LAYER:3
G1 F1000 
G1 X-0.8122 Y3.2654 E3.3649
G1 X3.3053 Y-1.9238 E3.8244
G1 X-0.9316 Y3.4403 E3.5642
G1 X2.9789 Y-1.4132 E3.2971
G1 X-1.6024 Y3.2604 E3.6329
G1 X3.5179 Y-0.9067 E3.6329
G1 X-1.6024 Y3.2604 E3.6329
G1 X3.5179 Y-0.9067 E3.6329
G1 X-2.0968 Y2.9518 E3.6208
G1 X3.1409 Y-0.2117 E3.1481
G1 X-3.8456 Y0.2826 E3.856
G1 X2.8592 Y2.5872 E3.856
G1 X-3.8456 Y0.2826 E3.856
G1 X2.8592 Y2.5872 E3.856
G1 X-3.8456 Y0.2826 E3.856
G1 X2.8592 Y2.5872 E3.856
G1 X-3.8344 Y0.1508 E3.8373
G1 X2.1717 Y1.8846 E2.8755
G1 X-2.9358 Y-1.6547 E3.37
G1 X0.6343 Y3.5235 E3.5801
G1 X-2.8156 Y-1.9504 E3.4251
G1 X0.0885 Y3.1705 E3.1718
G1 X-2.6038 Y-2.9569 E3.9399
G1 X-0.2704 Y3.9306 E3.9399
G1 X-2.6038 Y-2.9569 E3.9399
G1 X-0.2704 Y3.9306 E3.9399
G1 X-2.6038 Y-2.9569 E3.9399
G1 X0.0355 Y4.4247 E4.4248
G1 X-4.3018 Y-2.1787 E4.8221
G1 X2.1485 Y4.317 E4.8221
G1 X-4.5647 Y0.0945 E4.5657
G1 X4.1469 Y2.7729 E4.9886
G1 X-3.0588 Y1.4973 E3.4056
G1 X3.0388 Y1.5373 E3.4056
G1 X-3.0588 Y1.4973 E3.4056
G1 X3.0388 Y1.5373 E3.4056
G1 X-2.5376 Y-2.0352 E3.2529
G1 X-0.0587 Y2.9111 E2.9117
G1 X-2.0366 Y-2.6751 E3.3621
G1 X-0.9476 Y3.2258 E3.3621
G1 X-2.0366 Y-2.6751 E3.3621
G1 X-0.9503 Y3.2108 E3.3485
G1 X-2.0024 Y-2.7006 E3.362
G1 X-0.9886 Y3.2134 E3.362
G1 X-2.0024 Y-2.7009 E3.3622
G1 X-0.9886 Y3.2136 E3.3622
G1 X-2.0024 Y-2.7009 E3.3622
G1 X-0.9886 Y3.2136 E3.3622
G1 X-2.0024 Y-2.7009 E3.3622
G1 X-0.9886 Y3.2136 E3.3622
G1 X-2.0024 Y-2.7009 E3.3622
G1 X-0.9886 Y3.2136 E3.3622
G1 X-2.0024 Y-2.7009 E3.3622
G1 X-0.9886 Y3.2136 E3.3622
G1 X-2.0024 Y-2.7009 E3.3622
G1 X-0.9886 Y3.2136 E3.3622
G1 X-1.6427 Y-2.9839 E3.4061
G1 X-1.3809 Y2.9871 E3.2909
G1 X-1.3882 Y-3.1144 E3.4098
G1 X-1.6437 Y2.9874 E3.4098
G1 X-1.3882 Y-3.1144 E3.4098
G1 X-1.6437 Y2.9874 E3.4098
G1 X-1.3882 Y-3.1144 E3.4098
G1 X-1.2911 Y2.1674 E2.5228
G1 X1.274 Y-3.4911 E3.7163
G1 X-3.017 Y1.1032 E3.2123
G1 X2.3772 Y-2.4054 E3.3818
G1 X-3.3491 Y-0.4694 E3.3818
G1 X2.3772 Y-2.4054 E3.3818
G1 X-3.3491 Y-0.4694 E3.3818
G1 X2.3772 Y-2.4054 E3.3818
G1 X-3.3491 Y-0.4694 E3.3818
G1 X-0.2044 Y-3.3231 E3.3294
G1 X-2.5914 Y2.3721 E3.5131
G1 X-0.6528 Y-3.2994 E3.3634
G1 X-2.2697 Y2.4821 E3.3634
G1 X-0.6528 Y-3.2994 E3.3634
G1 X-2.2697 Y2.4821 E3.3634
G1 X-0.6528 Y-3.2994 E3.3634
G1 X-2.2697 Y2.4821 E3.3634
G1 X-0.5041 Y-3.8312 E3.8642
G1 X-1.579 Y2.2753 E2.7695
G1 X4.6917 Y-3.5095 E5.8591
G1 X-4.6971 Y0.925 E4.7873
G1 X3.3476 Y-0.4009 E3.3715
G1 X-2.3139 Y-2.4522 E3.3715
G1 X3.3476 Y-0.4009 E3.3715
G1 X-2.3139 Y-2.4522 E3.3715
G1 X3.3476 Y-0.4009 E3.3715
G1 X-2.3139 Y-2.4522 E3.3715
G1 X2.3398 Y3.3152 E4.0578
G1 X0.5663 Y-3.9269 E3.9675
G1 X2.1317 Y3.4795 E4.0806
G1 X0.8598 Y-3.989 E4.0806
G1 X3.3249 Y3.8035 E5.0519
G1 X-3.2142 Y-5.5998 E6.4567
G1 X3.915 Y-4.2577 E5.7841
G1 X-5.5442 Y1.6983 E5.7985
G1 X3.0434 Y-4.2218 E5.2044
G1 X-4.8807 Y1.8066 E5.2044
G1 X2.8427 Y-4.0691 E4.9637
G1 X-4.68 Y1.6539 E4.9637
G1 X2.8427 Y-4.0691 E4.9637
G1 X-4.68 Y1.6539 E4.9637
G1 X4.9014 Y0.0406 E4.9015
G1 X-3.7105 Y-2.5571 E4.5063
G1 X4.4324 Y1.1079 E4.5688
G1 X-2.7606 Y-3.6405 E4.5688
G1 X4.4324 Y1.1079 E4.5688
G1 X-2.1978 Y-2.2176 E3.1222
G1 X0.7146 Y3.5448 E3.6161
G1 X2.2373 Y-2.8409 E3.6161
G1 X0.7146 Y3.5448 E3.6161
G1 X2.2373 Y-2.8409 E3.6161
G1 X0.7146 Y3.5448 E3.6161
G1 X2.1925 Y-3.233 E3.9064
G1 X2.6968 Y2.0153 E3.3666
G1 X-0.1162 Y-3.5294 E3.5313
G1 X3.3936 Y0.623 E3.4503
G1 X-1.5889 Y-3.0627 E3.4503
G1 X3.3936 Y0.623 E3.4503
G1 X-1.5889 Y-3.0627 E3.4503
G1 X3.3936 Y0.623 E3.4503
G1 X-1.5889 Y-3.0627 E3.4503
G1 X2.3973 Y3.0252 E3.8599
G1 X0.5489 Y-3.2506 E3.2966
G1 X0.9474 Y3.2262 E3.3624
G1 X2.0368 Y-2.6753 E3.3624
G1 X0.9474 Y3.2262 E3.3624
G1 X2.0368 Y-2.6753 E3.3624
G1 X0.9474 Y3.2262 E3.3624
G1 X2.0368 Y-2.6753 E3.3624
G1 X0.9474 Y3.2262 E3.3624
G1 X2.0368 Y-2.6753 E3.3624
G1 X0.9474 Y3.2262 E3.3624
G1 X2.0368 Y-2.6753 E3.3624
G1 X0.9474 Y3.2262 E3.3624
G1 X2.0368 Y-2.6753 E3.3624
G1 X0.9314 Y3.3129 E3.4413
G1 X2.0758 Y-3.0633 E3.7004
G1 X1.6105 Y3.0843 E3.4795
G1 X1.4227 Y-3.1753 E3.4795
G1 X-0.4487 Y3.4268 E3.4561
G1 X2.9421 Y-1.7293 E3.4127
G1 X0.3722 Y3.337 E3.3577
G1 X2.4905 Y-2.3672 E3.436
G1 X0.5647 Y3.3158 E3.3636
G1 X2.335 Y-2.421 E3.3636
G1 X0.5647 Y3.3158 E3.3636
G1 X2.335 Y-2.421 E3.3636
G1 X0.5647 Y3.3158 E3.3636
G1 X2.335 Y-2.421 E3.3636
G1 X0.5647 Y3.3158 E3.3636
G1 X2.3355 Y-2.4237 E3.3658
G1 X1.2743 Y3.2085 E3.4523
G1 X1.2586 Y-0.1654 Z1.0 E1.616
; LAYER:4
G1 F1000 
G1 X1.3869 Y-2.1015 E2.5179
G1 X-0.7169 Y3.2772 E3.3547
G1 X3.3872 Y-2.5231 E4.2236
G1 X-1.5802 Y3.2676 E3.6297
G1 X3.4999 Y-0.9286 E3.621
G1 X-1.603 Y3.2597 E3.6325
G1 X3.5174 Y-0.9074 E3.6325
G1 X-1.603 Y3.2597 E3.6325
G1 X3.5174 Y-0.9074 E3.6325
G1 X-2.7041 Y2.3798 E3.6022
G1 X3.2692 Y0.5218 E3.3106
G1 X-3.8453 Y0.2817 E3.8556
G1 X2.8595 Y2.5864 E3.8556
G1 X-3.8453 Y0.2817 E3.8556
G1 X2.8595 Y2.5864 E3.8556
G1 X-3.8453 Y0.2817 E3.8556
G1 X2.8478 Y2.5819 E3.8439
G1 X-3.8 Y0.0322 E3.8002
G1 X1.8181 Y1.5826 E2.4104
G1 X-2.9811 Y-1.5788 E3.3734
G1 X0.6945 Y3.4801 E3.5487
G1 X-3.2135 Y-1.2258 E3.4393
G1 X0.7262 Y2.844 E2.9353
G1 X-2.5905 Y-2.9206 E3.904
G1 X-0.2819 Y3.8938 E3.904
G1 X-2.6029 Y-2.9571 E3.9395
G1 X-0.2695 Y3.9303 E3.9395
G1 X-3.2517 Y-2.3342 E4.0027
G1 X0.9319 Y4.2001 E4.3023
G1 X-4.3012 Y-2.1793 E4.8218
G1 X2.1491 Y4.3163 E4.8218
G1 X-4.5232 Y-1.6075 E4.8003
G1 X3.6404 Y4.2777 E5.6171
G1 X-3.0587 Y1.4964 E3.4052
G1 X3.0389 Y1.5364 E3.4052
G1 X-3.0587 Y1.4964 E3.4052
G1 X2.6119 Y1.1786 E2.8655
G1 X-2.0357 Y-2.6753 E3.3617
G1 X-0.9467 Y3.2257 E3.3617
G1 X-2.0357 Y-2.6753 E3.3617
G1 X-0.9467 Y3.2257 E3.3617
G1 X-2.0357 Y-2.6753 E3.3617
G1 X-0.9467 Y3.2257 E3.3617
G1 X-2.0141 Y-2.6916 E3.3617
G1 X-0.9739 Y3.211 E3.3554
G1 X-2.0015 Y-2.7011 E3.3618
G1 X-0.9877 Y3.2135 E3.3618
G1 X-2.0015 Y-2.7011 E3.3618
G1 X-0.9877 Y3.2135 E3.3618
G1 X-2.0015 Y-2.7011 E3.3618
G1 X-0.9877 Y3.2135 E3.3618
G1 X-2.0015 Y-2.7011 E3.3618
G1 X-0.9877 Y3.2135 E3.3618
G1 X-2.0015 Y-2.7011 E3.3618
G1 X-0.9877 Y3.2135 E3.3618
G1 X-2.0015 Y-2.7011 E3.3618
G1 X-1.0011 Y3.0043 E3.1667
G1 X-1.3873 Y-3.1144 E3.4094
G1 X-1.6428 Y2.9875 E3.4094
G1 X-1.3873 Y-3.1144 E3.4094
G1 X-1.6428 Y2.9875 E3.4094
G1 X-1.3873 Y-3.1144 E3.4094
G1 X-1.6428 Y2.9875 E3.4094
G1 X-1.328 Y-4.045 E4.2574
G1 X-1.5258 Y3.2659 E3.6048
G1 X3.0071 Y-2.6478 E4.0066
G1 X-3.9899 Y-0.2155 E3.9957
G1 X2.3775 Y-2.4045 E3.3814
G1 X-3.3488 Y-0.4685 E3.3814
G1 X2.3775 Y-2.4045 E3.3814
G1 X-3.3488 Y-0.4685 E3.3814
G1 X2.3775 Y-2.4045 E3.3814
G1 X-3.6272 Y-0.1749 E3.6314
G1 X-0.6519 Y-3.2992 E3.363
G1 X-2.2688 Y2.4823 E3.363
G1 X-0.6519 Y-3.2992 E3.363
G1 X-2.2688 Y2.4823 E3.363
G1 X-0.6519 Y-3.2992 E3.363
G1 X-2.2688 Y2.4823 E3.363
G1 X-0.4212 Y-4.1242 E4.1456
G1 X-1.9009 Y2.7806 E3.3683
G1 X6.6256 Y-2.501 E7.0819
G1 X-7.4047 Y-0.2969 E7.4107
G1 X2.3808 Y-5.7324 E6.2072
G1 X-3.1832 Y3.4315 E4.6806
G1 X3.3473 Y-0.4001 E3.3711
G1 X-2.3142 Y-2.4514 E3.3711
G1 X3.3473 Y-0.4001 E3.3711
G1 X-2.3142 Y-2.4514 E3.3711
G1 X3.2147 Y2.3978 E4.0104
G1 X-0.6292 Y-3.391 E3.4489
G1 X2.1308 Y3.4796 E4.0802
G1 X0.8589 Y-3.9888 E4.0802
G1 X2.1308 Y3.4796 E4.0802
G1 X0.8589 Y-3.9888 E4.0802
G1 X4.8883 Y3.7371 E6.1532
G1 X-5.0451 Y-5.6519 E7.5761
G1 X3.1046 Y-4.1697 E5.1986
G1 X-4.9217 Y1.7427 E5.2211
G1 X2.8432 Y-4.0684 E4.9634
G1 X-4.6795 Y1.6547 E4.9634
G1 X2.8432 Y-4.0684 E4.9634
G1 X-4.6795 Y1.6547 E4.9634
G1 X2.8432 Y-4.0684 E4.9634
G1 X-4.6795 Y1.6547 E4.9634
G1 X3.7782 Y-3.1371 E4.9108
G1 X-3.4842 Y0.6521 E3.5447
G1 X4.4319 Y1.1087 E4.5685
G1 X-2.7611 Y-3.6397 E4.5685
G1 X4.3603 Y1.3185 E4.5553
G1 X-2.0232 Y-2.165 E2.9632
G1 X0.7137 Y3.5446 E3.6158
G1 X2.2364 Y-2.8412 E3.6158
G1 X0.7137 Y3.5446 E3.6158
G1 X2.2364 Y-2.8412 E3.6158
G1 X1.6478 Y2.89 E3.3268
G1 X1.1327 Y-3.6721 E3.8428
G1 X2.696 Y2.0157 E3.3662
G1 X-0.2792 Y-3.7225 E3.7329
G1 X3.3931 Y0.6237 E3.4499
G1 X-1.5895 Y-3.062 E3.4499
G1 X3.3931 Y0.6237 E3.4499
G1 X-1.5895 Y-3.062 E3.4499
G1 X3.5772 Y0.874 E3.6824
G1 X-1.1877 Y-2.4474 E2.7204
G1 X2.3693 Y3.0495 E3.8618
G1 X0.5835 Y-3.2943 E3.3456
G1 X0.9465 Y3.226 E3.362
G1 X2.0359 Y-2.6755 E3.362
G1 X0.9465 Y3.226 E3.362
G1 X2.0359 Y-2.6755 E3.362
G1 X0.9465 Y3.226 E3.362
G1 X2.0359 Y-2.6755 E3.362
G1 X0.9465 Y3.226 E3.362
G1 X2.0359 Y-2.6755 E3.362
G1 X0.9465 Y3.226 E3.362
G1 X2.0359 Y-2.6755 E3.362
G1 X0.9311 Y3.3096 E3.4381
G1 X2.0717 Y-3.0252 E3.6666
G1 X1.6096 Y3.0843 E3.4791
G1 X1.4218 Y-3.1753 E3.4791
G1 X1.6096 Y3.0843 E3.4791
G1 X1.197 Y-2.4304 E2.7092
G1 X-0.562 Y3.4175 E3.4634
G1 X3.037 Y-1.6647 E3.4634
G1 X0.5354 Y3.3194 E3.3623
G1 X2.3572 Y-2.4141 E3.374
G1 X0.5638 Y3.3156 E3.3632
G1 X2.3342 Y-2.4213 E3.3632
G1 X0.5638 Y3.3156 E3.3632
G1 X2.3342 Y-2.4213 E3.3632
G1 X0.5638 Y3.3156 E3.3632
G1 X2.3342 Y-2.4213 E3.3632
G1 X1.0478 Y3.2854 E3.4485
G1 X1.957 Y-2.9523 E3.542
G1 X1.2577 Y-0.1654 Z1.0 E1.6153
; LAYER:5
G1 F1000 
G1 X-0.8196 Y3.259 E3.3605
G1 X3.103 Y-1.29 E3.3605
G1 X0.522 Y3.3259 E3.3666
G1 X2.1966 Y-2.8739 E3.6172
G1 X-1.6086 Y3.2528 E3.6288
G1 X3.5118 Y-0.9143 E3.6288
G1 X-1.6086 Y3.2528 E3.6288
G1 X3.5118 Y-0.9143 E3.6288
G1 X-1.6086 Y3.2528 E3.6288
G1 X3.2344 Y-0.7698 E3.3247
G1 X-2.7315 Y2.3448 E3.5999
G1 X3.1778 Y0.545 E3.2242
G1 X-3.8424 Y0.2734 E3.8522
G1 X2.8623 Y2.578 E3.8522
G1 X-3.8424 Y0.2734 E3.8522
G1 X2.8623 Y2.578 E3.8522
G1 X-3.8424 Y0.2734 E3.8522
G1 X2.7989 Y2.5537 E3.7888
G1 X-3.7721 Y-0.2149 E3.7782
G1 X1.6245 Y1.5583 E2.2511
G1 X-2.8704 Y-1.7506 E3.3621
G1 X0.5673 Y3.5672 E3.612
G1 X-3.207 Y-1.2318 E3.4355
G1 X1.0005 Y3.2866 E3.4355
G1 X-2.451 Y-2.4043 E3.4334
G1 X-0.3927 Y3.392 E3.4146
G1 X-2.5945 Y-2.96 E3.9361
G1 X-0.235 Y3.9697 E3.9767
G1 X-3.8117 Y-1.699 E4.1732
G1 X1.6723 Y3.8235 E4.1732
G1 X-4.2949 Y-2.1856 E4.819
G1 X2.1554 Y4.3101 E4.819
G1 X-4.2949 Y-2.1856 E4.819
G1 X2.7671 Y4.5671 E5.34
G1 X-3.7407 Y1.4831 E4.024
G1 X3.721 Y1.532 E4.024
G1 X-3.0587 Y1.4875 E3.4012
G1 X2.0937 Y0.7355 E2.2192
G1 X-2.027 Y-2.6769 E3.3578
G1 X-0.938 Y3.2241 E3.3578
G1 X-2.027 Y-2.6769 E3.3578
G1 X-0.938 Y3.2241 E3.3578
G1 X-2.027 Y-2.6769 E3.3578
G1 X-0.938 Y3.2241 E3.3578
G1 X-2.027 Y-2.6769 E3.3578
G1 X-0.9388 Y3.2197 E3.3538
G1 X-1.9928 Y-2.7024 E3.3578
G1 X-0.979 Y3.2119 E3.3578
G1 X-1.9928 Y-2.7026 E3.3579
G1 X-0.9789 Y3.212 E3.3579
G1 X-1.9928 Y-2.7026 E3.3579
G1 X-0.9789 Y3.212 E3.3579
G1 X-1.9928 Y-2.7026 E3.3579
G1 X-0.9789 Y3.212 E3.3579
G1 X-1.9928 Y-2.7026 E3.3579
G1 X-0.9789 Y3.212 E3.3579
G1 X-1.7376 Y-2.869 E3.3542
G1 X-1.2631 Y2.9275 E3.1883
G1 X-1.3785 Y-3.114 E3.4055
G1 X-1.634 Y2.9878 E3.4055
G1 X-1.3785 Y-3.114 E3.4055
G1 X-1.634 Y2.9878 E3.4055
G1 X-1.2938 Y-3.2705 E3.5171
G1 X-1.5364 Y2.4701 E2.9089
G1 X1.1259 Y-5.3565 E5.4735
G1 X-3.7916 Y3.9475 E5.4735
G1 X2.7898 Y-4.6769 E5.4458
G1 X-4.252 Y2.2434 E4.8075
G1 X2.4343 Y-2.4144 E3.4286
G1 X-3.4 Y-0.4419 E3.4286
G1 X2.3803 Y-2.3962 E3.3775
G1 X-3.346 Y-0.4601 E3.3775
G1 X2.2775 Y-2.4731 E3.362
G1 X-4.2662 Y0.6959 E4.3226
G1 X-0.6434 Y-3.2968 E3.359
G1 X-2.2603 Y2.4847 E3.359
G1 X-0.6434 Y-3.2968 E3.359
G1 X-2.2603 Y2.4847 E3.359
G1 X-0.6434 Y-3.2968 E3.359
G1 X-1.5062 Y1.8212 E2.3633
G1 X6.6269 Y-2.4922 E7.08
G1 X-7.063 Y-0.4912 E7.08
G1 X6.3687 Y-3.0683 E7.0693
G1 X-7.9257 Y0.7534 E7.9615
G1 X3.1319 Y-6.7255 E7.419
G1 X-4.0789 Y4.4828 E6.0608
G1 X3.9401 Y-0.1759 E3.944
G1 X-2.913 Y-2.6589 E3.944
G1 X3.0499 Y1.8319 E3.5578
G1 X-0.5294 Y-2.8789 E2.9272
G1 X2.1221 Y3.4811 E4.077
G1 X0.8502 Y-3.9873 E4.077
G1 X2.1359 Y3.5618 E4.1531
G1 X0.8365 Y-4.068 E4.1531
G1 X2.1566 Y3.6838 E4.2686
G1 X0.8157 Y-4.19 E4.2686
G1 X2.719 Y-1.9335 E3.3364
G1 X-3.9396 Y-0.2881 E3.9501
G1 X2.8486 Y-4.0613 E4.9607
G1 X-4.6741 Y1.6617 E4.9607
G1 X2.8486 Y-4.0613 E4.9607
G1 X-4.6741 Y1.6617 E4.9607
G1 X2.8486 Y-4.0613 E4.9607
G1 X-4.6741 Y1.6617 E4.9607
G1 X2.8486 Y-4.0613 E4.9607
G1 X-4.6741 Y1.6617 E4.9607
G1 X2.8486 Y-4.0613 E4.9607
G1 X-3.0026 Y1.6058 E3.405
G1 X4.4271 Y1.1161 E4.5656
G1 X-2.766 Y-3.6324 E4.5656
G1 X2.5647 Y2.3942 E3.5085
G1 X0.0129 Y-2.5933 E2.5934
G1 X0.7051 Y3.5426 E3.6121
G1 X2.2278 Y-2.8432 E3.6121
G1 X0.7694 Y3.273 E3.3623
G1 X2.079 Y-3.314 E3.9122
G1 X2.6881 Y2.0197 E3.3623
G1 X0.0116 Y-3.3622 E3.3623
G1 X2.8944 Y1.8484 E3.4342
G1 X-0.7411 Y-3.8427 E3.9136
G1 X3.3878 Y0.6309 E3.4461
G1 X-1.5947 Y-3.0549 E3.4461
G1 X3.3878 Y0.6309 E3.4461
G1 X-1.4482 Y-2.8385 E3.1866
G1 X2.3607 Y3.0518 E3.8583
G1 X0.5554 Y-3.8181 E3.8583
G1 X2.2784 Y2.7385 E3.5624
G1 X0.6596 Y-2.9167 E2.9903
G1 X0.9378 Y3.2244 E3.358
G1 X2.0272 Y-2.6771 E3.358
G1 X0.9378 Y3.2244 E3.358
G1 X2.0272 Y-2.6771 E3.358
G1 X0.9378 Y3.2244 E3.358
G1 X2.0272 Y-2.6771 E3.358
G1 X0.9378 Y3.2244 E3.358
G1 X2.0272 Y-2.6771 E3.358
G1 X0.9141 Y3.3529 E3.4752
G1 X2.0709 Y-3.0672 E3.7009
G1 X1.6008 Y3.0846 E3.4752
G1 X1.413 Y-3.175 E3.4752
G1 X1.6042 Y3.1967 E3.5766
G1 X1.4096 Y-3.2872 E3.5766
G1 X-0.1142 Y3.5069 E3.5087
G1 X2.6442 Y-1.9943 E3.3119
G1 X-0.5692 Y3.4123 E3.4595
G1 X3.0667 Y-1.7447 E3.5283
G1 X0.5554 Y3.313 E3.3592
G1 X2.3257 Y-2.4239 E3.3592
G1 X0.5554 Y3.313 E3.3592
G1 X2.3257 Y-2.4239 E3.3592
G1 X0.5554 Y3.313 E3.3592
G1 X2.3257 Y-2.4239 E3.3592
G1 X0.8223 Y3.3445 E3.4441
G1 X2.1468 Y-2.9175 E3.6222
G1 X1.2646 Y3.2078 E3.448
G1 X1.2488 Y-0.1661 Z1.0 E1.6085
; LAYER:6
G1 F1000 
G1 X1.3876 Y-2.1009 E2.5178
G1 X-0.8122 Y3.2654 E3.3649
G1 X3.1285 Y-1.3427 E3.4044
G1 X1.878 Y2.8865 E3.4436
G1 X0.8842 Y-2.6305 E2.7751
G1 X-1.6024 Y3.2604 E3.6329
G1 X3.518 Y-0.9067 E3.6329
G1 X-1.6024 Y3.2604 E3.6329
G1 X3.518 Y-0.9067 E3.6329
G1 X-1.8355 Y3.1266 E3.6255
G1 X3.1142 Y-0.4411 E3.1453
G1 X-2.7288 Y2.3542 E3.604
G1 X2.947 Y0.5481 E2.9975
G1 X-3.8456 Y0.2826 E3.856
G1 X2.8591 Y2.5873 E3.856
G1 X-3.8456 Y0.2826 E3.856
G1 X2.8591 Y2.5873 E3.856
G1 X-3.8514 Y0.1811 E3.8557
G1 X2.7274 Y2.636 E3.7931
G1 X-3.0585 Y-2.1004 E3.7102
G1 X0.5031 Y2.87 E2.9138
G1 X-3.1106 Y-1.341 E3.3874
G1 X0.864 Y3.3456 E3.4553
G1 X-3.2142 Y-1.2251 E3.4398
G1 X0.9933 Y3.2932 E3.4398
G1 X-2.9343 Y-1.7676 E3.4255
G1 X0.2553 Y3.0686 E3.0792
G1 X-2.5646 Y-2.8412 E3.8275
G1 X0.0348 Y4.3714 E4.3715
G1 X-4.3018 Y-2.1787 E4.8221
G1 X2.1485 Y4.317 E4.8221
G1 X-4.3018 Y-2.1787 E4.8221
G1 X2.1485 Y4.317 E4.8221
G1 X-4.3018 Y-2.1787 E4.8221
G1 X2.5492 Y4.4854 E5.1591
G1 X-4.587 Y1.4873 E4.8221
G1 X4.5671 Y1.5474 E4.8221
G1 X-3.1601 Y-0.8273 E3.2666
G1 X0.9835 Y2.0549 E2.2781
G1 X-2.0367 Y-2.6751 E3.3622
G1 X-0.9477 Y3.2258 E3.3622
G1 X-2.0367 Y-2.6751 E3.3622
G1 X-0.9477 Y3.2258 E3.3622
G1 X-2.0367 Y-2.6751 E3.3622
G1 X-0.9477 Y3.2258 E3.3622
G1 X-2.0367 Y-2.6751 E3.3622
G1 X-0.9477 Y3.2258 E3.3622
G1 X-2.0232 Y-2.6853 E3.3622
G1 X-0.9659 Y3.2095 E3.3517
G1 X-2.0024 Y-2.7006 E3.362
G1 X-0.9887 Y3.2133 E3.362
G1 X-2.0025 Y-2.7009 E3.3623
G1 X-0.9886 Y3.2136 E3.3623
G1 X-2.0025 Y-2.7009 E3.3623
G1 X-0.9886 Y3.2136 E3.3623
G1 X-2.0025 Y-2.7009 E3.3623
G1 X-1.0066 Y2.9323 E3.1003
G1 X-1.3901 Y-3.0706 E3.3706
G1 X-1.642 Y2.9436 E3.3706
G1 X-1.3883 Y-3.1144 E3.4098
G1 X-1.6438 Y2.9874 E3.4098
G1 X0.0294 Y-3.6831 E3.6832
G1 X-2.736 Y2.3522 E3.6081
G1 X1.1172 Y-5.361 E5.4762
G1 X-3.8003 Y3.943 E5.4762
G1 X1.1172 Y-5.361 E5.4762
G1 X-3.8003 Y3.943 E5.4762
G1 X3.6432 Y-4.054 E5.4505
G1 X-4.9021 Y1.4234 E5.1046
G1 X2.9474 Y-2.5983 E3.9291
G1 X-3.9194 Y-0.2766 E3.9291
G1 X2.3771 Y-2.4054 E3.3819
G1 X-4.054 Y0.2741 E4.0632
G1 X-0.6473 Y-3.3193 E3.3819
G1 X-2.2753 Y2.502 E3.3819
G1 X-0.6528 Y-3.2994 E3.3634
G1 X-2.2697 Y2.4821 E3.3634
G1 X2.1333 Y-2.4934 E3.2815
G1 X-2.9259 Y-0.1982 E2.9326
G1 X6.6254 Y-2.502 E7.0821
G1 X-7.0644 Y-0.5009 E7.0821
G1 X6.6254 Y-2.502 E7.0821
G1 X-8.0017 Y0.0581 E8.0019
G1 X3.1187 Y-6.7241 E7.4122
G1 X-5.552 Y4.9107 E7.4122
G1 X7.298 Y-0.2874 E7.3037
G1 X-6.0268 Y-1.8002 E6.2899
G1 X2.1712 Y3.711 E4.2995
G1 X0.8204 Y-4.2205 E4.2995
G1 X2.1246 Y3.8216 E4.3724
G1 X0.876 Y-4.2752 E4.364
G1 X2.102 Y3.834 E4.3724
G1 X0.8999 Y-4.2788 E4.3724
G1 X3.02 Y2.1108 E3.6845
G1 X-1.4424 Y-4.2784 E4.515
G1 X2.85 Y-1.8201 E3.3816
G1 X-3.7464 Y-0.9609 E3.8677
G1 X2.4836 Y-3.796 E4.5363
G1 X-4.321 Y1.3808 E4.5363
G1 X2.8426 Y-4.0691 E4.9637
G1 X-4.6801 Y1.6539 E4.9637
G1 X2.8426 Y-4.0691 E4.9637
G1 X-4.6801 Y1.6539 E4.9637
G1 X2.8426 Y-4.0691 E4.9637
G1 X-4.4436 Y1.646 E4.7387
G1 X4.4325 Y1.1079 E4.5688
G1 X-2.7606 Y-3.6405 E4.5688
G1 X2.9697 Y1.8982 E3.5245
G1 X-0.4558 Y-2.3018 E2.3465
G1 X0.7146 Y3.5448 E3.6162
G1 X2.2373 Y-2.8409 E3.6162
G1 X1.8319 Y2.7771 E3.3269
G1 X0.9398 Y-3.6517 E3.7707
G1 X2.6969 Y2.0153 E3.3667
G1 X0.0204 Y-3.3666 E3.3667
G1 X2.9997 Y1.6717 E3.4341
G1 X-0.89 Y-3.7477 E3.8519
G1 X3.3937 Y0.623 E3.4504
G1 X-1.5889 Y-3.0627 E3.4504
G1 X3.6535 Y1.2084 E3.8481
G1 X-1.2152 Y-2.713 E2.9727
G1 X2.3702 Y3.0493 E3.8621
G1 X0.5649 Y-3.8206 E3.8621
G1 X2.2827 Y2.7165 E3.5483
G1 X0.6689 Y-3.0428 E3.1154
G1 X0.9474 Y3.2262 E3.3625
G1 X2.0369 Y-2.6753 E3.3625
G1 X0.9474 Y3.2262 E3.3625
G1 X2.0369 Y-2.6753 E3.3625
G1 X0.9474 Y3.2262 E3.3625
G1 X2.0369 Y-2.6753 E3.3625
G1 X0.9237 Y3.3547 E3.4795
G1 X2.0756 Y-3.0003 E3.6483
G1 X1.6106 Y3.0843 E3.4795
G1 X1.4228 Y-3.1753 E3.4795
G1 X1.619 Y3.3651 E3.7343
G1 X1.4098 Y-3.5173 E3.7893
G1 X1.7686 Y2.9908 E3.4746
G1 X1.1586 Y-2.6465 E2.889
G1 X-0.9946 Y3.5015 E3.64
G1 X3.3866 Y-1.6396 E3.7627
G1 X-0.5612 Y3.418 E3.4638
G1 X3.0912 Y-1.7724 E3.5633
G1 X0.5647 Y3.3159 E3.3636
G1 X2.3351 Y-2.421 E3.3636
G1 X0.5647 Y3.3159 E3.3636
G1 X2.3351 Y-2.421 E3.3636
G1 X0.5884 Y3.3977 E3.4483
G1 X2.3789 Y-2.8575 E3.7181
G1 X1.2744 Y3.2085 E3.4523
G1 X1.7514 Y-2.9751 E3.4523
G1 X1.2586 Y-0.1654 Z1.0 E1.616
; LAYER:7
G1 F1000 
G1 X-0.8151 Y3.2629 E3.3632
G1 X3.1075 Y-1.2862 E3.3632
G1 X-0.8151 Y3.2629 E3.3632
G1 X3.3011 Y-1.9218 E3.8198
G1 X1.8742 Y2.8869 E3.4419
G1 X0.7613 Y-2.335 E2.456
G1 X-1.6048 Y3.2574 E3.6313
G1 X3.5155 Y-0.9097 E3.6313
G1 X-1.6048 Y3.2574 E3.6313
G1 X3.5155 Y-0.9097 E3.6313
G1 X-2.5145 Y2.6064 E3.6216
G1 X3.4805 Y0.2335 E3.4883
G1 X-2.7299 Y2.3505 E3.6024
G1 X2.8152 Y0.5409 E2.8667
G1 X-3.8444 Y0.279 E3.8545
G1 X2.8604 Y2.5836 E3.8545
G1 X-3.8444 Y0.279 E3.8545
G1 X2.8604 Y2.5836 E3.8545
G1 X-3.8543 Y0.0211 E3.8544
G1 X2.6757 Y2.7668 E3.8489
G1 X-2.2994 Y-2.9356 E3.7289
G1 X-0.4822 Y3.3593 E3.3937
G1 X-3.0943 Y-1.37 E3.384
G1 X0.8488 Y3.3582 E3.4638
G1 X-3.2114 Y-1.2277 E3.4381
G1 X0.9961 Y3.2906 E3.4381
G1 X-3.2114 Y-1.2277 E3.4381
G1 X0.7953 Y2.9542 E3.0594
G1 X-2.9502 Y-1.7331 E3.4216
G1 X0.6532 Y3.6251 E3.6835
G1 X-4.1832 Y-2.0646 E4.6649
G1 X2.0353 Y4.1975 E4.6649
G1 X-4.2991 Y-2.1814 E4.8209
G1 X2.1512 Y4.3143 E4.8209
G1 X-4.2991 Y-2.1814 E4.8209
G1 X2.1512 Y4.3143 E4.8209
G1 X-4.7044 Y0.977 E4.8048
G1 X4.5423 Y1.9901 E4.9592
G1 X-2.2366 Y-2.9033 E3.6649
G1 X-0.6367 Y3.5392 E3.596
G1 X-2.0329 Y-2.6758 E3.3604
G1 X-0.9439 Y3.2251 E3.3604
G1 X-2.0329 Y-2.6758 E3.3604
G1 X-0.9439 Y3.2251 E3.3604
G1 X-2.0329 Y-2.6758 E3.3604
G1 X-0.9439 Y3.2251 E3.3604
G1 X-2.0329 Y-2.6758 E3.3604
G1 X-0.9439 Y3.2251 E3.3604
G1 X-2.0329 Y-2.6758 E3.3604
G1 X-0.9443 Y3.2226 E3.3581
G1 X-1.9987 Y-2.7014 E3.3604
G1 X-0.9848 Y3.2129 E3.3604
G1 X-1.9986 Y-2.7013 E3.3603
G1 X-0.9849 Y3.2127 E3.3603
G1 X-1.9987 Y-2.7016 E3.3605
G1 X-0.9848 Y3.213 E3.3605
G1 X-1.4896 Y-3.01 E3.3584
G1 X-1.5313 Y2.937 E3.3122
G1 X-1.3863 Y-3.0696 E3.3682
G1 X-1.6173 Y2.8661 E3.2909
G1 X0.0888 Y-3.4069 E3.4081
G1 X-2.765 Y1.9925 E3.4081
G1 X0.9736 Y-5.081 E5.1734
G1 X-3.6498 Y3.6665 E5.1734
G1 X1.1207 Y-5.3592 E5.4751
G1 X-3.7969 Y3.9448 E5.4751
G1 X1.1207 Y-5.3592 E5.4751
G1 X-3.7969 Y3.9448 E5.4751
G1 X2.3707 Y-4.9081 E5.4506
G1 X-3.9304 Y2.543 E4.6813
G1 X4.4999 Y-3.1191 E5.4751
G1 X-5.4694 Y0.2515 E5.4751
G1 X0.3246 Y-3.3679 E3.3835
G1 X-2.9815 Y2.2803 E3.7536
G1 X-0.6436 Y-3.3183 E3.3801
G1 X-2.1313 Y2.3795 E3.1944
G1 X2.7512 Y-1.9317 E3.3617
G1 X-3.189 Y-1.0634 E3.3617
G1 X5.4588 Y-2.3275 E5.9343
G1 X-5.8966 Y-0.6677 E5.9343
G1 X6.626 Y-2.4981 E7.0813
G1 X-7.0684 Y-0.4943 E7.0856
G1 X2.9201 Y-6.4512 E7.0813
G1 X-5.3472 Y4.6424 E7.0813
G1 X3.4638 Y-6.1999 E7.1018
G1 X-2.9865 Y5.1224 E5.9294
G1 X2.0982 Y3.8346 E4.3711
G1 X0.8961 Y-4.2783 E4.3711
G1 X2.0292 Y3.3686 E3.9325
G1 X0.9652 Y-3.8123 E3.9325
G1 X3.4025 Y1.4872 E3.7133
G1 X-1.9955 Y-3.8508 E4.3371
G1 X3.5579 Y-0.3598 E3.576
G1 X-3.0145 Y-2.5422 E3.9433
G1 X2.784 Y-1.9258 E3.3851
G1 X-3.4255 Y-0.9813 E3.5633
G1 X2.7854 Y-4.0207 E4.8913
G1 X-4.6181 Y1.6116 E4.8913
G1 X2.845 Y-4.0661 E4.9625
G1 X-4.6777 Y1.657 E4.9625
G1 X2.845 Y-4.0661 E4.9625
G1 X-4.6777 Y1.657 E4.9625
G1 X4.1051 Y-0.0926 E4.1061
G1 X-2.8832 Y-2.4187 E3.7634
G1 X2.0025 Y2.8861 E3.5128
G1 X0.6843 Y-2.8354 E2.9168
G1 X0.7751 Y3.2744 E3.3649
G1 X2.0856 Y-3.3057 E3.9086
G1 X2.6934 Y2.017 E3.3649
G1 X0.017 Y-3.3649 E3.3649
G1 X2.6982 Y2.0267 E3.3746
G1 X0.0122 Y-3.3745 E3.3746
G1 X3.2963 Y0.9721 E3.4366
G1 X-1.401 Y-3.2922 E3.5779
G1 X3.7554 Y0.8953 E3.8606
G1 X-1.8011 Y-3.1014 E3.5865
G1 X2.3665 Y3.0503 E3.8606
G1 X0.5611 Y-3.8196 E3.8606
G1 X2.3665 Y3.0503 E3.8606
G1 X0.5611 Y-3.8196 E3.8606
G1 X2.2314 Y2.5364 E3.3782
G1 X0.7136 Y-2.8393 E2.9276
G1 X0.9436 Y3.2255 E3.3607
G1 X2.0331 Y-2.676 E3.3607
G1 X0.9436 Y3.2255 E3.3607
G1 X2.0331 Y-2.676 E3.3607
G1 X0.9199 Y3.354 E3.4778
G1 X2.071 Y-2.9902 E3.6373
G1 X1.6117 Y3.248 E3.6259
G1 X1.414 Y-3.3388 E3.6259
G1 X1.7393 Y3.3271 E3.7543
G1 X1.2726 Y-3.6051 E3.8231
G1 X1.8755 Y2.9938 E3.5327
G1 X1.1334 Y-3.1129 E3.3128
G1 X0.4449 Y3.4327 E3.4614
G1 X2.2586 Y-2.1855 E3.1429
G1 X-1.035 Y3.5176 E3.6668
G1 X3.3617 Y-1.5846 E3.7164
G1 X-0.5644 Y3.4158 E3.4621
G1 X3.1225 Y-1.8446 E3.6266
G1 X0.561 Y3.3147 E3.3619
G1 X2.3314 Y-2.4222 E3.3619
G1 X0.5455 Y3.365 E3.4089
G1 X2.3954 Y-2.7273 E3.6299
G1 X1.2705 Y3.2082 E3.4506
G1 X1.7475 Y-2.9754 E3.4506
G1 X1.2705 Y3.2082 E3.4506
G1 X1.2548 Y-0.1657 Z1.0 E1.613
; LAYER:8
G1 F1000 
G1 X1.3809 Y-2.1067 E2.519
G1 X-0.8189 Y3.2597 E3.361
G1 X3.1038 Y-1.2894 E3.361
G1 X-0.756 Y3.2681 E3.3544
G1 X3.4068 Y-2.4998 E4.2256
G1 X1.8692 Y2.8875 E3.4397
G1 X0.6429 Y-2.0534 E2.1517
G1 X-1.608 Y3.2536 E3.6292
G1 X3.5124 Y-0.9135 E3.6292
G1 X-1.608 Y3.2536 E3.6292
G1 X3.3464 Y-0.8271 E3.4471
G1 X-2.7313 Y2.3457 E3.6003
G1 X3.5571 Y0.5561 E3.6003
G1 X-2.7313 Y2.3457 E3.6003
G1 X2.6979 Y0.533 E2.75
G1 X-3.8428 Y0.2743 E3.8525
G1 X2.862 Y2.5789 E3.8525
G1 X-3.8428 Y0.2743 E3.8525
G1 X2.8118 Y2.5597 E3.8024
G1 X-3.797 Y0.025 E3.797
G1 X2.6166 Y2.7516 E3.797
G1 X-1.6551 Y-3.4048 E3.7858
G1 X-1.3312 Y3.5107 E3.7546
G1 X-3.0491 Y-1.4519 E3.3772
G1 X0.7974 Y3.4 E3.4923
G1 X-3.2077 Y-1.2311 E3.4359
G1 X0.9998 Y3.2872 E3.4359
G1 X-3.2077 Y-1.2311 E3.4359
G1 X1.0501 Y3.3273 E3.4891
G1 X-3.3249 Y-0.8546 E3.433
G1 X1.3211 Y3.1002 E3.37
G1 X-3.6799 Y-1.5481 E3.9923
G1 X1.5425 Y3.6774 E3.9878
G1 X-3.7495 Y-1.635 E4.0904
G1 X1.6086 Y3.7608 E4.0904
G1 X-3.8925 Y-1.7789 E4.2797
G1 X1.7516 Y3.9048 E4.2797
G1 X-4.3017 Y-1.1566 E4.4545
G1 X3.0335 Y3.4519 E4.5954
G1 X-2.2072 Y-3.648 E4.2637
G1 X-0.7597 Y4.1955 E4.2637
G1 X-2.028 Y-2.6767 E3.3582
G1 X-0.939 Y3.2242 E3.3582
G1 X-2.028 Y-2.6767 E3.3582
G1 X-0.939 Y3.2242 E3.3582
G1 X-2.028 Y-2.6767 E3.3582
G1 X-0.939 Y3.2242 E3.3582
G1 X-2.028 Y-2.6767 E3.3582
G1 X-0.939 Y3.2242 E3.3582
G1 X-2.028 Y-2.6767 E3.3582
G1 X-0.939 Y3.2242 E3.3582
G1 X-2.028 Y-2.6767 E3.3582
G1 X-0.9416 Y3.2097 E3.3449
G1 X-1.9938 Y-2.7023 E3.3582
G1 X-0.9799 Y3.212 E3.3582
G1 X-1.9937 Y-2.7021 E3.358
G1 X-0.994 Y2.993 E3.1538
G1 X-1.3817 Y-3.0609 E3.3583
G1 X-1.5836 Y2.7529 E3.1759
G1 X0.2295 Y-3.6624 E3.6696
G1 X-2.8968 Y2.2526 E3.6696
G1 X1.1251 Y-5.3569 E5.4738
G1 X-3.7925 Y3.9471 E5.4738
G1 X1.1251 Y-5.3569 E5.4738
G1 X-3.7925 Y3.9471 E5.4738
G1 X1.1251 Y-5.3569 E5.4738
G1 X-3.7925 Y3.9471 E5.4738
G1 X1.1251 Y-5.3569 E5.4738
G1 X-3.7925 Y3.9471 E5.4738
G1 X1.1251 Y-5.3569 E5.4738
G1 X-3.0783 Y3.3391 E4.5415
G1 X4.5015 Y-3.1143 E5.4738
G1 X-6.0875 Y0.9099 E6.1551
G1 X-0.6329 Y-3.3378 E3.3973
G1 X-1.7671 Y2.0803 E2.7295
G1 X2.8835 Y-1.946 E3.4788
G1 X-3.3199 Y-1.0393 E3.4788
G1 X6.6267 Y-2.4932 E7.0802
G1 X-7.0631 Y-0.4921 E7.0802
G1 X6.6267 Y-2.4932 E7.0802
G1 X-7.0631 Y-0.4921 E7.0802
G1 X5.7767 Y-2.3689 E6.2435
G1 X-7.1597 Y-0.0518 E7.1599
G1 X2.4169 Y4.1947 E4.8411
G1 X0.1722 Y-4.7364 E4.7396
G1 X3.6895 Y0.5984 E3.7377
G1 X-2.4911 Y-3.201 E4.0561
G1 X3.7802 Y-0.2768 E3.7903
G1 X-2.7847 Y-2.5713 E3.7903
G1 X3.3763 Y-0.9555 E3.5089
G1 X-3.3613 Y-1.9883 E3.9053
G1 X2.7847 Y-1.9209 E3.3829
G1 X-3.2106 Y-1.066 E3.3829
G1 X1.8526 Y-3.0531 E3.5713
G1 X-3.6011 Y0.6192 E3.6539
G1 X2.848 Y-4.0621 E4.961
G1 X-4.6747 Y1.6609 E4.961
G1 X3.9769 Y-2.0767 E4.4865
G1 X-3.393 Y-0.4051 E3.4171
G1 X0.9885 Y3.1741 E3.3245
G1 X1.8862 Y-2.6261 E3.2333
G1 X2.5671 Y2.1554 E3.3519
G1 X0.143 Y-3.4237 E3.4267
G1 X2.6889 Y2.0192 E3.3627
G1 X0.0125 Y-3.3627 E3.3627
G1 X2.7018 Y2.0452 E3.3886
G1 X-0.1248 Y-3.537 E3.5392
G1 X3.3884 Y0.6301 E3.4465
G1 X-1.5942 Y-3.0556 E3.4465
G1 X3.243 Y2.0307 E3.8263
G1 X-0.6336 Y-3.253 E3.3142
G1 X2.3616 Y3.0515 E3.8587
G1 X0.5563 Y-3.8183 E3.8587
G1 X2.3616 Y3.0515 E3.8587
G1 X0.5563 Y-3.8183 E3.8587
G1 X2.252 Y2.6343 E3.4657
G1 X0.6845 Y-2.9043 E2.9839
G1 X0.9387 Y3.2246 E3.3585
G1 X2.0282 Y-2.6769 E3.3585
G1 X0.9134 Y3.3621 E3.484
G1 X2.0674 Y-2.996 E3.6401
G1 X1.6109 Y3.3895 E3.7529
G1 X1.4008 Y-3.5342 E3.8017
G1 X1.8991 Y3.2369 E3.7529
G1 X1.0974 Y-3.5888 E3.7529
G1 X1.8798 Y3.0727 E3.6021
G1 X1.1178 Y-3.3234 E3.5064
G1 X1.2055 Y3.247 E3.4636
G1 X1.7085 Y-2.5902 E3.1029
G1 X0.2265 Y3.5101 E3.5174
G1 X2.3363 Y-1.9983 E3.0743
G1 X-1.0388 Y3.5144 E3.6647
G1 X3.3236 Y-1.544 E3.6647
G1 X-0.7197 Y3.473 E3.5468
G1 X3.279 Y-1.9454 E3.8127
G1 X0.5534 Y3.3226 E3.3684
G1 X2.3596 Y-2.591 E3.5044
G1 X1.2655 Y3.2078 E3.4485
G1 X1.7426 Y-2.9758 E3.4485
G1 X1.2655 Y3.2078 E3.4485
G1 X1.7426 Y-2.9758 E3.4485
G1 X1.2498 Y-0.166 Z1.0 E1.6092
; LAYER:9
G1 F1000 
G1 X-0.8251 Y3.2543 E3.3573
G1 X3.0975 Y-1.2948 E3.3573
G1 X-0.8251 Y3.2543 E3.3573
G1 X3.0975 Y-1.2948 E3.3573
G1 X0.4356 Y3.3228 E3.3513
G1 X2.3682 Y-3.1088 E3.908
G1 X1.616 Y3.0081 E3.4147
G1 X0.7794 Y-1.9231 E2.075
G1 X-1.6132 Y3.2472 E3.6258
G1 X3.5072 Y-0.9199 E3.6258
G1 X-1.6132 Y3.2472 E3.6258
G1 X3.0553 Y-0.6846 E3.1311
G1 X-2.7335 Y2.3378 E3.5968
G1 X3.5548 Y0.5482 E3.5968
G1 X-2.7951 Y2.2563 E3.5921
G1 X2.6783 Y0.6045 E2.7456
G1 X-3.8401 Y0.2665 E3.8493
G1 X2.8647 Y2.5711 E3.8493
G1 X-3.8404 Y0.2616 E3.8493
G1 X2.764 Y2.5372 E3.7519
G1 X-3.7937 Y0.0174 E3.7938
G1 X2.4846 Y2.5441 E3.5561
G1 X-1.5634 Y-3.0891 E3.4622
G1 X-1.4365 Y3.1501 E3.4622
G1 X-2.919 Y-1.6696 E3.3628
G1 X0.6422 Y3.515 E3.5732
G1 X-3.2017 Y-1.2368 E3.4323
G1 X1.0058 Y3.2816 E3.4323
G1 X-3.2017 Y-1.2368 E3.4323
G1 X1.1832 Y3.4229 E3.6216
G1 X-3.6044 Y-0.3499 E3.6214
G1 X1.8692 Y2.7743 E3.3452
G1 X-3.6443 Y-1.3573 E3.8889
G1 X1.5933 Y3.5475 E3.8889
G1 X-3.7453 Y-1.4519 E4.0169
G1 X1.6943 Y3.6421 E4.0169
G1 X-3.7453 Y-1.4519 E4.0169
G1 X1.6943 Y3.6421 E4.0169
G1 X-3.7453 Y-1.4519 E4.0169
G1 X1.4917 Y3.2844 E3.6073
G1 X-1.97 Y-3.0458 E3.6274
G1 X-0.9882 Y3.5392 E3.6746
G1 X-2.1898 Y-3.5993 E4.2131
G1 X-0.7609 Y4.1438 E4.2131
G1 X-2.3676 Y-4.5625 E5.1402
G1 X-0.5832 Y5.107 E5.1402
G1 X-2.4871 Y-5.2099 E5.7731
G1 X-0.4637 Y5.7544 E5.7731
G1 X-2.3895 Y-4.681 E5.2556
G1 X-0.5613 Y5.2256 E5.2556
G1 X-2.2974 Y-4.182 E4.7714
G1 X-0.6534 Y4.7265 E4.7714
G1 X-2.2128 Y-3.7238 E4.3317
G1 X-0.7379 Y4.2684 E4.3317
G1 X-2.1343 Y-3.3252 E3.9512
G1 X-0.8201 Y3.849 E3.9354
G1 X-1.8715 Y-3.1353 E3.6514
G1 X-1.0836 Y3.1439 E3.3253
G1 X0.3456 Y-3.8645 E3.8799
G1 X-2.9984 Y2.4623 E3.8799
G1 X0.7772 Y-4.6811 E4.7451
G1 X-3.43 Y3.2789 E4.7451
G1 X0.733 Y-4.5976 E4.6556
G1 X-3.3859 Y3.1954 E4.6556
G1 X0.6897 Y-4.5156 E4.568
G1 X-3.3426 Y3.1135 E4.568
G1 X0.6473 Y-4.4353 E4.4822
G1 X-3.3001 Y3.0331 E4.4822
G1 X0.6057 Y-4.3566 E4.3985
G1 X-3.2585 Y2.9545 E4.3985
G1 X0.5651 Y-4.2798 E4.317
G1 X-3.1871 Y2.8514 E4.2765
G1 X2.7473 Y-3.1744 E4.1982
G1 X-4.4076 Y1.1524 E4.5557
G1 X3.1089 Y-1.9707 E3.6809
G1 X-3.5429 Y-0.9984 E3.6809
G1 X2.8998 Y-1.9401 E3.4889
G1 X-3.3338 Y-1.0289 E3.4889
G1 X2.6579 Y-2.1617 E3.426
G1 X-3.4923 Y-0.7096 E3.5637
G1 X2.6694 Y-2.5134 E3.6665
G1 X-3.5625 Y-0.3345 E3.5782
G1 X3.1512 Y-1.1851 E3.3667
G1 X-2.5084 Y-1.7153 E3.0388
G1 X3.4214 Y-0.3935 E3.4439
G1 X-2.4314 Y-2.4391 E3.4439
G1 X3.7774 Y-0.2691 E3.787
G1 X-2.9386 Y-2.5783 E3.9093
G1 X3.2305 Y-1.9761 E3.787
G1 X-3.6541 Y-0.9944 E3.787
G1 X2.7858 Y-1.9127 E3.3792
G1 X-3.2094 Y-1.0578 E3.3792
G1 X2.171 Y-2.5622 E3.3583
G1 X-3.6724 Y0.0422 E3.6727
G1 X2.3372 Y-3.0679 E3.8567
G1 X-2.0504 Y1.0983 E2.3261
G1 X1.1893 Y3.112 E3.3315
G1 X1.587 Y-3.6635 E3.9925
G1 X2.6816 Y2.0229 E3.359
G1 X0.0051 Y-3.359 E3.359
G1 X2.6816 Y2.0229 E3.359
G1 X0.0051 Y-3.359 E3.359
G1 X2.6816 Y2.0229 E3.359
G1 X-0.3689 Y-3.8051 E3.823
G1 X3.3835 Y0.6367 E3.4429
G1 X-1.2079 Y-2.4716 E2.751
G1 X2.3537 Y3.0536 E3.8555
G1 X0.5484 Y-3.8163 E3.8555
G1 X2.3537 Y3.0536 E3.8555
G1 X0.5484 Y-3.8163 E3.8555
G1 X2.3537 Y3.0536 E3.8555
G1 X0.5484 Y-3.8163 E3.8555
G1 X2.3537 Y3.0536 E3.8555
G1 X0.5691 Y-3.2595 E3.3088
G1 X0.9142 Y3.3122 E3.436
G1 X2.0514 Y-2.962 E3.603
G1 X1.7359 Y3.3229 E3.749
G1 X1.2494 Y-3.6029 E3.8134
G1 X1.8909 Y3.2379 E3.7496
G1 X1.0892 Y-3.5879 E3.7496
G1 X1.8909 Y3.2379 E3.7496
G1 X1.0892 Y-3.5879 E3.7496
G1 X1.2289 Y3.3053 E3.5263
G1 X1.7556 Y-3.0286 E3.5007
G1 X0.241 Y3.4516 E3.46
G1 X2.5469 Y-2.342 E3.46
G1 X-0.2459 Y3.5148 E3.5234
G1 X2.679 Y-1.8204 E3.239
G1 X-1.045 Y3.509 E3.6613
G1 X3.3173 Y-1.5494 E3.6613
G1 X-1.0278 Y3.5139 E3.6612
G1 X3.5638 Y-2.0612 E4.117
G1 X1.2555 Y3.231 E3.4664
G1 X1.7362 Y-3.0003 E3.4664
G1 X1.2573 Y3.2072 E3.4449
G1 X1.7344 Y-2.9764 E3.4449
G1 X1.2573 Y3.2072 E3.4449
G1 X1.2491 Y-0.264 Z1.0 E1.6217
; LAYER:10
G1 F1000 
G1 X1.373 Y-2.0098 E2.434
G1 X-0.8193 Y3.2593 E3.3607
G1 X3.1033 Y-1.2898 E3.3607
G1 X-0.8193 Y3.2593 E3.3607
G1 X3.1125 Y-1.3199 E3.3808
G1 X1.8686 Y2.8876 E3.4395
G1 X1.1254 Y-3.2502 E3.4395
G1 X0.6856 Y3.2604 E3.3317
G1 X1.5788 Y-1.8151 E2.4056
G1 X-1.6084 Y3.2531 E3.629
G1 X3.512 Y-0.914 E3.629
G1 X-2.2107 Y2.825 E3.5872
G1 X3.3087 Y-0.0662 E3.3093
G1 X-2.7314 Y2.3451 E3.6
G1 X3.5569 Y0.5556 E3.6
G1 X-3.3798 Y1.8021 E3.8302
G1 X3.0365 Y1.0671 E3.2186
G1 X-3.8426 Y0.2737 E3.8523
G1 X2.8622 Y2.5784 E3.8523
G1 X-3.7953 Y0.0957 E3.7965
G1 X2.6421 Y2.69 E3.7705
G1 X-3.7967 Y0.0244 E3.7968
G1 X2.1042 Y1.9929 E2.8982
G1 X-1.5694 Y-3.0087 E3.3934
G1 X-1.4458 Y3.07 E3.3934
G1 X-3.1625 Y-1.3259 E3.4292
G1 X0.9395 Y3.3418 E3.4714
G1 X-3.2073 Y-1.2315 E3.4356
G1 X1.0002 Y3.2868 E3.4356
G1 X-3.4141 Y-1.2045 E3.6204
G1 X1.6217 Y3.5899 E3.9392
G1 X-3.6083 Y-0.3433 E3.6246
G1 X2.0326 Y2.905 E3.5455
G1 X-3.7505 Y-1.4463 E4.0198
G1 X1.6891 Y3.6477 E4.0198
G1 X-3.7505 Y-1.4463 E4.0198
G1 X1.6891 Y3.6477 E4.0198
G1 X-3.7505 Y-1.4463 E4.0198
G1 X1.6891 Y3.6477 E4.0198
G1 X-3.4249 Y-1.1414 E3.6101
G1 X0.9699 Y2.7254 E2.8929
G1 X-2.4898 Y-2.5755 E3.5822
G1 X-0.3595 Y3.5642 E3.5822
G1 X-2.4898 Y-2.5755 E3.5822
G1 X-0.3595 Y3.5642 E3.5822
G1 X-2.3816 Y-2.7805 E3.6611
G1 X-0.558 Y3.368 E3.414
G1 X-2.0 Y-4.4045 E4.8373
G1 X-0.9979 Y4.7333 E4.8373
G1 X-2.1818 Y-6.0619 E6.4426
G1 X-0.8161 Y6.3907 E6.4426
G1 X-2.256 Y-6.7385 E7.1061
G1 X-0.7419 Y7.0673 E7.1061
G1 X-2.256 Y-6.7385 E7.1061
G1 X-0.7419 Y7.0673 E7.1061
G1 X-1.9724 Y-4.1522 E4.5968
G1 X-1.0176 Y4.3881 E4.5045
G1 X0.0655 Y-3.3925 E3.3931
G1 X-2.7285 Y2.0349 E3.4037
G1 X0.0249 Y-3.366 E3.3661
G1 X-2.7112 Y1.9951 E3.3661
G1 X0.0215 Y-3.3594 E3.3594
G1 X-2.7077 Y1.9884 E3.3594
G1 X0.0215 Y-3.3594 E3.3594
G1 X-2.7077 Y1.9884 E3.3594
G1 X0.0215 Y-3.3594 E3.3594
G1 X-2.7077 Y1.9884 E3.3594
G1 X0.0215 Y-3.3594 E3.3594
G1 X-2.7077 Y1.9884 E3.3594
G1 X0.0215 Y-3.3594 E3.3594
G1 X-2.7077 Y1.9884 E3.3594
G1 X0.0215 Y-3.3594 E3.3594
G1 X-2.7077 Y1.9884 E3.3594
G1 X1.5471 Y-3.2797 E3.6262
G1 X-2.9781 Y0.816 E3.0879
G1 X2.6669 Y-2.5206 E3.6696
G1 X-3.6548 Y-0.3289 E3.6696
G1 X2.6669 Y-2.5206 E3.6696
G1 X-3.6548 Y-0.3289 E3.6696
G1 X2.6669 Y-2.5206 E3.6696
G1 X-3.6548 Y-0.3289 E3.6696
G1 X3.0109 Y-1.4814 E3.3556
G1 X-2.9289 Y-1.5212 E3.3004
G1 X3.0742 Y-1.3577 E3.3607
G1 X-2.7271 Y-1.6158 E3.1698
G1 X3.7695 Y-0.2799 E3.7799
G1 X-2.7745 Y-2.5671 E3.7799
G1 X3.78 Y-0.2763 E3.79
G1 X-3.0754 Y-2.5991 E4.0266
G1 X2.7847 Y-1.9203 E3.3826
G1 X-3.2105 Y-1.0654 E3.3826
G1 X2.7847 Y-1.9203 E3.3826
G1 X-3.2105 Y-1.0654 E3.3826
G1 X2.7847 Y-1.9203 E3.3826
G1 X-3.0997 Y-0.6718 E3.1716
G1 X2.8299 Y2.3869 E3.7021
G1 X-0.1278 Y-3.7149 E3.7171
G1 X2.7 Y2.0427 E3.3856
G1 X0.0004 Y-3.3856 E3.3856
G1 X2.6884 Y2.0195 E3.3624
G1 X0.012 Y-3.3624 E3.3624
G1 X2.6884 Y2.0195 E3.3624
G1 X-0.3994 Y-3.8531 E3.8738
G1 X3.1768 Y2.1319 E3.8258
G1 X-0.5434 Y-3.3169 E3.3611
G1 X2.3611 Y3.0517 E3.8584
G1 X0.5558 Y-3.8182 E3.8584
G1 X2.3611 Y3.0517 E3.8584
G1 X0.5558 Y-3.8182 E3.8584
G1 X2.2366 Y2.5779 E3.4129
G1 X0.6803 Y-3.3444 E3.4129
G1 X2.2436 Y2.6045 E3.4376
G1 X0.6932 Y-3.1142 E3.1904
G1 X1.8985 Y3.237 E3.7526
G1 X1.0968 Y-3.5888 E3.7526
G1 X1.8985 Y3.237 E3.7526
G1 X1.0968 Y-3.5888 E3.7526
G1 X1.8985 Y3.237 E3.7526
G1 X1.0968 Y-3.5888 E3.7526
G1 X1.6761 Y3.1038 E3.5274
G1 X1.3237 Y-3.0439 E3.3193
G1 X1.2013 Y3.2845 E3.4973
G1 X1.711 Y-2.6259 E3.1342
G1 X0.2481 Y3.4544 E3.4633
G1 X2.554 Y-2.3392 E3.4633
G1 X-0.5757 Y3.6106 E3.6562
G1 X2.9645 Y-1.8139 E3.4754
G1 X-1.0392 Y3.514 E3.6645
G1 X3.3231 Y-1.5444 E3.6645
G1 X-0.5645 Y3.8186 E3.8601
G1 X3.3041 Y-2.7976 E4.3294
G1 X1.144 Y3.5302 E3.7109
G1 X1.8575 Y-3.257 E3.7494
G1 X1.265 Y3.2078 E3.4482
G1 X1.742 Y-2.9758 E3.4482
G1 X1.2492 Y-0.1661 Z1.0 E1.6088
; LAYER:11
G1 F1000 
G1 X-0.8261 Y3.2535 E3.3567
G1 X3.0966 Y-1.2956 E3.3567
G1 X-0.8261 Y3.2535 E3.3567
G1 X3.0966 Y-1.2956 E3.3567
G1 X-0.8261 Y3.2535 E3.3567
G1 X3.2701 Y-1.8655 E3.7648
G1 X1.8598 Y2.8887 E3.4356
G1 X1.1165 Y-3.2491 E3.4356
G1 X-0.0541 Y3.4925 E3.493
G1 X2.209 Y-1.8177 E2.8608
G1 X-1.614 Y3.2462 E3.6253
G1 X3.4961 Y-0.9156 E3.614
G1 X-2.7339 Y2.3365 E3.5963
G1 X3.5545 Y0.547 E3.5963
G1 X-2.7339 Y2.3365 E3.5963
G1 X3.5545 Y0.547 E3.5963
G1 X-3.4618 Y1.6252 E3.8243
G1 X3.0524 Y1.2253 E3.2891
G1 X-3.8397 Y0.2653 E3.8488
G1 X2.8419 Y2.561 E3.8256
G1 X-3.7932 Y0.0162 E3.7933
G1 X2.6203 Y2.7428 E3.7933
G1 X-3.7318 Y0.0423 E3.732
G1 X1.9015 Y1.7446 E2.5805
G1 X-1.5605 Y-3.0089 E3.3895
G1 X-1.4369 Y3.0698 E3.3895
G1 X-3.0089 Y-1.604 E3.4098
G1 X0.7525 Y3.4932 E3.5733
G1 X-3.2008 Y-1.2376 E3.4317
G1 X1.0067 Y3.2807 E3.4317
G1 X-3.511 Y-0.8571 E3.6141
G1 X1.8496 Y3.3243 E3.8042
G1 X-3.6038 Y-0.351 E3.6209
G1 X2.1039 Y2.9469 E3.6209
G1 X-3.6735 Y-0.6454 E3.7298
G1 X1.8251 Y2.9827 E3.4968
G1 X-3.7444 Y-1.4528 E4.0164
G1 X1.6952 Y3.6411 E4.0164
G1 X-3.7444 Y-1.4528 E4.0164
G1 X1.6952 Y3.6411 E4.0164
G1 X-3.3788 Y-1.2038 E3.5868
G1 X0.9139 Y2.7397 E2.8881
G1 X-2.4464 Y-2.619 E3.5839
G1 X-0.3928 Y3.5816 E3.6031
G1 X-2.4813 Y-2.5785 E3.5785
G1 X-0.351 Y3.5612 E3.5785
G1 X-2.4813 Y-2.5785 E3.5785
G1 X-0.351 Y3.5612 E3.5785
G1 X-2.4813 Y-2.5785 E3.5785
G1 X-0.351 Y3.5612 E3.5785
G1 X-2.4813 Y-2.5785 E3.5785
G1 X-0.351 Y3.5612 E3.5785
G1 X-2.0907 Y-3.2694 E3.8807
G1 X-0.8679 Y3.6918 E3.7924
G1 X-2.0086 Y-4.5648 E4.9872
G1 X-0.9715 Y4.8916 E4.9872
G1 X-0.7108 Y-3.6836 E3.7515
G1 X-2.1784 Y2.951 E3.6679
G1 X-0.4866 Y-3.7262 E3.7578
G1 X-2.0611 Y2.4315 E3.1875
G1 X0.3039 Y-3.3861 E3.3997
G1 X-2.888 Y1.8887 E3.4507
G1 X0.1772 Y-3.4 E3.4046
G1 X-2.8213 Y1.9878 E3.4512
G1 X0.0339 Y-3.3641 E3.3643
G1 X-2.7043 Y2.0013 E3.3643
G1 X0.0294 Y-3.3553 E3.3554
G1 X-2.6998 Y1.9925 E3.3554
G1 X0.0294 Y-3.3553 E3.3554
G1 X-2.6998 Y1.9925 E3.3554
G1 X0.0294 Y-3.3553 E3.3554
G1 X-2.6998 Y1.9925 E3.3554
G1 X0.0294 Y-3.3553 E3.3554
G1 X-2.6998 Y1.9925 E3.3554
G1 X0.0294 Y-3.3553 E3.3554
G1 X-2.6998 Y1.9925 E3.3554
G1 X2.1272 Y-2.9425 E3.6309
G1 X-3.3506 Y0.32 E3.3659
G1 X2.6698 Y-2.5122 E3.6659
G1 X-3.6519 Y-0.3204 E3.6659
G1 X2.6698 Y-2.5122 E3.6659
G1 X-3.6519 Y-0.3204 E3.6659
G1 X2.5957 Y-2.1128 E3.3469
G1 X-2.8528 Y-0.8236 E2.9693
G1 X3.0738 Y-1.3488 E3.3567
G1 X-2.9257 Y-1.6455 E3.3567
G1 X3.0738 Y-1.3488 E3.3567
G1 X-2.9257 Y-1.6455 E3.3567
G1 X3.2236 Y-0.9718 E3.3669
G1 X-2.4871 Y-1.9077 E3.1345
G1 X3.777 Y-0.2679 E3.7865
G1 X-2.9271 Y-2.5759 E3.8991
G1 X2.786 Y-1.9115 E3.3787
G1 X-3.2092 Y-1.0565 E3.3787
G1 X2.786 Y-1.9115 E3.3787
G1 X-3.2092 Y-1.0565 E3.3787
G1 X4.1115 Y-0.6589 E4.164
G1 X-2.6522 Y-1.4656 E3.0302
G1 X3.4362 Y2.4612 E4.2267
G1 X-0.9396 Y-4.121 E4.2267
G1 X3.1943 Y2.5177 E4.0672
G1 X-0.5587 Y-3.9371 E3.9766
G1 X2.7776 Y2.2189 E3.5551
G1 X-0.0932 Y-3.5539 E3.5551
G1 X3.2254 Y1.5334 E3.5714
G1 X-0.7741 Y-3.0185 E3.1162
G1 X2.2227 Y2.5602 E3.3904
G1 X0.6769 Y-3.3222 E3.3904
G1 X2.2418 Y2.6328 E3.458
G1 X0.6578 Y-3.3948 E3.458
G1 X2.6828 Y2.5514 E3.7023
G1 X0.0769 Y-3.7193 E3.7201
G1 X2.7159 Y2.517 E3.7029
G1 X0.0377 Y-3.7027 E3.7029
G1 X2.4514 Y2.829 E3.7434
G1 X0.4531 Y-3.4514 E3.481
G1 X1.8896 Y3.238 E3.7491
G1 X1.0879 Y-3.5877 E3.7491
G1 X1.8896 Y3.238 E3.7491
G1 X1.0879 Y-3.5877 E3.7491
G1 X1.8711 Y3.0801 E3.6039
G1 X1.1091 Y-3.1893 E3.3767
G1 X1.189 Y3.3201 E3.5266
G1 X1.7955 Y-3.0353 E3.5266
G1 X0.3636 Y3.4372 E3.4564
G1 X2.4353 Y-2.384 E3.4079
G1 X0.2398 Y3.4511 E3.4594
G1 X2.5457 Y-2.3425 E3.4594
G1 X-0.9039 Y3.5435 E3.657
G1 X3.2074 Y-1.6402 E3.6025
G1 X-1.046 Y3.5082 E3.6608
G1 X3.4017 Y-1.7278 E3.8153
G1 X0.8201 Y3.7867 E3.8745
G1 X2.1274 Y-3.2382 E3.8745
G1 X0.8201 Y3.7867 E3.8745
G1 X2.1309 Y-3.2655 E3.8993
G1 X1.2407 Y3.4067 E3.6256
G1 X-17.6784 Y-7.5834 Z1.0 E19.2622
; LAYER:12
G1 F1000 
G1 X1.6815 Y-2.5523 E3.0565
G1 X0.2324 Y3.4482 E3.456
G1 X2.5383 Y-2.3454 E3.456
G1 X0.2324 Y3.4482 E3.456
G1 X2.4591 Y-2.2149 E3.3095
G1 X-1.052 Y3.503 E3.6575
G1 X3.3103 Y-1.5554 E3.6575
G1 X-0.5808 Y3.8099 E3.8539
G1 X3.2893 Y-2.7997 E4.3194
G1 X0.8122 Y3.7853 E3.8714
G1 X2.1195 Y-3.2397 E3.8714
G1 X0.8122 Y3.7853 E3.8714
G1 X2.1195 Y-3.2397 E3.8714
G1 X0.4449 Y3.3273 E3.3569
G1 X2.0703 Y-1.8996 E2.8097
G1 X-0.8321 Y3.2482 E3.3531
G1 X3.0905 Y-1.3008 E3.3531
G1 X-0.8321 Y3.2482 E3.3531
G1 X3.0905 Y-1.3008 E3.3531
G1 X-0.5755 Y3.2869 E3.3369
G1 X3.2272 Y-2.6315 E4.1641
G1 X1.8518 Y2.8896 E3.4321
G1 X1.1086 Y-3.2481 E3.4321
G1 X-1.246 Y3.3628 E3.5862
G1 X3.2067 Y-1.2442 E3.4396
G1 X-1.619 Y3.24 E3.622
G1 X3.1221 Y-0.7296 E3.2062
G1 X-2.736 Y2.3289 E3.593
G1 X3.5523 Y0.5393 E3.593
G1 X-2.736 Y2.3289 E3.593
G1 X3.5523 Y0.5393 E3.593
G1 X-3.6664 Y1.0759 E3.821
G1 X3.0435 Y1.7536 E3.5126
G1 X-3.7941 Y0.2725 E3.8039
G1 X2.7351 Y2.5132 E3.7145
G1 X-3.7901 Y0.0089 E3.7901
G1 X2.6234 Y2.7355 E3.7901
G1 X-3.3662 Y-0.0276 E3.3663
G1 X1.2437 Y1.3585 E1.8419
G1 X-1.5525 Y-3.009 E3.3859
G1 X-1.4289 Y3.0696 E3.3859
G1 X-3.0734 Y-1.4843 E3.4131
G1 X0.8504 Y3.4161 E3.5203
G1 X-3.1949 Y-1.2431 E3.4282
G1 X1.0329 Y3.2915 E3.4497
G1 X-3.5998 Y-0.3579 E3.6176
G1 X2.1079 Y2.94 E3.6176
G1 X-3.5998 Y-0.3579 E3.6176
G1 X2.1079 Y2.94 E3.6176
G1 X-3.5998 Y-0.3579 E3.6176
G1 X1.982 Y2.8466 E3.4686
G1 X-3.739 Y-1.4587 E4.0134
G1 X1.7007 Y3.6353 E4.0134
G1 X-3.739 Y-1.4587 E4.0134
G1 X1.7007 Y3.6353 E4.0134
G1 X-3.1811 Y-1.6224 E3.5709
G1 X0.6337 Y2.9999 E3.0661
G1 X-2.4312 Y-2.6364 E3.5863
G1 X-0.3985 Y3.5771 E3.5992
G1 X-2.4738 Y-2.5811 E3.5751
G1 X-0.3435 Y3.5586 E3.5751
G1 X-2.4738 Y-2.5811 E3.5751
G1 X-0.3435 Y3.5586 E3.5751
G1 X-2.4738 Y-2.5811 E3.5751
G1 X-0.3435 Y3.5586 E3.5751
G1 X-2.4738 Y-2.5811 E3.5751
G1 X-0.3435 Y3.5586 E3.5751
G1 X-2.4738 Y-2.5811 E3.5751
G1 X-0.3435 Y3.5586 E3.5751
G1 X-2.4358 Y-2.4716 E3.4701
G1 X-0.4202 Y2.9391 E2.969
G1 X-0.4789 Y-3.7239 E3.7546
G1 X-2.3866 Y2.8985 E3.7546
G1 X-0.4789 Y-3.7239 E3.7546
G1 X-2.3866 Y2.8985 E3.7546
G1 X1.5141 Y-3.2685 E3.6021
G1 X-3.5992 Y1.2735 E3.8179
G1 X0.1842 Y-3.3961 E3.4011
G1 X-2.7897 Y1.9455 E3.4011
G1 X0.1842 Y-3.3961 E3.4011
G1 X-2.7897 Y1.9455 E3.4011
G1 X0.1677 Y-3.3936 E3.3977
G1 X-2.8015 Y1.9963 E3.44
G1 X0.0401 Y-3.3587 E3.359
G1 X-2.6963 Y2.0032 E3.359
G1 X0.0365 Y-3.3517 E3.3519
G1 X-2.6927 Y1.9961 E3.3519
G1 X0.0365 Y-3.3517 E3.3519
G1 X-2.6927 Y1.9961 E3.3519
G1 X0.0365 Y-3.3517 E3.3519
G1 X-2.6927 Y1.9961 E3.3519
G1 X0.0365 Y-3.3517 E3.3519
G1 X-2.4375 Y1.7739 E3.0147
G1 X2.6725 Y-2.5046 E3.6627
G1 X-3.6493 Y-0.3129 E3.6627
G1 X2.6725 Y-2.5046 E3.6627
G1 X-3.6493 Y-0.3129 E3.6627
G1 X2.3995 Y-2.3387 E3.3507
G1 X-2.7836 Y-0.5636 E2.8401
G1 X3.0734 Y-1.3408 E3.3532
G1 X-2.9261 Y-1.6376 E3.3532
G1 X3.0734 Y-1.3408 E3.3532
G1 X-2.9261 Y-1.6376 E3.3532
G1 X3.0734 Y-1.3408 E3.3532
G1 X-2.9261 Y-1.6376 E3.3532
G1 X3.0734 Y-1.3408 E3.3532
G1 X-2.643 Y-1.5823 E3.0804
G1 X3.7744 Y-0.2603 E3.7833
G1 X-3.0321 Y-2.5783 E3.9801
G1 X2.7871 Y-1.9035 E3.3751
G1 X-3.2081 Y-1.0486 E3.3751
G1 X3.1729 Y-1.9586 E3.7287
G1 X-2.4782 Y-0.4937 E2.5269
G1 X3.4296 Y2.4656 E4.2239
G1 X-0.9462 Y-4.1166 E4.2239
G1 X3.4296 Y2.4656 E4.2239
G1 X-0.9462 Y-4.1166 E4.2239
G1 X3.1745 Y2.082 E3.7964
G1 X-0.6912 Y-3.7329 E3.7964
G1 X2.9044 Y1.6756 E3.3531
G1 X-0.3811 Y-3.2527 E3.275
G1 X2.7086 Y2.5201 E3.6996
G1 X0.0304 Y-3.6995 E3.6996
G1 X2.7086 Y2.5201 E3.6996
G1 X0.0304 Y-3.6995 E3.6996
G1 X2.7086 Y2.5201 E3.6996
G1 X0.0304 Y-3.6995 E3.6996
G1 X2.7086 Y2.5201 E3.6996
G1 X0.0304 Y-3.6995 E3.6996
G1 X2.7086 Y2.5201 E3.6996
G1 X0.0763 Y-3.528 E3.5289
G1 X1.8817 Y3.2389 E3.7459
G1 X1.08 Y-3.5868 E3.7459
G1 X1.8817 Y3.2389 E3.7459
G1 X1.08 Y-3.5868 E3.7459
G1 X1.8807 Y3.2303 E3.7379
G1 X1.0824 Y-3.4527 E3.6184
G1 X1.181 Y3.3193 E3.5232
G1 X1.7875 Y-3.036 E3.5232
G1 X1.2839 Y-0.2427 Z1.0 E1.6454
; LAYER:13
G1 F1000 
G1 X0.2464 Y3.4537 E3.4625
G1 X2.5523 Y-2.3399 E3.4625
G1 X0.2464 Y3.4537 E3.4625
G1 X2.5523 Y-2.3399 E3.4625
G1 X0.2464 Y3.4537 E3.4625
G1 X2.3744 Y-2.0466 E3.1347
G1 X-1.0406 Y3.5128 E3.6637
G1 X3.4595 Y-1.8324 E3.9148
G1 X0.827 Y3.788 E3.8773
G1 X2.1343 Y-3.2369 E3.8773
G1 X0.8516 Y3.6558 E3.7536
G1 X2.1097 Y-3.1047 E3.7536
G1 X0.3547 Y3.3918 E3.4103
G1 X2.3723 Y-2.1898 E3.2285
G1 X-1.0107 Y3.2138 E3.369
G1 X3.2342 Y-1.1847 E3.4443
G1 X-0.8207 Y3.2581 E3.3599
G1 X3.1019 Y-1.291 E3.3599
G1 X-0.8207 Y3.2581 E3.3599
G1 X3.1019 Y-1.291 E3.3599
G1 X1.5106 Y3.0617 E3.4141
G1 X1.4334 Y-3.2717 E3.572
G1 X1.8668 Y2.8878 E3.4387
G1 X0.925 Y-2.7579 E2.9089
G1 X-1.6095 Y3.2517 E3.6282
G1 X3.5108 Y-0.9154 E3.6282
G1 X-2.3551 Y2.7058 E3.5872
G1 X3.3834 Y0.0852 E3.3844
G1 X-2.7319 Y2.3433 E3.5993
G1 X3.5564 Y0.5538 E3.5993
G1 X-2.7319 Y2.3433 E3.5993
G1 X3.42 Y0.5501 E3.464
G1 X-3.842 Y0.272 E3.8516
G1 X2.8628 Y2.5766 E3.8516
G1 X-3.7957 Y0.0443 E3.796
G1 X2.6253 Y2.7309 E3.7881
G1 X-3.796 Y0.0227 E3.7961
G1 X2.6175 Y2.7493 E3.7961
G1 X-2.038 Y-2.6273 E3.3251
G1 X-0.7754 Y2.9815 E3.0807
G1 X-1.5676 Y-3.0087 E3.3926
G1 X-1.2829 Y3.4672 E3.697
G1 X-3.2059 Y-1.2328 E3.4348
G1 X1.0015 Y3.2855 E3.4348
G1 X-3.379 Y-1.3032 E3.6216
G1 X1.5537 Y3.6579 E3.9742
G1 X-3.6073 Y-0.3449 E3.6238
G1 X2.1004 Y2.953 E3.6238
G1 X-3.6073 Y-0.3449 E3.6238
G1 X2.1004 Y2.953 E3.6238
G1 X-3.6073 Y-0.3449 E3.6238
G1 X2.0318 Y2.9021 E3.5426
G1 X-3.7493 Y-1.4477 E4.0191
G1 X1.6904 Y3.6463 E4.0191
G1 X-3.7493 Y-1.4477 E4.0191
G1 X1.614 Y3.5264 E3.8783
G1 X-2.4456 Y-2.6318 E3.5926
G1 X-0.4173 Y3.5683 E3.5926
G1 X-2.4456 Y-2.6318 E3.5926
G1 X-0.4123 Y3.5831 E3.6067
G1 X-2.488 Y-2.5761 E3.5815
G1 X-0.3577 Y3.5635 E3.5815
G1 X-2.488 Y-2.5761 E3.5815
G1 X-0.3577 Y3.5635 E3.5815
G1 X-2.488 Y-2.5761 E3.5815
G1 X-0.3577 Y3.5635 E3.5815
G1 X-2.488 Y-2.5761 E3.5815
G1 X-0.3577 Y3.5635 E3.5815
G1 X-2.488 Y-2.5761 E3.5815
G1 X-0.3605 Y3.553 E3.5712
G1 X-2.0536 Y-2.7923 E3.4662
G1 X-0.89 Y2.9833 E3.1132
G1 X-0.4934 Y-3.7281 E3.7606
G1 X-2.4011 Y2.8943 E3.7606
G1 X-0.4934 Y-3.7281 E3.7606
G1 X-2.2611 Y2.6991 E3.521
G1 X1.8516 Y-3.1209 E3.6288
G1 X-3.7984 Y0.8991 E3.9034
G1 X0.171 Y-3.4034 E3.4077
G1 X-2.8028 Y1.9382 E3.4077
G1 X0.171 Y-3.4034 E3.4077
G1 X-2.8028 Y1.9382 E3.4077
G1 X0.171 Y-3.4034 E3.4077
G1 X-2.8028 Y1.9382 E3.4077
G1 X0.171 Y-3.4034 E3.4077
G1 X-2.8172 Y1.9651 E3.4349
G1 X0.0305 Y-3.3731 E3.3732
G1 X-2.7135 Y2.0038 E3.3732
G1 X0.0231 Y-3.3585 E3.3586
G1 X-2.7061 Y1.9893 E3.3586
G1 X0.0231 Y-3.3585 E3.3586
G1 X-2.7061 Y1.9893 E3.3586
G1 X0.0231 Y-3.3585 E3.3586
G1 X-2.423 Y1.7428 E2.9847
G1 X2.6675 Y-2.5189 E3.6688
G1 X-3.6542 Y-0.3271 E3.6688
G1 X2.4856 Y-2.4558 E3.4941
G1 X-3.2787 Y-0.4179 E3.3052
G1 X3.0741 Y-1.3559 E3.3599
G1 X-2.9253 Y-1.6526 E3.3599
G1 X3.0741 Y-1.3559 E3.3599
G1 X-2.9253 Y-1.6526 E3.3599
G1 X3.0741 Y-1.3559 E3.3599
G1 X-2.9253 Y-1.6526 E3.3599
G1 X3.0741 Y-1.3559 E3.3599
G1 X-2.9253 Y-1.6526 E3.3599
G1 X3.0741 Y-1.3559 E3.3599
G1 X-2.9253 Y-1.6526 E3.3599
G1 X3.3215 Y-0.7719 E3.41
G1 X-2.6184 Y-2.1161 E3.3666
G1 X2.785 Y-1.9185 E3.3818
G1 X-3.2102 Y-1.0635 E3.3818
G1 X3.4695 Y2.4091 E4.2238
G1 X-0.9874 Y-4.0885 E4.2061
G1 X3.0899 Y1.9275 E3.6418
G1 X-0.5814 Y-3.5951 E3.6418
G1 X2.9208 Y1.6731 E3.366
G1 X-0.5509 Y-3.5124 E3.5553
G1 X3.1917 Y1.1214 E3.383
G1 X-1.0324 Y-3.2216 E3.383
G1 X3.1497 Y1.2228 E3.3788
G1 X-0.8219 Y-3.1227 E3.229
G1 X2.6943 Y2.4489 E3.641
G1 X0.0723 Y-3.6403 E3.641
G1 X2.7224 Y2.5142 E3.7057
G1 X0.0442 Y-3.7055 E3.7057
G1 X2.7224 Y2.5142 E3.7057
G1 X0.0442 Y-3.7055 E3.7057
G1 X2.7224 Y2.5142 E3.7057
G1 X0.0442 Y-3.7055 E3.7057
G1 X2.5822 Y2.7164 E3.7479
G1 X0.3193 Y-3.4043 E3.4193
G1 X1.8967 Y3.2372 E3.7519
G1 X1.0949 Y-3.5886 E3.7519
G1 X1.8967 Y3.2372 E3.7519
G1 X1.0949 Y-3.5886 E3.7519
G1 X1.2977 Y3.2803 E3.5277
G1 X1.7003 Y-3.0427 E3.4855
G1 X1.196 Y3.3207 E3.5296
G1 X1.306 Y-0.3152 Z1.0 E1.6748
; LAYER:14
G1 F1000 
G1 X1.6896 Y-2.5491 E3.0582
G1 X0.2405 Y3.4514 E3.4598
G1 X2.5464 Y-2.3422 E3.4598
G1 X0.2405 Y3.4514 E3.4598
G1 X2.5464 Y-2.3422 E3.4598
G1 X0.2405 Y3.4514 E3.4598
G1 X2.2904 Y-1.9202 E2.9889
G1 X-0.5195 Y3.8213 E3.8565
G1 X3.253 Y-2.8242 E4.3079
G1 X0.8663 Y3.5422 E3.6466
G1 X2.0743 Y-2.9654 E3.6189
G1 X0.2341 Y3.4014 E3.4094
G1 X2.5438 Y-2.2701 E3.4094
G1 X0.0759 Y3.3689 E3.3698
G1 X2.3307 Y-1.6799 E2.873
G1 X-1.0032 Y3.2121 E3.3651
G1 X3.2209 Y-1.1954 E3.4356
G1 X-0.8256 Y3.2539 E3.357
G1 X3.0971 Y-1.2952 E3.357
G1 X-0.8256 Y3.2539 E3.357
G1 X3.2143 Y-1.6802 E3.627
G1 X1.8605 Y2.8886 E3.4359
G1 X1.1172 Y-3.2492 E3.4359
G1 X1.8605 Y2.8886 E3.4359
G1 X0.8244 Y-2.5237 E2.655
G1 X-1.6135 Y3.2467 E3.6256
G1 X3.4236 Y-0.877 E3.5342
G1 X-2.7337 Y2.3372 E3.5966
G1 X3.5547 Y0.5477 E3.5966
G1 X-2.7337 Y2.3372 E3.5966
G1 X3.5547 Y0.5477 E3.5966
G1 X-2.7337 Y2.3372 E3.5966
G1 X3.3407 Y0.5419 E3.3844
G1 X-3.8399 Y0.2659 E3.8491
G1 X2.8209 Y2.5537 E3.8051
G1 X-3.7935 Y0.0169 E3.7935
G1 X2.62 Y2.7435 E3.7935
G1 X-3.7935 Y0.0169 E3.7935
G1 X2.62 Y2.7435 E3.7935
G1 X-1.6186 Y-2.9653 E3.3783
G1 X-1.3528 Y3.0669 E3.352
G1 X-1.5612 Y-3.0088 E3.3898
G1 X-1.3137 Y3.3756 E3.6222
G1 X-3.2013 Y-1.2371 E3.432
G1 X1.0062 Y3.2812 E3.432
G1 X-3.4952 Y-0.9204 E3.6144
G1 X1.8118 Y3.372 E3.8279
G1 X-3.6042 Y-0.3504 E3.6212
G1 X2.1036 Y2.9475 E3.6212
G1 X-3.6042 Y-0.3504 E3.6212
G1 X2.1036 Y2.9475 E3.6212
G1 X-3.6042 Y-0.3504 E3.6212
G1 X2.1036 Y2.9475 E3.6212
G1 X-3.6827 Y-0.6847 E3.7458
G1 X1.8237 Y3.0159 E3.5244
G1 X-3.7449 Y-1.4523 E4.0167
G1 X1.573 Y3.4507 E3.7923
G1 X-2.4395 Y-2.6337 E3.59
G1 X-0.4113 Y3.5663 E3.59
G1 X-2.4395 Y-2.6337 E3.59
G1 X-0.4113 Y3.5663 E3.59
G1 X-2.472 Y-2.5878 E3.5788
G1 X-0.3635 Y3.5655 E3.584
G1 X-2.482 Y-2.5782 E3.5788
G1 X-0.3517 Y3.5615 E3.5788
G1 X-2.482 Y-2.5782 E3.5788
G1 X-0.3517 Y3.5615 E3.5788
G1 X-2.482 Y-2.5782 E3.5788
G1 X-0.3517 Y3.5615 E3.5788
G1 X-2.482 Y-2.5782 E3.5788
G1 X-0.3608 Y3.5271 E3.5455
G1 X-2.0473 Y-2.7935 E3.4634
G1 X-0.9011 Y3.3441 E3.4634
G1 X-1.1608 Y-3.558 E3.7426
G1 X-1.7354 Y3.0181 E3.4815
G1 X-0.4873 Y-3.7263 E3.7581
G1 X-2.3949 Y2.8961 E3.7581
G1 X0.9661 Y-3.4597 E3.5921
G1 X-2.9248 Y1.3413 E3.2177
G1 X1.3244 Y-3.1741 E3.4393
G1 X-3.6188 Y1.3546 E3.864
G1 X0.1766 Y-3.4003 E3.4049
G1 X-2.7973 Y1.9413 E3.4049
G1 X0.1766 Y-3.4003 E3.4049
G1 X-2.7973 Y1.9413 E3.4049
G1 X0.1766 Y-3.4003 E3.4049
G1 X-2.7973 Y1.9413 E3.4049
G1 X0.1766 Y-3.4003 E3.4049
G1 X-2.7973 Y1.9413 E3.4049
G1 X0.1766 Y-3.4003 E3.4049
G1 X-2.8177 Y1.9796 E3.4436
G1 X0.0344 Y-3.3667 E3.3668
G1 X-2.7061 Y2.0032 E3.3668
G1 X0.0288 Y-3.3556 E3.3557
G1 X-2.7004 Y1.9922 E3.3557
G1 X0.1153 Y-3.3527 E3.3547
G1 X-1.9161 Y1.2311 E2.2775
G1 X2.5446 Y-2.4695 E3.5459
G1 X-3.3967 Y-0.3831 E3.4182
G1 X3.0738 Y-1.3495 E3.357
G1 X-2.9257 Y-1.6463 E3.357
G1 X3.0738 Y-1.3495 E3.357
G1 X-2.9257 Y-1.6463 E3.357
G1 X3.0738 Y-1.3495 E3.357
G1 X-2.9257 Y-1.6463 E3.357
G1 X3.0738 Y-1.3495 E3.357
G1 X-2.9257 Y-1.6463 E3.357
G1 X3.0738 Y-1.3495 E3.357
G1 X-2.9257 Y-1.6463 E3.357
G1 X3.1379 Y-1.3464 E3.4145
G1 X-2.9897 Y-1.6494 E3.4145
G1 X4.357 Y-1.2797 E4.541
G1 X-4.1024 Y-1.6644 E4.4272
G1 X3.3109 Y0.4936 E3.3474
G1 X-1.4058 Y-2.4198 E2.7985
G1 X3.0845 Y1.3756 E3.3774
G1 X-0.8607 Y-3.3757 E3.4837
G1 X3.1871 Y1.1258 E3.3801
G1 X-1.037 Y-3.2171 E3.3801
G1 X3.1871 Y1.1258 E3.3801
G1 X-1.037 Y-3.2171 E3.3801
G1 X3.1871 Y1.1258 E3.3801
G1 X-0.9801 Y-3.1498 E3.2987
G1 X2.9968 Y1.557 E3.3771
G1 X-0.5758 Y-3.3277 E3.3771
G1 X2.6981 Y2.4134 E3.62
G1 X0.051 Y-3.6097 E3.6101
G1 X2.7165 Y2.5167 E3.7031
G1 X0.0383 Y-3.7029 E3.7031
G1 X2.7165 Y2.5167 E3.7031
G1 X0.0383 Y-3.7029 E3.7031
G1 X2.7165 Y2.5167 E3.7031
G1 X0.0515 Y-3.6538 E3.6541
G1 X1.8903 Y3.2379 E3.7493
G1 X1.0886 Y-3.5878 E3.7493
G1 X1.8903 Y3.2379 E3.7493
G1 X1.0886 Y-3.5878 E3.7493
G1 X1.6269 Y3.1255 E3.5236
G1 X1.3567 Y-3.0467 E3.3351
G1 X1.1897 Y3.3201 E3.5269
G1 X1.7962 Y-3.0352 E3.5269
G1 X1.2926 Y-0.2419 Z1.0 E1.652
; LAYER:15
G1 F1000 
G1 X0.2425 Y3.4522 E3.4607
G1 X2.5484 Y-2.3414 E3.4607
G1 X0.2425 Y3.4522 E3.4607
G1 X2.5484 Y-2.3414 E3.4607
G1 X0.2425 Y3.4522 E3.4607
G1 X2.5484 Y-2.3414 E3.4607
G1 X-0.2318 Y3.5964 E3.6039
G1 X2.8034 Y-2.178 E3.55
G1 X0.8901 Y3.4259 E3.5397
G1 X2.0261 Y-2.7506 E3.4163
G1 X0.2361 Y3.4022 E3.4104
G1 X2.5458 Y-2.2693 E3.4104
G1 X0.2361 Y3.4022 E3.4104
G1 X2.5167 Y-2.2256 E3.3597
G1 X-1.0842 Y3.1976 E3.3764
G1 X3.2034 Y-1.0688 E3.377
G1 X-0.9682 Y3.2204 E3.3628
G1 X3.199 Y-1.2114 E3.4207
G1 X-0.8239 Y3.2553 E3.358
G1 X3.0988 Y-1.2937 E3.358
G1 X-0.8239 Y3.2553 E3.358
G1 X3.4207 Y-2.3514 E4.151
G1 X1.8626 Y2.8883 E3.4368
G1 X1.1194 Y-3.2494 E3.4368
G1 X1.8626 Y2.8883 E3.4368
G1 X0.6567 Y-2.1031 E2.2032
G1 X-1.6122 Y3.2484 E3.6265
G1 X3.0571 Y-0.6837 E3.1326
G1 X-2.7331 Y2.3393 E3.5975
G1 X3.5553 Y0.5498 E3.5975
G1 X-2.7331 Y2.3393 E3.5975
G1 X3.5553 Y0.5498 E3.5975
G1 X-2.7331 Y2.3393 E3.5975
G1 X3.0975 Y0.5374 E3.1438
G1 X-3.7864 Y0.2436 E3.7942
G1 X2.6944 Y2.5527 E3.7116
G1 X-3.7944 Y0.0189 E3.7944
G1 X2.6191 Y2.7455 E3.7944
G1 X-3.7944 Y0.0189 E3.7944
G1 X2.2758 Y2.2377 E3.1917
G1 X-1.5634 Y-3.0088 E3.3907
G1 X-1.4398 Y3.0699 E3.3907
G1 X-1.5634 Y-3.0088 E3.3907
G1 X-1.2556 Y3.5242 E3.7412
G1 X-3.2029 Y-1.2357 E3.433
G1 X1.0454 Y3.3152 E3.4761
G1 X-3.6053 Y-0.3485 E3.6221
G1 X2.1025 Y2.9494 E3.6221
G1 X-3.6053 Y-0.3485 E3.6221
G1 X2.1025 Y2.9494 E3.6221
G1 X-3.6053 Y-0.3485 E3.6221
G1 X2.1025 Y2.9494 E3.6221
G1 X-3.6053 Y-0.3485 E3.6221
G1 X2.1025 Y2.9494 E3.6221
G1 X-3.6053 Y-0.3485 E3.6221
G1 X1.921 Y2.8147 E3.4077
G1 X-3.5987 Y-1.3124 E3.8306
G1 X1.2498 Y3.0406 E3.2875
G1 X-2.4416 Y-2.6331 E3.5909
G1 X-0.4133 Y3.567 E3.5909
G1 X-2.4416 Y-2.6331 E3.5909
G1 X-0.4133 Y3.567 E3.5909
G1 X-2.4537 Y-2.6089 E3.5815
G1 X-0.3898 Y3.5766 E3.5977
G1 X-2.4841 Y-2.5775 E3.5797
G1 X-0.3537 Y3.5622 E3.5797
G1 X-2.4841 Y-2.5775 E3.5797
G1 X-0.3537 Y3.5622 E3.5797
G1 X-2.4841 Y-2.5775 E3.5797
G1 X-0.3537 Y3.5622 E3.5797
G1 X-2.4647 Y-2.5216 E3.5261
G1 X-0.4116 Y3.3612 E3.3864
G1 X-2.0495 Y-2.7931 E3.4643
G1 X-0.9033 Y3.3445 E3.4643
G1 X-1.985 Y-2.8669 E3.487
G1 X-0.933 Y2.6932 E2.8502
G1 X-0.4894 Y-3.727 E3.7589
G1 X-2.397 Y2.8955 E3.7589
G1 X0.3983 Y-3.5729 E3.595
G1 X-2.4917 Y1.6351 E2.9803
G1 X1.8539 Y-3.1174 E3.627
G1 X-3.8011 Y0.9081 E3.9081
G1 X0.1747 Y-3.4014 E3.4058
G1 X-2.7992 Y1.9402 E3.4058
G1 X0.1747 Y-3.4014 E3.4058
G1 X-2.7992 Y1.9402 E3.4058
G1 X0.1747 Y-3.4014 E3.4058
G1 X-2.7992 Y1.9402 E3.4058
G1 X0.1747 Y-3.4014 E3.4058
G1 X-2.7992 Y1.9402 E3.4058
G1 X0.1747 Y-3.4014 E3.4058
G1 X-2.7992 Y1.9402 E3.4058
G1 X0.1747 Y-3.4014 E3.4058
G1 X-2.7992 Y1.9402 E3.4058
G1 X0.101 Y-3.3902 E3.3917
G1 X-2.7648 Y2.0028 E3.414
G1 X0.0282 Y-3.3593 E3.3594
G1 X-2.4774 Y1.7968 E3.0604
G1 X2.3673 Y-2.4103 E3.3784
G1 X-2.9669 Y-0.4827 E3.0059
G1 X3.0739 Y-1.3517 E3.358
G1 X-2.9256 Y-1.6484 E3.358
G1 X3.7455 Y-1.3185 E3.9708
G1 X-3.5972 Y-1.6816 E3.9708
G1 X5.5118 Y-1.2311 E5.6476
G1 X-5.3634 Y-1.769 E5.6476
G1 X7.6458 Y-1.1256 E7.7282
G1 X-7.4974 Y-1.8745 E7.7282
G1 X9.9112 Y-1.0135 E9.9629
G1 X-9.7628 Y-1.9866 E9.9629
G1 X12.0127 Y-1.387 E12.0925
G1 X-12.3304 Y-1.5727 E12.4303
G1 X7.7254 Y-3.2864 E8.3954
G1 X-8.3878 Y0.3566 E8.3954
G1 X3.4484 Y1.8139 E3.8963
G1 X-1.233 Y-3.5347 E3.7435
G1 X3.1887 Y1.1243 E3.3811
G1 X-1.0354 Y-3.2186 E3.3811
G1 X3.1887 Y1.1243 E3.3811
G1 X-1.0354 Y-3.2186 E3.3811
G1 X3.1887 Y1.1243 E3.3811
G1 X-1.0354 Y-3.2186 E3.3811
G1 X3.1887 Y1.1243 E3.3811
G1 X-1.0354 Y-3.2186 E3.3811
G1 X3.0971 Y1.3447 E3.3765
G1 X-0.7404 Y-3.1981 E3.2827
G1 X2.9986 Y1.5557 E3.3781
G1 X-0.574 Y-3.329 E3.3781
G1 X2.7474 Y2.2774 E3.5685
G1 X-0.0179 Y-3.5168 E3.5168
G1 X2.7185 Y2.5158 E3.704
G1 X0.0403 Y-3.7038 E3.704
G1 X2.7185 Y2.5158 E3.704
G1 X0.0403 Y-3.7038 E3.704
G1 X2.7185 Y2.5158 E3.704
G1 X0.1508 Y-3.2915 E3.295
G1 X1.8925 Y3.2377 E3.7502
G1 X1.0908 Y-3.5881 E3.7502
G1 X1.8708 Y3.0534 E3.5809
G1 X1.1153 Y-3.14 E3.3322
G1 X1.1918 Y3.3204 E3.5278
G1 X1.7984 Y-3.035 E3.5278
G1 X1.1918 Y3.3204 E3.5278
G1 X1.3018 Y-0.3156 Z1.0 E1.6716
; LAYER:16
G1 F1000 
G1 X1.6877 Y-2.5499 E3.0578
G1 X0.2385 Y3.4506 E3.4589
G1 X2.5445 Y-2.343 E3.4589
G1 X0.2385 Y3.4506 E3.4589
G1 X2.5445 Y-2.343 E3.4589
G1 X0.2385 Y3.4506 E3.4589
G1 X2.5445 Y-2.343 E3.4589
G1 X0.0859 Y3.446 E3.4471
G1 X2.665 Y-2.3719 E3.5677
G1 X0.2322 Y3.4006 E3.4085
G1 X2.5419 Y-2.2709 E3.4085
G1 X0.2322 Y3.4006 E3.4085
G1 X2.5419 Y-2.2709 E3.4085
G1 X0.2461 Y3.3666 E3.3756
G1 X2.1991 Y-1.7427 E2.8059
G1 X-1.0872 Y3.1946 E3.3745
G1 X3.2011 Y-1.0725 E3.376
G1 X-0.9577 Y3.2203 E3.3597
G1 X3.1862 Y-1.2213 E3.4123
G1 X-0.8271 Y3.2526 E3.3561
G1 X3.0956 Y-1.2965 E3.3561
G1 X0.114 Y3.3815 E3.3835
G1 X2.6476 Y-3.0451 E4.0352
G1 X1.8584 Y2.8888 E3.435
G1 X1.1152 Y-3.2489 E3.435
G1 X1.6765 Y2.9339 E3.3791
G1 X0.7255 Y-1.8776 E2.0129
G1 X-2.114 Y2.8935 E3.5835
G1 X3.2505 Y-0.1775 E3.2553
G1 X-2.7342 Y2.3353 E3.5957
G1 X3.5541 Y0.5457 E3.5957
G1 X-2.7342 Y2.3353 E3.5957
G1 X3.5541 Y0.5457 E3.5957
G1 X-2.7342 Y2.3353 E3.5957
G1 X2.9842 Y0.5303 E3.0309
G1 X-3.7915 Y0.0863 E3.7924
G1 X2.6461 Y2.6805 E3.7665
G1 X-3.7927 Y0.015 E3.7927
G1 X2.6208 Y2.7416 E3.7927
G1 X-3.4884 Y0.1443 E3.4914
G1 X1.7595 Y1.7885 E2.5089
G1 X-1.5592 Y-3.0089 E3.3889
G1 X-1.4356 Y3.0698 E3.3889
G1 X-1.5592 Y-3.0089 E3.3889
G1 X-1.2673 Y3.485 E3.7083
G1 X-3.2105 Y-1.2501 E3.4453
G1 X1.2141 Y3.4471 E3.6547
G1 X-3.6031 Y-0.3522 E3.6203
G1 X2.1046 Y2.9457 E3.6203
G1 X-3.6031 Y-0.3522 E3.6203
G1 X2.1046 Y2.9457 E3.6203
G1 X-3.6031 Y-0.3522 E3.6203
G1 X2.1046 Y2.9457 E3.6203
G1 X-3.6031 Y-0.3522 E3.6203
G1 X2.1046 Y2.9457 E3.6203
G1 X-3.6031 Y-0.3522 E3.6203
G1 X2.1046 Y2.9457 E3.6203
G1 X-3.504 Y-1.009 E3.6464
G1 X1.1478 Y2.6598 E2.8969
G1 X-2.4376 Y-2.6344 E3.5891
G1 X-0.4093 Y3.5657 E3.5891
G1 X-2.4376 Y-2.6344 E3.5891
G1 X-0.4093 Y3.5657 E3.5891
G1 X-2.4376 Y-2.6344 E3.5891
G1 X-0.4041 Y3.581 E3.6038
G1 X-2.4801 Y-2.5789 E3.5779
G1 X-0.3498 Y3.5608 E3.5779
G1 X-2.4801 Y-2.5789 E3.5779
G1 X-0.3498 Y3.5608 E3.5779
G1 X-2.4801 Y-2.5789 E3.5779
G1 X-0.3498 Y3.5608 E3.5779
G1 X-2.4462 Y-2.4813 E3.4844
G1 X-0.4337 Y3.2742 E3.3029
G1 X-2.0453 Y-2.7939 E3.4625
G1 X-0.8991 Y3.3437 E3.4625
G1 X-2.0453 Y-2.7939 E3.4625
G1 X-0.8926 Y3.2089 E3.3308
G1 X-0.4853 Y-3.7258 E3.7573
G1 X-2.393 Y2.8967 E3.7573
G1 X-0.4853 Y-3.7258 E3.7573
G1 X-1.931 Y2.2522 E2.9666
G1 X1.8564 Y-3.114 E3.6253
G1 X-3.5658 Y0.6543 E3.6253
G1 X1.1351 Y-3.1972 E3.3927
G1 X-3.4757 Y1.4348 E3.7602
G1 X0.1784 Y-3.3993 E3.404
G1 X-2.7955 Y1.9423 E3.404
G1 X0.1784 Y-3.3993 E3.404
G1 X-2.7955 Y1.9423 E3.404
G1 X0.1784 Y-3.3993 E3.404
G1 X-2.7955 Y1.9423 E3.404
G1 X0.1784 Y-3.3993 E3.404
G1 X-2.7955 Y1.9423 E3.404
G1 X0.1784 Y-3.3993 E3.404
G1 X-2.7955 Y1.9423 E3.404
G1 X0.1784 Y-3.3993 E3.404
G1 X-2.7955 Y1.9423 E3.404
G1 X0.1784 Y-3.3993 E3.404
G1 X-2.7955 Y1.9423 E3.404
G1 X0.697 Y-4.0425 E4.1021
G1 X-2.0514 Y1.8222 E2.7439
G1 X10.6611 Y-0.9722 E10.7053
G1 X-10.5131 Y-2.0195 E10.7053
G1 X11.421 Y-3.8739 E12.0601
G1 X-12.0522 Y0.9497 E12.0895
G1 X11.3741 Y-4.107 E12.0928
G1 X-12.0346 Y1.1854 E12.0928
G1 X11.3741 Y-4.107 E12.0928
G1 X-12.0346 Y1.1854 E12.0928
G1 X11.3741 Y-4.107 E12.0928
G1 X-12.0346 Y1.1854 E12.0928
G1 X11.3741 Y-4.107 E12.0928
G1 X-12.0346 Y1.1854 E12.0928
G1 X8.9365 Y-3.5559 E9.618
G1 X-9.597 Y0.6343 E9.618
G1 X4.2001 Y0.3913 E4.2183
G1 X-2.4786 Y-2.3442 E3.4116
G1 X3.1893 Y2.3563 E3.9653
G1 X-0.5475 Y-3.75 E3.7898
G1 X2.7742 Y2.8081 E3.9474
G1 X-0.2107 Y-4.2623 E4.2675
G1 X3.1857 Y1.1273 E3.3792
G1 X-1.0385 Y-3.2157 E3.3792
G1 X3.1857 Y1.1273 E3.3792
G1 X-1.0385 Y-3.2157 E3.3792
G1 X3.1857 Y1.1273 E3.3792
G1 X-1.0385 Y-3.2157 E3.3792
G1 X3.1857 Y1.1273 E3.3792
G1 X-0.9486 Y-3.1094 E3.2509
G1 X2.9951 Y1.5582 E3.3762
G1 X-0.5775 Y-3.3265 E3.3762
G1 X2.9951 Y1.5582 E3.3762
G1 X-0.5775 Y-3.3265 E3.3762
G1 X2.7676 Y2.2075 E3.5402
G1 X-0.0584 Y-3.4654 E3.4659
G1 X2.7147 Y2.5175 E3.7023
G1 X0.0365 Y-3.7021 E3.7023
G1 X2.7147 Y2.5175 E3.7023
G1 X0.0365 Y-3.7021 E3.7023
G1 X1.9838 Y3.1776 E3.7461
G1 X0.9787 Y-3.5732 E3.7048
G1 X1.8883 Y3.2382 E3.7485
G1 X1.0877 Y-3.4828 E3.6487
G1 X1.1876 Y3.32 E3.526
G1 X1.7942 Y-3.0354 E3.526
G1 X1.1876 Y3.32 E3.526
G1 X1.7942 Y-3.0354 E3.526
G1 X11.2986 Y3.7413 Z1.0 E11.9438
; LAYER:17
G1 F1000 
G1 X0.1562 Y3.4089 E3.4125
G1 X2.615 Y-2.2418 E3.4444
G1 X0.2377 Y3.4029 E3.4112
G1 X2.5474 Y-2.2686 E3.4112
G1 X0.2377 Y3.4029 E3.4112
G1 X2.5474 Y-2.2686 E3.4112
G1 X0.0718 Y3.3705 E3.3713
G1 X2.3394 Y-1.6744 E2.8768
G1 X-1.083 Y3.1988 E3.3771
G1 X3.2043 Y-1.0672 E3.3773
G1 X-1.0754 Y3.2008 E3.3766
G1 X3.26 Y-1.137 E3.4526
G1 X-0.8226 Y3.2565 E3.3588
G1 X3.1001 Y-1.2926 E3.3588
G1 X-0.4741 Y3.316 E3.3497
G1 X3.1634 Y-2.7048 E4.1621
G1 X1.8644 Y2.8881 E3.4376
G1 X1.1211 Y-3.2496 E3.4376
G1 X1.8644 Y2.8881 E3.4376
G1 X0.8134 Y-2.4874 E2.617
G1 X-1.9709 Y2.9977 E3.5876
G1 X3.1733 Y-0.3029 E3.1877
G1 X-2.7326 Y2.341 E3.5982
G1 X3.5557 Y0.5514 E3.5982
G1 X-2.7326 Y2.341 E3.5982
G1 X3.5557 Y0.5514 E3.5982
G1 X-2.7326 Y2.341 E3.5982
G1 X3.4424 Y0.5484 E3.4858
G1 X-3.5801 Y0.1929 E3.5853
G1 X2.4362 Y2.5872 E3.5537
G1 X-3.3583 Y0.2061 E3.3646
G1 X2.1621 Y2.5517 E3.3446
G1 X-3.3572 Y-0.1727 E3.3616
G1 X1.5809 Y2.4566 E2.9213
G1 X-1.8594 Y-2.8041 E3.3646
G1 X-1.1135 Y3.0259 E3.2243
G1 X-1.5651 Y-3.0088 E3.3915
G1 X-1.421 Y3.1206 E3.4289
G1 X-3.2469 Y-1.2804 E3.4903
G1 X1.2874 Y3.522 E3.7499
G1 X-3.6061 Y-0.347 E3.6228
G1 X2.1016 Y2.9509 E3.6228
G1 X-3.6061 Y-0.347 E3.6228
G1 X2.1016 Y2.9509 E3.6228
G1 X-3.6061 Y-0.347 E3.6228
G1 X2.1016 Y2.9509 E3.6228
G1 X-3.5232 Y-0.2991 E3.5358
G1 X2.0187 Y2.903 E3.5358
G1 X-3.4149 Y-0.2365 E3.4231
G1 X1.9104 Y2.8404 E3.4231
G1 X-3.3629 Y-0.3363 E3.3796
G1 X1.2682 Y2.2756 E2.6051
G1 X-2.4432 Y-2.6325 E3.5916
G1 X-0.415 Y3.5675 E3.5916
G1 X-2.4432 Y-2.6325 E3.5916
G1 X-0.415 Y3.5675 E3.5916
G1 X-2.4432 Y-2.6325 E3.5916
G1 X-0.415 Y3.5675 E3.5916
G1 X-2.4732 Y-2.5889 E3.5804
G1 X-0.3702 Y3.5678 E3.587
G1 X-2.4857 Y-2.577 E3.5804
G1 X-0.3554 Y3.5627 E3.5804
G1 X-2.4857 Y-2.577 E3.5804
G1 X-0.3554 Y3.5627 E3.5804
G1 X-2.4453 Y-2.4604 E3.4688
G1 X-0.4521 Y3.2341 E3.2655
G1 X-2.0512 Y-2.7928 E3.4651
G1 X-0.905 Y3.3448 E3.4651
G1 X-2.0512 Y-2.7928 E3.4651
G1 X-0.905 Y3.3448 E3.4651
G1 X-1.6645 Y-3.2254 E3.6295
G1 X-1.2494 Y2.8959 E3.1539
G1 X-0.491 Y-3.7274 E3.7596
G1 X-2.2921 Y2.7462 E3.5771
G1 X1.853 Y-3.1189 E3.6278
G1 X-3.5692 Y0.6494 E3.6278
G1 X1.853 Y-3.1189 E3.6278
G1 X-3.6819 Y0.7739 E3.7623
G1 X0.1732 Y-3.4022 E3.4066
G1 X-2.8007 Y1.9394 E3.4066
G1 X0.1732 Y-3.4022 E3.4066
G1 X-2.8007 Y1.9394 E3.4066
G1 X0.1732 Y-3.4022 E3.4066
G1 X-2.8007 Y1.9394 E3.4066
G1 X0.1732 Y-3.4022 E3.4066
G1 X-2.8007 Y1.9394 E3.4066
G1 X0.1732 Y-3.4022 E3.4066
G1 X-2.8007 Y1.9394 E3.4066
G1 X0.1732 Y-3.4022 E3.4066
G1 X-2.8007 Y1.9394 E3.4066
G1 X0.1732 Y-3.4022 E3.4066
G1 X-2.8007 Y1.9394 E3.4066
G1 X0.599 Y-4.7129 E4.7508
G1 X-3.3904 Y3.9407 E5.1985
G1 X0.869 Y-4.8163 E4.8941
G1 X-3.1516 Y3.1131 E4.4299
G1 X8.1461 Y-3.5102 E8.8702
G1 X-8.8508 Y0.5867 E8.8702
G1 X10.9268 Y-4.1805 E11.6992
G1 X-11.6157 Y1.2533 E11.6831
G1 X11.0909 Y-4.0491 E11.8069
G1 X-11.7541 Y1.1159 E11.8069
G1 X11.2116 Y-4.0764 E11.9296
G1 X-11.8747 Y1.1431 E11.9296
G1 X11.3323 Y-4.1037 E12.0524
G1 X-11.9954 Y1.1704 E12.0524
G1 X11.3727 Y-4.1128 E12.0936
G1 X-12.0359 Y1.1796 E12.0936
G1 X6.5607 Y-3.0249 E7.2245
G1 X-7.0234 Y0.1732 E7.0255
G1 X3.4589 Y2.5653 E4.3064
G1 X-0.9368 Y-4.2032 E4.3064
G1 X3.4508 Y2.5528 E4.2924
G1 X-0.9132 Y-4.1627 E4.2617
G1 X2.8992 Y2.7099 E3.9685
G1 X-0.1566 Y-3.9426 E3.9457
G1 X2.7798 Y2.8058 E3.9496
G1 X0.0015 Y-3.9496 E3.9496
G1 X3.1166 Y1.4424 E3.4342
G1 X-0.8933 Y-3.4363 E3.5505
G1 X3.1899 Y1.1231 E3.3819
G1 X-1.0342 Y-3.2199 E3.3819
G1 X3.1899 Y1.1231 E3.3819
G1 X-1.0342 Y-3.2199 E3.3819
G1 X3.1899 Y1.1231 E3.3819
G1 X-0.9176 Y-3.0819 E3.2156
G1 X3.0 Y1.5547 E3.3789
G1 X-0.5726 Y-3.33 E3.3789
G1 X3.0 Y1.5547 E3.3789
G1 X-0.5726 Y-3.33 E3.3789
G1 X3.0 Y1.5547 E3.3789
G1 X-0.449 Y-3.1136 E3.1458
G1 X2.7201 Y2.5151 E3.7047
G1 X0.0419 Y-3.7045 E3.7047
G1 X2.7201 Y2.5151 E3.7047
G1 X0.0419 Y-3.7045 E3.7047
G1 X1.9821 Y3.1817 E3.7486
G1 X0.9932 Y-3.5751 E3.7105
G1 X1.8673 Y3.0086 E3.541
G1 X1.1227 Y-3.0544 E3.2542
G1 X1.1936 Y3.3205 E3.5285
G1 X1.8001 Y-3.0348 E3.5285
G1 X1.1936 Y3.3205 E3.5285
G1 X1.8001 Y-3.0348 E3.5285
G1 X1.0416 Y3.2973 E3.4579
G1 X1.836 Y-2.5307 E3.1265
G1 X0.2441 Y3.4528 E3.4614
G1 X2.55 Y-2.3408 E3.4614
G1 X0.2441 Y3.4528 E3.4614
G1 X2.55 Y-2.3408 E3.4614
G1 X0.2458 Y3.4486 E3.4574
G1 X-0.0072 Y-0.3534 Z1.0 E1.0606
; LAYER:18
G1 F1000 
G1 X2.4991 Y-2.247 E3.3608
G1 X0.1168 Y3.412 E3.414
G1 X2.6257 Y-2.2361 E3.4489
G1 X0.2271 Y3.3985 E3.4061
G1 X2.5368 Y-2.273 E3.4061
G1 X0.2271 Y3.3985 E3.4061
G1 X2.5368 Y-2.273 E3.4061
G1 X0.1317 Y3.3657 E3.3683
G1 X2.2774 Y-1.707 E2.8461
G1 X-1.091 Y3.1907 E3.3721
G1 X3.196 Y-1.0752 E3.3721
G1 X-1.0879 Y3.1913 E3.3716
G1 X3.1962 Y-1.0791 E3.3734
G1 X-0.8696 Y3.2387 E3.3534
G1 X3.1178 Y-1.277 E3.3692
G1 X-0.8313 Y3.249 E3.3536
G1 X3.3206 Y-2.0529 E3.9039
G1 X1.853 Y2.8895 E3.4326
G1 X1.1097 Y-3.2483 E3.4326
G1 X1.853 Y2.8895 E3.4326
G1 X1.1097 Y-3.2483 E3.4326
G1 X-0.9143 Y3.4485 E3.5677
G1 X2.489 Y-1.2413 E2.7814
G1 X-2.7357 Y2.3299 E3.5935
G1 X3.5526 Y0.5404 E3.5935
G1 X-2.7357 Y2.3299 E3.5935
G1 X3.5526 Y0.5404 E3.5935
G1 X-2.5228 Y2.2694 E3.3933
G1 X3.3397 Y0.601 E3.3933
G1 X-2.7673 Y1.8519 E3.3298
G1 X2.2397 Y0.8625 E2.4
G1 X-3.3515 Y-0.1827 E3.3565
G1 X1.8813 Y2.7797 E3.3565
G1 X-3.3515 Y-0.1827 E3.3565
G1 X1.8722 Y2.7694 E3.3429
G1 X-2.666 Y-2.5309 E3.676
G1 X-0.0904 Y3.6749 E3.676
G1 X-1.8191 Y-2.8208 E3.3564
G1 X-1.1344 Y3.0255 E3.2312
G1 X-2.233 Y-2.551 E3.3903
G1 X-0.0246 Y4.1116 E4.1117
G1 X-3.6004 Y-0.357 E3.618
G1 X2.1074 Y2.941 E3.618
G1 X-3.5357 Y-0.3196 E3.5501
G1 X2.0426 Y2.9036 E3.5501
G1 X-3.4215 Y-0.2536 E3.4309
G1 X1.9285 Y2.8376 E3.4309
G1 X-3.3614 Y-0.2977 E3.3745
G1 X1.7781 Y2.8265 E3.3393
G1 X-3.3526 Y-0.3857 E3.3747
G1 X1.7357 Y2.8941 E3.3747
G1 X-3.3526 Y-0.3857 E3.3747
G1 X1.7198 Y2.876 E3.351
G1 X-2.6584 Y-2.0945 E3.3844
G1 X-0.0587 Y3.3198 E3.3203
G1 X-2.4309 Y-2.6317 E3.5826
G1 X-0.4055 Y3.5596 E3.5826
G1 X-2.4323 Y-2.6361 E3.5868
G1 X-0.4041 Y3.564 E3.5868
G1 X-2.4323 Y-2.6361 E3.5868
G1 X-0.4001 Y3.5758 E3.5981
G1 X-2.4749 Y-2.5807 E3.5756
G1 X-0.3445 Y3.559 E3.5756
G1 X-2.4749 Y-2.5807 E3.5756
G1 X-0.3445 Y3.559 E3.5756
G1 X-2.4589 Y-2.5347 E3.5314
G1 X-0.396 Y3.3791 E3.4022
G1 X-2.0399 Y-2.7949 E3.4601
G1 X-0.8937 Y3.3427 E3.4601
G1 X-2.0399 Y-2.7949 E3.4601
G1 X-0.8937 Y3.3427 E3.4601
G1 X-2.0399 Y-2.7949 E3.4601
G1 X-0.8937 Y3.3427 E3.4601
G1 X-0.7579 Y-3.6684 E3.7458
G1 X-2.1157 Y2.9647 E3.6422
G1 X-0.4983 Y-3.5874 E3.6219
G1 X-1.7822 Y1.9423 E2.6361
G1 X1.8595 Y-3.1094 E3.623
G1 X-3.5626 Y0.6588 E3.623
G1 X1.8595 Y-3.1094 E3.623
G1 X-3.7848 Y0.9043 E3.8913
G1 X0.1832 Y-3.3966 E3.4016
G1 X-2.7907 Y1.945 E3.4016
G1 X0.1832 Y-3.3966 E3.4016
G1 X-2.7907 Y1.945 E3.4016
G1 X0.1832 Y-3.3966 E3.4016
G1 X-2.7907 Y1.945 E3.4016
G1 X0.1832 Y-3.3966 E3.4016
G1 X-2.7907 Y1.945 E3.4016
G1 X0.1832 Y-3.3966 E3.4016
G1 X-2.7907 Y1.945 E3.4016
G1 X0.1832 Y-3.3966 E3.4016
G1 X-2.7907 Y1.945 E3.4016
G1 X0.808 Y-4.5188 E4.5905
G1 X-3.5835 Y3.7836 E5.2113
G1 X-1.7029 Y-4.4394 E4.7548
G1 X-1.1414 Y3.9739 E4.1346
G1 X0.8791 Y-4.8109 E4.8906
G1 X-3.5111 Y3.4044 E4.8906
G1 X0.8791 Y-4.8109 E4.8906
G1 X-3.4143 Y3.3294 E4.7689
G1 X7.2704 Y-3.2873 E7.979
G1 X-7.9697 Y0.3861 E7.979
G1 X10.9294 Y-4.1693 E11.6977
G1 X-11.6288 Y1.2681 E11.6977
G1 X10.9294 Y-4.1693 E11.6977
G1 X-11.6288 Y1.2681 E11.6977
G1 X10.9294 Y-4.1693 E11.6977
G1 X-11.6288 Y1.2681 E11.6977
G1 X10.492 Y-4.0446 E11.2446
G1 X-11.1683 Y1.138 E11.2261
G1 X8.9213 Y-3.5468 E9.6005
G1 X-9.5794 Y0.636 E9.6005
G1 X3.9873 Y-1.4775 E4.2523
G1 X-2.7816 Y-0.6754 E2.8624
G1 X3.4493 Y2.5716 E4.3024
G1 X-0.9464 Y-4.197 E4.3024
G1 X3.4493 Y2.5716 E4.3024
G1 X-0.9464 Y-4.197 E4.3024
G1 X3.0837 Y2.4887 E3.9627
G1 X-0.4266 Y-3.8338 E3.8574
G1 X2.8812 Y2.6983 E3.9475
G1 X-0.1458 Y-3.8899 E3.8926
G1 X2.7691 Y2.8102 E3.9453
G1 X-0.0091 Y-3.9453 E3.9453
G1 X2.8885 Y2.399 E3.7548
G1 X-0.5081 Y-4.1125 E4.1437
G1 X3.1817 Y1.1311 E3.3768
G1 X-1.0424 Y-3.2119 E3.3768
G1 X3.1817 Y1.1311 E3.3768
G1 X-1.0424 Y-3.2119 E3.3768
G1 X3.128 Y1.2605 E3.3724
G1 X-0.8143 Y-3.1349 E3.2389
G1 X2.9907 Y1.5614 E3.3738
G1 X-0.5819 Y-3.3232 E3.3738
G1 X2.9907 Y1.5614 E3.3738
G1 X-0.5819 Y-3.3232 E3.3738
G1 X2.9907 Y1.5614 E3.3738
G1 X-0.5819 Y-3.3232 E3.3738
G1 X2.7146 Y2.3459 E3.5878
G1 X0.0088 Y-3.557 E3.557
G1 X2.7096 Y2.5197 E3.7001
G1 X0.0336 Y-3.6916 E3.6917
G1 X1.8828 Y3.2388 E3.7463
G1 X1.0811 Y-3.5869 E3.7463
G1 X1.4056 Y3.2277 E3.5205
G1 X1.5641 Y-3.0494 E3.4271
G1 X1.1821 Y3.3194 E3.5236
G1 X1.7887 Y-3.0359 E3.5236
G1 X1.1821 Y3.3194 E3.5236
G1 X1.7887 Y-3.0359 E3.5236
G1 X0.8598 Y3.3419 E3.4507
G1 X1.9784 Y-2.5093 E3.1954
G1 X0.2334 Y3.4486 E3.4565
G1 X2.5393 Y-2.345 E3.4565
G1 X0.2334 Y3.4486 E3.4565
G1 X2.5393 Y-2.345 E3.4565
G1 X-0.0337 Y-0.318 Z1.0 E1.0499
; LAYER:19
G1 F1000 
G1 X0.1161 Y3.4117 E3.4136
G1 X2.6097 Y-2.2005 E3.4136
G1 X0.1161 Y3.4117 E3.4136
G1 X2.6176 Y-2.2189 E3.4316
G1 X0.2264 Y3.3983 E3.4058
G1 X2.5361 Y-2.2733 E3.4058
G1 X0.2264 Y3.3983 E3.4058
G1 X2.5361 Y-2.2733 E3.4058
G1 X0.1325 Y3.3654 E3.368
G1 X2.2756 Y-1.7081 E2.8454
G1 X-1.0916 Y3.1901 E3.3717
G1 X3.1955 Y-1.0758 E3.3717
G1 X-1.0916 Y3.1901 E3.3717
G1 X3.1974 Y-1.0776 E3.3741
G1 X-1.084 Y3.1922 E3.3712
G1 X3.267 Y-1.1625 E3.4676
G1 X-0.8319 Y3.2485 E3.3533
G1 X3.1774 Y-1.5849 E3.5507
G1 X1.8522 Y2.8896 E3.4323
G1 X1.1089 Y-3.2482 E3.4323
G1 X1.8522 Y2.8896 E3.4323
G1 X1.1089 Y-3.2482 E3.4323
G1 X1.6448 Y2.9413 E3.37
G1 X0.4626 Y-1.7331 E1.7938
G1 X-2.6879 Y2.3155 E3.5477
G1 X3.5043 Y0.5533 E3.5477
G1 X-2.4781 Y2.2558 E3.3511
G1 X3.2945 Y0.613 E3.3511
G1 X-2.7642 Y1.9559 E3.3862
G1 X3.2316 Y0.9896 E3.3798
G1 X-2.7738 Y1.9426 E3.3864
G1 X2.5732 Y0.8842 E2.7209
G1 X-3.3512 Y-0.1833 E3.3562
G1 X1.8817 Y2.779 E3.3562
G1 X-3.3512 Y-0.1833 E3.3562
G1 X1.8034 Y2.6905 E3.239
G1 X-2.6653 Y-2.5312 E3.6757
G1 X-0.0897 Y3.6746 E3.6757
G1 X-2.6653 Y-2.5312 E3.6757
G1 X-0.1254 Y3.5042 E3.5064
G1 X-2.0802 Y-2.7666 E3.4614
G1 X-0.074 Y4.3468 E4.3474
G1 X-3.4051 Y-0.245 E3.4139
G1 X1.9128 Y2.8277 E3.4139
G1 X-3.3551 Y-0.3596 E3.3743
G1 X1.7493 Y2.8729 E3.3636
G1 X-3.3522 Y-0.3864 E3.3744
G1 X1.7362 Y2.8935 E3.3744
G1 X-3.3522 Y-0.3864 E3.3744
G1 X1.7362 Y2.8935 E3.3744
G1 X-3.3522 Y-0.3864 E3.3744
G1 X1.7362 Y2.8935 E3.3744
G1 X-3.3522 Y-0.3864 E3.3744
G1 X1.7362 Y2.8935 E3.3744
G1 X-2.7318 Y-1.9848 E3.3767
G1 X0.0861 Y3.324 E3.3251
G1 X-2.6577 Y-2.0948 E3.384
G1 X-0.0946 Y3.2283 E3.2297
G1 X-2.4316 Y-2.6363 E3.5865
G1 X-0.4033 Y3.5637 E3.5865
G1 X-2.4316 Y-2.6363 E3.5865
G1 X-0.4033 Y3.5637 E3.5865
G1 X-2.4711 Y-2.5839 E3.5753
G1 X-0.3474 Y3.56 E3.5769
G1 X-2.4742 Y-2.581 E3.5753
G1 X-0.3438 Y3.5587 E3.5753
G1 X-2.4167 Y-2.4755 E3.4595
G1 X-0.4607 Y3.2293 E3.262
G1 X-2.0392 Y-2.795 E3.4598
G1 X-0.8929 Y3.3426 E3.4598
G1 X-2.0392 Y-2.795 E3.4598
G1 X-0.8929 Y3.3426 E3.4598
G1 X-2.0392 Y-2.795 E3.4598
G1 X-0.8929 Y3.3426 E3.4598
G1 X-1.7846 Y-3.0811 E3.5606
G1 X-1.1085 Y2.8151 E3.0254
G1 X-0.4793 Y-3.724 E3.7548
G1 X-1.9957 Y2.3526 E3.085
G1 X1.8599 Y-3.1088 E3.6227
G1 X-3.5622 Y0.6594 E3.6227
G1 X1.8599 Y-3.1088 E3.6227
G1 X-3.5622 Y0.6594 E3.6227
G1 X0.8215 Y-3.284 E3.3852
G1 X-3.247 Y1.6336 E3.6348
G1 X0.1839 Y-3.3963 E3.4012
G1 X-2.79 Y1.9453 E3.4012
G1 X0.1839 Y-3.3963 E3.4012
G1 X-2.79 Y1.9453 E3.4012
G1 X0.1839 Y-3.3963 E3.4012
G1 X-2.79 Y1.9453 E3.4012
G1 X0.1839 Y-3.3963 E3.4012
G1 X-2.79 Y1.9453 E3.4012
G1 X0.1839 Y-3.3963 E3.4012
G1 X-2.79 Y1.9453 E3.4012
G1 X-0.7824 Y-4.6736 E4.7387
G1 X-2.1325 Y4.5388 E5.0148
G1 X-1.7022 Y-4.4394 E4.7546
G1 X-1.2287 Y4.3641 E4.5337
G1 X0.8798 Y-4.8106 E4.8903
G1 X-3.5105 Y3.4047 E4.8903
G1 X0.8798 Y-4.8106 E4.8903
G1 X-3.5105 Y3.4047 E4.8903
G1 X0.8798 Y-4.8106 E4.8903
G1 X-3.5105 Y3.4047 E4.8903
G1 X0.8798 Y-4.8106 E4.8903
G1 X-2.7265 Y2.7984 E3.907
G1 X7.7104 Y-3.3926 E8.4238
G1 X-8.4093 Y0.4929 E8.4238
G1 X6.0579 Y-2.9943 E6.7575
G1 X-6.7568 Y0.0945 E6.7575
G1 X4.5176 Y-2.623 E5.2239
G1 X-5.2166 Y-0.2767 E5.2239
G1 X3.3641 Y-2.2405 E4.0419
G1 X-3.7155 Y-0.7053 E3.7819
G1 X3.7163 Y-1.5927 E4.0432
G1 X-3.7972 Y-1.389 E4.0432
G1 X3.4514 Y-1.3181 E3.6945
G1 X-2.2939 Y-1.085 E2.5376
G1 X3.4486 Y2.572 E4.3021
G1 X-0.9471 Y-4.1966 E4.3021
G1 X3.4486 Y2.572 E4.3021
G1 X-0.9471 Y-4.1966 E4.3021
G1 X3.3509 Y2.4215 E4.1343
G1 X-0.7938 Y-3.9452 E4.0243
G1 X2.8881 Y2.715 E3.9639
G1 X-0.1775 Y-3.9599 E3.9639
G1 X2.8477 Y2.73 E3.9449
G1 X-0.1061 Y-3.9038 E3.9052
G1 X2.7684 Y2.8105 E3.945
G1 X-0.0098 Y-3.945 E3.945
G1 X2.7684 Y2.8105 E3.945
G1 X-0.1396 Y-4.1426 E4.145
G1 X3.1812 Y1.1316 E3.3764
G1 X-1.043 Y-3.2113 E3.3764
G1 X3.1812 Y1.1316 E3.3764
G1 X-1.043 Y-3.2113 E3.3764
G1 X3.0823 Y1.3669 E3.3718
G1 X-0.7372 Y-3.2017 E3.2855
G1 X2.9901 Y1.5619 E3.3734
G1 X-0.5825 Y-3.3228 E3.3734
G1 X2.9901 Y1.5619 E3.3734
G1 X-0.5825 Y-3.3228 E3.3734
G1 X2.9901 Y1.5619 E3.3734
G1 X-0.5825 Y-3.3228 E3.3734
G1 X2.9901 Y1.5619 E3.3734
G1 X-0.4333 Y-3.0616 E3.0921
G1 X2.7089 Y2.52 E3.6998
G1 X0.0337 Y-3.6885 E3.6887
G1 X1.8821 Y3.2389 E3.746
G1 X1.0813 Y-3.4977 E3.6611
G1 X1.1814 Y3.3194 E3.5233
G1 X1.7879 Y-3.036 E3.5233
G1 X1.1814 Y3.3194 E3.5233
G1 X1.7879 Y-3.036 E3.5233
G1 X1.1814 Y3.3194 E3.5233
G1 X1.7879 Y-3.036 E3.5233
G1 X0.7398 Y3.3695 E3.4498
G1 X2.0848 Y-2.4869 E3.2451
G1 X0.2327 Y3.4483 E3.4562
G1 X2.5386 Y-2.3453 E3.4562
G1 X0.2345 Y3.4437 E3.4517
G1 X-0.0187 Y-0.3575 Z1.0 E1.0622
; LAYER:20
G1 F1000 
G1 X2.5053 Y-2.2443 E3.3635
G1 X0.123 Y3.4147 E3.4169
G1 X2.6167 Y-2.1974 E3.4169
G1 X0.123 Y3.4147 E3.4169
G1 X2.6176 Y-2.1995 E3.419
G1 X0.2334 Y3.4011 E3.4091
G1 X2.5431 Y-2.2704 E3.4091
G1 X0.2334 Y3.4011 E3.4091
G1 X2.5431 Y-2.2704 E3.4091
G1 X0.064 Y3.3685 E3.3691
G1 X2.3388 Y-1.6764 E2.8776
G1 X-1.0862 Y3.1955 E3.3751
G1 X3.2008 Y-1.0704 E3.3751
G1 X-1.0862 Y3.1955 E3.3751
G1 X3.2015 Y-1.071 E3.3759
G1 X-1.0787 Y3.1975 E3.3746
G1 X3.2152 Y-1.0956 E3.3967
G1 X-0.8261 Y3.2534 E3.3567
G1 X3.0965 Y-1.2957 E3.3567
G1 X1.7149 Y2.9643 E3.4246
G1 X1.2422 Y-3.2617 E3.4902
G1 X1.8597 Y2.8887 E3.4356
G1 X1.1165 Y-3.2491 E3.4356
G1 X1.8597 Y2.8887 E3.4356
G1 X0.6485 Y-2.4579 E2.542
G1 X-2.5099 Y2.2728 E3.386
G1 X3.1601 Y0.6481 E3.2258
G1 X-2.7727 Y1.9501 E3.3898
G1 X3.2352 Y1.012 E3.3898
G1 X-2.7727 Y1.9501 E3.3898
G1 X3.2352 Y1.012 E3.3898
G1 X-2.7727 Y1.9501 E3.3898
G1 X2.8779 Y0.9469 E3.0297
G1 X-3.3549 Y-0.1767 E3.3595
G1 X1.878 Y2.7856 E3.3595
G1 X-3.3549 Y-0.1767 E3.3595
G1 X1.5941 Y2.4649 E2.9355
G1 X-2.6723 Y-2.5283 E3.6788
G1 X-0.0967 Y3.6775 E3.6788
G1 X-2.6723 Y-2.5283 E3.6788
G1 X-0.0967 Y3.6775 E3.6788
G1 X-3.0962 Y-1.4908 E3.4364
G1 X1.2437 Y3.6468 E3.853
G1 X-3.3563 Y-0.38 E3.3777
G1 X1.7321 Y2.8998 E3.3777
G1 X-3.3563 Y-0.38 E3.3777
G1 X1.7321 Y2.8998 E3.3777
G1 X-3.3563 Y-0.38 E3.3777
G1 X1.7321 Y2.8998 E3.3777
G1 X-3.3563 Y-0.38 E3.3777
G1 X1.7321 Y2.8998 E3.3777
G1 X-3.3563 Y-0.38 E3.3777
G1 X1.7321 Y2.8998 E3.3777
G1 X-3.3563 Y-0.38 E3.3777
G1 X1.7254 Y2.8923 E3.3678
G1 X-2.6645 Y-2.0916 E3.3874
G1 X-0.039 Y3.3871 E3.3874
G1 X-2.6645 Y-2.0916 E3.3874
G1 X-0.039 Y3.3871 E3.3874
G1 X-2.5177 Y-2.3623 E3.4524
G1 X-0.3021 Y3.368 E3.3815
G1 X-2.4388 Y-2.634 E3.5896
G1 X-0.4105 Y3.5661 E3.5896
G1 X-2.4652 Y-2.5938 E3.5784
G1 X-0.37 Y3.5678 E3.5869
G1 X-2.4813 Y-2.5785 E3.5785
G1 X-0.351 Y3.5612 E3.5785
G1 X-2.1519 Y-2.7115 E3.4617
G1 X-0.7799 Y3.319 E3.4094
G1 X-2.0466 Y-2.7936 E3.4631
G1 X-0.9004 Y3.344 E3.4631
G1 X-2.0466 Y-2.7936 E3.4631
G1 X-0.9004 Y3.344 E3.4631
G1 X-2.0466 Y-2.7936 E3.4631
G1 X-0.9004 Y3.344 E3.4631
G1 X-2.0466 Y-2.7936 E3.4631
G1 X-0.8715 Y2.742 E2.8771
G1 X-0.4866 Y-3.7261 E3.7578
G1 X-2.0005 Y2.347 E3.0839
G1 X1.8556 Y-3.115 E3.6258
G1 X-3.5665 Y0.6532 E3.6258
G1 X1.8556 Y-3.115 E3.6258
G1 X-3.5665 Y0.6532 E3.6258
G1 X1.7062 Y-3.1315 E3.5662
G1 X-3.9063 Y1.2101 E4.0894
G1 X0.1773 Y-3.3999 E3.4046
G1 X-2.7966 Y1.9416 E3.4046
G1 X0.1773 Y-3.3999 E3.4046
G1 X-2.7966 Y1.9416 E3.4046
G1 X0.1773 Y-3.3999 E3.4046
G1 X-2.7966 Y1.9416 E3.4046
G1 X0.1773 Y-3.3999 E3.4046
G1 X-2.7966 Y1.9416 E3.4046
G1 X0.748 Y-4.425 E4.4878
G1 X-3.5239 Y3.6343 E5.0622
G1 X-1.7097 Y-4.4391 E4.757
G1 X-1.2849 Y4.5801 E4.757
G1 X-1.7097 Y-4.4391 E4.757
G1 X-1.2453 Y4.4048 E4.5774
G1 X0.8731 Y-4.8141 E4.8927
G1 X-3.5171 Y3.4011 E4.8927
G1 X0.8731 Y-4.8141 E4.8927
G1 X-3.5171 Y3.4011 E4.8927
G1 X0.8731 Y-4.8141 E4.8927
G1 X-3.5171 Y3.4011 E4.8927
G1 X0.8731 Y-4.8141 E4.8927
G1 X-3.5171 Y3.4011 E4.8927
G1 X0.3806 Y-3.6235 E3.6435
G1 X-2.1282 Y1.5559 E2.6363
G1 X3.7161 Y-1.6002 E4.046
G1 X-3.7974 Y-1.3966 E4.046
G1 X3.7161 Y-1.6002 E4.046
G1 X-3.7974 Y-1.3966 E4.046
G1 X3.7161 Y-1.6002 E4.046
G1 X-3.7974 Y-1.3966 E4.046
G1 X3.7161 Y-1.6002 E4.046
G1 X-3.7974 Y-1.3966 E4.046
G1 X3.4305 Y-1.5925 E3.7821
G1 X-3.3146 Y-1.3926 E3.5953
G1 X3.565 Y-0.9897 E3.6998
G1 X-2.3634 Y-1.4856 E2.7916
G1 X3.455 Y2.5679 E4.3047
G1 X-0.9407 Y-4.2007 E4.3047
G1 X3.455 Y2.5679 E4.3047
G1 X-0.9407 Y-4.2007 E4.3047
G1 X3.1269 Y2.4385 E3.9653
G1 X-0.4685 Y-3.8094 E3.8381
G1 X2.895 Y2.7119 E3.9667
G1 X-0.1706 Y-3.9631 E3.9667
G1 X2.8414 Y2.7407 E3.9478
G1 X-0.0831 Y-3.9138 E3.9146
G1 X2.7754 Y2.8076 E3.9479
G1 X-0.0028 Y-3.9479 E3.9479
G1 X2.7754 Y2.8076 E3.9479
G1 X-0.0028 Y-3.9479 E3.9479
G1 X2.9944 Y1.9897 E3.5952
G1 X-0.6745 Y-3.8198 E3.8789
G1 X3.1866 Y1.1264 E3.3798
G1 X-1.0375 Y-3.2166 E3.3798
G1 X3.0682 Y1.4067 E3.3753
G1 X-0.6971 Y-3.2342 E3.3085
G1 X2.9962 Y1.5574 E3.3768
G1 X-0.5764 Y-3.3272 E3.3768
G1 X2.9962 Y1.5574 E3.3768
G1 X-0.5764 Y-3.3272 E3.3768
G1 X2.9962 Y1.5574 E3.3768
G1 X-0.5764 Y-3.3272 E3.3768
G1 X2.9962 Y1.5574 E3.3768
G1 X-0.5764 Y-3.3272 E3.3768
G1 X2.7464 Y2.2726 E3.5647
G1 X-0.0232 Y-3.5113 E3.5114
G1 X1.9003 Y3.0319 E3.5782
G1 X1.0756 Y-3.1346 E3.314
G1 X1.1889 Y3.3201 E3.5265
G1 X1.7954 Y-3.0353 E3.5265
G1 X1.1889 Y3.3201 E3.5265
G1 X1.7954 Y-3.0353 E3.5265
G1 X1.1889 Y3.3201 E3.5265
G1 X1.7954 Y-3.0353 E3.5265
G1 X0.6539 Y3.3905 E3.453
G1 X2.1754 Y-2.4637 E3.2866
G1 X0.2398 Y3.4511 E3.4594
G1 X2.5457 Y-2.3425 E3.4594
G1 X-0.0273 Y-0.3155 Z1.0 E1.0489
; LAYER:21
G1 F1000 
G1 X0.1201 Y3.4134 E3.4156
G1 X2.6138 Y-2.1987 E3.4156
G1 X0.1201 Y3.4134 E3.4156
G1 X2.6138 Y-2.1987 E3.4156
G1 X0.1201 Y3.4134 E3.4156
G1 X2.6138 Y-2.1987 E3.4156
G1 X0.1917 Y3.4023 E3.4077
G1 X2.5723 Y-2.2583 E3.423
G1 X0.2305 Y3.3999 E3.4077
G1 X2.5402 Y-2.2716 E3.4077
G1 X0.0825 Y3.3673 E3.3683
G1 X2.3203 Y-1.6862 E2.8683
G1 X-1.0885 Y3.1933 E3.3737
G1 X3.1986 Y-1.0726 E3.3737
G1 X-1.0885 Y3.1933 E3.3737
G1 X3.1986 Y-1.0726 E3.3737
G1 X-1.0835 Y3.1944 E3.3732
G1 X3.1975 Y-1.0777 E3.3742
G1 X-0.99 Y3.2127 E3.3618
G1 X3.2066 Y-1.2064 E3.4261
G1 X0.4442 Y3.3513 E3.3806
G1 X2.3539 Y-3.1465 E3.9295
G1 X1.8566 Y2.889 E3.4342
G1 X1.1133 Y-3.2487 E3.4342
G1 X1.9656 Y3.7895 E4.269
G1 X0.7282 Y-3.3777 E3.4553
G1 X-3.0714 Y2.4909 E3.9545
G1 X3.7394 Y0.3629 E3.757
G1 X-2.7732 Y1.9469 E3.3884
G1 X3.2347 Y1.0089 E3.3884
G1 X-2.7732 Y1.9469 E3.3884
G1 X3.2347 Y1.0089 E3.3884
G1 X-2.7732 Y1.9469 E3.3884
G1 X2.8371 Y0.9365 E2.9876
G1 X-3.3533 Y-0.1795 E3.3581
G1 X1.8795 Y2.7829 E3.3581
G1 X-3.6228 Y-0.5703 E3.6674
G1 X1.449 Y2.3829 E2.7889
G1 X-2.6693 Y-2.5295 E3.6775
G1 X-0.0938 Y3.6763 E3.6775
G1 X-2.7844 Y-2.8996 E4.02
G1 X0.2644 Y4.0417 E4.0504
G1 X-3.3502 Y0.5321 E3.3922
G1 X1.9821 Y2.0675 E2.8641
G1 X-3.3982 Y-0.5755 E3.4466
G1 X1.7248 Y3.0519 E3.5056
G1 X-3.3546 Y-0.3827 E3.3763
G1 X1.7338 Y2.8972 E3.3763
G1 X-3.3546 Y-0.3827 E3.3763
G1 X1.7338 Y2.8972 E3.3763
G1 X-3.3546 Y-0.3827 E3.3763
G1 X1.7338 Y2.8972 E3.3763
G1 X-3.3546 Y-0.3827 E3.3763
G1 X1.7338 Y2.8972 E3.3763
G1 X-3.3546 Y-0.3827 E3.3763
G1 X1.7338 Y2.8972 E3.3763
G1 X-2.7091 Y-2.023 E3.3811
G1 X0.0397 Y3.3481 E3.3484
G1 X-2.6617 Y-2.0929 E3.386
G1 X-0.0362 Y3.3858 E3.386
G1 X-2.6617 Y-2.0929 E3.386
G1 X-0.0465 Y3.3601 E3.3604
G1 X-2.42 Y-2.5867 E3.5423
G1 X-0.4233 Y3.5169 E3.5423
G1 X-2.4414 Y-2.6239 E3.584
G1 X-0.3922 Y3.5831 E3.6045
G1 X-2.4783 Y-2.5795 E3.5771
G1 X-0.3584 Y3.5212 E3.5393
G1 X-2.0435 Y-2.7942 E3.4617
G1 X-0.8973 Y3.3434 E3.4617
G1 X-2.0435 Y-2.7942 E3.4617
G1 X-0.8973 Y3.3434 E3.4617
G1 X-2.0435 Y-2.7942 E3.4617
G1 X-0.8973 Y3.3434 E3.4617
G1 X-2.0435 Y-2.7942 E3.4617
G1 X-0.8973 Y3.3434 E3.4617
G1 X-2.0435 Y-2.7942 E3.4617
G1 X-0.889 Y3.1716 E3.2938
G1 X-0.4835 Y-3.7253 E3.7565
G1 X-2.1886 Y2.6146 E3.4098
G1 X1.8574 Y-3.1124 E3.6245
G1 X-3.5647 Y0.6558 E3.6245
G1 X1.8574 Y-3.1124 E3.6245
G1 X-3.5647 Y0.6558 E3.6245
G1 X1.8574 Y-3.1124 E3.6245
G1 X-3.6499 Y0.75 E3.7262
G1 X0.18 Y-3.3984 E3.4032
G1 X-2.7939 Y1.9432 E3.4032
G1 X0.18 Y-3.3984 E3.4032
G1 X-2.7939 Y1.9432 E3.4032
G1 X0.18 Y-3.3984 E3.4032
G1 X-2.7939 Y1.9432 E3.4032
G1 X0.18 Y-3.3984 E3.4032
G1 X-2.7939 Y1.9432 E3.4032
G1 X-0.5621 Y-4.7052 E4.7386
G1 X-2.346 Y4.5039 E5.0783
G1 X-1.7066 Y-4.4392 E4.756
G1 X-1.2817 Y4.58 E4.756
G1 X-1.7066 Y-4.4392 E4.756
G1 X-1.2817 Y4.58 E4.756
G1 X0.1419 Y-4.876 E4.8781
G1 X-2.833 Y3.6995 E4.6597
G1 X0.8759 Y-4.8126 E4.8917
G1 X-3.5144 Y3.4026 E4.8917
G1 X0.8759 Y-4.8126 E4.8917
G1 X-3.5144 Y3.4026 E4.8917
G1 X0.695 Y-4.4743 E4.5279
G1 X-3.3335 Y3.0643 E4.5279
G1 X1.1978 Y-3.4325 E3.6355
G1 X-3.3236 Y1.3434 E3.5848
G1 X2.5287 Y-3.1079 E4.0067
G1 X-3.276 Y0.4167 E3.3023
G1 X3.7162 Y-1.5971 E4.0449
G1 X-3.7973 Y-1.3934 E4.0449
G1 X3.7162 Y-1.5971 E4.0449
G1 X-3.7973 Y-1.3934 E4.0449
G1 X3.7162 Y-1.5971 E4.0449
G1 X-3.7973 Y-1.3934 E4.0449
G1 X3.5752 Y-1.5933 E3.9141
G1 X-3.5505 Y-1.391 E3.8133
G1 X3.5645 Y-0.9865 E3.6985
G1 X-3.1283 Y-1.9731 E3.6985
G1 X3.5645 Y-0.9865 E3.6985
G1 X-2.1439 Y-1.3413 E2.5289
G1 X3.4523 Y2.5696 E4.3036
G1 X-0.9434 Y-4.199 E4.3036
G1 X3.3643 Y2.434 E4.1524
G1 X-0.804 Y-3.9702 E4.0508
G1 X2.8921 Y2.7132 E3.9655
G1 X-0.1735 Y-3.9617 E3.9655
G1 X2.8921 Y2.7132 E3.9655
G1 X-0.1735 Y-3.9617 E3.9655
G1 X2.7975 Y2.7838 E3.9466
G1 X-0.0361 Y-3.934 E3.9342
G1 X2.7725 Y2.8088 E3.9467
G1 X-0.0057 Y-3.9467 E3.9467
G1 X2.7725 Y2.8088 E3.9467
G1 X-0.0057 Y-3.9467 E3.9467
G1 X2.7725 Y2.8088 E3.9467
G1 X-0.2224 Y-4.2767 E4.2825
G1 X3.1843 Y1.1286 E3.3784
G1 X-1.0398 Y-3.2144 E3.3784
G1 X3.0093 Y1.5277 E3.3749
G1 X-0.605 Y-3.3061 E3.361
G1 X2.9936 Y1.5593 E3.3754
G1 X-0.579 Y-3.3254 E3.3754
G1 X2.9936 Y1.5593 E3.3754
G1 X-0.579 Y-3.3254 E3.3754
G1 X2.9936 Y1.5593 E3.3754
G1 X-0.579 Y-3.3254 E3.3754
G1 X2.9936 Y1.5593 E3.3754
G1 X-0.579 Y-3.3254 E3.3754
G1 X2.9936 Y1.5593 E3.3754
G1 X-0.4373 Y-3.0774 E3.1083
G1 X1.5534 Y3.16 E3.5212
G1 X1.4217 Y-3.0493 E3.3644
G1 X1.1858 Y3.3198 E3.5252
G1 X1.7923 Y-3.0356 E3.5252
G1 X1.1858 Y3.3198 E3.5252
G1 X1.7923 Y-3.0356 E3.5252
G1 X1.1858 Y3.3198 E3.5252
G1 X1.7923 Y-3.0356 E3.5252
G1 X0.5248 Y3.4124 E3.4525
G1 X2.2855 Y-2.4332 E3.3383
G1 X0.2386 Y3.4455 E3.4537
G1 X-0.0146 Y-0.356 Z1.0 E1.0616
; LAYER:22
G1 F1000 
G1 X2.5119 Y-2.2413 E3.3665
G1 X0.1296 Y3.4177 E3.4201
G1 X2.6233 Y-2.1945 E3.4201
G1 X0.1296 Y3.4177 E3.4201
G1 X2.6233 Y-2.1945 E3.4201
G1 X0.1296 Y3.4177 E3.4201
G1 X2.6233 Y-2.1945 E3.4201
G1 X0.164 Y3.4085 E3.4124
G1 X2.6127 Y-2.2414 E3.4424
G1 X0.2401 Y3.4038 E3.4123
G1 X2.5498 Y-2.2677 E3.4123
G1 X-0.0326 Y3.3695 E3.3697
G1 X2.4228 Y-1.633 E2.9217
G1 X-1.0812 Y3.2006 E3.3783
G1 X3.2059 Y-1.0653 E3.3783
G1 X-1.0812 Y3.2006 E3.3783
G1 X3.2059 Y-1.0653 E3.3783
G1 X-1.0797 Y3.2009 E3.3781
G1 X3.2073 Y-1.0683 E3.3806
G1 X-1.0736 Y3.2026 E3.3778
G1 X3.2525 Y-1.1251 E3.4416
G1 X-0.237 Y3.3878 E3.396
G1 X2.9684 Y-2.8988 E4.149
G1 X1.8669 Y2.8878 E3.4387
G1 X1.1236 Y-3.2499 E3.4387
G1 X-0.8784 Y5.1345 E5.2091
G1 X3.147 Y-3.4797 E4.6917
G1 X-2.7894 Y4.041 E4.9102
G1 X3.9252 Y-1.3963 E4.1661
G1 X-2.7716 Y1.9572 E3.3929
G1 X3.2363 Y1.0191 E3.3929
G1 X-2.7716 Y1.9572 E3.3929
G1 X3.2363 Y1.0191 E3.3929
G1 X-2.9975 Y1.4664 E3.3369
G1 X2.2645 Y1.2919 E2.6071
G1 X-3.36 Y-0.1713 E3.3643
G1 X1.5287 Y2.4005 E2.8459
G1 X-2.6789 Y-2.5255 E3.6817
G1 X-0.1033 Y3.6803 E3.6817
G1 X-2.729 Y-3.4746 E4.4182
G1 X-0.1874 Y4.0977 E4.102
G1 X-3.3536 Y0.5375 E3.3963
G1 X2.4646 Y2.3396 E3.3982
G1 X-3.5092 Y-0.2521 E3.5183
G1 X1.8459 Y2.7174 E3.2851
G1 X-3.4268 Y-0.8091 E3.521
G1 X1.6714 Y3.2518 E3.6562
G1 X-3.3602 Y-0.3739 E3.3809
G1 X1.7281 Y2.9059 E3.3809
G1 X-3.3602 Y-0.3739 E3.3809
G1 X1.7281 Y2.9059 E3.3809
G1 X-3.3602 Y-0.3739 E3.3809
G1 X1.7281 Y2.9059 E3.3809
G1 X-3.3602 Y-0.3739 E3.3809
G1 X1.7281 Y2.9059 E3.3809
G1 X-3.3602 Y-0.3739 E3.3809
G1 X1.2618 Y2.3769 E2.691
G1 X-2.671 Y-2.0884 E3.3906
G1 X-0.0455 Y3.3903 E3.3906
G1 X-2.671 Y-2.0884 E3.3906
G1 X-0.0455 Y3.3903 E3.3906
G1 X-2.671 Y-2.0884 E3.3906
G1 X-0.0455 Y3.3903 E3.3906
G1 X-2.4918 Y-2.4227 E3.4754
G1 X-0.3512 Y3.4094 E3.4275
G1 X-2.4747 Y-2.589 E3.5815
G1 X-0.3737 Y3.569 E3.5886
G1 X-2.1702 Y-2.7008 E3.4647
G1 X-0.7741 Y3.3174 E3.4065
G1 X-2.0537 Y-2.7923 E3.4662
G1 X-0.9075 Y3.3453 E3.4662
G1 X-2.0537 Y-2.7923 E3.4662
G1 X-0.9075 Y3.3453 E3.4662
G1 X-2.0537 Y-2.7923 E3.4662
G1 X-0.9075 Y3.3453 E3.4662
G1 X-2.0537 Y-2.7923 E3.4662
G1 X-0.9075 Y3.3453 E3.4662
G1 X-2.0537 Y-2.7923 E3.4662
G1 X-0.8808 Y2.789 E2.9248
G1 X0.0239 Y-3.6052 E3.6053
G1 X-2.2061 Y1.7776 E2.8332
G1 X1.8515 Y-3.121 E3.6288
G1 X-3.5706 Y0.6473 E3.6288
G1 X1.8515 Y-3.121 E3.6288
G1 X-3.5706 Y0.6473 E3.6288
G1 X1.8515 Y-3.121 E3.6288
G1 X-3.8209 Y0.9238 E3.931
G1 X0.171 Y-3.4034 E3.4077
G1 X-2.8029 Y1.9381 E3.4077
G1 X0.171 Y-3.4034 E3.4077
G1 X-2.8029 Y1.9381 E3.4077
G1 X0.171 Y-3.4034 E3.4077
G1 X-2.8029 Y1.9381 E3.4077
G1 X-0.7224 Y-4.6871 E4.7425
G1 X-2.2163 Y4.529 E5.0422
G1 X-1.7169 Y-4.4387 E4.7592
G1 X-1.2921 Y4.5805 E4.7592
G1 X-1.7169 Y-4.4387 E4.7592
G1 X-1.2921 Y4.5805 E4.7592
G1 X-1.7169 Y-4.4387 E4.7592
G1 X-1.1953 Y4.1513 E4.3199
G1 X0.8667 Y-4.8175 E4.8949
G1 X-3.5235 Y3.3977 E4.8949
G1 X0.8667 Y-4.8175 E4.8949
G1 X-3.5235 Y3.3977 E4.8949
G1 X0.6125 Y-4.3419 E4.3849
G1 X-3.2683 Y2.9208 E4.3832
G1 X1.3572 Y-3.3817 E3.6439
G1 X-3.4391 Y1.2045 E3.6439
G1 X1.3595 Y-3.4109 E3.6719
G1 X-3.5051 Y1.2981 E3.7377
G1 X3.1103 Y-2.5297 E4.0092
G1 X-3.5997 Y-0.2983 E3.6121
G1 X3.7159 Y-1.6075 E4.0487
G1 X-3.7976 Y-1.4038 E4.0487
G1 X3.7159 Y-1.6075 E4.0487
G1 X-3.7976 Y-1.4038 E4.0487
G1 X3.7159 Y-1.6075 E4.0487
G1 X-3.7976 Y-1.4038 E4.0487
G1 X3.4895 Y-1.2319 E3.7005
G1 X-3.1526 Y-1.7544 E3.6078
G1 X3.566 Y-0.9968 E3.7027
G1 X-3.1268 Y-1.9834 E3.7027
G1 X3.566 Y-0.9968 E3.7027
G1 X-2.3423 Y-1.4799 E2.7707
G1 X3.461 Y2.5639 E4.3072
G1 X-0.9347 Y-4.2046 E4.3072
G1 X3.1838 Y2.3689 E3.9684
G1 X-0.5276 Y-3.7738 E3.8105
G1 X2.9015 Y2.7088 E3.9695
G1 X-0.1641 Y-3.9661 E3.9695
G1 X2.9015 Y2.7088 E3.9695
G1 X-0.1641 Y-3.9661 E3.9695
G1 X2.8028 Y2.7841 E3.9506
G1 X-0.0213 Y-3.9402 E3.9402
G1 X2.7821 Y2.8049 E3.9506
G1 X0.0038 Y-3.9506 E3.9506
G1 X2.7821 Y2.8049 E3.9506
G1 X0.0038 Y-3.9506 E3.9506
G1 X2.7821 Y2.8049 E3.9506
G1 X0.0038 Y-3.9506 E3.9506
G1 X3.0826 Y1.6065 E3.4761
G1 X-0.8226 Y-3.5536 E3.6476
G1 X3.0091 Y1.5388 E3.3798
G1 X-0.5825 Y-3.3228 E3.3734
G1 X3.002 Y1.5531 E3.38
G1 X-0.5706 Y-3.3315 E3.38
G1 X3.0003 Y1.5508 E3.3774
G1 X-0.5689 Y-3.3292 E3.3774
G1 X2.9957 Y1.5446 E3.3705
G1 X-0.5643 Y-3.3229 E3.3705
G1 X2.9921 Y1.5396 E3.3649
G1 X-0.5606 Y-3.3179 E3.3649
G1 X2.9894 Y1.5359 E3.3608
G1 X-0.5521 Y-3.3061 E3.3519
G1 X1.4679 Y3.0105 E3.3494
G1 X1.5145 Y-2.86 E3.2362
G1 X1.1961 Y3.3208 E3.5296
G1 X1.8026 Y-3.0346 E3.5296
G1 X1.1961 Y3.3208 E3.5296
G1 X1.8026 Y-3.0346 E3.5296
G1 X1.1961 Y3.3208 E3.5296
G1 X1.8026 Y-3.0346 E3.5296
G1 X0.4373 Y3.4305 E3.4583
G1 X2.3822 Y-2.4019 E3.3829
G1 X-0.0206 Y-0.3128 Z1.0 E1.048
; LAYER:23
G1 F1000 
G1 X0.1211 Y3.4139 E3.416
G1 X2.6147 Y-2.1983 E3.416
G1 X0.1211 Y3.4139 E3.416
G1 X2.6147 Y-2.1983 E3.416
G1 X0.1211 Y3.4139 E3.416
G1 X2.6147 Y-2.1983 E3.416
G1 X0.1211 Y3.4139 E3.416
G1 X2.6147 Y-2.1983 E3.416
G1 X0.1211 Y3.4139 E3.416
G1 X2.6302 Y-2.2347 E3.4514
G1 X0.2315 Y3.4003 E3.4082
G1 X2.5411 Y-2.2712 E3.4082
G1 X0.0542 Y3.3675 E3.368
G1 X2.3434 Y-1.6751 E2.8805
G1 X-1.0877 Y3.194 E3.3741
G1 X3.1993 Y-1.0719 E3.3741
G1 X-1.0877 Y3.194 E3.3741
G1 X3.1993 Y-1.0719 E3.3741
G1 X-1.0877 Y3.194 E3.3741
G1 X3.2005 Y-1.073 E3.3755
G1 X-1.0802 Y3.196 E3.3736
G1 X3.1965 Y-1.0787 E3.3736
G1 X-0.9047 Y3.2313 E3.3556
G1 X3.4091 Y-2.1084 E4.0084
G1 X1.8777 Y3.0546 E3.5856
G1 X0.9902 Y-3.1237 E3.2769
G1 X-2.602 Y4.5582 E5.2485
G1 X4.6706 Y-2.3942 E5.2485
G1 X-2.602 Y4.5582 E5.2485
G1 X4.4845 Y-2.3022 E5.041
G1 X-2.8577 Y1.9612 E3.466
G1 X3.3196 Y0.9967 E3.466
G1 X-2.773 Y1.948 E3.3888
G1 X3.2348 Y1.0099 E3.3888
G1 X-3.2648 Y0.6241 E3.3239
G1 X2.1745 Y2.0511 E2.9892
G1 X-3.2827 Y-1.5856 E3.6456
G1 X0.8379 Y3.0949 E3.2063
G1 X-2.9572 Y-3.2203 E4.3721
G1 X0.0915 Y3.9689 E3.9699
G1 X-2.0276 Y-2.6664 E3.3498
G1 X0.2233 Y4.4016 E4.4073
G1 X-3.3505 Y0.5331 E3.3927
G1 X2.4683 Y2.3276 E3.3927
G1 X-3.5052 Y-0.2549 E3.5144
G1 X1.854 Y2.706 E3.2802
G1 X-3.4235 Y-0.843 E3.5257
G1 X1.5414 Y3.171 E3.5257
G1 X-3.387 Y-0.4361 E3.4149
G1 X1.7541 Y2.9444 E3.4273
G1 X-3.3551 Y-0.3818 E3.3768
G1 X1.7332 Y2.898 E3.3768
G1 X-3.3551 Y-0.3818 E3.3768
G1 X1.7332 Y2.898 E3.3768
G1 X-3.3551 Y-0.3818 E3.3768
G1 X1.7332 Y2.898 E3.3768
G1 X-3.3527 Y-0.4535 E3.3832
G1 X1.1737 Y2.3378 E2.6159
G1 X-2.6626 Y-2.0925 E3.3864
G1 X-0.0371 Y3.3862 E3.3864
G1 X-2.6626 Y-2.0925 E3.3864
G1 X-0.0371 Y3.3862 E3.3864
G1 X-2.6626 Y-2.0925 E3.3864
G1 X-0.0371 Y3.3862 E3.3864
G1 X-2.6626 Y-2.0925 E3.3864
G1 X-0.0718 Y3.2997 E3.3005
G1 X-2.4519 Y-2.6052 E3.5776
G1 X-0.4013 Y3.4966 E3.5195
G1 X-2.0445 Y-2.794 E3.4622
G1 X-0.8983 Y3.3436 E3.4622
G1 X-2.0445 Y-2.794 E3.4622
G1 X-0.8983 Y3.3436 E3.4622
G1 X-2.0445 Y-2.794 E3.4622
G1 X-0.8983 Y3.3436 E3.4622
G1 X-2.0445 Y-2.794 E3.4622
G1 X-0.8983 Y3.3436 E3.4622
G1 X-2.0445 Y-2.794 E3.4622
G1 X-0.8983 Y3.3436 E3.4622
G1 X-2.0445 Y-2.794 E3.4622
G1 X-0.8875 Y3.1192 E3.243
G1 X-0.4552 Y-3.5926 E3.6214
G1 X-1.8218 Y1.9274 E2.6521
G1 X1.8568 Y-3.1133 E3.625
G1 X-3.5653 Y0.655 E3.625
G1 X1.8568 Y-3.1133 E3.625
G1 X-3.5653 Y0.655 E3.625
G1 X1.8568 Y-3.1133 E3.625
G1 X-3.5653 Y0.655 E3.625
G1 X0.5496 Y-3.3469 E3.3917
G1 X-3.0612 Y1.7758 E3.539
G1 X0.1791 Y-3.3989 E3.4036
G1 X-2.7948 Y1.9427 E3.4036
G1 X0.4671 Y-3.9162 E3.9439
G1 X-3.1674 Y2.8209 E4.2415
G1 X-1.7076 Y-4.4392 E4.7563
G1 X-1.2828 Y4.58 E4.7563
G1 X-1.7076 Y-4.4392 E4.7563
G1 X-1.2828 Y4.58 E4.7563
G1 X-1.7076 Y-4.4392 E4.7563
G1 X-1.2828 Y4.58 E4.7563
G1 X-1.7076 Y-4.4392 E4.7563
G1 X-1.2691 Y4.5195 E4.6943
G1 X0.8749 Y-4.8131 E4.892
G1 X-3.5153 Y3.4021 E4.892
G1 X0.8749 Y-4.8131 E4.892
G1 X-3.5153 Y3.4021 E4.892
G1 X0.3176 Y-3.7703 E3.7836
G1 X-2.7409 Y2.0733 E3.4367
G1 X1.3637 Y-3.375 E3.6401
G1 X-3.4326 Y1.2113 E3.6401
G1 X1.3637 Y-3.375 E3.6401
G1 X-3.4648 Y1.2438 E3.6813
G1 X1.1999 Y-3.4664 E3.6682
G1 X-2.9658 Y1.2306 E3.211
G1 X3.7162 Y-1.5981 E4.0452
G1 X-3.7973 Y-1.3945 E4.0452
G1 X3.7162 Y-1.5981 E4.0452
G1 X-3.7973 Y-1.3945 E4.0452
G1 X3.7162 Y-1.5981 E4.0452
G1 X-3.7973 Y-1.3945 E4.0452
G1 X3.402 Y-1.448 E3.6973
G1 X-3.164 Y-1.5256 E3.5126
G1 X3.5647 Y-0.9876 E3.699
G1 X-3.1281 Y-1.9741 E3.699
G1 X3.5647 Y-0.9876 E3.699
G1 X-3.1281 Y-1.9741 E3.699
G1 X3.5647 Y-0.9876 E3.699
G1 X-2.1758 Y-1.3629 E2.5674
G1 X3.411 Y2.504 E4.2314
G1 X-0.87 Y-4.0796 E4.1713
G1 X2.893 Y2.7127 E3.9659
G1 X-0.1725 Y-3.9622 E3.9659
G1 X2.893 Y2.7127 E3.9659
G1 X-0.1725 Y-3.9622 E3.9659
G1 X2.893 Y2.7127 E3.9659
G1 X-0.1701 Y-3.9566 E3.9603
G1 X2.7735 Y2.8084 E3.9471
G1 X-0.0048 Y-3.9471 E3.9471
G1 X2.7735 Y2.8084 E3.9471
G1 X-0.0048 Y-3.9471 E3.9471
G1 X2.7735 Y2.8084 E3.9471
G1 X-0.0048 Y-3.9471 E3.9471
G1 X2.7735 Y2.8084 E3.9471
G1 X-0.0048 Y-3.9471 E3.9471
G1 X2.7735 Y2.8084 E3.9471
G1 X-0.2377 Y-4.3076 E4.3142
G1 X2.9864 Y1.5477 E3.3637
G1 X-0.5701 Y-3.315 E3.3637
G1 X2.9832 Y1.5433 E3.3588
G1 X-0.5669 Y-3.3106 E3.3588
G1 X2.9729 Y1.5579 E3.3564
G1 X-0.5448 Y-3.3091 E3.3536
G1 X2.9697 Y1.5641 E3.3564
G1 X-0.5398 Y-3.3127 E3.3564
G1 X2.9697 Y1.5641 E3.3564
G1 X-0.5398 Y-3.3127 E3.3564
G1 X2.9697 Y1.5641 E3.3564
G1 X-0.5011 Y-3.2069 E3.2458
G1 X1.6357 Y2.933 E3.3582
G1 X1.3553 Y-3.0471 E3.3349
G1 X1.4578 Y3.0179 E3.3516
G1 X1.5264 Y-2.8576 E3.2397
G1 X1.1868 Y3.3199 E3.5256
G1 X1.7933 Y-3.0355 E3.5256
G1 X1.1868 Y3.3199 E3.5256
G1 X1.7933 Y-3.0355 E3.5256
G1 X0.2996 Y3.4396 E3.4526
G1 X-0.0672 Y-0.3764 Z1.0 E1.0706
; LAYER:24
G1 F1000 
G1 X2.5119 Y-2.2413 E3.3665
G1 X0.1296 Y3.4177 E3.4201
G1 X2.6233 Y-2.1945 E3.4201
G1 X0.1296 Y3.4177 E3.4201
G1 X2.6233 Y-2.1945 E3.4201
G1 X0.1296 Y3.4177 E3.4201
G1 X2.6233 Y-2.1945 E3.4201
G1 X0.1296 Y3.4177 E3.4201
G1 X2.6233 Y-2.1945 E3.4201
G1 X0.1296 Y3.4177 E3.4201
G1 X2.6327 Y-2.2166 E3.4416
G1 X0.2401 Y3.4038 E3.4123
G1 X2.5498 Y-2.2677 E3.4123
G1 X-0.0686 Y3.3682 E3.3689
G1 X2.4504 Y-1.6189 E2.9369
G1 X-1.0811 Y3.2006 E3.3783
G1 X3.2059 Y-1.0653 E3.3783
G1 X-1.0811 Y3.2006 E3.3783
G1 X3.2059 Y-1.0653 E3.3783
G1 X-1.0811 Y3.2006 E3.3783
G1 X3.206 Y-1.0653 E3.3783
G1 X-1.0736 Y3.2026 E3.3778
G1 X3.2032 Y-1.072 E3.3778
G1 X-1.0736 Y3.2026 E3.3778
G1 X3.4564 Y-1.7374 E3.8685
G1 X1.1829 Y5.0886 E5.2242
G1 X1.2658 Y-3.9368 E4.1353
G1 X-2.5955 Y4.5649 E5.2512
G1 X4.6771 Y-2.3874 E5.2512
G1 X-2.5955 Y4.5649 E5.2512
G1 X4.6771 Y-2.3874 E5.2512
G1 X-3.0524 Y2.6807 E4.0625
G1 X3.7898 Y0.1609 E3.7932
G1 X-2.7716 Y1.9572 E3.393
G1 X2.8433 Y0.9476 E2.997
G1 X-3.5887 Y-0.3008 E3.6013
G1 X1.5041 Y2.2438 E2.7013
G1 X-2.8608 Y-3.3692 E4.4199
G1 X-0.042 Y4.0464 E4.0466
G1 X-1.8058 Y-2.8782 E3.3978
G1 X-0.4015 Y4.1461 E4.1655
G1 X-3.3533 Y0.542 E3.3968
G1 X2.4655 Y2.3366 E3.3968
G1 X-3.3533 Y0.542 E3.3968
G1 X2.4224 Y2.3136 E3.3497
G1 X-3.4294 Y-0.8357 E3.5297
G1 X1.5355 Y3.1783 E3.5297
G1 X-3.4294 Y-0.8357 E3.5297
G1 X1.5355 Y3.1783 E3.5297
G1 X-3.4131 Y-0.6663 E3.4776
G1 X1.6987 Y3.1387 E3.5689
G1 X-3.3602 Y-0.3739 E3.3809
G1 X1.7281 Y2.9059 E3.3809
G1 X-3.3602 Y-0.3739 E3.3809
G1 X1.7281 Y2.9059 E3.3809
G1 X-3.3602 Y-0.3739 E3.3809
G1 X1.7281 Y2.9059 E3.3809
G1 X-2.7476 Y-1.9734 E3.3828
G1 X0.0774 Y3.3279 E3.3288
G1 X-2.671 Y-2.0884 E3.3906
G1 X-0.0455 Y3.3903 E3.3906
G1 X-2.671 Y-2.0884 E3.3906
G1 X-0.0455 Y3.3903 E3.3906
G1 X-2.671 Y-2.0884 E3.3906
G1 X-0.0455 Y3.3903 E3.3906
G1 X-2.6615 Y-2.0686 E3.3709
G1 X-0.0581 Y3.3629 E3.3634
G1 X-2.1349 Y-2.8126 E3.5311
G1 X-0.8169 Y3.4016 E3.4983
