; *************************************************
; *************************************************
; ******* File generated by Extruder Turtle *******
; ******* written by Leah Buechley and  ***********
; ******* and Franklin Pezutti-Dyer ***************
; **** Hand and Machine Lab, UNM, 2021-present ****
; *************************************************
; *************************************************
; ********** Default printer parameters ***********
; Printer: ender
; Nozzle size: 0.2
; Extrude width: 0.4
; Layer height: 0.2
; Extrude rate: 0.05
; Speed: 1000
; Mix Factor: 0.9
; *************** Ender initialization **************
G92 E0 ; Reset Extruder 
G28 ; Home all axes
G90 ; Absolute coordinates for X,Y,Z   
M190 S60 ; Set bed temperature and wait 
M109 S205 ; Set extruder temperature and wait 
G1 Z2.0 F3000 ; Move Z to 2mm above bed 
G1 X0.1 Y20 Z0.3 F5000.0 ; Move to start position
G1 X0.1 Y200.0 Z0.3 F1500.0 E15 ; Draw the first line
G1 X0.4 Y200.0 Z0.3 F5000.0 ; Move to side a little
G1 X0.4 Y20 Z0.3 F1500.0 E30 ; Draw the second line
G92 E0 ; Reset Extruder
G1 Z2.0 F3000 ; Move Z Axis up little to prevent scratching of Heat Bed 
G1 X5 Y20 Z0.3 F5000.0 ; Move over to prevent blob squish 
G92 E0 ; Reset extruder position to zero 
G1 F300 E-3 
G1 F2000
G1 0 0 .3               ; Lift nozzle above bed a little
G1 X100 Y100 Z.1        ; Go to the starting position 
F300 E3                 ; Extrude to get ready
M83 					; Relative extrustion
G91                     ; Relative coordinates for X,Y,Z axes
G1 F1000
; ********** End printer initialization ***********
; *************************************************

; *************** Begin print *********************
G1 X-7.1702 Y5.682 Z0.0 E0.457
G1 X0.0104 Y-0.1684 Z0.0 E0.008
G1 X0.0119 Y-0.1683 Z0.0 E0.008
G1 X0.0133 Y-0.1682 Z0.0 E0.008
G1 X0.0147 Y-0.1681 Z0.0 E0.008
G1 X0.0161 Y-0.1679 Z0.0 E0.008
G1 X0.0176 Y-0.1678 Z0.0 E0.008
G1 X0.0191 Y-0.1676 Z0.0 E0.008
G1 X0.0205 Y-0.1675 Z0.0 E0.008
G1 X0.022 Y-0.1673 Z0.0 E0.008
G1 X0.0235 Y-0.1671 Z0.0 E0.008
G1 X0.025 Y-0.1668 Z0.0 E0.008
G1 X0.0266 Y-0.1666 Z0.0 E0.008
G1 X0.0281 Y-0.1664 Z0.0 E0.008
G1 X0.0296 Y-0.1661 Z0.0 E0.008
G1 X0.0312 Y-0.1658 Z0.0 E0.008
G1 X0.0328 Y-0.1655 Z0.0 E0.008
G1 X0.0343 Y-0.1652 Z0.0 E0.008
G1 X0.036 Y-0.1648 Z0.0 E0.008
G1 X0.0376 Y-0.1645 Z0.0 E0.008
G1 X0.0392 Y-0.1641 Z0.0 E0.008
G1 X0.0409 Y-0.1637 Z0.0 E0.008
G1 X0.0425 Y-0.1633 Z0.0 E0.008
G1 X0.0442 Y-0.1628 Z0.0 E0.008
G1 X0.0459 Y-0.1624 Z0.0 E0.008
G1 X0.0476 Y-0.1619 Z0.0 E0.008
G1 X0.0493 Y-0.1613 Z0.0 E0.008
G1 X0.051 Y-0.1608 Z0.0 E0.008
G1 X0.0528 Y-0.1602 Z0.0 E0.008
G1 X0.0546 Y-0.1596 Z0.0 E0.008
G1 X0.0564 Y-0.159 Z0.0 E0.008
G1 X0.0582 Y-0.1584 Z0.0 E0.008
G1 X0.06 Y-0.1577 Z0.0 E0.008
G1 X0.0618 Y-0.157 Z0.0 E0.008
G1 X0.0637 Y-0.1562 Z0.0 E0.008
G1 X0.0655 Y-0.1555 Z0.0 E0.008
G1 X0.0674 Y-0.1547 Z0.0 E0.008
G1 X0.0693 Y-0.1538 Z0.0 E0.008
G1 X0.0712 Y-0.153 Z0.0 E0.008
G1 X0.0731 Y-0.152 Z0.0 E0.008
G1 X0.0751 Y-0.1511 Z0.0 E0.008
G1 X0.077 Y-0.1501 Z0.0 E0.008
G1 X0.079 Y-0.1491 Z0.0 E0.008
G1 X0.0809 Y-0.148 Z0.0 E0.008
G1 X0.0829 Y-0.1469 Z0.0 E0.008
G1 X0.0849 Y-0.1458 Z0.0 E0.008
G1 X0.0869 Y-0.1446 Z0.0 E0.008
G1 X0.0888 Y-0.1434 Z0.0 E0.008
G1 X0.0907 Y-0.1423 Z0.0 E0.008
G1 X0.0926 Y-0.1411 Z0.0 E0.008
G1 X0.0944 Y-0.1399 Z0.0 E0.008
G1 X0.0961 Y-0.1386 Z0.0 E0.008
G1 X0.0979 Y-0.1374 Z0.0 E0.008
G1 X0.0996 Y-0.1362 Z0.0 E0.008
G1 X0.1012 Y-0.135 Z0.0 E0.008
G1 X0.1028 Y-0.1338 Z0.0 E0.008
G1 X0.1044 Y-0.1325 Z0.0 E0.008
G1 X0.1059 Y-0.1313 Z0.0 E0.008
G1 X0.1075 Y-0.1301 Z0.0 E0.008
G1 X0.1089 Y-0.1288 Z0.0 E0.008
G1 X0.1104 Y-0.1276 Z0.0 E0.008
G1 X0.1118 Y-0.1264 Z0.0 E0.008
G1 X0.1132 Y-0.1251 Z0.0 E0.008
G1 X0.1145 Y-0.1239 Z0.0 E0.008
G1 X0.1158 Y-0.1227 Z0.0 E0.008
G1 X0.1171 Y-0.1215 Z0.0 E0.008
G1 X0.1184 Y-0.1202 Z0.0 E0.008
G1 X0.1196 Y-0.119 Z0.0 E0.008
G1 X0.1208 Y-0.1178 Z0.0 E0.008
G1 X0.122 Y-0.1166 Z0.0 E0.008
G1 X0.1231 Y-0.1153 Z0.0 E0.008
G1 X0.1243 Y-0.1141 Z0.0 E0.008
G1 X0.1254 Y-0.1129 Z0.0 E0.008
G1 X0.1264 Y-0.1117 Z0.0 E0.008
G1 X0.1275 Y-0.1105 Z0.0 E0.008
G1 X0.1285 Y-0.1093 Z0.0 E0.008
G1 X0.1295 Y-0.1081 Z0.0 E0.008
G1 X0.1305 Y-0.1069 Z0.0 E0.008
G1 X0.1315 Y-0.1058 Z0.0 E0.008
G1 X0.1324 Y-0.1046 Z0.0 E0.008
G1 X0.1333 Y-0.1034 Z0.0 E0.008
G1 X0.1342 Y-0.1022 Z0.0 E0.008
G1 X0.1351 Y-0.101 Z0.0 E0.008
G1 X0.136 Y-0.0998 Z0.0 E0.008
G1 X0.1369 Y-0.0987 Z0.0 E0.008
G1 X0.1377 Y-0.0975 Z0.0 E0.008
G1 X0.1385 Y-0.0963 Z0.0 E0.008
G1 X0.1393 Y-0.0952 Z0.0 E0.008
G1 X0.1401 Y-0.094 Z0.0 E0.008
G1 X0.1415 Y-0.0803 Z0.0 E0.008
G1 X0.1503 Y0.0766 Z0.0 E0.008
G1 X0.1508 Y0.0756 Z0.0 E0.008
G1 X0.1513 Y0.0746 Z0.0 E0.008
G1 X0.1518 Y0.0736 Z0.0 E0.008
G1 X0.1523 Y0.0726 Z0.0 E0.008
G1 X0.1528 Y0.0716 Z0.0 E0.008
G1 X0.1532 Y0.0706 Z0.0 E0.008
G1 X0.1537 Y0.0696 Z0.0 E0.008
G1 X0.1542 Y0.0685 Z0.0 E0.008
G1 X0.1546 Y0.0675 Z0.0 E0.008
G1 X0.1551 Y0.0664 Z0.0 E0.008
G1 X0.1555 Y0.0654 Z0.0 E0.008
G1 X0.156 Y0.0643 Z0.0 E0.008
G1 X0.1564 Y0.0632 Z0.0 E0.008
G1 X0.1569 Y0.0621 Z0.0 E0.008
G1 X0.1573 Y0.061 Z0.0 E0.008
G1 X0.1577 Y0.0599 Z0.0 E0.008
G1 X0.1581 Y0.0588 Z0.0 E0.008
G1 X0.1585 Y0.0577 Z0.0 E0.008
G1 X0.1589 Y0.0566 Z0.0 E0.008
G1 X0.1593 Y0.0555 Z0.0 E0.008
G1 X0.1597 Y0.0543 Z0.0 E0.008
G1 X0.1601 Y0.0532 Z0.0 E0.008
G1 X0.1605 Y0.052 Z0.0 E0.008
G1 X0.1609 Y0.0508 Z0.0 E0.008
G1 X0.1612 Y0.0496 Z0.0 E0.008
G1 X0.1616 Y0.0485 Z0.0 E0.008
G1 X0.162 Y0.0473 Z0.0 E0.008
G1 X0.1623 Y0.046 Z0.0 E0.008
G1 X0.1627 Y0.0448 Z0.0 E0.008
G1 X0.163 Y0.0436 Z0.0 E0.008
G1 X0.1633 Y0.0423 Z0.0 E0.008
G1 X0.1636 Y0.0411 Z0.0 E0.008
G1 X0.164 Y0.0398 Z0.0 E0.008
G1 X0.1643 Y0.0385 Z0.0 E0.008
G1 X0.1646 Y0.0372 Z0.0 E0.008
G1 X0.1648 Y0.0359 Z0.0 E0.008
G1 X0.1651 Y0.0346 Z0.0 E0.008
G1 X0.1654 Y0.0333 Z0.0 E0.008
G1 X0.1657 Y0.032 Z0.0 E0.008
G1 X0.1659 Y0.0306 Z0.0 E0.008
G1 X0.1662 Y0.0293 Z0.0 E0.008
G1 X0.1664 Y0.0279 Z0.0 E0.008
G1 X0.1666 Y0.0265 Z0.0 E0.008
G1 X0.1668 Y0.0251 Z0.0 E0.008
G1 X0.167 Y0.0237 Z0.0 E0.008
G1 X0.1672 Y0.0223 Z0.0 E0.008
G1 X0.1674 Y0.0209 Z0.0 E0.008
G1 X0.1676 Y0.0194 Z0.0 E0.008
G1 X0.1678 Y0.018 Z0.0 E0.008
G1 X0.1679 Y0.0165 Z0.0 E0.008
G1 X0.168 Y0.0151 Z0.0 E0.008
G1 X0.1682 Y0.0136 Z0.0 E0.008
G1 X0.1683 Y0.0121 Z0.0 E0.008
G1 X0.1684 Y0.0106 Z0.0 E0.008
G1 X0.1685 Y0.0091 Z0.0 E0.008
G1 X0.1685 Y0.0076 Z0.0 E0.008
G1 X0.1686 Y0.006 Z0.0 E0.008
G1 X0.1687 Y0.0045 Z0.0 E0.008
G1 X0.1687 Y0.0029 Z0.0 E0.008
G1 X0.1618 Y0.0054 Z0.0 E0.008
G1 X-0.0832 Y0.1468 Z0.0 E0.008
G1 X-0.0819 Y0.1475 Z0.0 E0.008
G1 X-0.0805 Y0.1483 Z0.0 E0.008
G1 X-0.0791 Y0.149 Z0.0 E0.008
G1 X-0.0778 Y0.1497 Z0.0 E0.008
G1 X-0.0764 Y0.1504 Z0.0 E0.008
G1 X-0.075 Y0.1511 Z0.0 E0.008
G1 X-0.0737 Y0.1518 Z0.0 E0.008
G1 X-0.0723 Y0.1524 Z0.0 E0.008
G1 X-0.071 Y0.1531 Z0.0 E0.008
G1 X-0.0696 Y0.1537 Z0.0 E0.008
G1 X-0.0683 Y0.1543 Z0.0 E0.008
G1 X-0.0669 Y0.1549 Z0.0 E0.008
G1 X-0.0656 Y0.1554 Z0.0 E0.008
G1 X-0.0642 Y0.156 Z0.0 E0.008
G1 X-0.0629 Y0.1565 Z0.0 E0.008
G1 X-0.0616 Y0.1571 Z0.0 E0.008
G1 X-0.0603 Y0.1576 Z0.0 E0.008
G1 X-0.0589 Y0.1581 Z0.0 E0.008
G1 X-0.0576 Y0.1586 Z0.0 E0.008
G1 X-0.0563 Y0.159 Z0.0 E0.008
G1 X-0.055 Y0.1595 Z0.0 E0.008
G1 X-0.0537 Y0.1599 Z0.0 E0.008
G1 X-0.0524 Y0.1604 Z0.0 E0.008
G1 X-0.0511 Y0.1608 Z0.0 E0.008
G1 X-0.0499 Y0.1612 Z0.0 E0.008
G1 X-0.0486 Y0.1616 Z0.0 E0.008
G1 X-0.0473 Y0.1619 Z0.0 E0.008
G1 X-0.0461 Y0.1623 Z0.0 E0.008
G1 X-0.0448 Y0.1627 Z0.0 E0.008
G1 X-0.0435 Y0.163 Z0.0 E0.008
G1 X-0.0423 Y0.1633 Z0.0 E0.008
G1 X-0.0411 Y0.1636 Z0.0 E0.008
G1 X-0.0398 Y0.1639 Z0.0 E0.008
G1 X-0.0386 Y0.1642 Z0.0 E0.008
G1 X-0.0374 Y0.1645 Z0.0 E0.008
G1 X-0.0362 Y0.1648 Z0.0 E0.008
G1 X-0.0349 Y0.1651 Z0.0 E0.008
G1 X-0.0337 Y0.1653 Z0.0 E0.008
G1 X-0.0325 Y0.1655 Z0.0 E0.008
G1 X-0.0313 Y0.1658 Z0.0 E0.008
G1 X-0.0302 Y0.166 Z0.0 E0.008
G1 X-0.029 Y0.1662 Z0.0 E0.008
G1 X-0.0278 Y0.1664 Z0.0 E0.008
G1 X-0.0266 Y0.1666 Z0.0 E0.008
G1 X-0.0255 Y0.1668 Z0.0 E0.008
G1 X-0.0243 Y0.167 Z0.0 E0.008
G1 X-0.0231 Y0.1671 Z0.0 E0.008
G1 X-0.022 Y0.1673 Z0.0 E0.008
G1 X-0.0208 Y0.1674 Z0.0 E0.008
G1 X-0.0197 Y0.1676 Z0.0 E0.008
G1 X-0.0185 Y0.1677 Z0.0 E0.008
G1 X-0.0174 Y0.1678 Z0.0 E0.008
G1 X-0.0163 Y0.1679 Z0.0 E0.008
G1 X-0.0151 Y0.168 Z0.0 E0.008
G1 X-0.014 Y0.1681 Z0.0 E0.008
G1 X-0.0129 Y0.1682 Z0.0 E0.008
G1 X-0.0118 Y0.1683 Z0.0 E0.008
G1 X-0.0107 Y0.1684 Z0.0 E0.008
G1 X-0.0096 Y0.1684 Z0.0 E0.008
G1 X-0.0085 Y0.1685 Z0.0 E0.008
G1 X-0.1333 Y0.0868 Z0.0 E0.008
G1 X-0.1516 Y0.0741 Z0.0 E0.008
G1 X-0.1522 Y0.0728 Z0.0 E0.008
G1 X-0.1528 Y0.0715 Z0.0 E0.008
G1 X-0.1534 Y0.0702 Z0.0 E0.008
G1 X-0.154 Y0.0689 Z0.0 E0.008
G1 X-0.1546 Y0.0676 Z0.0 E0.008
G1 X-0.1552 Y0.0662 Z0.0 E0.008
G1 X-0.1558 Y0.0648 Z0.0 E0.008
G1 X-0.1563 Y0.0634 Z0.0 E0.008
G1 X-0.1569 Y0.062 Z0.0 E0.008
G1 X-0.1575 Y0.0606 Z0.0 E0.008
G1 X-0.158 Y0.0592 Z0.0 E0.008
G1 X-0.1585 Y0.0577 Z0.0 E0.008
G1 X-0.1591 Y0.0562 Z0.0 E0.008
G1 X-0.1596 Y0.0547 Z0.0 E0.008
G1 X-0.1601 Y0.0532 Z0.0 E0.008
G1 X-0.1606 Y0.0517 Z0.0 E0.008
G1 X-0.1611 Y0.0501 Z0.0 E0.008
G1 X-0.1616 Y0.0485 Z0.0 E0.008
G1 X-0.1621 Y0.0469 Z0.0 E0.008
G1 X-0.1625 Y0.0453 Z0.0 E0.008
G1 X-0.163 Y0.0437 Z0.0 E0.008
G1 X-0.1634 Y0.042 Z0.0 E0.008
G1 X-0.1638 Y0.0403 Z0.0 E0.008
G1 X-0.1643 Y0.0386 Z0.0 E0.008
G1 X-0.1647 Y0.0368 Z0.0 E0.008
G1 X-0.165 Y0.035 Z0.0 E0.008
G1 X-0.1654 Y0.0332 Z0.0 E0.008
G1 X-0.1658 Y0.0314 Z0.0 E0.008
G1 X-0.1661 Y0.0295 Z0.0 E0.008
G1 X-0.1664 Y0.0277 Z0.0 E0.008
G1 X-0.1667 Y0.0257 Z0.0 E0.008
G1 X-0.167 Y0.0238 Z0.0 E0.008
G1 X-0.1673 Y0.0218 Z0.0 E0.008
G1 X-0.1675 Y0.0198 Z0.0 E0.008
G1 X-0.1678 Y0.0178 Z0.0 E0.008
G1 X-0.168 Y0.0158 Z0.0 E0.008
G1 X-0.1682 Y0.0137 Z0.0 E0.008
G1 X-0.1683 Y0.0116 Z0.0 E0.008
G1 X-0.1685 Y0.0094 Z0.0 E0.008
G1 X-0.1686 Y0.0072 Z0.0 E0.008
G1 X-0.1686 Y0.005 Z0.0 E0.008
G1 X-0.1687 Y0.0028 Z0.0 E0.008
G1 X-0.1687 Y0.0005 Z0.0 E0.008
G1 X-0.1687 Y-0.0017 Z0.0 E0.008
G1 X-0.1687 Y-0.004 Z0.0 E0.008
G1 X-0.1686 Y-0.0062 Z0.0 E0.008
G1 X-0.1685 Y-0.0084 Z0.0 E0.008
G1 X-0.1684 Y-0.0106 Z0.0 E0.008
G1 X-0.1682 Y-0.0127 Z0.0 E0.008
G1 X-0.1681 Y-0.0148 Z0.0 E0.008
G1 X-0.1679 Y-0.0168 Z0.0 E0.008
G1 X-0.1677 Y-0.0189 Z0.0 E0.008
G1 X-0.1674 Y-0.0209 Z0.0 E0.008
G1 X-0.1672 Y-0.0229 Z0.0 E0.008
G1 X-0.1669 Y-0.0248 Z0.0 E0.008
G1 X-0.1666 Y-0.0268 Z0.0 E0.008
G1 X-0.1663 Y-0.0287 Z0.0 E0.008
G1 X-0.1659 Y-0.0305 Z0.0 E0.008
G1 X-0.1656 Y-0.0324 Z0.0 E0.008
G1 X-0.1652 Y-0.0342 Z0.0 E0.008
G1 X-0.1648 Y-0.036 Z0.0 E0.008
G1 X-0.1644 Y-0.0377 Z0.0 E0.008
G1 X-0.164 Y-0.0395 Z0.0 E0.008
G1 X-0.1636 Y-0.0412 Z0.0 E0.008
G1 X-0.1632 Y-0.0429 Z0.0 E0.008
G1 X-0.1627 Y-0.0445 Z0.0 E0.008
G1 X-0.1623 Y-0.0462 Z0.0 E0.008
G1 X-0.1618 Y-0.0478 Z0.0 E0.008
G1 X-0.1613 Y-0.0494 Z0.0 E0.008
G1 X-0.1608 Y-0.0509 Z0.0 E0.008
G1 X-0.1603 Y-0.0525 Z0.0 E0.008
G1 X-0.1598 Y-0.054 Z0.0 E0.008
G1 X-0.1593 Y-0.0555 Z0.0 E0.008
G1 X-0.1588 Y-0.057 Z0.0 E0.008
G1 X-0.1583 Y-0.0585 Z0.0 E0.008
G1 X-0.1577 Y-0.0599 Z0.0 E0.008
G1 X-0.1572 Y-0.0614 Z0.0 E0.008
G1 X-0.1566 Y-0.0628 Z0.0 E0.008
G1 X-0.156 Y-0.0642 Z0.0 E0.008
G1 X-0.1555 Y-0.0655 Z0.0 E0.008
G1 X-0.1549 Y-0.0669 Z0.0 E0.008
G1 X-0.1543 Y-0.0683 Z0.0 E0.008
G1 X-0.1537 Y-0.0696 Z0.0 E0.008
G1 X-0.1531 Y-0.0709 Z0.0 E0.008
G1 X-0.1525 Y-0.0722 Z0.0 E0.008
G1 X-0.1519 Y-0.0735 Z0.0 E0.008
G1 X-0.2444 Y-0.0801 Z0.2 E0.016
G1 X0.0106 Y-0.1709 Z0.0 E0.009
G1 X0.0121 Y-0.1708 Z0.0 E0.009
G1 X0.0135 Y-0.1707 Z0.0 E0.009
G1 X0.015 Y-0.1706 Z0.0 E0.009
G1 X0.0164 Y-0.1704 Z0.0 E0.009
G1 X0.0179 Y-0.1703 Z-0.0 E0.009
G1 X0.0194 Y-0.1701 Z0.0 E0.009
G1 X0.0209 Y-0.1699 Z0.0 E0.009
G1 X0.0225 Y-0.1697 Z0.0 E0.009
G1 X0.024 Y-0.1695 Z0.0 E0.009
G1 X0.0256 Y-0.1693 Z0.0 E0.009
G1 X0.0271 Y-0.169 Z0.0 E0.009
G1 X0.0287 Y-0.1688 Z-0.0 E0.009
G1 X0.0303 Y-0.1685 Z0.0 E0.009
G1 X0.0319 Y-0.1682 Z0.0 E0.009
G1 X0.0335 Y-0.1679 Z-0.0 E0.009
G1 X0.0351 Y-0.1676 Z0.0 E0.009
G1 X0.0368 Y-0.1672 Z0.0 E0.009
G1 X0.0384 Y-0.1668 Z-0.0 E0.009
G1 X0.0401 Y-0.1664 Z0.0 E0.009
G1 X0.0418 Y-0.166 Z-0.0 E0.009
G1 X0.0435 Y-0.1656 Z0.0 E0.009
G1 X0.0452 Y-0.1651 Z0.0 E0.009
G1 X0.0469 Y-0.1646 Z-0.0 E0.009
G1 X0.0487 Y-0.1641 Z0.0 E0.009
G1 X0.0505 Y-0.1636 Z0.0 E0.009
G1 X0.0522 Y-0.163 Z-0.0 E0.009
G1 X0.054 Y-0.1625 Z0.0 E0.009
G1 X0.0559 Y-0.1618 Z0.0 E0.009
G1 X0.0577 Y-0.1612 Z0.0 E0.009
G1 X0.0595 Y-0.1605 Z0.0 E0.009
G1 X0.0614 Y-0.1598 Z-0.0 E0.009
G1 X0.0633 Y-0.1591 Z0.0 E0.009
G1 X0.0652 Y-0.1583 Z0.0 E0.009
G1 X0.0671 Y-0.1575 Z0.0 E0.009
G1 X0.069 Y-0.1567 Z0.0 E0.009
G1 X0.071 Y-0.1558 Z-0.0 E0.009
G1 X0.0729 Y-0.1549 Z0.0 E0.009
G1 X0.0749 Y-0.154 Z0.0 E0.009
G1 X0.0769 Y-0.153 Z0.0 E0.009
G1 X0.0789 Y-0.152 Z-0.0 E0.009
G1 X0.0809 Y-0.1509 Z0.0 E0.009
G1 X0.0829 Y-0.1498 Z0.0 E0.009
G1 X0.0849 Y-0.1486 Z0.0 E0.009
G1 X0.087 Y-0.1475 Z0.0 E0.009
G1 X0.089 Y-0.1463 Z-0.0 E0.009
G1 X0.0909 Y-0.1451 Z-0.0 E0.009
G1 X0.0928 Y-0.1438 Z0.0 E0.009
G1 X0.0947 Y-0.1426 Z-0.0 E0.009
G1 X0.0965 Y-0.1414 Z0.0 E0.009
G1 X0.0983 Y-0.1402 Z0.0 E0.009
G1 X0.1001 Y-0.1389 Z0.0 E0.009
G1 X0.1018 Y-0.1377 Z0.0 E0.009
G1 X0.1035 Y-0.1364 Z-0.0 E0.009
G1 X0.1051 Y-0.1352 Z0.0 E0.009
G1 X0.1067 Y-0.1339 Z0.0 E0.009
G1 X0.1083 Y-0.1326 Z0.0 E0.009
G1 X0.1098 Y-0.1314 Z0.0 E0.009
G1 X0.1113 Y-0.1301 Z0.0 E0.009
G1 X0.1127 Y-0.1288 Z0.0 E0.009
G1 X0.1142 Y-0.1276 Z0.0 E0.009
G1 X0.1156 Y-0.1263 Z-0.0 E0.009
G1 X0.1169 Y-0.1251 Z-0.0 E0.009
G1 X0.1182 Y-0.1238 Z0.0 E0.009
G1 X0.1195 Y-0.1226 Z0.0 E0.009
G1 X0.1208 Y-0.1213 Z0.0 E0.009
G1 X0.1221 Y-0.12 Z0.0 E0.009
G1 X0.1233 Y-0.1188 Z0.0 E0.009
G1 X0.1245 Y-0.1176 Z0.0 E0.009
G1 X0.1256 Y-0.1163 Z0.0 E0.009
G1 X0.1268 Y-0.1151 Z-0.0 E0.009
G1 X0.1279 Y-0.1138 Z0.0 E0.009
G1 X0.129 Y-0.1126 Z0.0 E0.009
G1 X0.13 Y-0.1114 Z0.0 E0.009
G1 X0.1311 Y-0.1101 Z-0.0 E0.009
G1 X0.1321 Y-0.1089 Z0.0 E0.009
G1 X0.1331 Y-0.1077 Z0.0 E0.009
G1 X0.1341 Y-0.1065 Z0.0 E0.009
G1 X0.135 Y-0.1053 Z0.0 E0.009
G1 X0.1359 Y-0.1041 Z0.0 E0.009
G1 X0.1369 Y-0.1029 Z0.0 E0.009
G1 X0.1378 Y-0.1017 Z0.0 E0.009
G1 X0.1386 Y-0.1005 Z0.0 E0.009
G1 X0.1395 Y-0.0993 Z0.0 E0.009
G1 X0.1403 Y-0.0981 Z0.0 E0.009
G1 X0.1412 Y-0.0969 Z0.0 E0.009
G1 X0.142 Y-0.0957 Z0.0 E0.009
G1 X0.1428 Y-0.0945 Z0.0 E0.009
G1 X0.1481 Y-0.0006 Z0.0 E0.007
G1 X0.1526 Y0.0776 Z0.0 E0.009
G1 X0.1531 Y0.0766 Z-0.0 E0.009
G1 X0.1536 Y0.0755 Z0.0 E0.009
G1 X0.1541 Y0.0745 Z0.0 E0.009
G1 X0.1546 Y0.0735 Z0.0 E0.009
G1 X0.1551 Y0.0724 Z0.0 E0.009
G1 X0.1556 Y0.0714 Z0.0 E0.009
G1 X0.1561 Y0.0703 Z0.0 E0.009
G1 X0.1566 Y0.0692 Z0.0 E0.009
G1 X0.1571 Y0.0681 Z0.0 E0.009
G1 X0.1575 Y0.067 Z0.0 E0.009
G1 X0.158 Y0.0659 Z0.0 E0.009
G1 X0.1585 Y0.0648 Z0.0 E0.009
G1 X0.1589 Y0.0637 Z0.0 E0.009
G1 X0.1594 Y0.0626 Z0.0 E0.009
G1 X0.1598 Y0.0615 Z0.0 E0.009
G1 X0.1602 Y0.0603 Z0.0 E0.009
G1 X0.1607 Y0.0592 Z0.0 E0.009
G1 X0.1611 Y0.058 Z0.0 E0.009
G1 X0.1615 Y0.0568 Z0.0 E0.009
G1 X0.1619 Y0.0557 Z0.0 E0.009
G1 X0.1623 Y0.0545 Z0.0 E0.009
G1 X0.1627 Y0.0533 Z0.0 E0.009
G1 X0.1631 Y0.0521 Z0.0 E0.009
G1 X0.1635 Y0.0508 Z0.0 E0.009
G1 X0.1639 Y0.0496 Z0.0 E0.009
G1 X0.1642 Y0.0484 Z0.0 E0.009
G1 X0.1646 Y0.0471 Z0.0 E0.009
G1 X0.1649 Y0.0459 Z0.0 E0.009
G1 X0.1653 Y0.0446 Z0.0 E0.009
G1 X0.1656 Y0.0433 Z0.0 E0.009
G1 X0.166 Y0.042 Z0.0 E0.009
G1 X0.1663 Y0.0407 Z0.0 E0.009
G1 X0.1666 Y0.0394 Z-0.0 E0.009
G1 X0.1669 Y0.038 Z0.0 E0.009
G1 X0.1672 Y0.0367 Z0.0 E0.009
G1 X0.1675 Y0.0353 Z-0.0 E0.009
G1 X0.1678 Y0.034 Z0.0 E0.009
G1 X0.1681 Y0.0326 Z0.0 E0.009
G1 X0.1683 Y0.0312 Z0.0 E0.009
G1 X0.1686 Y0.0298 Z0.0 E0.009
G1 X0.1688 Y0.0284 Z0.0 E0.009
G1 X0.1691 Y0.027 Z0.0 E0.009
G1 X0.1693 Y0.0255 Z0.0 E0.009
G1 X0.1695 Y0.0241 Z0.0 E0.009
G1 X0.1697 Y0.0226 Z0.0 E0.009
G1 X0.1699 Y0.0211 Z0.0 E0.009
G1 X0.1701 Y0.0196 Z-0.0 E0.009
G1 X0.1702 Y0.0181 Z0.0 E0.009
G1 X0.1704 Y0.0166 Z0.0 E0.009
G1 X0.1705 Y0.0151 Z0.0 E0.009
G1 X0.1707 Y0.0136 Z0.0 E0.009
G1 X0.1708 Y0.012 Z0.0 E0.009
G1 X0.1709 Y0.0105 Z0.0 E0.009
G1 X0.171 Y0.0089 Z0.0 E0.009
G1 X0.171 Y0.0073 Z0.0 E0.009
G1 X0.1711 Y0.0057 Z-0.0 E0.009
G1 X0.1712 Y0.0041 Z0.0 E0.009
G1 X0.1712 Y0.0025 Z-0.0 E0.009
G1 X0.1712 Y0.001 Z0.0 E0.009
G1 X0.0724 Y0.0576 Z0.0 E0.005
G1 X-0.0851 Y0.1486 Z0.0 E0.009
G1 X-0.0839 Y0.1493 Z0.0 E0.009
G1 X-0.0824 Y0.1501 Z0.0 E0.009
G1 X-0.081 Y0.1508 Z0.0 E0.009
G1 X-0.0796 Y0.1516 Z0.0 E0.009
G1 X-0.0782 Y0.1523 Z0.0 E0.009
G1 X-0.0768 Y0.153 Z0.0 E0.009
G1 X-0.0754 Y0.1537 Z0.0 E0.009
G1 X-0.074 Y0.1544 Z0.0 E0.009
G1 X-0.0726 Y0.1551 Z0.0 E0.009
G1 X-0.0712 Y0.1557 Z0.0 E0.009
G1 X-0.0698 Y0.1563 Z0.0 E0.009
G1 X-0.0684 Y0.157 Z-0.0 E0.009
G1 X-0.067 Y0.1576 Z0.0 E0.009
G1 X-0.0656 Y0.1581 Z0.0 E0.009
G1 X-0.0642 Y0.1587 Z0.0 E0.009
G1 X-0.0628 Y0.1593 Z-0.0 E0.009
G1 X-0.0615 Y0.1598 Z0.0 E0.009
G1 X-0.0601 Y0.1603 Z0.0 E0.009
G1 X-0.0588 Y0.1608 Z-0.0 E0.009
G1 X-0.0574 Y0.1613 Z0.0 E0.009
G1 X-0.0561 Y0.1618 Z-0.0 E0.009
G1 X-0.0547 Y0.1622 Z0.0 E0.009
G1 X-0.0534 Y0.1627 Z-0.0 E0.009
G1 X-0.052 Y0.1631 Z0.0 E0.009
G1 X-0.0507 Y0.1635 Z-0.0 E0.009
G1 X-0.0494 Y0.1639 Z0.0 E0.009
G1 X-0.0481 Y0.1643 Z-0.0 E0.009
G1 X-0.0468 Y0.1647 Z0.0 E0.009
G1 X-0.0455 Y0.1651 Z-0.0 E0.009
G1 X-0.0442 Y0.1654 Z0.0 E0.009
G1 X-0.0429 Y0.1657 Z0.0 E0.009
G1 X-0.0416 Y0.1661 Z0.0 E0.009
G1 X-0.0403 Y0.1664 Z0.0 E0.009
G1 X-0.0391 Y0.1667 Z0.0 E0.009
G1 X-0.0378 Y0.167 Z0.0 E0.009
G1 X-0.0365 Y0.1673 Z0.0 E0.009
G1 X-0.0353 Y0.1675 Z0.0 E0.009
G1 X-0.034 Y0.1678 Z0.0 E0.009
G1 X-0.0328 Y0.168 Z-0.0 E0.009
G1 X-0.0316 Y0.1683 Z0.0 E0.009
G1 X-0.0303 Y0.1685 Z-0.0 E0.009
G1 X-0.0291 Y0.1687 Z0.0 E0.009
G1 X-0.0279 Y0.1689 Z0.0 E0.009
G1 X-0.0267 Y0.1691 Z0.0 E0.009
G1 X-0.0255 Y0.1693 Z0.0 E0.009
G1 X-0.0243 Y0.1695 Z0.0 E0.009
G1 X-0.0231 Y0.1696 Z0.0 E0.009
G1 X-0.0219 Y0.1698 Z0.0 E0.009
G1 X-0.0207 Y0.1699 Z0.0 E0.009
G1 X-0.0195 Y0.1701 Z0.0 E0.009
G1 X-0.0183 Y0.1702 Z0.0 E0.009
G1 X-0.0172 Y0.1703 Z0.0 E0.009
G1 X-0.016 Y0.1705 Z0.0 E0.009
G1 X-0.0148 Y0.1706 Z-0.0 E0.009
G1 X-0.0137 Y0.1707 Z0.0 E0.009
G1 X-0.0125 Y0.1707 Z0.0 E0.009
G1 X-0.0114 Y0.1708 Z0.0 E0.009
G1 X-0.0102 Y0.1709 Z0.0 E0.009
G1 X-0.0091 Y0.171 Z0.0 E0.009
G1 X-0.0264 Y0.1591 Z0.0 E0.008
G1 X-0.1532 Y0.0765 Z0.0 E0.009
G1 X-0.1538 Y0.0753 Z0.0 E0.009
G1 X-0.1544 Y0.0739 Z0.0 E0.009
G1 X-0.155 Y0.0726 Z-0.0 E0.009
G1 X-0.1557 Y0.0713 Z0.0 E0.009
G1 X-0.1563 Y0.0699 Z0.0 E0.009
G1 X-0.1569 Y0.0686 Z0.0 E0.009
G1 X-0.1575 Y0.0672 Z0.0 E0.009
G1 X-0.1581 Y0.0658 Z0.0 E0.009
G1 X-0.1587 Y0.0643 Z0.0 E0.009
G1 X-0.1592 Y0.0629 Z0.0 E0.009
G1 X-0.1598 Y0.0614 Z0.0 E0.009
G1 X-0.1604 Y0.06 Z0.0 E0.009
G1 X-0.1609 Y0.0585 Z0.0 E0.009
G1 X-0.1615 Y0.057 Z0.0 E0.009
G1 X-0.162 Y0.0554 Z0.0 E0.009
G1 X-0.1625 Y0.0539 Z-0.0 E0.009
G1 X-0.163 Y0.0523 Z0.0 E0.009
G1 X-0.1635 Y0.0507 Z0.0 E0.009
G1 X-0.164 Y0.0491 Z0.0 E0.009
G1 X-0.1645 Y0.0474 Z0.0 E0.009
G1 X-0.165 Y0.0457 Z0.0 E0.009
G1 X-0.1654 Y0.044 Z0.0 E0.009
G1 X-0.1659 Y0.0423 Z0.0 E0.009
G1 X-0.1663 Y0.0406 Z0.0 E0.009
G1 X-0.1667 Y0.0388 Z-0.0 E0.009
G1 X-0.1672 Y0.037 Z0.0 E0.009
G1 X-0.1675 Y0.0352 Z0.0 E0.009
G1 X-0.1679 Y0.0334 Z0.0 E0.009
G1 X-0.1683 Y0.0315 Z0.0 E0.009
G1 X-0.1686 Y0.0296 Z0.0 E0.009
G1 X-0.169 Y0.0276 Z0.0 E0.009
G1 X-0.1693 Y0.0257 Z0.0 E0.009
G1 X-0.1696 Y0.0237 Z0.0 E0.009
G1 X-0.1698 Y0.0217 Z0.0 E0.009
G1 X-0.1701 Y0.0196 Z0.0 E0.009
G1 X-0.1703 Y0.0175 Z0.0 E0.009
G1 X-0.1705 Y0.0154 Z-0.0 E0.009
G1 X-0.1707 Y0.0133 Z0.0 E0.009
G1 X-0.1708 Y0.0111 Z0.0 E0.009
G1 X-0.171 Y0.0089 Z0.0 E0.009
G1 X-0.1711 Y0.0067 Z0.0 E0.009
G1 X-0.1711 Y0.0044 Z0.0 E0.009
G1 X-0.1712 Y0.0021 Z-0.0 E0.009
G1 X-0.1712 Y-0.0002 Z0.0 E0.009
G1 X-0.1712 Y-0.0025 Z0.0 E0.009
G1 X-0.1711 Y-0.0048 Z0.0 E0.009
G1 X-0.1711 Y-0.0071 Z0.0 E0.009
G1 X-0.171 Y-0.0093 Z0.0 E0.009
G1 X-0.1708 Y-0.0115 Z0.0 E0.009
G1 X-0.1707 Y-0.0137 Z0.0 E0.009
G1 X-0.1705 Y-0.0158 Z0.0 E0.009
G1 X-0.1703 Y-0.0179 Z0.0 E0.009
G1 X-0.17 Y-0.02 Z0.0 E0.009
G1 X-0.1698 Y-0.022 Z-0.0 E0.009
G1 X-0.1695 Y-0.024 Z0.0 E0.009
G1 X-0.1692 Y-0.026 Z0.0 E0.009
G1 X-0.1689 Y-0.028 Z0.0 E0.009
G1 X-0.1686 Y-0.0299 Z0.0 E0.009
G1 X-0.1682 Y-0.0318 Z0.0 E0.009
G1 X-0.1679 Y-0.0337 Z0.0 E0.009
G1 X-0.1675 Y-0.0355 Z0.0 E0.009
G1 X-0.1671 Y-0.0373 Z0.0 E0.009
G1 X-0.1667 Y-0.0391 Z0.0 E0.009
G1 X-0.1662 Y-0.0409 Z0.0 E0.009
G1 X-0.1658 Y-0.0426 Z0.0 E0.009
G1 X-0.1654 Y-0.0443 Z0.0 E0.009
G1 X-0.1649 Y-0.046 Z-0.0 E0.009
G1 X-0.1644 Y-0.0477 Z0.0 E0.009
G1 X-0.1639 Y-0.0494 Z0.0 E0.009
G1 X-0.1634 Y-0.051 Z0.0 E0.009
G1 X-0.1629 Y-0.0526 Z0.0 E0.009
G1 X-0.1624 Y-0.0541 Z0.0 E0.009
G1 X-0.1619 Y-0.0557 Z0.0 E0.009
G1 X-0.1614 Y-0.0572 Z0.0 E0.009
G1 X-0.1608 Y-0.0587 Z0.0 E0.009
G1 X-0.1603 Y-0.0602 Z-0.0 E0.009
G1 X-0.1597 Y-0.0617 Z0.0 E0.009
G1 X-0.1591 Y-0.0632 Z-0.0 E0.009
G1 X-0.1586 Y-0.0646 Z0.0 E0.009
G1 X-0.158 Y-0.066 Z0.0 E0.009
G1 X-0.1574 Y-0.0674 Z0.0 E0.009
G1 X-0.1568 Y-0.0688 Z0.0 E0.009
G1 X-0.1562 Y-0.0702 Z0.0 E0.009
G1 X-0.1556 Y-0.0715 Z0.0 E0.009
G1 X-0.1549 Y-0.0729 Z0.0 E0.009
G1 X-0.1543 Y-0.0742 Z0.0 E0.009
G1 X-0.1537 Y-0.0755 Z0.0 E0.009
G1 X-0.1878 Y-0.1157 Z0.2 E0.015
G1 X0.0108 Y-0.1734 Z0.0 E0.009
G1 X0.0122 Y-0.1733 Z0.0 E0.009
G1 X0.0137 Y-0.1732 Z0.0 E0.009
G1 X0.0152 Y-0.173 Z-0.0 E0.009
G1 X0.0168 Y-0.1729 Z0.0 E0.009
G1 X0.0183 Y-0.1727 Z0.0 E0.009
G1 X0.0198 Y-0.1726 Z0.0 E0.009
G1 X0.0214 Y-0.1724 Z0.0 E0.009
G1 X0.0229 Y-0.1722 Z0.0 E0.009
G1 X0.0245 Y-0.172 Z0.0 E0.009
G1 X0.0261 Y-0.1717 Z-0.0 E0.009
G1 X0.0277 Y-0.1715 Z0.0 E0.009
G1 X0.0293 Y-0.1712 Z0.0 E0.009
G1 X0.0309 Y-0.1709 Z-0.0 E0.009
G1 X0.0326 Y-0.1706 Z0.0 E0.009
G1 X0.0342 Y-0.1703 Z0.0 E0.009
G1 X0.0359 Y-0.1699 Z0.0 E0.009
G1 X0.0376 Y-0.1696 Z0.0 E0.009
G1 X0.0393 Y-0.1692 Z0.0 E0.009
G1 X0.041 Y-0.1688 Z0.0 E0.009
G1 X0.0427 Y-0.1684 Z0.0 E0.009
G1 X0.0445 Y-0.1679 Z0.0 E0.009
G1 X0.0462 Y-0.1674 Z0.0 E0.009
G1 X0.048 Y-0.1669 Z-0.0 E0.009
G1 X0.0498 Y-0.1664 Z0.0 E0.009
G1 X0.0516 Y-0.1658 Z0.0 E0.009
G1 X0.0535 Y-0.1653 Z-0.0 E0.009
G1 X0.0553 Y-0.1647 Z0.0 E0.009
G1 X0.0572 Y-0.164 Z0.0 E0.009
G1 X0.059 Y-0.1634 Z0.0 E0.009
G1 X0.0609 Y-0.1627 Z0.0 E0.009
G1 X0.0629 Y-0.1619 Z0.0 E0.009
G1 X0.0648 Y-0.1612 Z0.0 E0.009
G1 X0.0667 Y-0.1604 Z0.0 E0.009
G1 X0.0687 Y-0.1595 Z0.0 E0.009
G1 X0.0707 Y-0.1587 Z0.0 E0.009
G1 X0.0726 Y-0.1578 Z-0.0 E0.009
G1 X0.0747 Y-0.1568 Z0.0 E0.009
G1 X0.0767 Y-0.1559 Z0.0 E0.009
G1 X0.0787 Y-0.1548 Z0.0 E0.009
G1 X0.0807 Y-0.1538 Z-0.0 E0.009
G1 X0.0828 Y-0.1527 Z0.0 E0.009
G1 X0.0849 Y-0.1515 Z0.0 E0.009
G1 X0.087 Y-0.1504 Z0.0 E0.009
G1 X0.089 Y-0.1491 Z-0.0 E0.009
G1 X0.0911 Y-0.1479 Z0.0 E0.009
G1 X0.093 Y-0.1467 Z-0.0 E0.009
G1 X0.095 Y-0.1454 Z0.0 E0.009
G1 X0.0969 Y-0.1442 Z0.0 E0.009
G1 X0.0987 Y-0.1429 Z0.0 E0.009
G1 X0.1005 Y-0.1416 Z-0.0 E0.009
G1 X0.1023 Y-0.1404 Z0.0 E0.009
G1 X0.104 Y-0.1391 Z-0.0 E0.009
G1 X0.1057 Y-0.1378 Z0.0 E0.009
G1 X0.1074 Y-0.1365 Z0.0 E0.009
G1 X0.109 Y-0.1352 Z0.0 E0.009
G1 X0.1106 Y-0.1339 Z0.0 E0.009
G1 X0.1121 Y-0.1327 Z0.0 E0.009
G1 X0.1136 Y-0.1314 Z0.0 E0.009
G1 X0.1151 Y-0.1301 Z0.0 E0.009
G1 X0.1166 Y-0.1288 Z0.0 E0.009
G1 X0.118 Y-0.1275 Z0.0 E0.009
G1 X0.1193 Y-0.1262 Z0.0 E0.009
G1 X0.1207 Y-0.1249 Z-0.0 E0.009
G1 X0.122 Y-0.1236 Z-0.0 E0.009
G1 X0.1233 Y-0.1224 Z0.0 E0.009
G1 X0.1245 Y-0.1211 Z0.0 E0.009
G1 X0.1258 Y-0.1198 Z-0.0 E0.009
G1 X0.127 Y-0.1185 Z0.0 E0.009
G1 X0.1281 Y-0.1173 Z0.0 E0.009
G1 X0.1293 Y-0.116 Z-0.0 E0.009
G1 X0.1304 Y-0.1147 Z0.0 E0.009
G1 X0.1315 Y-0.1135 Z0.0 E0.009
G1 X0.1326 Y-0.1122 Z-0.0 E0.009
G1 X0.1336 Y-0.111 Z0.0 E0.009
G1 X0.1347 Y-0.1097 Z0.0 E0.009
G1 X0.1357 Y-0.1085 Z0.0 E0.009
G1 X0.1366 Y-0.1072 Z-0.0 E0.009
G1 X0.1376 Y-0.106 Z0.0 E0.009
G1 X0.1386 Y-0.1047 Z0.0 E0.009
G1 X0.1395 Y-0.1035 Z0.0 E0.009
G1 X0.1404 Y-0.1023 Z0.0 E0.009
G1 X0.1413 Y-0.1011 Z0.0 E0.009
G1 X0.1421 Y-0.0998 Z0.0 E0.009
G1 X0.143 Y-0.0986 Z0.0 E0.009
G1 X0.1438 Y-0.0974 Z0.0 E0.009
G1 X0.1446 Y-0.0962 Z0.0 E0.009
G1 X0.1453 Y-0.0952 Z0.0 E0.009
G1 X0.1544 Y0.0786 Z0.0 E0.009
G1 X0.1549 Y0.0786 Z0.0 E0.009
G1 X0.1554 Y0.0775 Z0.0 E0.009
G1 X0.156 Y0.0764 Z0.0 E0.009
G1 X0.1565 Y0.0754 Z-0.0 E0.009
G1 X0.157 Y0.0743 Z0.0 E0.009
G1 X0.1575 Y0.0732 Z0.0 E0.009
G1 X0.158 Y0.0721 Z0.0 E0.009
G1 X0.1585 Y0.071 Z0.0 E0.009
G1 X0.159 Y0.0699 Z0.0 E0.009
G1 X0.1595 Y0.0688 Z0.0 E0.009
G1 X0.16 Y0.0676 Z0.0 E0.009
G1 X0.1605 Y0.0665 Z0.0 E0.009
G1 X0.1609 Y0.0653 Z0.0 E0.009
G1 X0.1614 Y0.0642 Z0.0 E0.009
G1 X0.1619 Y0.063 Z0.0 E0.009
G1 X0.1623 Y0.0618 Z0.0 E0.009
G1 X0.1628 Y0.0607 Z0.0 E0.009
G1 X0.1632 Y0.0595 Z0.0 E0.009
G1 X0.1636 Y0.0583 Z0.0 E0.009
G1 X0.1641 Y0.0571 Z0.0 E0.009
G1 X0.1645 Y0.0558 Z0.0 E0.009
G1 X0.1649 Y0.0546 Z-0.0 E0.009
G1 X0.1653 Y0.0534 Z0.0 E0.009
G1 X0.1657 Y0.0521 Z0.0 E0.009
G1 X0.1661 Y0.0508 Z0.0 E0.009
G1 X0.1665 Y0.0496 Z0.0 E0.009
G1 X0.1669 Y0.0483 Z0.0 E0.009
G1 X0.1672 Y0.047 Z0.0 E0.009
G1 X0.1676 Y0.0457 Z0.0 E0.009
G1 X0.1679 Y0.0443 Z0.0 E0.009
G1 X0.1683 Y0.043 Z0.0 E0.009
G1 X0.1686 Y0.0416 Z-0.0 E0.009
G1 X0.169 Y0.0403 Z0.0 E0.009
G1 X0.1693 Y0.0389 Z0.0 E0.009
G1 X0.1696 Y0.0375 Z0.0 E0.009
G1 X0.1699 Y0.0361 Z0.0 E0.009
G1 X0.1702 Y0.0347 Z0.0 E0.009
G1 X0.1705 Y0.0333 Z0.0 E0.009
G1 X0.1708 Y0.0318 Z0.0 E0.009
G1 X0.171 Y0.0304 Z0.0 E0.009
G1 X0.1713 Y0.0289 Z0.0 E0.009
G1 X0.1715 Y0.0275 Z0.0 E0.009
G1 X0.1717 Y0.026 Z0.0 E0.009
G1 X0.172 Y0.0245 Z0.0 E0.009
G1 X0.1722 Y0.023 Z0.0 E0.009
G1 X0.1724 Y0.0214 Z-0.0 E0.009
G1 X0.1726 Y0.0199 Z0.0 E0.009
G1 X0.1727 Y0.0183 Z0.0 E0.009
G1 X0.1729 Y0.0168 Z-0.0 E0.009
G1 X0.173 Y0.0152 Z0.0 E0.009
G1 X0.1732 Y0.0136 Z0.0 E0.009
G1 X0.1733 Y0.012 Z0.0 E0.009
G1 X0.1734 Y0.0104 Z0.0 E0.009
G1 X0.1735 Y0.0088 Z0.0 E0.009
G1 X0.1735 Y0.0072 Z0.0 E0.009
G1 X0.1736 Y0.0055 Z0.0 E0.009
G1 X0.1737 Y0.0039 Z0.0 E0.009
G1 X0.1737 Y0.0022 Z0.0 E0.009
G1 X0.1737 Y0.0008 Z0.0 E0.009
G1 X0.1737 Y0.0006 Z-0.0 E0.009
G1 X-0.017 Y0.1106 Z0.0 E0.006
G1 X-0.0864 Y0.1507 Z0.0 E0.009
G1 X-0.0859 Y0.151 Z0.0 E0.009
G1 X-0.0844 Y0.1518 Z0.0 E0.009
G1 X-0.0829 Y0.1526 Z-0.0 E0.009
G1 X-0.0815 Y0.1534 Z0.0 E0.009
G1 X-0.08 Y0.1542 Z0.0 E0.009
G1 X-0.0785 Y0.1549 Z0.0 E0.009
G1 X-0.0771 Y0.1557 Z0.0 E0.009
G1 X-0.0756 Y0.1564 Z0.0 E0.009
G1 X-0.0742 Y0.1571 Z-0.0 E0.009
G1 X-0.0727 Y0.1577 Z0.0 E0.009
G1 X-0.0713 Y0.1584 Z-0.0 E0.009
G1 X-0.0698 Y0.159 Z0.0 E0.009
G1 X-0.0684 Y0.1597 Z0.0 E0.009
G1 X-0.067 Y0.1603 Z-0.0 E0.009
G1 X-0.0655 Y0.1609 Z0.0 E0.009
G1 X-0.0641 Y0.1614 Z-0.0 E0.009
G1 X-0.0627 Y0.162 Z0.0 E0.009
G1 X-0.0613 Y0.1625 Z-0.0 E0.009
G1 X-0.0599 Y0.163 Z0.0 E0.009
G1 X-0.0585 Y0.1636 Z-0.0 E0.009
G1 X-0.0571 Y0.164 Z0.0 E0.009
G1 X-0.0557 Y0.1645 Z0.0 E0.009
G1 X-0.0543 Y0.165 Z-0.0 E0.009
G1 X-0.0529 Y0.1654 Z0.0 E0.009
G1 X-0.0516 Y0.1659 Z0.0 E0.009
G1 X-0.0502 Y0.1663 Z-0.0 E0.009
G1 X-0.0489 Y0.1667 Z0.0 E0.009
G1 X-0.0475 Y0.1671 Z-0.0 E0.009
G1 X-0.0462 Y0.1675 Z0.0 E0.009
G1 X-0.0448 Y0.1678 Z-0.0 E0.009
G1 X-0.0435 Y0.1682 Z0.0 E0.009
G1 X-0.0422 Y0.1685 Z-0.0 E0.009
G1 X-0.0408 Y0.1688 Z-0.0 E0.009
G1 X-0.0395 Y0.1691 Z0.0 E0.009
G1 X-0.0382 Y0.1694 Z-0.0 E0.009
G1 X-0.0369 Y0.1697 Z0.0 E0.009
G1 X-0.0356 Y0.17 Z-0.0 E0.009
G1 X-0.0343 Y0.1703 Z-0.0 E0.009
G1 X-0.0331 Y0.1705 Z-0.0 E0.009
G1 X-0.0318 Y0.1708 Z0.0 E0.009
G1 X-0.0305 Y0.171 Z0.0 E0.009
G1 X-0.0293 Y0.1712 Z0.0 E0.009
G1 X-0.028 Y0.1714 Z-0.0 E0.009
G1 X-0.0268 Y0.1716 Z0.0 E0.009
G1 X-0.0255 Y0.1718 Z-0.0 E0.009
G1 X-0.0243 Y0.172 Z0.0 E0.009
G1 X-0.023 Y0.1722 Z0.0 E0.009
G1 X-0.0218 Y0.1723 Z0.0 E0.009
G1 X-0.0206 Y0.1725 Z-0.0 E0.009
G1 X-0.0194 Y0.1726 Z0.0 E0.009
G1 X-0.0181 Y0.1727 Z0.0 E0.009
G1 X-0.0169 Y0.1729 Z0.0 E0.009
G1 X-0.0157 Y0.173 Z0.0 E0.009
G1 X-0.0145 Y0.1731 Z-0.0 E0.009
G1 X-0.0133 Y0.1732 Z0.0 E0.009
G1 X-0.0121 Y0.1733 Z0.0 E0.009
G1 X-0.0109 Y0.1734 Z-0.0 E0.009
G1 X-0.0098 Y0.1734 Z0.0 E0.009
G1 X-0.0086 Y0.1735 Z0.0 E0.009
G1 X-0.0625 Y0.1382 Z0.0 E0.008
G1 X-0.1554 Y0.0777 Z0.0 E0.009
G1 X-0.156 Y0.0764 Z0.0 E0.009
G1 X-0.1566 Y0.0751 Z0.0 E0.009
G1 X-0.1573 Y0.0737 Z0.0 E0.009
G1 X-0.1579 Y0.0724 Z0.0 E0.009
G1 X-0.1585 Y0.071 Z0.0 E0.009
G1 X-0.1592 Y0.0696 Z0.0 E0.009
G1 X-0.1598 Y0.0681 Z0.0 E0.009
G1 X-0.1604 Y0.0667 Z0.0 E0.009
G1 X-0.161 Y0.0652 Z0.0 E0.009
G1 X-0.1616 Y0.0638 Z0.0 E0.009
G1 X-0.1622 Y0.0623 Z0.0 E0.009
G1 X-0.1627 Y0.0608 Z0.0 E0.009
G1 X-0.1633 Y0.0592 Z0.0 E0.009
G1 X-0.1638 Y0.0577 Z0.0 E0.009
G1 X-0.1644 Y0.0561 Z0.0 E0.009
G1 X-0.1649 Y0.0545 Z-0.0 E0.009
G1 X-0.1654 Y0.0529 Z0.0 E0.009
G1 X-0.166 Y0.0512 Z0.0 E0.009
G1 X-0.1665 Y0.0496 Z0.0 E0.009
G1 X-0.167 Y0.0479 Z0.0 E0.009
G1 X-0.1674 Y0.0462 Z0.0 E0.009
G1 X-0.1679 Y0.0444 Z0.0 E0.009
G1 X-0.1684 Y0.0427 Z0.0 E0.009
G1 X-0.1688 Y0.0409 Z-0.0 E0.009
G1 X-0.1692 Y0.0391 Z0.0 E0.009
G1 X-0.1697 Y0.0372 Z-0.0 E0.009
G1 X-0.1701 Y0.0354 Z0.0 E0.009
G1 X-0.1704 Y0.0335 Z0.0 E0.009
G1 X-0.1708 Y0.0315 Z0.0 E0.009
G1 X-0.1712 Y0.0296 Z0.0 E0.009
G1 X-0.1715 Y0.0276 Z0.0 E0.009
G1 X-0.1718 Y0.0256 Z0.0 E0.009
G1 X-0.1721 Y0.0235 Z0.0 E0.009
G1 X-0.1724 Y0.0215 Z0.0 E0.009
G1 X-0.1726 Y0.0194 Z0.0 E0.009
G1 X-0.1728 Y0.0172 Z0.0 E0.009
G1 X-0.173 Y0.0151 Z0.0 E0.009
G1 X-0.1732 Y0.0129 Z-0.0 E0.009
G1 X-0.1734 Y0.0106 Z0.0 E0.009
G1 X-0.1735 Y0.0084 Z0.0 E0.009
G1 X-0.1736 Y0.0061 Z-0.0 E0.009
G1 X-0.1737 Y0.0038 Z-0.0 E0.009
G1 X-0.1737 Y0.0014 Z0.0 E0.009
G1 X-0.1737 Y-0.001 Z0.0 E0.009
G1 X-0.1737 Y-0.0033 Z0.0 E0.009
G1 X-0.1736 Y-0.0057 Z0.0 E0.009
G1 X-0.1735 Y-0.008 Z0.0 E0.009
G1 X-0.1734 Y-0.0102 Z0.0 E0.009
G1 X-0.1732 Y-0.0125 Z0.0 E0.009
G1 X-0.1731 Y-0.0147 Z0.0 E0.009
G1 X-0.1729 Y-0.0168 Z0.0 E0.009
G1 X-0.1727 Y-0.019 Z0.0 E0.009
G1 X-0.1724 Y-0.0211 Z-0.0 E0.009
G1 X-0.1721 Y-0.0232 Z0.0 E0.009
G1 X-0.1719 Y-0.0252 Z0.0 E0.009
G1 X-0.1715 Y-0.0272 Z0.0 E0.009
G1 X-0.1712 Y-0.0292 Z0.0 E0.009
G1 X-0.1709 Y-0.0312 Z0.0 E0.009
G1 X-0.1705 Y-0.0331 Z-0.0 E0.009
G1 X-0.1701 Y-0.035 Z0.0 E0.009
G1 X-0.1697 Y-0.0369 Z0.0 E0.009
G1 X-0.1693 Y-0.0387 Z0.0 E0.009
G1 X-0.1689 Y-0.0405 Z0.0 E0.009
G1 X-0.1685 Y-0.0423 Z0.0 E0.009
G1 X-0.168 Y-0.0441 Z-0.0 E0.009
G1 X-0.1675 Y-0.0459 Z-0.0 E0.009
G1 X-0.1671 Y-0.0476 Z0.0 E0.009
G1 X-0.1666 Y-0.0493 Z0.0 E0.009
G1 X-0.1661 Y-0.0509 Z-0.0 E0.009
G1 X-0.1655 Y-0.0526 Z0.0 E0.009
G1 X-0.165 Y-0.0542 Z0.0 E0.009
G1 X-0.1645 Y-0.0558 Z0.0 E0.009
G1 X-0.1639 Y-0.0574 Z-0.0 E0.009
G1 X-0.1634 Y-0.0589 Z0.0 E0.009
G1 X-0.1628 Y-0.0605 Z0.0 E0.009
G1 X-0.1623 Y-0.062 Z0.0 E0.009
G1 X-0.1617 Y-0.0635 Z0.0 E0.009
G1 X-0.1611 Y-0.065 Z-0.0 E0.009
G1 X-0.1605 Y-0.0664 Z0.0 E0.009
G1 X-0.1599 Y-0.0679 Z0.0 E0.009
G1 X-0.1593 Y-0.0693 Z0.0 E0.009
G1 X-0.1587 Y-0.0707 Z0.0 E0.009
G1 X-0.158 Y-0.0721 Z0.0 E0.009
G1 X-0.1574 Y-0.0735 Z0.0 E0.009
G1 X-0.1568 Y-0.0748 Z-0.0 E0.009
G1 X-0.1561 Y-0.0762 Z0.0 E0.009
G1 X-0.1555 Y-0.0774 Z0.0 E0.009
G1 X-0.1314 Y-0.1508 Z0.2 E0.014
G1 X0.0109 Y-0.1758 Z0.0 E0.009
G1 X0.0124 Y-0.1757 Z0.0 E0.009
G1 X0.014 Y-0.1756 Z0.0 E0.009
G1 X0.0155 Y-0.1755 Z0.0 E0.009
G1 X0.0171 Y-0.1754 Z0.0 E0.009
G1 X0.0186 Y-0.1752 Z0.0 E0.009
G1 X0.0202 Y-0.175 Z0.0 E0.009
G1 X0.0218 Y-0.1748 Z0.0 E0.009
G1 X0.0234 Y-0.1746 Z0.0 E0.009
G1 X0.025 Y-0.1744 Z0.0 E0.009
G1 X0.0266 Y-0.1742 Z0.0 E0.009
G1 X0.0283 Y-0.1739 Z0.0 E0.009
G1 X0.0299 Y-0.1736 Z0.0 E0.009
G1 X0.0316 Y-0.1733 Z0.0 E0.009
G1 X0.0333 Y-0.173 Z-0.0 E0.009
G1 X0.035 Y-0.1727 Z-0.0 E0.009
G1 X0.0367 Y-0.1723 Z0.0 E0.009
G1 X0.0384 Y-0.172 Z0.0 E0.009
G1 X0.0401 Y-0.1716 Z0.0 E0.009
G1 X0.0419 Y-0.1711 Z0.0 E0.009
G1 X0.0437 Y-0.1707 Z0.0 E0.009
G1 X0.0455 Y-0.1702 Z-0.0 E0.009
G1 X0.0473 Y-0.1697 Z-0.0 E0.009
G1 X0.0491 Y-0.1692 Z-0.0 E0.009
G1 X0.0509 Y-0.1687 Z0.0 E0.009
G1 X0.0528 Y-0.1681 Z0.0 E0.009
G1 X0.0547 Y-0.1675 Z0.0 E0.009
G1 X0.0566 Y-0.1669 Z0.0 E0.009
G1 X0.0585 Y-0.1662 Z0.0 E0.009
G1 X0.0604 Y-0.1655 Z0.0 E0.009
G1 X0.0623 Y-0.1648 Z0.0 E0.009
G1 X0.0643 Y-0.164 Z0.0 E0.009
G1 X0.0663 Y-0.1632 Z0.0 E0.009
G1 X0.0683 Y-0.1624 Z0.0 E0.009
G1 X0.0703 Y-0.1616 Z0.0 E0.009
G1 X0.0723 Y-0.1607 Z0.0 E0.009
G1 X0.0743 Y-0.1597 Z0.0 E0.009
G1 X0.0764 Y-0.1588 Z0.0 E0.009
G1 X0.0785 Y-0.1578 Z0.0 E0.009
G1 X0.0805 Y-0.1567 Z0.0 E0.009
G1 X0.0826 Y-0.1556 Z0.0 E0.009
G1 X0.0847 Y-0.1545 Z0.0 E0.009
G1 X0.0869 Y-0.1533 Z0.0 E0.009
G1 X0.089 Y-0.1521 Z0.0 E0.009
G1 X0.0911 Y-0.1508 Z0.0 E0.009
G1 X0.0931 Y-0.1496 Z0.0 E0.009
G1 X0.0951 Y-0.1483 Z-0.0 E0.009
G1 X0.0971 Y-0.147 Z0.0 E0.009
G1 X0.099 Y-0.1457 Z0.0 E0.009
G1 X0.1009 Y-0.1444 Z0.0 E0.009
G1 X0.1027 Y-0.1431 Z0.0 E0.009
G1 X0.1045 Y-0.1418 Z0.0 E0.009
G1 X0.1063 Y-0.1405 Z0.0 E0.009
G1 X0.108 Y-0.1392 Z0.0 E0.009
G1 X0.1097 Y-0.1379 Z0.0 E0.009
G1 X0.1113 Y-0.1366 Z0.0 E0.009
G1 X0.1129 Y-0.1353 Z0.0 E0.009
G1 X0.1145 Y-0.1339 Z0.0 E0.009
G1 X0.116 Y-0.1326 Z0.0 E0.009
G1 X0.1175 Y-0.1313 Z0.0 E0.009
G1 X0.1189 Y-0.13 Z-0.0 E0.009
G1 X0.1204 Y-0.1287 Z0.0 E0.009
G1 X0.1218 Y-0.1273 Z0.0 E0.009
G1 X0.1231 Y-0.126 Z0.0 E0.009
G1 X0.1244 Y-0.1247 Z0.0 E0.009
G1 X0.1257 Y-0.1234 Z0.0 E0.009
G1 X0.127 Y-0.1221 Z0.0 E0.009
G1 X0.1283 Y-0.1208 Z0.0 E0.009
G1 X0.1295 Y-0.1195 Z0.0 E0.009
G1 X0.1307 Y-0.1182 Z0.0 E0.009
G1 X0.1318 Y-0.1169 Z0.0 E0.009
G1 X0.133 Y-0.1156 Z-0.0 E0.009
G1 X0.1341 Y-0.1143 Z0.0 E0.009
G1 X0.1351 Y-0.113 Z0.0 E0.009
G1 X0.1362 Y-0.1118 Z0.0 E0.009
G1 X0.1372 Y-0.1105 Z0.0 E0.009
G1 X0.1383 Y-0.1092 Z0.0 E0.009
G1 X0.1392 Y-0.1079 Z0.0 E0.009
G1 X0.1402 Y-0.1067 Z0.0 E0.009
G1 X0.1412 Y-0.1054 Z0.0 E0.009
G1 X0.1421 Y-0.1041 Z0.0 E0.009
G1 X0.143 Y-0.1029 Z0.0 E0.009
G1 X0.1439 Y-0.1016 Z0.0 E0.009
G1 X0.1448 Y-0.1004 Z0.0 E0.009
G1 X0.1457 Y-0.0991 Z0.0 E0.009
G1 X0.1465 Y-0.0979 Z0.0 E0.009
G1 X0.1473 Y-0.0967 Z0.0 E0.009
G1 X0.1515 Y-0.0191 Z0.0 E0.008
G1 X0.1567 Y0.0805 Z0.0 E0.009
G1 X0.1572 Y0.0795 Z-0.0 E0.009
G1 X0.1578 Y0.0784 Z0.0 E0.009
G1 X0.1583 Y0.0773 Z0.0 E0.009
G1 X0.1588 Y0.0762 Z0.0 E0.009
G1 X0.1594 Y0.0751 Z0.0 E0.009
G1 X0.1599 Y0.074 Z0.0 E0.009
G1 X0.1604 Y0.0728 Z0.0 E0.009
G1 X0.1609 Y0.0717 Z0.0 E0.009
G1 X0.1614 Y0.0705 Z0.0 E0.009
G1 X0.162 Y0.0694 Z0.0 E0.009
G1 X0.1624 Y0.0682 Z0.0 E0.009
G1 X0.1629 Y0.067 Z0.0 E0.009
G1 X0.1634 Y0.0658 Z0.0 E0.009
G1 X0.1639 Y0.0646 Z0.0 E0.009
G1 X0.1644 Y0.0634 Z0.0 E0.009
G1 X0.1648 Y0.0622 Z0.0 E0.009
G1 X0.1653 Y0.061 Z-0.0 E0.009
G1 X0.1657 Y0.0598 Z-0.0 E0.009
G1 X0.1662 Y0.0585 Z0.0 E0.009
G1 X0.1666 Y0.0572 Z0.0 E0.009
G1 X0.1671 Y0.056 Z0.0 E0.009
G1 X0.1675 Y0.0547 Z0.0 E0.009
G1 X0.1679 Y0.0534 Z0.0 E0.009
G1 X0.1683 Y0.0521 Z0.0 E0.009
G1 X0.1687 Y0.0508 Z0.0 E0.009
G1 X0.1691 Y0.0495 Z0.0 E0.009
G1 X0.1695 Y0.0481 Z0.0 E0.009
G1 X0.1699 Y0.0468 Z0.0 E0.009
G1 X0.1702 Y0.0454 Z0.0 E0.009
G1 X0.1706 Y0.044 Z0.0 E0.009
G1 X0.1709 Y0.0426 Z0.0 E0.009
G1 X0.1713 Y0.0412 Z0.0 E0.009
G1 X0.1716 Y0.0398 Z0.0 E0.009
G1 X0.172 Y0.0384 Z0.0 E0.009
G1 X0.1723 Y0.0369 Z0.0 E0.009
G1 X0.1726 Y0.0355 Z0.0 E0.009
G1 X0.1729 Y0.034 Z0.0 E0.009
G1 X0.1732 Y0.0325 Z0.0 E0.009
G1 X0.1734 Y0.031 Z0.0 E0.009
G1 X0.1737 Y0.0295 Z0.0 E0.009
G1 X0.1739 Y0.028 Z0.0 E0.009
G1 X0.1742 Y0.0265 Z0.0 E0.009
G1 X0.1744 Y0.0249 Z0.0 E0.009
G1 X0.1746 Y0.0234 Z-0.0 E0.009
G1 X0.1748 Y0.0218 Z0.0 E0.009
G1 X0.175 Y0.0202 Z0.0 E0.009
G1 X0.1752 Y0.0186 Z0.0 E0.009
G1 X0.1754 Y0.017 Z0.0 E0.009
G1 X0.1755 Y0.0153 Z0.0 E0.009
G1 X0.1757 Y0.0137 Z0.0 E0.009
G1 X0.1758 Y0.012 Z0.0 E0.009
G1 X0.1759 Y0.0104 Z0.0 E0.009
G1 X0.176 Y0.0087 Z0.0 E0.009
G1 X0.176 Y0.007 Z0.0 E0.009
G1 X0.1761 Y0.0053 Z0.0 E0.009
G1 X0.1761 Y0.0036 Z0.0 E0.009
G1 X0.1762 Y0.0019 Z0.0 E0.009
G1 X0.1762 Y0.0007 Z0.0 E0.009
G1 X0.1762 Y0.0006 Z0.0 E0.009
G1 X0.1574 Y0.0115 Z0.0 E0.008
G1 X-0.0877 Y0.1528 Z0.0 E0.009
G1 X-0.0877 Y0.1528 Z0.0 E0.009
G1 X-0.0876 Y0.1529 Z0.0 E0.009
G1 X-0.0864 Y0.1535 Z0.0 E0.009
G1 X-0.0849 Y0.1544 Z-0.0 E0.009
G1 X-0.0834 Y0.1552 Z0.0 E0.009
G1 X-0.0819 Y0.156 Z0.0 E0.009
G1 X-0.0803 Y0.1568 Z0.0 E0.009
G1 X-0.0788 Y0.1576 Z0.0 E0.009
G1 X-0.0773 Y0.1583 Z0.0 E0.009
G1 X-0.0758 Y0.159 Z0.0 E0.009
G1 X-0.0743 Y0.1597 Z0.0 E0.009
G1 X-0.0728 Y0.1604 Z0.0 E0.009
G1 X-0.0713 Y0.1611 Z0.0 E0.009
G1 X-0.0699 Y0.1617 Z0.0 E0.009
G1 X-0.0684 Y0.1624 Z0.0 E0.009
G1 X-0.0669 Y0.163 Z0.0 E0.009
G1 X-0.0654 Y0.1636 Z0.0 E0.009
G1 X-0.0639 Y0.1642 Z0.0 E0.009
G1 X-0.0625 Y0.1647 Z0.0 E0.009
G1 X-0.061 Y0.1653 Z0.0 E0.009
G1 X-0.0596 Y0.1658 Z0.0 E0.009
G1 X-0.0581 Y0.1663 Z0.0 E0.009
G1 X-0.0567 Y0.1668 Z0.0 E0.009
G1 X-0.0553 Y0.1673 Z-0.0 E0.009
G1 X-0.0539 Y0.1678 Z0.0 E0.009
G1 X-0.0524 Y0.1682 Z0.0 E0.009
G1 X-0.051 Y0.1686 Z-0.0 E0.009
G1 X-0.0496 Y0.1691 Z0.0 E0.009
G1 X-0.0482 Y0.1695 Z0.0 E0.009
G1 X-0.0468 Y0.1698 Z0.0 E0.009
G1 X-0.0454 Y0.1702 Z0.0 E0.009
G1 X-0.0441 Y0.1706 Z0.0 E0.009
G1 X-0.0427 Y0.1709 Z0.0 E0.009
G1 X-0.0413 Y0.1713 Z0.0 E0.009
G1 X-0.04 Y0.1716 Z0.0 E0.009
G1 X-0.0386 Y0.1719 Z0.0 E0.009
G1 X-0.0373 Y0.1722 Z-0.0 E0.009
G1 X-0.036 Y0.1725 Z0.0 E0.009
G1 X-0.0346 Y0.1727 Z-0.0 E0.009
G1 X-0.0333 Y0.173 Z0.0 E0.009
G1 X-0.032 Y0.1733 Z0.0 E0.009
G1 X-0.0307 Y0.1735 Z0.0 E0.009
G1 X-0.0294 Y0.1737 Z0.0 E0.009
G1 X-0.0281 Y0.1739 Z0.0 E0.009
G1 X-0.0268 Y0.1741 Z0.0 E0.009
G1 X-0.0255 Y0.1743 Z0.0 E0.009
G1 X-0.0242 Y0.1745 Z0.0 E0.009
G1 X-0.023 Y0.1747 Z0.0 E0.009
G1 X-0.0217 Y0.1748 Z0.0 E0.009
G1 X-0.0204 Y0.175 Z0.0 E0.009
G1 X-0.0192 Y0.1751 Z0.0 E0.009
G1 X-0.0179 Y0.1753 Z0.0 E0.009
G1 X-0.0167 Y0.1754 Z0.0 E0.009
G1 X-0.0154 Y0.1755 Z0.0 E0.009
G1 X-0.0142 Y0.1756 Z0.0 E0.009
G1 X-0.0129 Y0.1757 Z0.0 E0.009
G1 X-0.0117 Y0.1758 Z0.0 E0.009
G1 X-0.0105 Y0.1759 Z0.0 E0.009
G1 X-0.0093 Y0.1759 Z0.0 E0.009
G1 X-0.0082 Y0.176 Z0.0 E0.009
G1 X-0.0987 Y0.1173 Z0.0 E0.008
G1 X-0.1575 Y0.0789 Z0.0 E0.009
G1 X-0.1582 Y0.0776 Z0.0 E0.009
G1 X-0.1588 Y0.0762 Z0.0 E0.009
G1 X-0.1595 Y0.0748 Z0.0 E0.009
G1 X-0.1602 Y0.0734 Z0.0 E0.009
G1 X-0.1608 Y0.072 Z0.0 E0.009
G1 X-0.1614 Y0.0706 Z0.0 E0.009
G1 X-0.1621 Y0.0691 Z0.0 E0.009
G1 X-0.1627 Y0.0676 Z0.0 E0.009
G1 X-0.1633 Y0.0661 Z-0.0 E0.009
G1 X-0.1639 Y0.0646 Z0.0 E0.009
G1 X-0.1645 Y0.0631 Z0.0 E0.009
G1 X-0.1651 Y0.0615 Z-0.0 E0.009
G1 X-0.1657 Y0.06 Z0.0 E0.009
G1 X-0.1662 Y0.0584 Z0.0 E0.009
G1 X-0.1668 Y0.0568 Z0.0 E0.009
G1 X-0.1673 Y0.0551 Z0.0 E0.009
G1 X-0.1679 Y0.0535 Z0.0 E0.009
G1 X-0.1684 Y0.0518 Z0.0 E0.009
G1 X-0.1689 Y0.0501 Z0.0 E0.009
G1 X-0.1694 Y0.0484 Z0.0 E0.009
G1 X-0.1699 Y0.0466 Z0.0 E0.009
G1 X-0.1704 Y0.0448 Z0.0 E0.009
G1 X-0.1709 Y0.043 Z0.0 E0.009
G1 X-0.1713 Y0.0412 Z0.0 E0.009
G1 X-0.1717 Y0.0393 Z0.0 E0.009
G1 X-0.1722 Y0.0374 Z0.0 E0.009
G1 X-0.1726 Y0.0355 Z0.0 E0.009
G1 X-0.173 Y0.0336 Z0.0 E0.009
G1 X-0.1733 Y0.0316 Z0.0 E0.009
G1 X-0.1737 Y0.0296 Z0.0 E0.009
G1 X-0.174 Y0.0276 Z0.0 E0.009
G1 X-0.1743 Y0.0255 Z0.0 E0.009
G1 X-0.1746 Y0.0234 Z-0.0 E0.009
G1 X-0.1749 Y0.0213 Z0.0 E0.009
G1 X-0.1751 Y0.0191 Z0.0 E0.009
G1 X-0.1754 Y0.0169 Z0.0 E0.009
G1 X-0.1756 Y0.0147 Z0.0 E0.009
G1 X-0.1757 Y0.0124 Z0.0 E0.009
G1 X-0.1759 Y0.0102 Z0.0 E0.009
G1 X-0.176 Y0.0078 Z0.0 E0.009
G1 X-0.1761 Y0.0055 Z0.0 E0.009
G1 X-0.1762 Y0.0031 Z0.0 E0.009
G1 X-0.1762 Y0.0007 Z-0.0 E0.009
G1 X-0.1762 Y-0.0017 Z0.0 E0.009
G1 X-0.1761 Y-0.0041 Z0.0 E0.009
G1 X-0.1761 Y-0.0065 Z0.0 E0.009
G1 X-0.176 Y-0.0088 Z0.0 E0.009
G1 X-0.1758 Y-0.0111 Z0.0 E0.009
G1 X-0.1757 Y-0.0134 Z0.0 E0.009
G1 X-0.1755 Y-0.0157 Z0.0 E0.009
G1 X-0.1753 Y-0.0179 Z0.0 E0.009
G1 X-0.175 Y-0.02 Z0.0 E0.009
G1 X-0.1748 Y-0.0222 Z0.0 E0.009
G1 X-0.1745 Y-0.0243 Z0.0 E0.009
G1 X-0.1742 Y-0.0264 Z0.0 E0.009
G1 X-0.1739 Y-0.0284 Z0.0 E0.009
G1 X-0.1735 Y-0.0305 Z0.0 E0.009
G1 X-0.1732 Y-0.0324 Z0.0 E0.009
G1 X-0.1728 Y-0.0344 Z0.0 E0.009
G1 X-0.1724 Y-0.0363 Z0.0 E0.009
G1 X-0.172 Y-0.0382 Z0.0 E0.009
G1 X-0.1716 Y-0.0401 Z0.0 E0.009
G1 X-0.1711 Y-0.042 Z-0.0 E0.009
G1 X-0.1707 Y-0.0438 Z0.0 E0.009
G1 X-0.1702 Y-0.0456 Z0.0 E0.009
G1 X-0.1697 Y-0.0474 Z0.0 E0.009
G1 X-0.1692 Y-0.0491 Z0.0 E0.009
G1 X-0.1687 Y-0.0508 Z0.0 E0.009
G1 X-0.1682 Y-0.0525 Z0.0 E0.009
G1 X-0.1676 Y-0.0542 Z0.0 E0.009
G1 X-0.1671 Y-0.0558 Z0.0 E0.009
G1 X-0.1665 Y-0.0575 Z0.0 E0.009
G1 X-0.166 Y-0.0591 Z-0.0 E0.009
G1 X-0.1654 Y-0.0607 Z0.0 E0.009
G1 X-0.1648 Y-0.0622 Z-0.0 E0.009
G1 X-0.1642 Y-0.0638 Z0.0 E0.009
G1 X-0.1636 Y-0.0653 Z0.0 E0.009
G1 X-0.163 Y-0.0668 Z0.0 E0.009
G1 X-0.1624 Y-0.0683 Z0.0 E0.009
G1 X-0.1618 Y-0.0697 Z0.0 E0.009
G1 X-0.1612 Y-0.0712 Z0.0 E0.009
G1 X-0.1605 Y-0.0726 Z0.0 E0.009
G1 X-0.1599 Y-0.074 Z0.0 E0.009
G1 X-0.1592 Y-0.0754 Z0.0 E0.009
G1 X-0.1586 Y-0.0768 Z0.0 E0.009
G1 X-0.1579 Y-0.0782 Z0.0 E0.009
G1 X-0.1498 Y-0.0832 Z0.0 E0.009
G1 X-0.0829 Y-0.1813 Z0.2 E0.014
G1 X0.0111 Y-0.1783 Z0.0 E0.009
G1 X0.0126 Y-0.1782 Z0.0 E0.009
G1 X0.0142 Y-0.1781 Z-0.0 E0.009
G1 X0.0158 Y-0.178 Z0.0 E0.009
G1 X0.0174 Y-0.1778 Z0.0 E0.009
G1 X0.019 Y-0.1777 Z0.0 E0.009
G1 X0.0206 Y-0.1775 Z-0.0 E0.009
G1 X0.0222 Y-0.1773 Z0.0 E0.009
G1 X0.0238 Y-0.1771 Z0.0 E0.009
G1 X0.0255 Y-0.1768 Z0.0 E0.009
G1 X0.0272 Y-0.1766 Z0.0 E0.009
G1 X0.0288 Y-0.1763 Z-0.0 E0.009
G1 X0.0305 Y-0.176 Z-0.0 E0.009
G1 X0.0322 Y-0.1757 Z0.0 E0.009
G1 X0.034 Y-0.1754 Z0.0 E0.009
G1 X0.0357 Y-0.1751 Z-0.0 E0.009
G1 X0.0375 Y-0.1747 Z0.0 E0.009
G1 X0.0392 Y-0.1743 Z-0.0 E0.009
G1 X0.041 Y-0.1739 Z0.0 E0.009
G1 X0.0428 Y-0.1735 Z0.0 E0.009
G1 X0.0446 Y-0.173 Z0.0 E0.009
G1 X0.0465 Y-0.1725 Z0.0 E0.009
G1 X0.0483 Y-0.172 Z-0.0 E0.009
G1 X0.0502 Y-0.1715 Z-0.0 E0.009
G1 X0.0521 Y-0.1709 Z0.0 E0.009
G1 X0.054 Y-0.1703 Z0.0 E0.009
G1 X0.0559 Y-0.1697 Z0.0 E0.009
G1 X0.0578 Y-0.1691 Z0.0 E0.009
G1 X0.0598 Y-0.1684 Z0.0 E0.009
G1 X0.0618 Y-0.1677 Z0.0 E0.009
G1 X0.0638 Y-0.1669 Z0.0 E0.009
G1 X0.0658 Y-0.1661 Z0.0 E0.009
G1 X0.0678 Y-0.1653 Z0.0 E0.009
G1 X0.0698 Y-0.1645 Z0.0 E0.009
G1 X0.0719 Y-0.1636 Z0.0 E0.009
G1 X0.074 Y-0.1627 Z0.0 E0.009
G1 X0.076 Y-0.1617 Z0.0 E0.009
G1 X0.0781 Y-0.1607 Z0.0 E0.009
G1 X0.0803 Y-0.1596 Z0.0 E0.009
G1 X0.0824 Y-0.1585 Z0.0 E0.009
G1 X0.0845 Y-0.1574 Z0.0 E0.009
G1 X0.0867 Y-0.1562 Z0.0 E0.009
G1 X0.0889 Y-0.155 Z0.0 E0.009
G1 X0.091 Y-0.1538 Z-0.0 E0.009
G1 X0.0931 Y-0.1525 Z0.0 E0.009
G1 X0.0952 Y-0.1512 Z0.0 E0.009
G1 X0.0973 Y-0.1499 Z0.0 E0.009
G1 X0.0992 Y-0.1486 Z0.0 E0.009
G1 X0.1012 Y-0.1473 Z0.0 E0.009
G1 X0.1031 Y-0.1459 Z0.0 E0.009
G1 X0.1049 Y-0.1446 Z0.0 E0.009
G1 X0.1067 Y-0.1433 Z0.0 E0.009
G1 X0.1085 Y-0.1419 Z0.0 E0.009
G1 X0.1103 Y-0.1406 Z0.0 E0.009
G1 X0.112 Y-0.1393 Z0.0 E0.009
G1 X0.1136 Y-0.1379 Z0.0 E0.009
G1 X0.1152 Y-0.1366 Z0.0 E0.009
G1 X0.1168 Y-0.1352 Z0.0 E0.009
G1 X0.1184 Y-0.1339 Z0.0 E0.009
G1 X0.1199 Y-0.1325 Z0.0 E0.009
G1 X0.1213 Y-0.1312 Z0.0 E0.009
G1 X0.1228 Y-0.1298 Z0.0 E0.009
G1 X0.1242 Y-0.1285 Z-0.0 E0.009
G1 X0.1256 Y-0.1271 Z0.0 E0.009
G1 X0.1269 Y-0.1258 Z-0.0 E0.009
G1 X0.1282 Y-0.1244 Z0.0 E0.009
G1 X0.1295 Y-0.1231 Z0.0 E0.009
G1 X0.1307 Y-0.1218 Z0.0 E0.009
G1 X0.132 Y-0.1204 Z0.0 E0.009
G1 X0.1332 Y-0.1191 Z0.0 E0.009
G1 X0.1343 Y-0.1178 Z0.0 E0.009
G1 X0.1355 Y-0.1165 Z0.0 E0.009
G1 X0.1366 Y-0.1152 Z0.0 E0.009
G1 X0.1377 Y-0.1139 Z0.0 E0.009
G1 X0.1388 Y-0.1125 Z0.0 E0.009
G1 X0.1398 Y-0.1112 Z0.0 E0.009
G1 X0.1408 Y-0.1099 Z0.0 E0.009
G1 X0.1419 Y-0.1086 Z0.0 E0.009
G1 X0.1428 Y-0.1073 Z0.0 E0.009
G1 X0.1438 Y-0.1061 Z0.0 E0.009
G1 X0.1447 Y-0.1048 Z0.0 E0.009
G1 X0.1457 Y-0.1035 Z0.0 E0.009
G1 X0.1466 Y-0.1022 Z0.0 E0.009
G1 X0.1474 Y-0.1009 Z0.0 E0.009
G1 X0.1483 Y-0.0996 Z0.0 E0.009
G1 X0.1492 Y-0.0984 Z0.0 E0.009
G1 X0.1495 Y-0.0978 Z0.0 E0.009
G1 X0.1576 Y0.0576 Z0.0 E0.008
G1 X0.159 Y0.0815 Z0.0 E0.009
G1 X0.1595 Y0.0805 Z-0.0 E0.009
G1 X0.1601 Y0.0793 Z0.0 E0.009
G1 X0.1607 Y0.0782 Z0.0 E0.009
G1 X0.1612 Y0.077 Z0.0 E0.009
G1 X0.1618 Y0.0759 Z0.0 E0.009
G1 X0.1623 Y0.0747 Z0.0 E0.009
G1 X0.1628 Y0.0736 Z0.0 E0.009
G1 X0.1634 Y0.0724 Z0.0 E0.009
G1 X0.1639 Y0.0712 Z0.0 E0.009
G1 X0.1644 Y0.07 Z0.0 E0.009
G1 X0.1649 Y0.0688 Z0.0 E0.009
G1 X0.1654 Y0.0675 Z-0.0 E0.009
G1 X0.1659 Y0.0663 Z0.0 E0.009
G1 X0.1664 Y0.0651 Z0.0 E0.009
G1 X0.1669 Y0.0638 Z-0.0 E0.009
G1 X0.1674 Y0.0626 Z0.0 E0.009
G1 X0.1678 Y0.0613 Z0.0 E0.009
G1 X0.1683 Y0.06 Z0.0 E0.009
G1 X0.1688 Y0.0587 Z0.0 E0.009
G1 X0.1692 Y0.0574 Z0.0 E0.009
G1 X0.1696 Y0.0561 Z0.0 E0.009
G1 X0.1701 Y0.0548 Z0.0 E0.009
G1 X0.1705 Y0.0534 Z0.0 E0.009
G1 X0.1709 Y0.0521 Z0.0 E0.009
G1 X0.1713 Y0.0507 Z0.0 E0.009
G1 X0.1717 Y0.0493 Z0.0 E0.009
G1 X0.1721 Y0.0479 Z0.0 E0.009
G1 X0.1725 Y0.0465 Z0.0 E0.009
G1 X0.1729 Y0.0451 Z-0.0 E0.009
G1 X0.1733 Y0.0437 Z0.0 E0.009
G1 X0.1736 Y0.0422 Z0.0 E0.009
G1 X0.174 Y0.0408 Z0.0 E0.009
G1 X0.1743 Y0.0393 Z0.0 E0.009
G1 X0.1746 Y0.0378 Z0.0 E0.009
G1 X0.1749 Y0.0363 Z-0.0 E0.009
G1 X0.1753 Y0.0348 Z0.0 E0.009
G1 X0.1755 Y0.0333 Z0.0 E0.009
G1 X0.1758 Y0.0317 Z0.0 E0.009
G1 X0.1761 Y0.0302 Z0.0 E0.009
G1 X0.1764 Y0.0286 Z0.0 E0.009
G1 X0.1766 Y0.027 Z0.0 E0.009
G1 X0.1769 Y0.0254 Z-0.0 E0.009
G1 X0.1771 Y0.0238 Z0.0 E0.009
G1 X0.1773 Y0.0222 Z-0.0 E0.009
G1 X0.1775 Y0.0205 Z0.0 E0.009
G1 X0.1777 Y0.0189 Z-0.0 E0.009
G1 X0.1778 Y0.0172 Z0.0 E0.009
G1 X0.178 Y0.0155 Z0.0 E0.009
G1 X0.1781 Y0.0138 Z0.0 E0.009
G1 X0.1783 Y0.0121 Z0.0 E0.009
G1 X0.1784 Y0.0104 Z0.0 E0.009
G1 X0.1785 Y0.0087 Z0.0 E0.009
G1 X0.1785 Y0.0069 Z0.0 E0.009
G1 X0.1786 Y0.0051 Z0.0 E0.009
G1 X0.1786 Y0.0034 Z0.0 E0.009
G1 X0.1787 Y0.0016 Z0.0 E0.009
G1 X0.1787 Y0.0007 Z0.0 E0.009
G1 X0.1787 Y0.0007 Z0.0 E0.009
G1 X0.1787 Y0.0007 Z0.0 E0.009
G1 X0.0717 Y0.0623 Z0.0 E0.005
G1 X-0.0889 Y0.155 Z0.0 E0.009
G1 X-0.0889 Y0.155 Z0.0 E0.009
G1 X-0.0889 Y0.155 Z0.0 E0.009
G1 X-0.0884 Y0.1553 Z0.0 E0.009
G1 X-0.0869 Y0.1561 Z0.0 E0.009
G1 X-0.0853 Y0.157 Z0.0 E0.009
G1 X-0.0837 Y0.1578 Z-0.0 E0.009
G1 X-0.0822 Y0.1587 Z0.0 E0.009
G1 X-0.0806 Y0.1595 Z0.0 E0.009
G1 X-0.079 Y0.1602 Z0.0 E0.009
G1 X-0.0775 Y0.161 Z0.0 E0.009
G1 X-0.0759 Y0.1617 Z0.0 E0.009
G1 X-0.0744 Y0.1625 Z0.0 E0.009
G1 X-0.0728 Y0.1631 Z0.0 E0.009
G1 X-0.0713 Y0.1638 Z0.0 E0.009
G1 X-0.0698 Y0.1645 Z-0.0 E0.009
G1 X-0.0682 Y0.1651 Z0.0 E0.009
G1 X-0.0667 Y0.1657 Z-0.0 E0.009
G1 X-0.0652 Y0.1664 Z-0.0 E0.009
G1 X-0.0637 Y0.1669 Z0.0 E0.009
G1 X-0.0622 Y0.1675 Z-0.0 E0.009
G1 X-0.0607 Y0.1681 Z0.0 E0.009
G1 X-0.0592 Y0.1686 Z-0.0 E0.009
G1 X-0.0577 Y0.1691 Z0.0 E0.009
G1 X-0.0562 Y0.1696 Z0.0 E0.009
G1 X-0.0548 Y0.1701 Z0.0 E0.009
G1 X-0.0533 Y0.1705 Z-0.0 E0.009
G1 X-0.0518 Y0.171 Z0.0 E0.009
G1 X-0.0504 Y0.1714 Z-0.0 E0.009
G1 X-0.0489 Y0.1718 Z0.0 E0.009
G1 X-0.0475 Y0.1722 Z0.0 E0.009
G1 X-0.0461 Y0.1726 Z0.0 E0.009
G1 X-0.0447 Y0.173 Z0.0 E0.009
G1 X-0.0432 Y0.1734 Z-0.0 E0.009
G1 X-0.0418 Y0.1737 Z0.0 E0.009
G1 X-0.0404 Y0.174 Z0.0 E0.009
G1 X-0.039 Y0.1744 Z0.0 E0.009
G1 X-0.0377 Y0.1747 Z0.0 E0.009
G1 X-0.0363 Y0.175 Z0.0 E0.009
G1 X-0.0349 Y0.1752 Z0.0 E0.009
G1 X-0.0336 Y0.1755 Z-0.0 E0.009
G1 X-0.0322 Y0.1758 Z-0.0 E0.009
G1 X-0.0308 Y0.176 Z0.0 E0.009
G1 X-0.0295 Y0.1762 Z-0.0 E0.009
G1 X-0.0282 Y0.1764 Z0.0 E0.009
G1 X-0.0268 Y0.1766 Z0.0 E0.009
G1 X-0.0255 Y0.1768 Z-0.0 E0.009
G1 X-0.0242 Y0.177 Z0.0 E0.009
G1 X-0.0229 Y0.1772 Z0.0 E0.009
G1 X-0.0216 Y0.1774 Z-0.0 E0.009
G1 X-0.0203 Y0.1775 Z0.0 E0.009
G1 X-0.019 Y0.1777 Z0.0 E0.009
G1 X-0.0177 Y0.1778 Z0.0 E0.009
G1 X-0.0164 Y0.1779 Z0.0 E0.009
G1 X-0.0151 Y0.178 Z0.0 E0.009
G1 X-0.0138 Y0.1781 Z0.0 E0.009
G1 X-0.0126 Y0.1782 Z0.0 E0.009
G1 X-0.0113 Y0.1783 Z-0.0 E0.009
G1 X-0.01 Y0.1784 Z0.0 E0.009
G1 X-0.0088 Y0.1785 Z0.0 E0.009
G1 X-0.0082 Y0.1785 Z0.0 E0.009
G1 X-0.1349 Y0.0963 Z0.0 E0.008
G1 X-0.1597 Y0.08 Z0.0 E0.009
G1 X-0.1604 Y0.0788 Z0.0 E0.009
G1 X-0.1611 Y0.0774 Z0.0 E0.009
G1 X-0.1617 Y0.0759 Z0.0 E0.009
G1 X-0.1624 Y0.0745 Z0.0 E0.009
G1 X-0.1631 Y0.073 Z0.0 E0.009
G1 X-0.1637 Y0.0716 Z0.0 E0.009
G1 X-0.1644 Y0.0701 Z0.0 E0.009
G1 X-0.165 Y0.0686 Z0.0 E0.009
G1 X-0.1656 Y0.067 Z0.0 E0.009
G1 X-0.1662 Y0.0655 Z0.0 E0.009
G1 X-0.1668 Y0.0639 Z0.0 E0.009
G1 X-0.1674 Y0.0623 Z0.0 E0.009
G1 X-0.168 Y0.0607 Z0.0 E0.009
G1 X-0.1686 Y0.0591 Z-0.0 E0.009
G1 X-0.1692 Y0.0575 Z0.0 E0.009
G1 X-0.1697 Y0.0558 Z0.0 E0.009
G1 X-0.1703 Y0.0541 Z0.0 E0.009
G1 X-0.1708 Y0.0524 Z0.0 E0.009
G1 X-0.1714 Y0.0506 Z0.0 E0.009
G1 X-0.1719 Y0.0488 Z0.0 E0.009
G1 X-0.1724 Y0.047 Z0.0 E0.009
G1 X-0.1729 Y0.0452 Z0.0 E0.009
G1 X-0.1733 Y0.0434 Z0.0 E0.009
G1 X-0.1738 Y0.0415 Z0.0 E0.009
G1 X-0.1742 Y0.0396 Z0.0 E0.009
G1 X-0.1747 Y0.0376 Z0.0 E0.009
G1 X-0.1751 Y0.0357 Z0.0 E0.009
G1 X-0.1755 Y0.0337 Z0.0 E0.009
G1 X-0.1758 Y0.0316 Z0.0 E0.009
G1 X-0.1762 Y0.0296 Z0.0 E0.009
G1 X-0.1765 Y0.0275 Z0.0 E0.009
G1 X-0.1769 Y0.0254 Z0.0 E0.009
G1 X-0.1772 Y0.0232 Z0.0 E0.009
G1 X-0.1774 Y0.0211 Z-0.0 E0.009
G1 X-0.1777 Y0.0188 Z0.0 E0.009
G1 X-0.1779 Y0.0166 Z-0.0 E0.009
G1 X-0.1781 Y0.0143 Z0.0 E0.009
G1 X-0.1783 Y0.012 Z0.0 E0.009
G1 X-0.1784 Y0.0097 Z0.0 E0.009
G1 X-0.1785 Y0.0073 Z-0.0 E0.009
G1 X-0.1786 Y0.0049 Z0.0 E0.009
G1 X-0.1787 Y0.0024 Z0.0 E0.009
G1 X-0.1787 Y-0.0 Z0.0 E0.009
G1 X-0.1787 Y-0.0025 Z0.0 E0.009
G1 X-0.1786 Y-0.0049 Z0.0 E0.009
G1 X-0.1785 Y-0.0074 Z0.0 E0.009
G1 X-0.1784 Y-0.0097 Z0.0 E0.009
G1 X-0.1783 Y-0.0121 Z0.0 E0.009
G1 X-0.1781 Y-0.0144 Z0.0 E0.009
G1 X-0.1779 Y-0.0167 Z0.0 E0.009
G1 X-0.1777 Y-0.0189 Z0.0 E0.009
G1 X-0.1774 Y-0.0211 Z-0.0 E0.009
G1 X-0.1771 Y-0.0233 Z0.0 E0.009
G1 X-0.1769 Y-0.0254 Z0.0 E0.009
G1 X-0.1765 Y-0.0276 Z-0.0 E0.009
G1 X-0.1762 Y-0.0296 Z0.0 E0.009
G1 X-0.1758 Y-0.0317 Z0.0 E0.009
G1 X-0.1755 Y-0.0337 Z0.0 E0.009
G1 X-0.1751 Y-0.0357 Z0.0 E0.009
G1 X-0.1747 Y-0.0377 Z0.0 E0.009
G1 X-0.1742 Y-0.0396 Z0.0 E0.009
G1 X-0.1738 Y-0.0415 Z0.0 E0.009
G1 X-0.1733 Y-0.0434 Z-0.0 E0.009
G1 X-0.1728 Y-0.0453 Z0.0 E0.009
G1 X-0.1724 Y-0.0471 Z-0.0 E0.009
G1 X-0.1719 Y-0.0489 Z0.0 E0.009
G1 X-0.1713 Y-0.0507 Z0.0 E0.009
G1 X-0.1708 Y-0.0524 Z0.0 E0.009
G1 X-0.1703 Y-0.0541 Z0.0 E0.009
G1 X-0.1697 Y-0.0558 Z0.0 E0.009
G1 X-0.1692 Y-0.0575 Z0.0 E0.009
G1 X-0.1686 Y-0.0592 Z0.0 E0.009
G1 X-0.168 Y-0.0608 Z0.0 E0.009
G1 X-0.1674 Y-0.0624 Z0.0 E0.009
G1 X-0.1668 Y-0.064 Z0.0 E0.009
G1 X-0.1662 Y-0.0655 Z0.0 E0.009
G1 X-0.1656 Y-0.0671 Z0.0 E0.009
G1 X-0.165 Y-0.0686 Z0.0 E0.009
G1 X-0.1643 Y-0.0701 Z0.0 E0.009
G1 X-0.1637 Y-0.0716 Z0.0 E0.009
G1 X-0.163 Y-0.0731 Z0.0 E0.009
G1 X-0.1624 Y-0.0745 Z0.0 E0.009
G1 X-0.1617 Y-0.076 Z0.0 E0.009
G1 X-0.161 Y-0.0774 Z0.0 E0.009
G1 X-0.1604 Y-0.0788 Z0.0 E0.009
G1 X-0.1599 Y-0.0798 Z0.0 E0.009
G1 X-0.0959 Y-0.1169 Z0.0 E0.008
G1 X-0.0828 Y-0.1838 Z0.2 E0.014
G1 X0.0113 Y-0.1808 Z0.0 E0.009
G1 X0.0128 Y-0.1807 Z0.0 E0.009
G1 X0.0144 Y-0.1806 Z0.0 E0.009
G1 X0.0161 Y-0.1805 Z-0.0 E0.009
G1 X0.0177 Y-0.1803 Z0.0 E0.009
G1 X0.0193 Y-0.1801 Z0.0 E0.009
G1 X0.021 Y-0.1799 Z0.0 E0.009
G1 X0.0226 Y-0.1797 Z0.0 E0.009
G1 X0.0243 Y-0.1795 Z-0.0 E0.009
G1 X0.026 Y-0.1793 Z0.0 E0.009
G1 X0.0277 Y-0.179 Z0.0 E0.009
G1 X0.0294 Y-0.1788 Z-0.0 E0.009
G1 X0.0312 Y-0.1785 Z0.0 E0.009
G1 X0.0329 Y-0.1782 Z0.0 E0.009
G1 X0.0347 Y-0.1778 Z0.0 E0.009
G1 X0.0364 Y-0.1775 Z-0.0 E0.009
G1 X0.0382 Y-0.1771 Z0.0 E0.009
G1 X0.0401 Y-0.1767 Z-0.0 E0.009
G1 X0.0419 Y-0.1763 Z0.0 E0.009
G1 X0.0437 Y-0.1758 Z0.0 E0.009
G1 X0.0456 Y-0.1753 Z-0.0 E0.009
G1 X0.0475 Y-0.1748 Z0.0 E0.009
G1 X0.0494 Y-0.1743 Z0.0 E0.009
G1 X0.0513 Y-0.1738 Z0.0 E0.009
G1 X0.0532 Y-0.1732 Z0.0 E0.009
G1 X0.0552 Y-0.1726 Z0.0 E0.009
G1 X0.0571 Y-0.1719 Z-0.0 E0.009
G1 X0.0591 Y-0.1712 Z0.0 E0.009
G1 X0.0611 Y-0.1705 Z0.0 E0.009
G1 X0.0631 Y-0.1698 Z0.0 E0.009
G1 X0.0652 Y-0.169 Z0.0 E0.009
G1 X0.0672 Y-0.1682 Z0.0 E0.009
G1 X0.0693 Y-0.1674 Z0.0 E0.009
G1 X0.0714 Y-0.1665 Z0.0 E0.009
G1 X0.0735 Y-0.1656 Z0.0 E0.009
G1 X0.0756 Y-0.1646 Z-0.0 E0.009
G1 X0.0778 Y-0.1636 Z0.0 E0.009
G1 X0.0799 Y-0.1626 Z0.0 E0.009
G1 X0.0821 Y-0.1615 Z0.0 E0.009
G1 X0.0842 Y-0.1604 Z0.0 E0.009
G1 X0.0864 Y-0.1592 Z0.0 E0.009
G1 X0.0886 Y-0.158 Z0.0 E0.009
G1 X0.0909 Y-0.1567 Z0.0 E0.009
G1 X0.0931 Y-0.1554 Z0.0 E0.009
G1 X0.0952 Y-0.1541 Z0.0 E0.009
G1 X0.0973 Y-0.1528 Z0.0 E0.009
G1 X0.0994 Y-0.1515 Z-0.0 E0.009
G1 X0.1014 Y-0.1501 Z0.0 E0.009
G1 X0.1033 Y-0.1488 Z-0.0 E0.009
G1 X0.1053 Y-0.1474 Z0.0 E0.009
G1 X0.1071 Y-0.1461 Z-0.0 E0.009
G1 X0.109 Y-0.1447 Z0.0 E0.009
G1 X0.1108 Y-0.1434 Z0.0 E0.009
G1 X0.1125 Y-0.142 Z0.0 E0.009
G1 X0.1142 Y-0.1406 Z0.0 E0.009
G1 X0.1159 Y-0.1392 Z0.0 E0.009
G1 X0.1176 Y-0.1378 Z0.0 E0.009
G1 X0.1192 Y-0.1365 Z-0.0 E0.009
G1 X0.1207 Y-0.1351 Z0.0 E0.009
G1 X0.1222 Y-0.1337 Z0.0 E0.009
G1 X0.1237 Y-0.1323 Z0.0 E0.009
G1 X0.1252 Y-0.131 Z0.0 E0.009
G1 X0.1266 Y-0.1296 Z-0.0 E0.009
G1 X0.128 Y-0.1282 Z-0.0 E0.009
G1 X0.1294 Y-0.1268 Z0.0 E0.009
G1 X0.1307 Y-0.1255 Z0.0 E0.009
G1 X0.132 Y-0.1241 Z-0.0 E0.009
G1 X0.1332 Y-0.1227 Z0.0 E0.009
G1 X0.1345 Y-0.1214 Z0.0 E0.009
G1 X0.1357 Y-0.12 Z0.0 E0.009
G1 X0.1369 Y-0.1187 Z-0.0 E0.009
G1 X0.138 Y-0.1173 Z0.0 E0.009
G1 X0.1392 Y-0.116 Z0.0 E0.009
G1 X0.1403 Y-0.1147 Z0.0 E0.009
G1 X0.1413 Y-0.1133 Z0.0 E0.009
G1 X0.1424 Y-0.112 Z-0.0 E0.009
G1 X0.1434 Y-0.1107 Z0.0 E0.009
G1 X0.1445 Y-0.1093 Z0.0 E0.009
G1 X0.1454 Y-0.108 Z0.0 E0.009
G1 X0.1464 Y-0.1067 Z0.0 E0.009
G1 X0.1474 Y-0.1054 Z0.0 E0.009
G1 X0.1483 Y-0.1041 Z0.0 E0.009
G1 X0.1492 Y-0.1027 Z0.0 E0.009
G1 X0.1501 Y-0.1014 Z0.0 E0.009
G1 X0.151 Y-0.1001 Z0.0 E0.009
G1 X0.1516 Y-0.0992 Z0.0 E0.009
G1 X0.1543 Y-0.0478 Z0.0 E0.008
G1 X0.1611 Y0.0829 Z0.0 E0.009
G1 X0.1613 Y0.0825 Z0.0 E0.009
G1 X0.1618 Y0.0814 Z0.0 E0.009
G1 X0.1624 Y0.0802 Z0.0 E0.009
G1 X0.163 Y0.0791 Z0.0 E0.009
G1 X0.1636 Y0.0779 Z0.0 E0.009
G1 X0.1641 Y0.0767 Z0.0 E0.009
G1 X0.1647 Y0.0755 Z0.0 E0.009
G1 X0.1652 Y0.0743 Z0.0 E0.009
G1 X0.1658 Y0.073 Z0.0 E0.009
G1 X0.1663 Y0.0718 Z0.0 E0.009
G1 X0.1669 Y0.0706 Z-0.0 E0.009
G1 X0.1674 Y0.0693 Z0.0 E0.009
G1 X0.1679 Y0.068 Z0.0 E0.009
G1 X0.1684 Y0.0668 Z0.0 E0.009
G1 X0.1689 Y0.0655 Z0.0 E0.009
G1 X0.1694 Y0.0642 Z0.0 E0.009
G1 X0.1699 Y0.0629 Z0.0 E0.009
G1 X0.1704 Y0.0616 Z0.0 E0.009
G1 X0.1709 Y0.0602 Z0.0 E0.009
G1 X0.1713 Y0.0589 Z0.0 E0.009
G1 X0.1718 Y0.0576 Z0.0 E0.009
G1 X0.1722 Y0.0562 Z0.0 E0.009
G1 X0.1727 Y0.0548 Z-0.0 E0.009
G1 X0.1731 Y0.0534 Z0.0 E0.009
G1 X0.1735 Y0.052 Z0.0 E0.009
G1 X0.174 Y0.0506 Z0.0 E0.009
G1 X0.1744 Y0.0492 Z-0.0 E0.009
G1 X0.1748 Y0.0477 Z0.0 E0.009
G1 X0.1752 Y0.0463 Z0.0 E0.009
G1 X0.1755 Y0.0448 Z0.0 E0.009
G1 X0.1759 Y0.0433 Z0.0 E0.009
G1 X0.1763 Y0.0418 Z0.0 E0.009
G1 X0.1766 Y0.0403 Z0.0 E0.009
G1 X0.177 Y0.0387 Z0.0 E0.009
G1 X0.1773 Y0.0372 Z-0.0 E0.009
G1 X0.1776 Y0.0356 Z0.0 E0.009
G1 X0.1779 Y0.0341 Z0.0 E0.009
G1 X0.1782 Y0.0325 Z0.0 E0.009
G1 X0.1785 Y0.0309 Z0.0 E0.009
G1 X0.1788 Y0.0292 Z-0.0 E0.009
G1 X0.179 Y0.0276 Z0.0 E0.009
G1 X0.1793 Y0.026 Z0.0 E0.009
G1 X0.1795 Y0.0243 Z0.0 E0.009
G1 X0.1797 Y0.0226 Z0.0 E0.009
G1 X0.18 Y0.0209 Z0.0 E0.009
G1 X0.1801 Y0.0192 Z0.0 E0.009
G1 X0.1803 Y0.0175 Z-0.0 E0.009
G1 X0.1805 Y0.0157 Z0.0 E0.009
G1 X0.1806 Y0.014 Z0.0 E0.009
G1 X0.1808 Y0.0122 Z0.0 E0.009
G1 X0.1809 Y0.0104 Z0.0 E0.009
G1 X0.181 Y0.0086 Z0.0 E0.009
G1 X0.181 Y0.0068 Z0.0 E0.009
G1 X0.1811 Y0.005 Z0.0 E0.009
G1 X0.1811 Y0.0032 Z-0.0 E0.009
G1 X0.1812 Y0.0013 Z0.0 E0.009
G1 X0.1812 Y0.0007 Z0.0 E0.009
G1 X0.1812 Y0.0007 Z0.0 E0.009
G1 X0.1812 Y0.0007 Z0.0 E0.009
G1 X0.1812 Y0.0007 Z0.0 E0.009
G1 X-0.0139 Y0.1132 Z0.0 E0.006
G1 X-0.0902 Y0.1571 Z0.0 E0.009
G1 X-0.0902 Y0.1571 Z0.0 E0.009
G1 X-0.0902 Y0.1571 Z0.0 E0.009
G1 X-0.0901 Y0.1572 Z0.0 E0.009
G1 X-0.0889 Y0.1579 Z0.0 E0.009
G1 X-0.0872 Y0.1588 Z0.0 E0.009
G1 X-0.0856 Y0.1597 Z0.0 E0.009
G1 X-0.084 Y0.1605 Z0.0 E0.009
G1 X-0.0824 Y0.1613 Z0.0 E0.009
G1 X-0.0808 Y0.1622 Z-0.0 E0.009
G1 X-0.0792 Y0.1629 Z0.0 E0.009
G1 X-0.0776 Y0.1637 Z0.0 E0.009
G1 X-0.076 Y0.1645 Z0.0 E0.009
G1 X-0.0744 Y0.1652 Z0.0 E0.009
G1 X-0.0728 Y0.1659 Z-0.0 E0.009
G1 X-0.0712 Y0.1666 Z0.0 E0.009
G1 X-0.0696 Y0.1673 Z0.0 E0.009
G1 X-0.068 Y0.1679 Z-0.0 E0.009
G1 X-0.0665 Y0.1685 Z-0.0 E0.009
G1 X-0.0649 Y0.1691 Z0.0 E0.009
G1 X-0.0634 Y0.1697 Z0.0 E0.009
G1 X-0.0618 Y0.1703 Z-0.0 E0.009
G1 X-0.0603 Y0.1708 Z0.0 E0.009
G1 X-0.0587 Y0.1714 Z-0.0 E0.009
G1 X-0.0572 Y0.1719 Z0.0 E0.009
G1 X-0.0557 Y0.1724 Z0.0 E0.009
G1 X-0.0542 Y0.1729 Z0.0 E0.009
G1 X-0.0527 Y0.1733 Z0.0 E0.009
G1 X-0.0512 Y0.1738 Z-0.0 E0.009
G1 X-0.0497 Y0.1742 Z0.0 E0.009
G1 X-0.0482 Y0.1746 Z0.0 E0.009
G1 X-0.0467 Y0.175 Z0.0 E0.009
G1 X-0.0452 Y0.1754 Z0.0 E0.009
G1 X-0.0438 Y0.1758 Z0.0 E0.009
G1 X-0.0423 Y0.1761 Z-0.0 E0.009
G1 X-0.0409 Y0.1765 Z0.0 E0.009
G1 X-0.0395 Y0.1768 Z0.0 E0.009
G1 X-0.038 Y0.1771 Z0.0 E0.009
G1 X-0.0366 Y0.1774 Z0.0 E0.009
G1 X-0.0352 Y0.1777 Z-0.0 E0.009
G1 X-0.0338 Y0.178 Z0.0 E0.009
G1 X-0.0324 Y0.1782 Z0.0 E0.009
G1 X-0.031 Y0.1785 Z0.0 E0.009
G1 X-0.0296 Y0.1787 Z0.0 E0.009
G1 X-0.0282 Y0.179 Z0.0 E0.009
G1 X-0.0269 Y0.1792 Z-0.0 E0.009
G1 X-0.0255 Y0.1794 Z0.0 E0.009
G1 X-0.0241 Y0.1795 Z0.0 E0.009
G1 X-0.0228 Y0.1797 Z0.0 E0.009
G1 X-0.0214 Y0.1799 Z-0.0 E0.009
G1 X-0.0201 Y0.18 Z0.0 E0.009
G1 X-0.0187 Y0.1802 Z0.0 E0.009
G1 X-0.0174 Y0.1803 Z0.0 E0.009
G1 X-0.0161 Y0.1804 Z0.0 E0.009
G1 X-0.0148 Y0.1806 Z0.0 E0.009
G1 X-0.0135 Y0.1807 Z-0.0 E0.009
G1 X-0.0121 Y0.1808 Z0.0 E0.009
G1 X-0.0108 Y0.1808 Z0.0 E0.009
G1 X-0.0095 Y0.1809 Z-0.0 E0.009
G1 X-0.0085 Y0.181 Z0.0 E0.009
G1 X-0.0176 Y0.175 Z-0.0 E0.009
G1 X-0.1618 Y0.0814 Z0.0 E0.009
G1 X-0.162 Y0.0812 Z-0.0 E0.009
G1 X-0.1626 Y0.0799 Z0.0 E0.009
G1 X-0.1633 Y0.0785 Z0.0 E0.009
G1 X-0.164 Y0.077 Z0.0 E0.009
G1 X-0.1647 Y0.0756 Z0.0 E0.009
G1 X-0.1653 Y0.0741 Z-0.0 E0.009
G1 X-0.166 Y0.0726 Z0.0 E0.009
G1 X-0.1667 Y0.071 Z0.0 E0.009
G1 X-0.1673 Y0.0695 Z0.0 E0.009
G1 X-0.1679 Y0.0679 Z0.0 E0.009
G1 X-0.1686 Y0.0664 Z0.0 E0.009
G1 X-0.1692 Y0.0647 Z-0.0 E0.009
G1 X-0.1698 Y0.0631 Z0.0 E0.009
G1 X-0.1704 Y0.0615 Z0.0 E0.009
G1 X-0.171 Y0.0598 Z-0.0 E0.009
G1 X-0.1716 Y0.0581 Z0.0 E0.009
G1 X-0.1722 Y0.0564 Z0.0 E0.009
G1 X-0.1727 Y0.0547 Z-0.0 E0.009
G1 X-0.1733 Y0.0529 Z0.0 E0.009
G1 X-0.1738 Y0.0511 Z0.0 E0.009
G1 X-0.1743 Y0.0493 Z0.0 E0.009
G1 X-0.1748 Y0.0475 Z0.0 E0.009
G1 X-0.1753 Y0.0456 Z0.0 E0.009
G1 X-0.1758 Y0.0437 Z0.0 E0.009
G1 X-0.1763 Y0.0418 Z-0.0 E0.009
G1 X-0.1767 Y0.0398 Z0.0 E0.009
G1 X-0.1772 Y0.0378 Z0.0 E0.009
G1 X-0.1776 Y0.0358 Z-0.0 E0.009
G1 X-0.178 Y0.0338 Z0.0 E0.009
G1 X-0.1784 Y0.0317 Z0.0 E0.009
G1 X-0.1787 Y0.0296 Z0.0 E0.009
G1 X-0.1791 Y0.0274 Z-0.0 E0.009
G1 X-0.1794 Y0.0253 Z0.0 E0.009
G1 X-0.1797 Y0.0231 Z0.0 E0.009
G1 X-0.18 Y0.0208 Z0.0 E0.009
G1 X-0.1802 Y0.0186 Z-0.0 E0.009
G1 X-0.1804 Y0.0163 Z0.0 E0.009
G1 X-0.1806 Y0.0139 Z-0.0 E0.009
G1 X-0.1808 Y0.0116 Z0.0 E0.009
G1 X-0.1809 Y0.0092 Z0.0 E0.009
G1 X-0.181 Y0.0067 Z-0.0 E0.009
G1 X-0.1811 Y0.0043 Z0.0 E0.009
G1 X-0.1812 Y0.0018 Z0.0 E0.009
G1 X-0.1812 Y-0.0008 Z-0.0 E0.009
G1 X-0.1811 Y-0.0033 Z-0.0 E0.009
G1 X-0.1811 Y-0.0058 Z0.0 E0.009
G1 X-0.181 Y-0.0082 Z0.0 E0.009
G1 X-0.1809 Y-0.0106 Z0.0 E0.009
G1 X-0.1807 Y-0.013 Z0.0 E0.009
G1 X-0.1805 Y-0.0154 Z0.0 E0.009
G1 X-0.1803 Y-0.0177 Z0.0 E0.009
G1 X-0.1801 Y-0.02 Z0.0 E0.009
G1 X-0.1798 Y-0.0222 Z-0.0 E0.009
G1 X-0.1795 Y-0.0244 Z0.0 E0.009
G1 X-0.1792 Y-0.0266 Z0.0 E0.009
G1 X-0.1789 Y-0.0288 Z0.0 E0.009
G1 X-0.1785 Y-0.0309 Z0.0 E0.009
G1 X-0.1781 Y-0.033 Z0.0 E0.009
G1 X-0.1777 Y-0.035 Z0.0 E0.009
G1 X-0.1773 Y-0.037 Z0.0 E0.009
G1 X-0.1769 Y-0.039 Z0.0 E0.009
G1 X-0.1765 Y-0.041 Z0.0 E0.009
G1 X-0.176 Y-0.0429 Z0.0 E0.009
G1 X-0.1755 Y-0.0448 Z0.0 E0.009
G1 X-0.175 Y-0.0467 Z0.0 E0.009
G1 X-0.1745 Y-0.0486 Z0.0 E0.009
G1 X-0.174 Y-0.0504 Z-0.0 E0.009
G1 X-0.1735 Y-0.0522 Z0.0 E0.009
G1 X-0.1729 Y-0.054 Z0.0 E0.009
G1 X-0.1724 Y-0.0557 Z-0.0 E0.009
G1 X-0.1718 Y-0.0575 Z0.0 E0.009
G1 X-0.1712 Y-0.0592 Z0.0 E0.009
G1 X-0.1706 Y-0.0608 Z0.0 E0.009
G1 X-0.17 Y-0.0625 Z0.0 E0.009
G1 X-0.1694 Y-0.0641 Z0.0 E0.009
G1 X-0.1688 Y-0.0657 Z0.0 E0.009
G1 X-0.1682 Y-0.0673 Z0.0 E0.009
G1 X-0.1676 Y-0.0689 Z-0.0 E0.009
G1 X-0.1669 Y-0.0704 Z0.0 E0.009
G1 X-0.1662 Y-0.072 Z-0.0 E0.009
G1 X-0.1656 Y-0.0735 Z0.0 E0.009
G1 X-0.1649 Y-0.075 Z0.0 E0.009
G1 X-0.1642 Y-0.0765 Z0.0 E0.009
G1 X-0.1635 Y-0.0779 Z0.0 E0.009
G1 X-0.1629 Y-0.0794 Z0.0 E0.009
G1 X-0.1622 Y-0.0807 Z0.0 E0.009
G1 X-0.1621 Y-0.0809 Z0.0 E0.009
G1 X-0.0419 Y-0.1505 Z0.0 E0.008
G1 X-0.0826 Y-0.1863 Z0.2 E0.014
G1 X0.0114 Y-0.1833 Z0.0 E0.009
G1 X0.013 Y-0.1832 Z-0.0 E0.009
G1 X0.0147 Y-0.1831 Z0.0 E0.009
G1 X0.0163 Y-0.1829 Z0.0 E0.009
G1 X0.018 Y-0.1828 Z0.0 E0.009
G1 X0.0197 Y-0.1826 Z0.0 E0.009
G1 X0.0214 Y-0.1824 Z0.0 E0.009
G1 X0.0231 Y-0.1822 Z0.0 E0.009
G1 X0.0248 Y-0.182 Z0.0 E0.009
G1 X0.0265 Y-0.1817 Z-0.0 E0.009
G1 X0.0283 Y-0.1815 Z0.0 E0.009
G1 X0.03 Y-0.1812 Z0.0 E0.009
G1 X0.0318 Y-0.1809 Z0.0 E0.009
G1 X0.0336 Y-0.1806 Z0.0 E0.009
G1 X0.0354 Y-0.1802 Z-0.0 E0.009
G1 X0.0372 Y-0.1798 Z-0.0 E0.009
G1 X0.039 Y-0.1795 Z0.0 E0.009
G1 X0.0409 Y-0.179 Z0.0 E0.009
G1 X0.0428 Y-0.1786 Z0.0 E0.009
G1 X0.0447 Y-0.1781 Z0.0 E0.009
G1 X0.0466 Y-0.1777 Z0.0 E0.009
G1 X0.0485 Y-0.1771 Z0.0 E0.009
G1 X0.0504 Y-0.1766 Z0.0 E0.009
G1 X0.0524 Y-0.176 Z0.0 E0.009
G1 X0.0544 Y-0.1754 Z0.0 E0.009
G1 X0.0564 Y-0.1748 Z0.0 E0.009
G1 X0.0584 Y-0.1741 Z0.0 E0.009
G1 X0.0604 Y-0.1734 Z0.0 E0.009
G1 X0.0625 Y-0.1727 Z0.0 E0.009
G1 X0.0645 Y-0.1719 Z0.0 E0.009
G1 X0.0666 Y-0.1711 Z0.0 E0.009
G1 X0.0687 Y-0.1703 Z0.0 E0.009
G1 X0.0708 Y-0.1694 Z0.0 E0.009
G1 X0.073 Y-0.1685 Z0.0 E0.009
G1 X0.0751 Y-0.1676 Z0.0 E0.009
G1 X0.0773 Y-0.1666 Z0.0 E0.009
G1 X0.0795 Y-0.1656 Z0.0 E0.009
G1 X0.0817 Y-0.1645 Z0.0 E0.009
G1 X0.0839 Y-0.1634 Z0.0 E0.009
G1 X0.0861 Y-0.1622 Z0.0 E0.009
G1 X0.0884 Y-0.161 Z0.0 E0.009
G1 X0.0906 Y-0.1597 Z0.0 E0.009
G1 X0.0929 Y-0.1584 Z0.0 E0.009
G1 X0.0951 Y-0.1571 Z0.0 E0.009
G1 X0.0973 Y-0.1558 Z0.0 E0.009
G1 X0.0994 Y-0.1544 Z0.0 E0.009
G1 X0.1015 Y-0.1531 Z0.0 E0.009
G1 X0.1035 Y-0.1517 Z0.0 E0.009
G1 X0.1055 Y-0.1503 Z0.0 E0.009
G1 X0.1075 Y-0.1489 Z0.0 E0.009
G1 X0.1094 Y-0.1475 Z0.0 E0.009
G1 X0.1112 Y-0.1461 Z0.0 E0.009
G1 X0.113 Y-0.1448 Z0.0 E0.009
G1 X0.1148 Y-0.1433 Z0.0 E0.009
G1 X0.1165 Y-0.1419 Z0.0 E0.009
G1 X0.1182 Y-0.1405 Z0.0 E0.009
G1 X0.1199 Y-0.1391 Z0.0 E0.009
G1 X0.1215 Y-0.1377 Z0.0 E0.009
G1 X0.1231 Y-0.1363 Z0.0 E0.009
G1 X0.1246 Y-0.1349 Z0.0 E0.009
G1 X0.1261 Y-0.1335 Z0.0 E0.009
G1 X0.1276 Y-0.1321 Z-0.0 E0.009
G1 X0.129 Y-0.1307 Z0.0 E0.009
G1 X0.1304 Y-0.1293 Z-0.0 E0.009
G1 X0.1318 Y-0.1279 Z0.0 E0.009
G1 X0.1332 Y-0.1265 Z0.0 E0.009
G1 X0.1345 Y-0.1251 Z0.0 E0.009
G1 X0.1357 Y-0.1237 Z0.0 E0.009
G1 X0.137 Y-0.1223 Z0.0 E0.009
G1 X0.1382 Y-0.1209 Z0.0 E0.009
G1 X0.1394 Y-0.1196 Z-0.0 E0.009
G1 X0.1406 Y-0.1182 Z0.0 E0.009
G1 X0.1417 Y-0.1168 Z0.0 E0.009
G1 X0.1428 Y-0.1154 Z0.0 E0.009
G1 X0.1439 Y-0.1141 Z0.0 E0.009
G1 X0.145 Y-0.1127 Z0.0 E0.009
G1 X0.146 Y-0.1114 Z0.0 E0.009
G1 X0.1471 Y-0.11 Z0.0 E0.009
G1 X0.1481 Y-0.1086 Z0.0 E0.009
G1 X0.149 Y-0.1073 Z0.0 E0.009
G1 X0.15 Y-0.106 Z0.0 E0.009
G1 X0.1509 Y-0.1046 Z0.0 E0.009
G1 X0.1519 Y-0.1033 Z-0.0 E0.009
G1 X0.1528 Y-0.1019 Z-0.0 E0.009
G1 X0.1535 Y-0.1008 Z0.0 E0.009
G1 X0.1537 Y-0.1006 Z0.0 E0.009
G1 X0.1603 Y0.0265 Z0.0 E0.008
G1 X0.1633 Y0.084 Z0.0 E0.009
G1 X0.1636 Y0.0835 Z0.0 E0.009
G1 X0.1642 Y0.0823 Z0.0 E0.009
G1 X0.1648 Y0.0811 Z0.0 E0.009
G1 X0.1654 Y0.0799 Z0.0 E0.009
G1 X0.1659 Y0.0787 Z0.0 E0.009
G1 X0.1665 Y0.0775 Z0.0 E0.009
G1 X0.1671 Y0.0762 Z0.0 E0.009
G1 X0.1677 Y0.075 Z0.0 E0.009
G1 X0.1682 Y0.0737 Z0.0 E0.009
G1 X0.1688 Y0.0724 Z0.0 E0.009
G1 X0.1693 Y0.0711 Z0.0 E0.009
G1 X0.1699 Y0.0698 Z0.0 E0.009
G1 X0.1704 Y0.0685 Z0.0 E0.009
G1 X0.1709 Y0.0672 Z0.0 E0.009
G1 X0.1714 Y0.0659 Z0.0 E0.009
G1 X0.1719 Y0.0645 Z0.0 E0.009
G1 X0.1724 Y0.0632 Z-0.0 E0.009
G1 X0.1729 Y0.0618 Z0.0 E0.009
G1 X0.1734 Y0.0605 Z0.0 E0.009
G1 X0.1739 Y0.0591 Z0.0 E0.009
G1 X0.1744 Y0.0577 Z0.0 E0.009
G1 X0.1748 Y0.0563 Z-0.0 E0.009
G1 X0.1753 Y0.0548 Z0.0 E0.009
G1 X0.1757 Y0.0534 Z0.0 E0.009
G1 X0.1762 Y0.0519 Z0.0 E0.009
G1 X0.1766 Y0.0505 Z0.0 E0.009
G1 X0.177 Y0.049 Z0.0 E0.009
G1 X0.1774 Y0.0475 Z0.0 E0.009
G1 X0.1778 Y0.046 Z0.0 E0.009
G1 X0.1782 Y0.0444 Z0.0 E0.009
G1 X0.1786 Y0.0429 Z0.0 E0.009
G1 X0.1789 Y0.0413 Z0.0 E0.009
G1 X0.1793 Y0.0397 Z0.0 E0.009
G1 X0.1796 Y0.0381 Z0.0 E0.009
G1 X0.18 Y0.0365 Z0.0 E0.009
G1 X0.1803 Y0.0349 Z0.0 E0.009
G1 X0.1806 Y0.0333 Z0.0 E0.009
G1 X0.1809 Y0.0316 Z0.0 E0.009
G1 X0.1812 Y0.0299 Z0.0 E0.009
G1 X0.1815 Y0.0283 Z0.0 E0.009
G1 X0.1817 Y0.0266 Z0.0 E0.009
G1 X0.182 Y0.0248 Z0.0 E0.009
G1 X0.1822 Y0.0231 Z0.0 E0.009
G1 X0.1824 Y0.0214 Z0.0 E0.009
G1 X0.1826 Y0.0196 Z0.0 E0.009
G1 X0.1828 Y0.0178 Z0.0 E0.009
G1 X0.183 Y0.016 Z0.0 E0.009
G1 X0.1831 Y0.0142 Z0.0 E0.009
G1 X0.1832 Y0.0124 Z0.0 E0.009
G1 X0.1834 Y0.0105 Z0.0 E0.009
G1 X0.1834 Y0.0087 Z0.0 E0.009
G1 X0.1835 Y0.0068 Z0.0 E0.009
G1 X0.1836 Y0.0049 Z-0.0 E0.009
G1 X0.1836 Y0.003 Z0.0 E0.009
G1 X0.1836 Y0.0012 Z0.0 E0.009
G1 X0.1837 Y0.0007 Z0.0 E0.009
G1 X0.1837 Y0.0007 Z0.0 E0.009
G1 X0.1837 Y0.0007 Z0.0 E0.009
G1 X0.1837 Y0.0007 Z0.0 E0.009
G1 X0.1754 Y0.0054 Z0.0 E0.009
G1 X-0.0914 Y0.1593 Z0.0 E0.009
G1 X-0.0914 Y0.1593 Z0.0 E0.009
G1 X-0.0914 Y0.1593 Z0.0 E0.009
G1 X-0.0914 Y0.1593 Z0.0 E0.009
G1 X-0.0914 Y0.1593 Z0.0 E0.009
G1 X-0.0909 Y0.1596 Z0.0 E0.009
G1 X-0.0892 Y0.1605 Z-0.0 E0.009
G1 X-0.0876 Y0.1614 Z0.0 E0.009
G1 X-0.0859 Y0.1623 Z0.0 E0.009
G1 X-0.0842 Y0.1632 Z0.0 E0.009
G1 X-0.0825 Y0.1641 Z0.0 E0.009
G1 X-0.0809 Y0.1649 Z0.0 E0.009
G1 X-0.0792 Y0.1657 Z0.0 E0.009
G1 X-0.0776 Y0.1665 Z0.0 E0.009
G1 X-0.0759 Y0.1672 Z0.0 E0.009
G1 X-0.0743 Y0.168 Z0.0 E0.009
G1 X-0.0726 Y0.1687 Z0.0 E0.009
G1 X-0.071 Y0.1694 Z-0.0 E0.009
G1 X-0.0694 Y0.17 Z-0.0 E0.009
G1 X-0.0678 Y0.1707 Z0.0 E0.009
G1 X-0.0661 Y0.1713 Z0.0 E0.009
G1 X-0.0645 Y0.1719 Z0.0 E0.009
G1 X-0.0629 Y0.1725 Z0.0 E0.009
G1 X-0.0613 Y0.1731 Z0.0 E0.009
G1 X-0.0598 Y0.1737 Z0.0 E0.009
G1 X-0.0582 Y0.1742 Z0.0 E0.009
G1 X-0.0566 Y0.1747 Z0.0 E0.009
G1 X-0.055 Y0.1752 Z0.0 E0.009
G1 X-0.0535 Y0.1757 Z0.0 E0.009
G1 X-0.0519 Y0.1762 Z0.0 E0.009
G1 X-0.0504 Y0.1766 Z0.0 E0.009
G1 X-0.0489 Y0.177 Z0.0 E0.009
G1 X-0.0473 Y0.1774 Z0.0 E0.009
G1 X-0.0458 Y0.1778 Z0.0 E0.009
G1 X-0.0443 Y0.1782 Z0.0 E0.009
G1 X-0.0428 Y0.1786 Z0.0 E0.009
G1 X-0.0413 Y0.1789 Z0.0 E0.009
G1 X-0.0399 Y0.1793 Z0.0 E0.009
G1 X-0.0384 Y0.1796 Z0.0 E0.009
G1 X-0.0369 Y0.1799 Z0.0 E0.009
G1 X-0.0355 Y0.1802 Z-0.0 E0.009
G1 X-0.034 Y0.1805 Z0.0 E0.009
G1 X-0.0326 Y0.1807 Z0.0 E0.009
G1 X-0.0311 Y0.181 Z0.0 E0.009
G1 X-0.0297 Y0.1812 Z0.0 E0.009
G1 X-0.0283 Y0.1815 Z0.0 E0.009
G1 X-0.0269 Y0.1817 Z0.0 E0.009
G1 X-0.0255 Y0.1819 Z0.0 E0.009
G1 X-0.0241 Y0.1821 Z0.0 E0.009
G1 X-0.0227 Y0.1822 Z0.0 E0.009
G1 X-0.0213 Y0.1824 Z0.0 E0.009
G1 X-0.0199 Y0.1826 Z0.0 E0.009
G1 X-0.0185 Y0.1827 Z0.0 E0.009
G1 X-0.0171 Y0.1829 Z0.0 E0.009
G1 X-0.0158 Y0.183 Z0.0 E0.009
G1 X-0.0144 Y0.1831 Z0.0 E0.009
G1 X-0.0131 Y0.1832 Z0.0 E0.009
G1 X-0.0117 Y0.1833 Z0.0 E0.009
G1 X-0.0104 Y0.1834 Z0.0 E0.009
G1 X-0.009 Y0.1834 Z0.0 E0.009
G1 X-0.0085 Y0.1835 Z0.0 E0.009
G1 X-0.0517 Y0.1554 Z0.0 E0.008
G1 X-0.1641 Y0.0825 Z0.0 E0.009
G1 X-0.1642 Y0.0824 Z0.0 E0.009
G1 X-0.1648 Y0.0811 Z-0.0 E0.009
G1 X-0.1655 Y0.0796 Z0.0 E0.009
G1 X-0.1662 Y0.0781 Z0.0 E0.009
G1 X-0.1669 Y0.0766 Z0.0 E0.009
G1 X-0.1676 Y0.0751 Z0.0 E0.009
G1 X-0.1683 Y0.0736 Z0.0 E0.009
G1 X-0.1689 Y0.072 Z0.0 E0.009
G1 X-0.1696 Y0.0704 Z0.0 E0.009
G1 X-0.1703 Y0.0688 Z0.0 E0.009
G1 X-0.1709 Y0.0672 Z0.0 E0.009
G1 X-0.1715 Y0.0656 Z0.0 E0.009
G1 X-0.1722 Y0.0639 Z0.0 E0.009
G1 X-0.1728 Y0.0622 Z0.0 E0.009
G1 X-0.1734 Y0.0605 Z0.0 E0.009
G1 X-0.174 Y0.0588 Z0.0 E0.009
G1 X-0.1746 Y0.057 Z0.0 E0.009
G1 X-0.1751 Y0.0553 Z0.0 E0.009
G1 X-0.1757 Y0.0535 Z0.0 E0.009
G1 X-0.1763 Y0.0516 Z0.0 E0.009
G1 X-0.1768 Y0.0498 Z0.0 E0.009
G1 X-0.1773 Y0.0479 Z0.0 E0.009
G1 X-0.1778 Y0.046 Z0.0 E0.009
G1 X-0.1783 Y0.044 Z0.0 E0.009
G1 X-0.1788 Y0.042 Z0.0 E0.009
G1 X-0.1792 Y0.04 Z0.0 E0.009
G1 X-0.1797 Y0.038 Z0.0 E0.009
G1 X-0.1801 Y0.0359 Z0.0 E0.009
G1 X-0.1805 Y0.0338 Z0.0 E0.009
G1 X-0.1809 Y0.0317 Z0.0 E0.009
G1 X-0.1813 Y0.0296 Z0.0 E0.009
G1 X-0.1816 Y0.0274 Z0.0 E0.009
G1 X-0.1819 Y0.0251 Z0.0 E0.009
G1 X-0.1822 Y0.0229 Z0.0 E0.009
G1 X-0.1825 Y0.0206 Z0.0 E0.009
G1 X-0.1827 Y0.0183 Z-0.0 E0.009
G1 X-0.183 Y0.0159 Z0.0 E0.009
G1 X-0.1832 Y0.0135 Z0.0 E0.009
G1 X-0.1833 Y0.0111 Z0.0 E0.009
G1 X-0.1834 Y0.0086 Z0.0 E0.009
G1 X-0.1835 Y0.0062 Z0.0 E0.009
G1 X-0.1836 Y0.0036 Z0.0 E0.009
G1 X-0.1836 Y0.0011 Z-0.0 E0.009
G1 X-0.1836 Y-0.0015 Z0.0 E0.009
G1 X-0.1836 Y-0.0041 Z0.0 E0.009
G1 X-0.1835 Y-0.0066 Z0.0 E0.009
G1 X-0.1834 Y-0.0091 Z0.0 E0.009
G1 X-0.1833 Y-0.0115 Z0.0 E0.009
G1 X-0.1831 Y-0.014 Z0.0 E0.009
G1 X-0.1829 Y-0.0163 Z0.0 E0.009
G1 X-0.1827 Y-0.0187 Z0.0 E0.009
G1 X-0.1824 Y-0.021 Z0.0 E0.009
G1 X-0.1822 Y-0.0233 Z0.0 E0.009
G1 X-0.1819 Y-0.0255 Z0.0 E0.009
G1 X-0.1815 Y-0.0278 Z0.0 E0.009
G1 X-0.1812 Y-0.03 Z0.0 E0.009
G1 X-0.1808 Y-0.0321 Z0.0 E0.009
G1 X-0.1804 Y-0.0342 Z0.0 E0.009
G1 X-0.18 Y-0.0363 Z0.0 E0.009
G1 X-0.1796 Y-0.0384 Z0.0 E0.009
G1 X-0.1792 Y-0.0404 Z0.0 E0.009
G1 X-0.1787 Y-0.0424 Z0.0 E0.009
G1 X-0.1782 Y-0.0444 Z0.0 E0.009
G1 X-0.1777 Y-0.0463 Z0.0 E0.009
G1 X-0.1772 Y-0.0482 Z0.0 E0.009
G1 X-0.1767 Y-0.0501 Z0.0 E0.009
G1 X-0.1762 Y-0.0519 Z0.0 E0.009
G1 X-0.1756 Y-0.0538 Z0.0 E0.009
G1 X-0.175 Y-0.0556 Z0.0 E0.009
G1 X-0.1745 Y-0.0574 Z0.0 E0.009
G1 X-0.1739 Y-0.0591 Z0.0 E0.009
G1 X-0.1733 Y-0.0608 Z0.0 E0.009
G1 X-0.1727 Y-0.0625 Z0.0 E0.009
G1 X-0.1721 Y-0.0642 Z0.0 E0.009
G1 X-0.1714 Y-0.0659 Z-0.0 E0.009
G1 X-0.1708 Y-0.0675 Z0.0 E0.009
G1 X-0.1701 Y-0.0691 Z0.0 E0.009
G1 X-0.1695 Y-0.0707 Z0.0 E0.009
G1 X-0.1688 Y-0.0723 Z0.0 E0.009
G1 X-0.1681 Y-0.0739 Z0.0 E0.009
G1 X-0.1675 Y-0.0754 Z0.0 E0.009
G1 X-0.1668 Y-0.0769 Z0.0 E0.009
G1 X-0.1661 Y-0.0784 Z0.0 E0.009
G1 X-0.1654 Y-0.0799 Z0.0 E0.009
G1 X-0.1647 Y-0.0813 Z0.0 E0.009
G1 X-0.1643 Y-0.082 Z0.0 E0.009
G1 X-0.1629 Y-0.0829 Z0.0 E0.009
G1 X0.0106 Y-0.1833 Z0.0 E0.009
G1 X-0.0825 Y-0.1887 Z0.2 E0.014
G1 X0.0116 Y-0.1858 Z0.0 E0.009
G1 X0.0132 Y-0.1857 Z-0.0 E0.009
G1 X0.0149 Y-0.1855 Z0.0 E0.009
G1 X0.0166 Y-0.1854 Z0.0 E0.009
G1 X0.0183 Y-0.1852 Z0.0 E0.009
G1 X0.02 Y-0.1851 Z0.0 E0.009
G1 X0.0217 Y-0.1849 Z0.0 E0.009
G1 X0.0235 Y-0.1847 Z-0.0 E0.009
G1 X0.0252 Y-0.1844 Z0.0 E0.009
G1 X0.027 Y-0.1842 Z-0.0 E0.009
G1 X0.0288 Y-0.1839 Z0.0 E0.009
G1 X0.0306 Y-0.1836 Z0.0 E0.009
G1 X0.0324 Y-0.1833 Z0.0 E0.009
G1 X0.0342 Y-0.183 Z0.0 E0.009
G1 X0.0361 Y-0.1826 Z-0.0 E0.009
G1 X0.0379 Y-0.1822 Z0.0 E0.009
G1 X0.0398 Y-0.1818 Z0.0 E0.009
G1 X0.0417 Y-0.1814 Z-0.0 E0.009
G1 X0.0436 Y-0.181 Z0.0 E0.009
G1 X0.0456 Y-0.1805 Z-0.0 E0.009
G1 X0.0475 Y-0.18 Z0.0 E0.009
G1 X0.0495 Y-0.1794 Z-0.0 E0.009
G1 X0.0515 Y-0.1789 Z0.0 E0.009
G1 X0.0535 Y-0.1783 Z0.0 E0.009
G1 X0.0555 Y-0.1777 Z-0.0 E0.009
G1 X0.0576 Y-0.177 Z0.0 E0.009
G1 X0.0596 Y-0.1763 Z-0.0 E0.009
G1 X0.0617 Y-0.1756 Z0.0 E0.009
G1 X0.0638 Y-0.1749 Z0.0 E0.009
G1 X0.0659 Y-0.1741 Z0.0 E0.009
G1 X0.0681 Y-0.1733 Z0.0 E0.009
G1 X0.0702 Y-0.1724 Z-0.0 E0.009
G1 X0.0724 Y-0.1715 Z0.0 E0.009
G1 X0.0746 Y-0.1706 Z0.0 E0.009
G1 X0.0768 Y-0.1696 Z-0.0 E0.009
G1 X0.079 Y-0.1686 Z0.0 E0.009
G1 X0.0812 Y-0.1675 Z-0.0 E0.009
G1 X0.0835 Y-0.1664 Z0.0 E0.009
G1 X0.0857 Y-0.1652 Z0.0 E0.009
G1 X0.088 Y-0.164 Z-0.0 E0.009
G1 X0.0903 Y-0.1628 Z0.0 E0.009
G1 X0.0926 Y-0.1615 Z0.0 E0.009
G1 X0.0949 Y-0.1601 Z0.0 E0.009
G1 X0.0971 Y-0.1588 Z0.0 E0.009
G1 X0.0993 Y-0.1574 Z-0.0 E0.009
G1 X0.1015 Y-0.156 Z0.0 E0.009
G1 X0.1036 Y-0.1546 Z-0.0 E0.009
G1 X0.1057 Y-0.1532 Z0.0 E0.009
G1 X0.1077 Y-0.1518 Z-0.0 E0.009
G1 X0.1097 Y-0.1504 Z-0.0 E0.009
G1 X0.1116 Y-0.149 Z-0.0 E0.009
G1 X0.1135 Y-0.1476 Z0.0 E0.009
G1 X0.1153 Y-0.1461 Z0.0 E0.009
G1 X0.1171 Y-0.1447 Z0.0 E0.009
G1 X0.1188 Y-0.1433 Z0.0 E0.009
G1 X0.1206 Y-0.1418 Z0.0 E0.009
G1 X0.1222 Y-0.1404 Z-0.0 E0.009
G1 X0.1239 Y-0.139 Z0.0 E0.009
G1 X0.1255 Y-0.1375 Z0.0 E0.009
G1 X0.127 Y-0.1361 Z-0.0 E0.009
G1 X0.1285 Y-0.1346 Z0.0 E0.009
G1 X0.13 Y-0.1332 Z0.0 E0.009
G1 X0.1315 Y-0.1318 Z0.0 E0.009
G1 X0.1329 Y-0.1303 Z0.0 E0.009
G1 X0.1343 Y-0.1289 Z0.0 E0.009
G1 X0.1356 Y-0.1275 Z0.0 E0.009
G1 X0.137 Y-0.1261 Z0.0 E0.009
G1 X0.1382 Y-0.1246 Z0.0 E0.009
G1 X0.1395 Y-0.1232 Z-0.0 E0.009
G1 X0.1407 Y-0.1218 Z0.0 E0.009
G1 X0.1419 Y-0.1204 Z0.0 E0.009
G1 X0.1431 Y-0.119 Z0.0 E0.009
G1 X0.1443 Y-0.1176 Z0.0 E0.009
G1 X0.1454 Y-0.1162 Z0.0 E0.009
G1 X0.1465 Y-0.1148 Z-0.0 E0.009
G1 X0.1476 Y-0.1134 Z0.0 E0.009
G1 X0.1486 Y-0.112 Z-0.0 E0.009
G1 X0.1497 Y-0.1107 Z0.0 E0.009
G1 X0.1507 Y-0.1093 Z-0.0 E0.009
G1 X0.1517 Y-0.1079 Z0.0 E0.009
G1 X0.1526 Y-0.1065 Z-0.0 E0.009
G1 X0.1536 Y-0.1052 Z0.0 E0.009
G1 X0.1545 Y-0.1038 Z-0.0 E0.009
G1 X0.1554 Y-0.1024 Z0.0 E0.009
G1 X0.1558 Y-0.1019 Z0.0 E0.009
G1 X0.1566 Y-0.0864 Z0.0 E0.009
G1 X0.1655 Y0.0852 Z0.0 E0.009
G1 X0.1655 Y0.0852 Z0.0 E0.009
G1 X0.1659 Y0.0845 Z0.0 E0.009
G1 X0.1665 Y0.0833 Z0.0 E0.009
G1 X0.1671 Y0.082 Z0.0 E0.009
G1 X0.1677 Y0.0808 Z-0.0 E0.009
G1 X0.1683 Y0.0795 Z0.0 E0.009
G1 X0.1689 Y0.0782 Z0.0 E0.009
G1 X0.1695 Y0.0769 Z0.0 E0.009
G1 X0.1701 Y0.0756 Z-0.0 E0.009
G1 X0.1707 Y0.0743 Z0.0 E0.009
G1 X0.1712 Y0.073 Z-0.0 E0.009
G1 X0.1718 Y0.0717 Z0.0 E0.009
G1 X0.1723 Y0.0704 Z0.0 E0.009
G1 X0.1729 Y0.069 Z0.0 E0.009
G1 X0.1734 Y0.0676 Z0.0 E0.009
G1 X0.174 Y0.0663 Z0.0 E0.009
G1 X0.1745 Y0.0649 Z0.0 E0.009
G1 X0.175 Y0.0635 Z-0.0 E0.009
G1 X0.1755 Y0.0621 Z0.0 E0.009
G1 X0.176 Y0.0606 Z0.0 E0.009
G1 X0.1765 Y0.0592 Z-0.0 E0.009
G1 X0.177 Y0.0578 Z0.0 E0.009
G1 X0.1774 Y0.0563 Z0.0 E0.009
G1 X0.1779 Y0.0548 Z-0.0 E0.009
G1 X0.1783 Y0.0533 Z0.0 E0.009
G1 X0.1788 Y0.0518 Z0.0 E0.009
G1 X0.1792 Y0.0503 Z-0.0 E0.009
G1 X0.1797 Y0.0487 Z0.0 E0.009
G1 X0.1801 Y0.0472 Z0.0 E0.009
G1 X0.1805 Y0.0456 Z-0.0 E0.009
G1 X0.1809 Y0.044 Z0.0 E0.009
G1 X0.1812 Y0.0424 Z0.0 E0.009
G1 X0.1816 Y0.0408 Z0.0 E0.009
G1 X0.182 Y0.0391 Z-0.0 E0.009
G1 X0.1823 Y0.0375 Z0.0 E0.009
G1 X0.1827 Y0.0358 Z0.0 E0.009
G1 X0.183 Y0.0341 Z-0.0 E0.009
G1 X0.1833 Y0.0324 Z0.0 E0.009
G1 X0.1836 Y0.0307 Z-0.0 E0.009
G1 X0.1839 Y0.029 Z-0.0 E0.009
G1 X0.1841 Y0.0272 Z0.0 E0.009
G1 X0.1844 Y0.0254 Z0.0 E0.009
G1 X0.1846 Y0.0237 Z0.0 E0.009
G1 X0.1849 Y0.0218 Z0.0 E0.009
G1 X0.1851 Y0.02 Z0.0 E0.009
G1 X0.1853 Y0.0182 Z-0.0 E0.009
G1 X0.1854 Y0.0163 Z0.0 E0.009
G1 X0.1856 Y0.0145 Z0.0 E0.009
G1 X0.1857 Y0.0126 Z-0.0 E0.009
G1 X0.1858 Y0.0107 Z0.0 E0.009
G1 X0.1859 Y0.0088 Z0.0 E0.009
G1 X0.186 Y0.0068 Z0.0 E0.009
G1 X0.1861 Y0.0049 Z0.0 E0.009
G1 X0.1861 Y0.0029 Z0.0 E0.009
G1 X0.1861 Y0.0011 Z0.0 E0.009
G1 X0.1861 Y0.0007 Z0.0 E0.009
G1 X0.1861 Y0.0007 Z0.0 E0.009
G1 X0.1861 Y0.0007 Z0.0 E0.009
G1 X0.1861 Y0.0007 Z-0.0 E0.009
G1 X0.1861 Y0.0007 Z0.0 E0.009
G1 X0.0935 Y0.0541 Z0.0 E0.005
G1 X-0.0926 Y0.1615 Z-0.0 E0.009
G1 X-0.0926 Y0.1615 Z0.0 E0.009
G1 X-0.0926 Y0.1615 Z-0.0 E0.009
G1 X-0.0926 Y0.1615 Z0.0 E0.009
G1 X-0.0926 Y0.1615 Z0.0 E0.009
G1 X-0.0926 Y0.1615 Z0.0 E0.009
G1 X-0.0912 Y0.1622 Z0.0 E0.009
G1 X-0.0895 Y0.1632 Z0.0 E0.009
G1 X-0.0878 Y0.1641 Z0.0 E0.009
G1 X-0.0861 Y0.1651 Z-0.0 E0.009
G1 X-0.0843 Y0.1659 Z0.0 E0.009
G1 X-0.0826 Y0.1668 Z0.0 E0.009
G1 X-0.0809 Y0.1676 Z-0.0 E0.009
G1 X-0.0792 Y0.1685 Z0.0 E0.009
G1 X-0.0775 Y0.1692 Z-0.0 E0.009
G1 X-0.0758 Y0.17 Z0.0 E0.009
G1 X-0.0741 Y0.1708 Z0.0 E0.009
G1 X-0.0724 Y0.1715 Z0.0 E0.009
G1 X-0.0707 Y0.1722 Z0.0 E0.009
G1 X-0.0691 Y0.1729 Z-0.0 E0.009
G1 X-0.0674 Y0.1735 Z-0.0 E0.009
G1 X-0.0657 Y0.1742 Z0.0 E0.009
G1 X-0.0641 Y0.1748 Z0.0 E0.009
G1 X-0.0624 Y0.1754 Z-0.0 E0.009
G1 X-0.0608 Y0.1759 Z0.0 E0.009
G1 X-0.0592 Y0.1765 Z0.0 E0.009
G1 X-0.0575 Y0.177 Z0.0 E0.009
G1 X-0.0559 Y0.1775 Z0.0 E0.009
G1 X-0.0543 Y0.178 Z0.0 E0.009
G1 X-0.0527 Y0.1785 Z0.0 E0.009
G1 X-0.0511 Y0.179 Z-0.0 E0.009
G1 X-0.0496 Y0.1794 Z0.0 E0.009
G1 X-0.048 Y0.1799 Z0.0 E0.009
G1 X-0.0464 Y0.1803 Z0.0 E0.009
G1 X-0.0449 Y0.1807 Z0.0 E0.009
G1 X-0.0433 Y0.181 Z-0.0 E0.009
G1 X-0.0418 Y0.1814 Z-0.0 E0.009
G1 X-0.0403 Y0.1817 Z0.0 E0.009
G1 X-0.0387 Y0.1821 Z0.0 E0.009
G1 X-0.0372 Y0.1824 Z-0.0 E0.009
G1 X-0.0357 Y0.1827 Z-0.0 E0.009
G1 X-0.0342 Y0.183 Z0.0 E0.009
G1 X-0.0327 Y0.1832 Z0.0 E0.009
G1 X-0.0313 Y0.1835 Z0.0 E0.009
G1 X-0.0298 Y0.1837 Z0.0 E0.009
G1 X-0.0283 Y0.184 Z0.0 E0.009
G1 X-0.0269 Y0.1842 Z-0.0 E0.009
G1 X-0.0254 Y0.1844 Z0.0 E0.009
G1 X-0.024 Y0.1846 Z0.0 E0.009
G1 X-0.0225 Y0.1848 Z0.0 E0.009
G1 X-0.0211 Y0.1849 Z-0.0 E0.009
G1 X-0.0197 Y0.1851 Z0.0 E0.009
G1 X-0.0183 Y0.1852 Z0.0 E0.009
G1 X-0.0169 Y0.1854 Z0.0 E0.009
G1 X-0.0154 Y0.1855 Z0.0 E0.009
G1 X-0.014 Y0.1856 Z0.0 E0.009
G1 X-0.0127 Y0.1857 Z-0.0 E0.009
G1 X-0.0113 Y0.1858 Z0.0 E0.009
G1 X-0.0099 Y0.1859 Z0.0 E0.009
G1 X-0.0087 Y0.1859 Z0.0 E0.009
G1 X-0.0086 Y0.1859 Z0.0 E0.009
G1 X-0.0857 Y0.1359 Z0.0 E0.008
G1 X-0.1663 Y0.0836 Z0.0 E0.009
G1 X-0.1664 Y0.0835 Z0.0 E0.009
G1 X-0.167 Y0.0823 Z0.0 E0.009
G1 X-0.1677 Y0.0808 Z0.0 E0.009
G1 X-0.1684 Y0.0792 Z-0.0 E0.009
G1 X-0.1691 Y0.0777 Z0.0 E0.009
G1 X-0.1699 Y0.0762 Z0.0 E0.009
G1 X-0.1705 Y0.0746 Z0.0 E0.009
G1 X-0.1712 Y0.073 Z0.0 E0.009
G1 X-0.1719 Y0.0714 Z0.0 E0.009
G1 X-0.1726 Y0.0697 Z0.0 E0.009
G1 X-0.1732 Y0.0681 Z0.0 E0.009
G1 X-0.1739 Y0.0664 Z0.0 E0.009
G1 X-0.1745 Y0.0647 Z-0.0 E0.009
G1 X-0.1752 Y0.063 Z0.0 E0.009
G1 X-0.1758 Y0.0612 Z0.0 E0.009
G1 X-0.1764 Y0.0595 Z0.0 E0.009
G1 X-0.177 Y0.0577 Z0.0 E0.009
G1 X-0.1776 Y0.0558 Z0.0 E0.009
G1 X-0.1781 Y0.054 Z0.0 E0.009
G1 X-0.1787 Y0.0521 Z0.0 E0.009
G1 X-0.1792 Y0.0502 Z0.0 E0.009
G1 X-0.1798 Y0.0483 Z-0.0 E0.009
G1 X-0.1803 Y0.0463 Z0.0 E0.009
G1 X-0.1808 Y0.0443 Z0.0 E0.009
G1 X-0.1813 Y0.0423 Z0.0 E0.009
G1 X-0.1817 Y0.0403 Z-0.0 E0.009
G1 X-0.1822 Y0.0382 Z0.0 E0.009
G1 X-0.1826 Y0.0361 Z0.0 E0.009
G1 X-0.183 Y0.0339 Z0.0 E0.009
G1 X-0.1834 Y0.0317 Z0.0 E0.009
G1 X-0.1838 Y0.0295 Z-0.0 E0.009
G1 X-0.1841 Y0.0273 Z0.0 E0.009
G1 X-0.1845 Y0.025 Z0.0 E0.009
G1 X-0.1848 Y0.0227 Z0.0 E0.009
G1 X-0.185 Y0.0204 Z0.0 E0.009
G1 X-0.1853 Y0.018 Z0.0 E0.009
G1 X-0.1855 Y0.0156 Z0.0 E0.009
G1 X-0.1857 Y0.0131 Z0.0 E0.009
G1 X-0.1858 Y0.0106 Z-0.0 E0.009
G1 X-0.186 Y0.0081 Z0.0 E0.009
G1 X-0.1861 Y0.0056 Z0.0 E0.009
G1 X-0.1861 Y0.003 Z0.0 E0.009
G1 X-0.1861 Y0.0004 Z0.0 E0.009
G1 X-0.1861 Y-0.0023 Z0.0 E0.009
G1 X-0.1861 Y-0.0049 Z-0.0 E0.009
G1 X-0.186 Y-0.0074 Z0.0 E0.009
G1 X-0.1859 Y-0.01 Z-0.0 E0.009
G1 X-0.1857 Y-0.0125 Z0.0 E0.009
G1 X-0.1855 Y-0.0149 Z0.0 E0.009
G1 X-0.1853 Y-0.0173 Z0.0 E0.009
G1 X-0.1851 Y-0.0197 Z-0.0 E0.009
G1 X-0.1848 Y-0.0221 Z0.0 E0.009
G1 X-0.1845 Y-0.0244 Z0.0 E0.009
G1 X-0.1842 Y-0.0267 Z0.0 E0.009
G1 X-0.1839 Y-0.0289 Z0.0 E0.009
G1 X-0.1835 Y-0.0312 Z-0.0 E0.009
G1 X-0.1831 Y-0.0333 Z0.0 E0.009
G1 X-0.1827 Y-0.0355 Z0.0 E0.009
G1 X-0.1823 Y-0.0376 Z-0.0 E0.009
G1 X-0.1819 Y-0.0397 Z0.0 E0.009
G1 X-0.1814 Y-0.0418 Z0.0 E0.009
G1 X-0.1809 Y-0.0438 Z0.0 E0.009
G1 X-0.1804 Y-0.0458 Z0.0 E0.009
G1 X-0.1799 Y-0.0478 Z0.0 E0.009
G1 X-0.1794 Y-0.0497 Z0.0 E0.009
G1 X-0.1788 Y-0.0516 Z-0.0 E0.009
G1 X-0.1783 Y-0.0535 Z0.0 E0.009
G1 X-0.1777 Y-0.0553 Z0.0 E0.009
G1 X-0.1771 Y-0.0572 Z-0.0 E0.009
G1 X-0.1766 Y-0.059 Z0.0 E0.009
G1 X-0.1759 Y-0.0608 Z0.0 E0.009
G1 X-0.1753 Y-0.0625 Z0.0 E0.009
G1 X-0.1747 Y-0.0642 Z0.0 E0.009
G1 X-0.1741 Y-0.0659 Z0.0 E0.009
G1 X-0.1734 Y-0.0676 Z0.0 E0.009
G1 X-0.1728 Y-0.0693 Z0.0 E0.009
G1 X-0.1721 Y-0.0709 Z0.0 E0.009
G1 X-0.1714 Y-0.0726 Z0.0 E0.009
G1 X-0.1707 Y-0.0742 Z-0.0 E0.009
G1 X-0.17 Y-0.0757 Z0.0 E0.009
G1 X-0.1693 Y-0.0773 Z-0.0 E0.009
G1 X-0.1686 Y-0.0788 Z0.0 E0.009
G1 X-0.1679 Y-0.0804 Z-0.0 E0.009
G1 X-0.1672 Y-0.0819 Z0.0 E0.009
G1 X-0.1666 Y-0.0831 Z-0.0 E0.009
G1 X-0.1665 Y-0.0832 Z0.0 E0.009
G1 X-0.1113 Y-0.1151 Z0.0 E0.008
G1 X0.0108 Y-0.1858 Z0.0 E0.009
G1 X-0.0823 Y-0.1912 Z0.2 E0.014
G1 X0.0117 Y-0.1883 Z0.0 E0.009
G1 X0.0134 Y-0.1882 Z-0.0 E0.009
G1 X0.0151 Y-0.188 Z0.0 E0.009
G1 X0.0169 Y-0.1879 Z0.0 E0.009
G1 X0.0186 Y-0.1877 Z0.0 E0.009
G1 X0.0204 Y-0.1875 Z0.0 E0.009
G1 X0.0221 Y-0.1873 Z0.0 E0.009
G1 X0.0239 Y-0.1871 Z0.0 E0.009
G1 X0.0257 Y-0.1869 Z0.0 E0.009
G1 X0.0275 Y-0.1866 Z-0.0 E0.009
G1 X0.0294 Y-0.1863 Z0.0 E0.009
G1 X0.0312 Y-0.186 Z0.0 E0.009
G1 X0.033 Y-0.1857 Z-0.0 E0.009
G1 X0.0349 Y-0.1854 Z0.0 E0.009
G1 X0.0368 Y-0.185 Z0.0 E0.009
G1 X0.0387 Y-0.1846 Z0.0 E0.009
G1 X0.0406 Y-0.1842 Z0.0 E0.009
G1 X0.0426 Y-0.1838 Z0.0 E0.009
G1 X0.0445 Y-0.1833 Z0.0 E0.009
G1 X0.0465 Y-0.1828 Z-0.0 E0.009
G1 X0.0485 Y-0.1823 Z0.0 E0.009
G1 X0.0505 Y-0.1817 Z0.0 E0.009
G1 X0.0526 Y-0.1812 Z0.0 E0.009
G1 X0.0546 Y-0.1806 Z0.0 E0.009
G1 X0.0567 Y-0.1799 Z0.0 E0.009
G1 X0.0588 Y-0.1792 Z0.0 E0.009
G1 X0.0609 Y-0.1785 Z0.0 E0.009
G1 X0.063 Y-0.1778 Z0.0 E0.009
G1 X0.0652 Y-0.177 Z0.0 E0.009
G1 X0.0673 Y-0.1762 Z0.0 E0.009
G1 X0.0695 Y-0.1754 Z0.0 E0.009
G1 X0.0717 Y-0.1745 Z0.0 E0.009
G1 X0.0739 Y-0.1735 Z0.0 E0.009
G1 X0.0762 Y-0.1726 Z0.0 E0.009
G1 X0.0784 Y-0.1716 Z0.0 E0.009
G1 X0.0807 Y-0.1705 Z0.0 E0.009
G1 X0.083 Y-0.1694 Z0.0 E0.009
G1 X0.0853 Y-0.1683 Z0.0 E0.009
G1 X0.0876 Y-0.1671 Z0.0 E0.009
G1 X0.0899 Y-0.1658 Z0.0 E0.009
G1 X0.0922 Y-0.1645 Z0.0 E0.009
G1 X0.0946 Y-0.1632 Z0.0 E0.009
G1 X0.0969 Y-0.1618 Z0.0 E0.009
G1 X0.0992 Y-0.1604 Z0.0 E0.009
G1 X0.1014 Y-0.159 Z-0.0 E0.009
G1 X0.1036 Y-0.1576 Z0.0 E0.009
G1 X0.1057 Y-0.1562 Z0.0 E0.009
G1 X0.1078 Y-0.1548 Z-0.0 E0.009
G1 X0.1099 Y-0.1533 Z0.0 E0.009
G1 X0.1119 Y-0.1519 Z0.0 E0.009
G1 X0.1138 Y-0.1504 Z0.0 E0.009
G1 X0.1157 Y-0.149 Z0.0 E0.009
G1 X0.1176 Y-0.1475 Z0.0 E0.009
G1 X0.1194 Y-0.1461 Z0.0 E0.009
G1 X0.1211 Y-0.1446 Z0.0 E0.009
G1 X0.1229 Y-0.1431 Z0.0 E0.009
G1 X0.1246 Y-0.1417 Z-0.0 E0.009
G1 X0.1262 Y-0.1402 Z0.0 E0.009
G1 X0.1278 Y-0.1387 Z0.0 E0.009
G1 X0.1294 Y-0.1372 Z0.0 E0.009
G1 X0.1309 Y-0.1358 Z0.0 E0.009
G1 X0.1324 Y-0.1343 Z-0.0 E0.009
G1 X0.1339 Y-0.1329 Z0.0 E0.009
G1 X0.1353 Y-0.1314 Z0.0 E0.009
G1 X0.1367 Y-0.1299 Z-0.0 E0.009
G1 X0.1381 Y-0.1285 Z0.0 E0.009
G1 X0.1394 Y-0.127 Z0.0 E0.009
G1 X0.1408 Y-0.1256 Z-0.0 E0.009
G1 X0.142 Y-0.1241 Z0.0 E0.009
G1 X0.1433 Y-0.1227 Z0.0 E0.009
G1 X0.1445 Y-0.1213 Z-0.0 E0.009
G1 X0.1457 Y-0.1198 Z0.0 E0.009
G1 X0.1468 Y-0.1184 Z0.0 E0.009
G1 X0.148 Y-0.117 Z0.0 E0.009
G1 X0.1491 Y-0.1156 Z0.0 E0.009
G1 X0.1502 Y-0.1141 Z0.0 E0.009
G1 X0.1512 Y-0.1127 Z0.0 E0.009
G1 X0.1523 Y-0.1113 Z0.0 E0.009
G1 X0.1533 Y-0.1099 Z0.0 E0.009
G1 X0.1543 Y-0.1085 Z0.0 E0.009
G1 X0.1553 Y-0.1071 Z0.0 E0.009
G1 X0.1562 Y-0.1057 Z-0.0 E0.009
G1 X0.1572 Y-0.1043 Z0.0 E0.009
G1 X0.1578 Y-0.1033 Z0.0 E0.009
G1 X0.1578 Y-0.1033 Z0.0 E0.009
G1 X0.1625 Y-0.0146 Z0.0 E0.008
G1 X0.1677 Y0.0863 Z0.0 E0.009
G1 X0.1677 Y0.0863 Z0.0 E0.009
G1 X0.1682 Y0.0855 Z0.0 E0.009
G1 X0.1688 Y0.0842 Z0.0 E0.009
G1 X0.1694 Y0.0829 Z0.0 E0.009
G1 X0.1701 Y0.0816 Z0.0 E0.009
G1 X0.1707 Y0.0803 Z0.0 E0.009
G1 X0.1713 Y0.079 Z0.0 E0.009
G1 X0.1719 Y0.0777 Z0.0 E0.009
G1 X0.1725 Y0.0763 Z0.0 E0.009
G1 X0.1731 Y0.075 Z0.0 E0.009
G1 X0.1737 Y0.0736 Z0.0 E0.009
G1 X0.1743 Y0.0722 Z0.0 E0.009
G1 X0.1748 Y0.0708 Z-0.0 E0.009
G1 X0.1754 Y0.0695 Z0.0 E0.009
G1 X0.1759 Y0.068 Z0.0 E0.009
G1 X0.1765 Y0.0666 Z0.0 E0.009
G1 X0.177 Y0.0652 Z0.0 E0.009
G1 X0.1775 Y0.0637 Z-0.0 E0.009
G1 X0.1781 Y0.0623 Z-0.0 E0.009
G1 X0.1786 Y0.0608 Z0.0 E0.009
G1 X0.1791 Y0.0593 Z0.0 E0.009
G1 X0.1796 Y0.0578 Z0.0 E0.009
G1 X0.18 Y0.0563 Z0.0 E0.009
G1 X0.1805 Y0.0548 Z0.0 E0.009
G1 X0.181 Y0.0532 Z0.0 E0.009
G1 X0.1814 Y0.0516 Z0.0 E0.009
G1 X0.1819 Y0.0501 Z0.0 E0.009
G1 X0.1823 Y0.0485 Z0.0 E0.009
G1 X0.1827 Y0.0468 Z0.0 E0.009
G1 X0.1831 Y0.0452 Z0.0 E0.009
G1 X0.1835 Y0.0436 Z-0.0 E0.009
G1 X0.1839 Y0.0419 Z0.0 E0.009
G1 X0.1843 Y0.0402 Z0.0 E0.009
G1 X0.1847 Y0.0385 Z0.0 E0.009
G1 X0.185 Y0.0368 Z0.0 E0.009
G1 X0.1853 Y0.035 Z0.0 E0.009
G1 X0.1857 Y0.0333 Z0.0 E0.009
G1 X0.186 Y0.0315 Z0.0 E0.009
G1 X0.1863 Y0.0297 Z0.0 E0.009
G1 X0.1866 Y0.0279 Z-0.0 E0.009
G1 X0.1868 Y0.0261 Z0.0 E0.009
G1 X0.1871 Y0.0243 Z0.0 E0.009
G1 X0.1873 Y0.0224 Z0.0 E0.009
G1 X0.1875 Y0.0205 Z-0.0 E0.009
G1 X0.1877 Y0.0186 Z0.0 E0.009
G1 X0.1879 Y0.0167 Z0.0 E0.009
G1 X0.1881 Y0.0148 Z0.0 E0.009
G1 X0.1882 Y0.0128 Z-0.0 E0.009
G1 X0.1883 Y0.0109 Z0.0 E0.009
G1 X0.1884 Y0.0089 Z0.0 E0.009
G1 X0.1885 Y0.0069 Z0.0 E0.009
G1 X0.1886 Y0.0049 Z0.0 E0.009
G1 X0.1886 Y0.0029 Z0.0 E0.009
G1 X0.1886 Y0.001 Z-0.0 E0.009
G1 X0.1886 Y0.0007 Z0.0 E0.009
G1 X0.1886 Y0.0007 Z0.0 E0.009
G1 X0.1886 Y0.0007 Z0.0 E0.009
G1 X0.1886 Y0.0007 Z0.0 E0.009
G1 X0.1886 Y0.0007 Z0.0 E0.009
G1 X0.1886 Y0.0007 Z0.0 E0.009
G1 X0.0115 Y0.1028 Z0.0 E0.005
G1 X-0.0939 Y0.1636 Z0.0 E0.009
G1 X-0.0939 Y0.1636 Z0.0 E0.009
G1 X-0.0939 Y0.1636 Z0.0 E0.009
G1 X-0.0939 Y0.1636 Z0.0 E0.009
G1 X-0.0939 Y0.1636 Z0.0 E0.009
G1 X-0.0939 Y0.1636 Z0.0 E0.009
G1 X-0.0933 Y0.164 Z0.0 E0.009
G1 X-0.0915 Y0.165 Z0.0 E0.009
G1 X-0.0897 Y0.1659 Z0.0 E0.009
G1 X-0.0879 Y0.1669 Z0.0 E0.009
G1 X-0.0862 Y0.1678 Z0.0 E0.009
G1 X-0.0844 Y0.1687 Z0.0 E0.009
G1 X-0.0826 Y0.1696 Z0.0 E0.009
G1 X-0.0808 Y0.1704 Z0.0 E0.009
G1 X-0.0791 Y0.1713 Z0.0 E0.009
G1 X-0.0773 Y0.1721 Z-0.0 E0.009
G1 X-0.0756 Y0.1728 Z0.0 E0.009
G1 X-0.0738 Y0.1736 Z0.0 E0.009
G1 X-0.0721 Y0.1743 Z0.0 E0.009
G1 X-0.0704 Y0.175 Z-0.0 E0.009
G1 X-0.0686 Y0.1757 Z0.0 E0.009
G1 X-0.0669 Y0.1764 Z0.0 E0.009
G1 X-0.0652 Y0.177 Z0.0 E0.009
G1 X-0.0635 Y0.1776 Z0.0 E0.009
G1 X-0.0618 Y0.1782 Z-0.0 E0.009
G1 X-0.0601 Y0.1788 Z0.0 E0.009
G1 X-0.0585 Y0.1793 Z0.0 E0.009
G1 X-0.0568 Y0.1799 Z0.0 E0.009
G1 X-0.0551 Y0.1804 Z0.0 E0.009
G1 X-0.0535 Y0.1809 Z0.0 E0.009
G1 X-0.0519 Y0.1814 Z0.0 E0.009
G1 X-0.0502 Y0.1818 Z0.0 E0.009
G1 X-0.0486 Y0.1823 Z0.0 E0.009
G1 X-0.047 Y0.1827 Z0.0 E0.009
G1 X-0.0454 Y0.1831 Z0.0 E0.009
G1 X-0.0438 Y0.1835 Z0.0 E0.009
G1 X-0.0422 Y0.1838 Z0.0 E0.009
G1 X-0.0406 Y0.1842 Z0.0 E0.009
G1 X-0.0391 Y0.1845 Z-0.0 E0.009
G1 X-0.0375 Y0.1849 Z0.0 E0.009
G1 X-0.036 Y0.1852 Z-0.0 E0.009
G1 X-0.0344 Y0.1855 Z0.0 E0.009
G1 X-0.0329 Y0.1857 Z0.0 E0.009
G1 X-0.0314 Y0.186 Z0.0 E0.009
G1 X-0.0299 Y0.1863 Z0.0 E0.009
G1 X-0.0284 Y0.1865 Z0.0 E0.009
G1 X-0.0269 Y0.1867 Z0.0 E0.009
G1 X-0.0254 Y0.1869 Z0.0 E0.009
G1 X-0.0239 Y0.1871 Z0.0 E0.009
G1 X-0.0224 Y0.1873 Z0.0 E0.009
G1 X-0.0209 Y0.1875 Z0.0 E0.009
G1 X-0.0195 Y0.1876 Z0.0 E0.009
G1 X-0.018 Y0.1878 Z0.0 E0.009
G1 X-0.0165 Y0.1879 Z0.0 E0.009
G1 X-0.0151 Y0.188 Z0.0 E0.009
G1 X-0.0137 Y0.1881 Z-0.0 E0.009
G1 X-0.0122 Y0.1882 Z0.0 E0.009
G1 X-0.0108 Y0.1883 Z0.0 E0.009
G1 X-0.0094 Y0.1884 Z0.0 E0.009
G1 X-0.0087 Y0.1884 Z0.0 E0.009
G1 X-0.0087 Y0.1884 Z0.0 E0.009
G1 X-0.1198 Y0.1163 Z-0.0 E0.008
G1 X-0.1685 Y0.0848 Z0.0 E0.009
G1 X-0.1686 Y0.0847 Z0.0 E0.009
G1 X-0.1692 Y0.0834 Z0.0 E0.009
G1 X-0.1699 Y0.0819 Z0.0 E0.009
G1 X-0.1707 Y0.0804 Z-0.0 E0.009
G1 X-0.1714 Y0.0788 Z0.0 E0.009
G1 X-0.1721 Y0.0772 Z0.0 E0.009
G1 X-0.1728 Y0.0756 Z0.0 E0.009
G1 X-0.1735 Y0.074 Z0.0 E0.009
G1 X-0.1742 Y0.0723 Z-0.0 E0.009
G1 X-0.1749 Y0.0706 Z0.0 E0.009
G1 X-0.1756 Y0.0689 Z0.0 E0.009
G1 X-0.1763 Y0.0672 Z0.0 E0.009
G1 X-0.1769 Y0.0655 Z-0.0 E0.009
G1 X-0.1775 Y0.0637 Z0.0 E0.009
G1 X-0.1782 Y0.0619 Z0.0 E0.009
G1 X-0.1788 Y0.0601 Z0.0 E0.009
G1 X-0.1794 Y0.0583 Z0.0 E0.009
G1 X-0.18 Y0.0564 Z0.0 E0.009
G1 X-0.1806 Y0.0545 Z0.0 E0.009
G1 X-0.1811 Y0.0526 Z0.0 E0.009
G1 X-0.1817 Y0.0507 Z0.0 E0.009
G1 X-0.1822 Y0.0487 Z0.0 E0.009
G1 X-0.1828 Y0.0467 Z0.0 E0.009
G1 X-0.1833 Y0.0446 Z0.0 E0.009
G1 X-0.1838 Y0.0426 Z0.0 E0.009
G1 X-0.1842 Y0.0405 Z0.0 E0.009
G1 X-0.1847 Y0.0384 Z0.0 E0.009
G1 X-0.1851 Y0.0362 Z0.0 E0.009
G1 X-0.1855 Y0.034 Z0.0 E0.009
G1 X-0.1859 Y0.0318 Z0.0 E0.009
G1 X-0.1863 Y0.0295 Z0.0 E0.009
G1 X-0.1867 Y0.0272 Z0.0 E0.009
G1 X-0.187 Y0.0249 Z0.0 E0.009
G1 X-0.1873 Y0.0225 Z0.0 E0.009
G1 X-0.1876 Y0.0201 Z0.0 E0.009
G1 X-0.1878 Y0.0177 Z-0.0 E0.009
G1 X-0.188 Y0.0152 Z0.0 E0.009
G1 X-0.1882 Y0.0127 Z0.0 E0.009
G1 X-0.1884 Y0.0102 Z0.0 E0.009
G1 X-0.1885 Y0.0076 Z0.0 E0.009
G1 X-0.1886 Y0.005 Z0.0 E0.009
G1 X-0.1886 Y0.0023 Z0.0 E0.009
G1 X-0.1886 Y-0.0004 Z-0.0 E0.009
G1 X-0.1886 Y-0.003 Z0.0 E0.009
G1 X-0.1885 Y-0.0057 Z0.0 E0.009
G1 X-0.1885 Y-0.0083 Z0.0 E0.009
G1 X-0.1883 Y-0.0108 Z0.0 E0.009
G1 X-0.1882 Y-0.0134 Z0.0 E0.009
G1 X-0.188 Y-0.0159 Z0.0 E0.009
G1 X-0.1877 Y-0.0183 Z0.0 E0.009
G1 X-0.1875 Y-0.0208 Z0.0 E0.009
G1 X-0.1872 Y-0.0232 Z0.0 E0.009
G1 X-0.1869 Y-0.0255 Z0.0 E0.009
G1 X-0.1866 Y-0.0278 Z0.0 E0.009
G1 X-0.1862 Y-0.0301 Z0.0 E0.009
G1 X-0.1858 Y-0.0324 Z0.0 E0.009
G1 X-0.1854 Y-0.0346 Z0.0 E0.009
G1 X-0.185 Y-0.0368 Z0.0 E0.009
G1 X-0.1846 Y-0.0389 Z0.0 E0.009
G1 X-0.1841 Y-0.0411 Z0.0 E0.009
G1 X-0.1836 Y-0.0431 Z0.0 E0.009
G1 X-0.1831 Y-0.0452 Z0.0 E0.009
G1 X-0.1826 Y-0.0472 Z0.0 E0.009
G1 X-0.1821 Y-0.0492 Z0.0 E0.009
G1 X-0.1816 Y-0.0512 Z0.0 E0.009
G1 X-0.181 Y-0.0531 Z0.0 E0.009
G1 X-0.1804 Y-0.055 Z0.0 E0.009
G1 X-0.1798 Y-0.0569 Z0.0 E0.009
G1 X-0.1792 Y-0.0588 Z0.0 E0.009
G1 X-0.1786 Y-0.0606 Z0.0 E0.009
G1 X-0.178 Y-0.0624 Z0.0 E0.009
G1 X-0.1774 Y-0.0642 Z-0.0 E0.009
G1 X-0.1767 Y-0.066 Z0.0 E0.009
G1 X-0.1761 Y-0.0677 Z0.0 E0.009
G1 X-0.1754 Y-0.0694 Z0.0 E0.009
G1 X-0.1747 Y-0.0711 Z0.0 E0.009
G1 X-0.174 Y-0.0727 Z0.0 E0.009
G1 X-0.1733 Y-0.0744 Z0.0 E0.009
G1 X-0.1726 Y-0.076 Z0.0 E0.009
G1 X-0.1719 Y-0.0776 Z0.0 E0.009
G1 X-0.1712 Y-0.0792 Z0.0 E0.009
G1 X-0.1705 Y-0.0808 Z-0.0 E0.009
G1 X-0.1697 Y-0.0823 Z0.0 E0.009
G1 X-0.169 Y-0.0838 Z0.0 E0.009
G1 X-0.1688 Y-0.0843 Z0.0 E0.009
G1 X-0.1688 Y-0.0843 Z0.0 E0.009
G1 X-0.0597 Y-0.1474 Z-0.0 E0.008
G1 X0.0109 Y-0.1883 Z0.0 E0.009
G1 X-0.0822 Y-0.1937 Z0.2 E0.015
G1 X0.0119 Y-0.1908 Z0.0 E0.01
G1 X0.0136 Y-0.1906 Z0.0 E0.01
G1 X0.0154 Y-0.1905 Z0.0 E0.01
G1 X0.0171 Y-0.1904 Z-0.0 E0.01
G1 X0.0189 Y-0.1902 Z0.0 E0.01
G1 X0.0207 Y-0.19 Z0.0 E0.01
G1 X0.0225 Y-0.1898 Z-0.0 E0.01
G1 X0.0244 Y-0.1896 Z0.0 E0.01
G1 X0.0262 Y-0.1893 Z0.0 E0.01
G1 X0.028 Y-0.1891 Z0.0 E0.01
G1 X0.0299 Y-0.1888 Z0.0 E0.01
G1 X0.0318 Y-0.1885 Z-0.0 E0.01
G1 X0.0337 Y-0.1881 Z0.0 E0.01
G1 X0.0356 Y-0.1878 Z0.0 E0.01
G1 X0.0375 Y-0.1874 Z0.0 E0.01
G1 X0.0395 Y-0.187 Z-0.0 E0.01
G1 X0.0414 Y-0.1866 Z0.0 E0.01
G1 X0.0434 Y-0.1861 Z-0.0 E0.01
G1 X0.0454 Y-0.1856 Z0.0 E0.01
G1 X0.0475 Y-0.1851 Z0.0 E0.01
G1 X0.0495 Y-0.1846 Z-0.0 E0.01
G1 X0.0516 Y-0.184 Z0.0 E0.01
G1 X0.0536 Y-0.1834 Z0.0 E0.01
G1 X0.0557 Y-0.1828 Z-0.0 E0.01
G1 X0.0578 Y-0.1822 Z0.0 E0.01
G1 X0.06 Y-0.1815 Z0.0 E0.01
G1 X0.0621 Y-0.1807 Z0.0 E0.01
G1 X0.0643 Y-0.18 Z0.0 E0.01
G1 X0.0665 Y-0.1792 Z0.0 E0.01
G1 X0.0687 Y-0.1783 Z0.0 E0.01
G1 X0.071 Y-0.1775 Z0.0 E0.01
G1 X0.0732 Y-0.1765 Z0.0 E0.01
G1 X0.0755 Y-0.1756 Z0.0 E0.01
G1 X0.0778 Y-0.1746 Z0.0 E0.01
G1 X0.0801 Y-0.1735 Z0.0 E0.01
G1 X0.0824 Y-0.1725 Z0.0 E0.01
G1 X0.0847 Y-0.1713 Z0.0 E0.01
G1 X0.0871 Y-0.1701 Z0.0 E0.01
G1 X0.0894 Y-0.1689 Z0.0 E0.01
G1 X0.0918 Y-0.1676 Z0.0 E0.01
G1 X0.0942 Y-0.1663 Z0.0 E0.01
G1 X0.0966 Y-0.1649 Z0.0 E0.01
G1 X0.0989 Y-0.1635 Z0.0 E0.01
G1 X0.1012 Y-0.1621 Z0.0 E0.01
G1 X0.1035 Y-0.1607 Z0.0 E0.01
G1 X0.1057 Y-0.1592 Z0.0 E0.01
G1 X0.1079 Y-0.1578 Z0.0 E0.01
G1 X0.11 Y-0.1563 Z0.0 E0.01
G1 X0.112 Y-0.1548 Z-0.0 E0.01
G1 X0.1141 Y-0.1534 Z-0.0 E0.01
G1 X0.116 Y-0.1519 Z0.0 E0.01
G1 X0.1179 Y-0.1504 Z0.0 E0.01
G1 X0.1198 Y-0.1489 Z-0.0 E0.01
G1 X0.1217 Y-0.1474 Z0.0 E0.01
G1 X0.1235 Y-0.1459 Z0.0 E0.01
G1 X0.1252 Y-0.1444 Z0.0 E0.01
G1 X0.1269 Y-0.1429 Z0.0 E0.01
G1 X0.1286 Y-0.1414 Z0.0 E0.01
G1 X0.1302 Y-0.1399 Z-0.0 E0.01
G1 X0.1318 Y-0.1384 Z0.0 E0.01
G1 X0.1333 Y-0.1369 Z0.0 E0.01
G1 X0.1349 Y-0.1354 Z0.0 E0.01
G1 X0.1363 Y-0.1339 Z-0.0 E0.01
G1 X0.1378 Y-0.1324 Z0.0 E0.01
G1 X0.1392 Y-0.131 Z-0.0 E0.01
G1 X0.1406 Y-0.1295 Z0.0 E0.01
G1 X0.1419 Y-0.128 Z0.0 E0.01
G1 X0.1433 Y-0.1265 Z0.0 E0.01
G1 X0.1445 Y-0.125 Z0.0 E0.01
G1 X0.1458 Y-0.1236 Z-0.0 E0.01
G1 X0.147 Y-0.1221 Z0.0 E0.01
G1 X0.1482 Y-0.1206 Z0.0 E0.01
G1 X0.1494 Y-0.1192 Z0.0 E0.01
G1 X0.1506 Y-0.1177 Z0.0 E0.01
G1 X0.1517 Y-0.1163 Z0.0 E0.01
G1 X0.1528 Y-0.1148 Z0.0 E0.01
G1 X0.1539 Y-0.1134 Z0.0 E0.01
G1 X0.1549 Y-0.1119 Z-0.0 E0.01
G1 X0.1559 Y-0.1105 Z0.0 E0.01
G1 X0.1569 Y-0.1091 Z0.0 E0.01
G1 X0.1579 Y-0.1076 Z0.0 E0.01
G1 X0.1589 Y-0.1062 Z0.0 E0.01
G1 X0.1598 Y-0.1049 Z0.0 E0.01
G1 X0.1599 Y-0.1047 Z0.0 E0.01
G1 X0.1599 Y-0.1047 Z0.0 E0.01
G1 X0.1684 Y0.0571 Z0.0 E0.009
G1 X0.1699 Y0.0874 Z0.0 E0.01
G1 X0.17 Y0.0874 Z0.0 E0.01
G1 X0.1705 Y0.0864 Z0.0 E0.01
G1 X0.1711 Y0.0851 Z0.0 E0.01
G1 X0.1718 Y0.0838 Z0.0 E0.01
G1 X0.1724 Y0.0824 Z0.0 E0.01
G1 X0.1731 Y0.0811 Z0.0 E0.01
G1 X0.1737 Y0.0797 Z-0.0 E0.01
G1 X0.1743 Y0.0784 Z0.0 E0.01
G1 X0.1749 Y0.077 Z0.0 E0.01
G1 X0.1755 Y0.0756 Z0.0 E0.01
G1 X0.1761 Y0.0742 Z0.0 E0.01
G1 X0.1767 Y0.0728 Z0.0 E0.01
G1 X0.1773 Y0.0713 Z0.0 E0.01
G1 X0.1779 Y0.0699 Z-0.0 E0.01
G1 X0.1785 Y0.0684 Z0.0 E0.01
G1 X0.179 Y0.067 Z0.0 E0.01
G1 X0.1796 Y0.0655 Z0.0 E0.01
G1 X0.1801 Y0.064 Z0.0 E0.01
G1 X0.1806 Y0.0625 Z0.0 E0.01
G1 X0.1811 Y0.0609 Z0.0 E0.01
G1 X0.1817 Y0.0594 Z0.0 E0.01
G1 X0.1822 Y0.0578 Z0.0 E0.01
G1 X0.1827 Y0.0563 Z0.0 E0.01
G1 X0.1831 Y0.0547 Z0.0 E0.01
G1 X0.1836 Y0.0531 Z0.0 E0.01
G1 X0.1841 Y0.0514 Z-0.0 E0.01
G1 X0.1845 Y0.0498 Z0.0 E0.01
G1 X0.185 Y0.0481 Z0.0 E0.01
G1 X0.1854 Y0.0465 Z0.0 E0.01
G1 X0.1858 Y0.0448 Z-0.0 E0.01
G1 X0.1862 Y0.0431 Z0.0 E0.01
G1 X0.1866 Y0.0413 Z0.0 E0.01
G1 X0.187 Y0.0396 Z0.0 E0.01
G1 X0.1873 Y0.0378 Z0.0 E0.01
G1 X0.1877 Y0.036 Z0.0 E0.01
G1 X0.188 Y0.0342 Z0.0 E0.01
G1 X0.1884 Y0.0324 Z0.0 E0.01
G1 X0.1887 Y0.0306 Z0.0 E0.01
G1 X0.189 Y0.0287 Z0.0 E0.01
G1 X0.1892 Y0.0268 Z0.0 E0.01
G1 X0.1895 Y0.0249 Z0.0 E0.01
G1 X0.1897 Y0.023 Z-0.0 E0.01
G1 X0.19 Y0.0211 Z0.0 E0.01
G1 X0.1902 Y0.0191 Z0.0 E0.01
G1 X0.1904 Y0.0172 Z0.0 E0.01
G1 X0.1905 Y0.0152 Z0.0 E0.01
G1 X0.1907 Y0.0132 Z0.0 E0.01
G1 X0.1908 Y0.0111 Z-0.0 E0.01
G1 X0.1909 Y0.0091 Z0.0 E0.01
G1 X0.191 Y0.007 Z-0.0 E0.01
G1 X0.1911 Y0.005 Z0.0 E0.01
G1 X0.1911 Y0.0029 Z0.0 E0.01
G1 X0.1911 Y0.001 Z0.0 E0.01
G1 X0.1911 Y0.0007 Z0.0 E0.01
G1 X0.1911 Y0.0007 Z0.0 E0.01
G1 X0.1911 Y0.0007 Z-0.0 E0.01
G1 X0.1911 Y0.0007 Z0.0 E0.01
G1 X0.1911 Y0.0007 Z-0.0 E0.01
G1 X0.1911 Y0.0007 Z0.0 E0.01
G1 X0.1911 Y0.0007 Z0.0 E0.01
G1 X-0.0704 Y0.1515 Z0.0 E0.008
G1 X-0.0951 Y0.1658 Z-0.0 E0.01
G1 X-0.0951 Y0.1658 Z0.0 E0.01
G1 X-0.0951 Y0.1658 Z-0.0 E0.01
G1 X-0.0951 Y0.1658 Z0.0 E0.01
G1 X-0.0951 Y0.1658 Z-0.0 E0.01
G1 X-0.0951 Y0.1658 Z0.0 E0.01
G1 X-0.095 Y0.1658 Z0.0 E0.01
G1 X-0.0935 Y0.1667 Z-0.0 E0.01
G1 X-0.0917 Y0.1677 Z0.0 E0.01
G1 X-0.0898 Y0.1687 Z-0.0 E0.01
G1 X-0.088 Y0.1697 Z0.0 E0.01
G1 X-0.0862 Y0.1706 Z0.0 E0.01
G1 X-0.0843 Y0.1715 Z0.0 E0.01
G1 X-0.0825 Y0.1724 Z0.0 E0.01
G1 X-0.0807 Y0.1733 Z0.0 E0.01
G1 X-0.0789 Y0.1741 Z0.0 E0.01
G1 X-0.0771 Y0.1749 Z0.0 E0.01
G1 X-0.0753 Y0.1757 Z0.0 E0.01
G1 X-0.0735 Y0.1764 Z-0.0 E0.01
G1 X-0.0717 Y0.1772 Z0.0 E0.01
G1 X-0.0699 Y0.1779 Z-0.0 E0.01
G1 X-0.0681 Y0.1786 Z0.0 E0.01
G1 X-0.0664 Y0.1792 Z-0.0 E0.01
G1 X-0.0646 Y0.1799 Z0.0 E0.01
G1 X-0.0629 Y0.1805 Z0.0 E0.01
G1 X-0.0611 Y0.1811 Z-0.0 E0.01
G1 X-0.0594 Y0.1817 Z0.0 E0.01
G1 X-0.0577 Y0.1822 Z0.0 E0.01
G1 X-0.056 Y0.1827 Z0.0 E0.01
G1 X-0.0543 Y0.1833 Z-0.0 E0.01
G1 X-0.0526 Y0.1837 Z0.0 E0.01
G1 X-0.0509 Y0.1842 Z0.0 E0.01
G1 X-0.0492 Y0.1847 Z-0.0 E0.01
G1 X-0.0476 Y0.1851 Z0.0 E0.01
G1 X-0.0459 Y0.1855 Z0.0 E0.01
G1 X-0.0443 Y0.1859 Z0.0 E0.01
G1 X-0.0427 Y0.1863 Z0.0 E0.01
G1 X-0.041 Y0.1867 Z-0.0 E0.01
G1 X-0.0394 Y0.187 Z0.0 E0.01
G1 X-0.0378 Y0.1873 Z0.0 E0.01
G1 X-0.0362 Y0.1877 Z-0.0 E0.01
G1 X-0.0346 Y0.188 Z0.0 E0.01
G1 X-0.0331 Y0.1882 Z0.0 E0.01
G1 X-0.0315 Y0.1885 Z0.0 E0.01
G1 X-0.0299 Y0.1888 Z0.0 E0.01
G1 X-0.0284 Y0.189 Z0.0 E0.01
G1 X-0.0268 Y0.1892 Z0.0 E0.01
G1 X-0.0253 Y0.1894 Z0.0 E0.01
G1 X-0.0238 Y0.1896 Z0.0 E0.01
G1 X-0.0222 Y0.1898 Z0.0 E0.01
G1 X-0.0207 Y0.19 Z0.0 E0.01
G1 X-0.0192 Y0.1902 Z0.0 E0.01
G1 X-0.0177 Y0.1903 Z-0.0 E0.01
G1 X-0.0162 Y0.1904 Z0.0 E0.01
G1 X-0.0147 Y0.1906 Z-0.0 E0.01
G1 X-0.0132 Y0.1907 Z0.0 E0.01
G1 X-0.0118 Y0.1908 Z0.0 E0.01
G1 X-0.0103 Y0.1908 Z0.0 E0.01
G1 X-0.009 Y0.1909 Z0.0 E0.01
G1 X-0.0088 Y0.1909 Z0.0 E0.01
G1 X-0.0088 Y0.1909 Z0.0 E0.01
G1 X-0.1539 Y0.0968 Z0.0 E0.009
G1 X-0.1707 Y0.0859 Z-0.0 E0.01
G1 X-0.1708 Y0.0858 Z-0.0 E0.01
G1 X-0.1714 Y0.0846 Z0.0 E0.01
G1 X-0.1721 Y0.083 Z0.0 E0.01
G1 X-0.1729 Y0.0815 Z0.0 E0.01
G1 X-0.1736 Y0.0799 Z0.0 E0.01
G1 X-0.1744 Y0.0782 Z0.0 E0.01
G1 X-0.1751 Y0.0766 Z-0.0 E0.01
G1 X-0.1758 Y0.0749 Z0.0 E0.01
G1 X-0.1765 Y0.0732 Z0.0 E0.01
G1 X-0.1772 Y0.0715 Z-0.0 E0.01
G1 X-0.1779 Y0.0698 Z0.0 E0.01
G1 X-0.1786 Y0.068 Z0.0 E0.01
G1 X-0.1793 Y0.0663 Z0.0 E0.01
G1 X-0.1799 Y0.0645 Z0.0 E0.01
G1 X-0.1806 Y0.0626 Z-0.0 E0.01
G1 X-0.1812 Y0.0608 Z0.0 E0.01
G1 X-0.1818 Y0.0589 Z0.0 E0.01
G1 X-0.1824 Y0.057 Z0.0 E0.01
G1 X-0.183 Y0.0551 Z0.0 E0.01
G1 X-0.1836 Y0.0531 Z0.0 E0.01
G1 X-0.1842 Y0.0511 Z0.0 E0.01
G1 X-0.1847 Y0.0491 Z0.0 E0.01
G1 X-0.1852 Y0.047 Z0.0 E0.01
G1 X-0.1858 Y0.045 Z-0.0 E0.01
G1 X-0.1863 Y0.0428 Z0.0 E0.01
G1 X-0.1867 Y0.0407 Z0.0 E0.01
G1 X-0.1872 Y0.0385 Z0.0 E0.01
G1 X-0.1876 Y0.0363 Z0.0 E0.01
G1 X-0.1881 Y0.0341 Z0.0 E0.01
G1 X-0.1885 Y0.0318 Z0.0 E0.01
G1 X-0.1888 Y0.0295 Z0.0 E0.01
G1 X-0.1892 Y0.0271 Z0.0 E0.01
G1 X-0.1895 Y0.0247 Z0.0 E0.01
G1 X-0.1898 Y0.0223 Z0.0 E0.01
G1 X-0.1901 Y0.0199 Z-0.0 E0.01
G1 X-0.1903 Y0.0174 Z0.0 E0.01
G1 X-0.1905 Y0.0148 Z-0.0 E0.01
G1 X-0.1907 Y0.0123 Z0.0 E0.01
G1 X-0.1909 Y0.0097 Z0.0 E0.01
G1 X-0.191 Y0.007 Z0.0 E0.01
G1 X-0.1911 Y0.0044 Z0.0 E0.01
G1 X-0.1911 Y0.0017 Z0.0 E0.01
G1 X-0.1911 Y-0.0011 Z-0.0 E0.01
G1 X-0.1911 Y-0.0038 Z0.0 E0.01
G1 X-0.191 Y-0.0065 Z0.0 E0.01
G1 X-0.1909 Y-0.0091 Z0.0 E0.01
G1 X-0.1908 Y-0.0117 Z0.0 E0.01
G1 X-0.1906 Y-0.0143 Z0.0 E0.01
G1 X-0.1904 Y-0.0168 Z0.0 E0.01
G1 X-0.1901 Y-0.0193 Z0.0 E0.01
G1 X-0.1899 Y-0.0218 Z0.0 E0.01
G1 X-0.1896 Y-0.0242 Z0.0 E0.01
G1 X-0.1893 Y-0.0266 Z0.0 E0.01
G1 X-0.1889 Y-0.029 Z0.0 E0.01
G1 X-0.1885 Y-0.0313 Z0.0 E0.01
G1 X-0.1881 Y-0.0336 Z0.0 E0.01
G1 X-0.1877 Y-0.0358 Z0.0 E0.01
G1 X-0.1873 Y-0.0381 Z0.0 E0.01
G1 X-0.1868 Y-0.0403 Z-0.0 E0.01
G1 X-0.1864 Y-0.0424 Z-0.0 E0.01
G1 X-0.1859 Y-0.0445 Z0.0 E0.01
G1 X-0.1854 Y-0.0466 Z0.0 E0.01
G1 X-0.1848 Y-0.0487 Z0.0 E0.01
G1 X-0.1843 Y-0.0507 Z-0.0 E0.01
G1 X-0.1837 Y-0.0527 Z0.0 E0.01
G1 X-0.1831 Y-0.0547 Z0.0 E0.01
G1 X-0.1825 Y-0.0566 Z0.0 E0.01
G1 X-0.1819 Y-0.0585 Z-0.0 E0.01
G1 X-0.1813 Y-0.0604 Z0.0 E0.01
G1 X-0.1807 Y-0.0623 Z0.0 E0.01
G1 X-0.1801 Y-0.0641 Z-0.0 E0.01
G1 X-0.1794 Y-0.0659 Z0.0 E0.01
G1 X-0.1787 Y-0.0677 Z0.0 E0.01
G1 X-0.1781 Y-0.0694 Z0.0 E0.01
G1 X-0.1774 Y-0.0712 Z0.0 E0.01
G1 X-0.1767 Y-0.0729 Z0.0 E0.01
G1 X-0.176 Y-0.0746 Z0.0 E0.01
G1 X-0.1753 Y-0.0762 Z0.0 E0.01
G1 X-0.1745 Y-0.0779 Z0.0 E0.01
G1 X-0.1738 Y-0.0795 Z-0.0 E0.01
G1 X-0.173 Y-0.0811 Z0.0 E0.01
G1 X-0.1723 Y-0.0827 Z0.0 E0.01
G1 X-0.1715 Y-0.0843 Z-0.0 E0.01
G1 X-0.171 Y-0.0854 Z0.0 E0.01
G1 X-0.171 Y-0.0854 Z0.0 E0.01
G1 X-0.171 Y-0.0854 Z0.0 E0.01
G1 X-0.0082 Y-0.1797 Z0.0 E0.009
G1 X0.011 Y-0.1908 Z0.0 E0.01
G1 X-0.0821 Y-0.1962 Z0.2 E0.015
G1 X0.0121 Y-0.1932 Z0.0 E0.01
G1 X0.0138 Y-0.1931 Z0.0 E0.01
G1 X0.0156 Y-0.193 Z0.0 E0.01
G1 X0.0174 Y-0.1928 Z-0.0 E0.01
G1 X0.0192 Y-0.1927 Z0.0 E0.01
G1 X0.0211 Y-0.1925 Z-0.0 E0.01
G1 X0.0229 Y-0.1922 Z-0.0 E0.01
G1 X0.0248 Y-0.192 Z0.0 E0.01
G1 X0.0267 Y-0.1918 Z-0.0 E0.01
G1 X0.0286 Y-0.1915 Z0.0 E0.01
G1 X0.0305 Y-0.1912 Z0.0 E0.01
G1 X0.0324 Y-0.1909 Z0.0 E0.01
G1 X0.0343 Y-0.1905 Z0.0 E0.01
G1 X0.0363 Y-0.1902 Z0.0 E0.01
G1 X0.0382 Y-0.1898 Z0.0 E0.01
G1 X0.0402 Y-0.1894 Z-0.0 E0.01
G1 X0.0423 Y-0.1889 Z-0.0 E0.01
G1 X0.0443 Y-0.1885 Z0.0 E0.01
G1 X0.0463 Y-0.188 Z0.0 E0.01
G1 X0.0484 Y-0.1875 Z0.0 E0.01
G1 X0.0505 Y-0.1869 Z-0.0 E0.01
G1 X0.0526 Y-0.1863 Z0.0 E0.01
G1 X0.0547 Y-0.1857 Z0.0 E0.01
G1 X0.0569 Y-0.1851 Z0.0 E0.01
G1 X0.059 Y-0.1844 Z0.0 E0.01
G1 X0.0612 Y-0.1837 Z0.0 E0.01
G1 X0.0634 Y-0.1829 Z0.0 E0.01
G1 X0.0656 Y-0.1821 Z0.0 E0.01
G1 X0.0679 Y-0.1813 Z0.0 E0.01
G1 X0.0701 Y-0.1805 Z0.0 E0.01
G1 X0.0724 Y-0.1796 Z0.0 E0.01
G1 X0.0747 Y-0.1786 Z0.0 E0.01
G1 X0.077 Y-0.1776 Z0.0 E0.01
G1 X0.0794 Y-0.1766 Z0.0 E0.01
G1 X0.0817 Y-0.1755 Z0.0 E0.01
G1 X0.0841 Y-0.1744 Z0.0 E0.01
G1 X0.0865 Y-0.1732 Z0.0 E0.01
G1 X0.0889 Y-0.172 Z-0.0 E0.01
G1 X0.0913 Y-0.1707 Z0.0 E0.01
G1 X0.0937 Y-0.1694 Z0.0 E0.01
G1 X0.0961 Y-0.1681 Z0.0 E0.01
G1 X0.0986 Y-0.1666 Z0.0 E0.01
G1 X0.101 Y-0.1652 Z0.0 E0.01
G1 X0.1033 Y-0.1637 Z-0.0 E0.01
G1 X0.1056 Y-0.1623 Z0.0 E0.01
G1 X0.1078 Y-0.1608 Z0.0 E0.01
G1 X0.11 Y-0.1593 Z0.0 E0.01
G1 X0.1121 Y-0.1578 Z0.0 E0.01
G1 X0.1142 Y-0.1563 Z-0.0 E0.01
G1 X0.1163 Y-0.1548 Z0.0 E0.01
G1 X0.1182 Y-0.1533 Z0.0 E0.01
G1 X0.1202 Y-0.1518 Z0.0 E0.01
G1 X0.1221 Y-0.1503 Z-0.0 E0.01
G1 X0.1239 Y-0.1487 Z0.0 E0.01
G1 X0.1258 Y-0.1472 Z0.0 E0.01
G1 X0.1275 Y-0.1457 Z0.0 E0.01
G1 X0.1293 Y-0.1441 Z0.0 E0.01
G1 X0.1309 Y-0.1426 Z0.0 E0.01
G1 X0.1326 Y-0.1411 Z0.0 E0.01
G1 X0.1342 Y-0.1396 Z0.0 E0.01
G1 X0.1358 Y-0.138 Z0.0 E0.01
G1 X0.1373 Y-0.1365 Z0.0 E0.01
G1 X0.1388 Y-0.135 Z0.0 E0.01
G1 X0.1403 Y-0.1335 Z0.0 E0.01
G1 X0.1417 Y-0.132 Z0.0 E0.01
G1 X0.1431 Y-0.1304 Z-0.0 E0.01
G1 X0.1444 Y-0.1289 Z0.0 E0.01
G1 X0.1458 Y-0.1274 Z-0.0 E0.01
G1 X0.1471 Y-0.1259 Z0.0 E0.01
G1 X0.1483 Y-0.1244 Z-0.0 E0.01
G1 X0.1496 Y-0.1229 Z0.0 E0.01
G1 X0.1508 Y-0.1214 Z0.0 E0.01
G1 X0.152 Y-0.12 Z-0.0 E0.01
G1 X0.1531 Y-0.1185 Z0.0 E0.01
G1 X0.1543 Y-0.117 Z0.0 E0.01
G1 X0.1554 Y-0.1155 Z0.0 E0.01
G1 X0.1565 Y-0.114 Z0.0 E0.01
G1 X0.1575 Y-0.1126 Z0.0 E0.01
G1 X0.1586 Y-0.1111 Z0.0 E0.01
G1 X0.1596 Y-0.1096 Z0.0 E0.01
G1 X0.1606 Y-0.1082 Z-0.0 E0.01
G1 X0.1615 Y-0.1067 Z0.0 E0.01
G1 X0.162 Y-0.106 Z0.0 E0.01
G1 X0.162 Y-0.106 Z0.0 E0.01
G1 X0.1641 Y-0.0658 Z0.0 E0.009
G1 X0.1722 Y0.0886 Z0.0 E0.01
G1 X0.1722 Y0.0886 Z0.0 E0.01
G1 X0.1722 Y0.0885 Z0.0 E0.01
G1 X0.1728 Y0.0874 Z0.0 E0.01
G1 X0.1735 Y0.086 Z0.0 E0.01
G1 X0.1741 Y0.0847 Z0.0 E0.01
G1 X0.1748 Y0.0833 Z0.0 E0.01
G1 X0.1754 Y0.0819 Z0.0 E0.01
G1 X0.1761 Y0.0805 Z-0.0 E0.01
