; *************************************************
; *************************************************
; ******* File generated by Extruder Turtle *******
; ******* written by Leah Buechley and  ***********
; ******* and Franklin Pezutti-Dyer ***************
; ******* Hand and Machine Lab, UNM, 2022 *********
; *************************************************
; *************************************************
; *************** Printer parameters **************
; Printer: eazao
; Nozzle size: 1.5
; Extrude width: 2.1
; Layer height: 1.0
; Extrude rate: 1.25
; Speed: 1000
; *************** Eazao initialization **************
G21
G90 ;absolute positioning
M82 ;set extruder to absolute mode
G28 ;Home
G1 Z15.0 F1500 ; move the platform down 15mm
G92 E0
G1 F300 E20    ; Prime Extruder, Extrude 20mm of clay
G92 E0
M302 ; Allow cold extrusion

; play dough mix factor
M163 S0 P0.95 ; Set Mix Factor small auger extruder
M163 S1 P0.05 ; Set Mix Factor large plunger extruder
M164 S0		  ; Finalize mix

; standard clay mix factor
; M163 S0 P0.9; Set Mix Factor small auger extruder
; M163 S1 P0.1; Set Mix Factor large plunger extruder

; mix factor for metal, testing
; M163 S0 P0.99; Set Mix Factor small auger extruder
; M163 S1 P0.01; Set Mix Factor large plunger extruder

G0 F1800 X75.0 Y88.0 Z0 ; move to starting position
M83 					; Relative extrustion
G91                     ; Relative coordinates for X,Y,Z axes
G1 F1000
; *************** End printer initialization **************
M163 S0 P0.96; Set Mix Factor small auger extruder 
M163 S1 P0.04; Set Mix Factor large plunger extruder
M164 S0 ; Finalize mix
G1 X26.400 Y0.000 Z0.000
G1 X1.026 Y1.025 Z0.000 E1.813
G1 X-1.145 Y0.981 Z0.000 E1.885
G1 X-1.153 Y0.898 Z0.000 E1.827
G1 X-0.518 Y0.902 Z0.000 E1.300
G1 X0.345 Y1.022 Z0.000 E1.348
G1 X0.884 Y1.177 Z0.000 E1.841
G1 X0.754 Y1.232 Z0.000 E1.806
G1 X0.021 Y1.100 Z0.000 E1.375
G1 X-0.881 Y0.825 Z0.000 E1.508
G1 X-1.424 Y0.573 Z0.000 E1.919
G1 X-1.309 Y0.529 Z0.000 E1.765
G1 X-0.647 Y0.756 Z0.000 E1.244
G1 X0.125 Y1.132 Z0.000 E1.424
G1 X0.518 Y1.410 Z0.000 E1.877
G1 X0.288 Y1.371 Z0.000 E1.751
G1 X-0.420 Y0.986 Z0.000 E1.340
G1 X-1.178 Y0.455 Z0.000 E1.579
G1 X-1.548 Y0.099 Z0.000 E1.939
G1 X-1.346 Y0.156 Z0.000 E1.694
G1 X-0.745 Y0.613 Z0.000 E1.206
G1 X-0.144 Y1.195 Z0.000 E1.504
G1 X0.080 Y1.518 Z0.000 E1.900
G1 X-0.195 Y1.337 Z0.000 E1.689
G1 X-0.782 Y0.714 Z0.000 E1.323
G1 X-1.320 Y-0.003 Z0.000 E1.651
G1 X-1.508 Y-0.382 Z0.000 E1.945
G1 X-1.280 Y-0.185 Z0.000 E1.616
G1 X-0.826 Y0.475 Z0.000 E1.191
G1 X-0.452 Y1.184 Z0.000 E1.585
G1 X-0.383 Y1.478 Z0.000 E1.908
G1 X-0.629 Y1.134 Z0.000 E1.622
G1 X-1.011 Y0.323 Z0.000 E1.326
G1 X-1.287 Y-0.488 Z0.000 E1.720
G1 X-1.317 Y-0.815 Z0.000 E1.936
G1 X-1.135 Y-0.467 Z0.000 E1.533
G1 X-0.899 Y0.335 Z0.000 E1.199
G1 X-0.774 Y1.081 Z0.000 E1.661
G1 X-0.816 Y1.285 Z0.000 E1.903
G1 X-0.957 Y0.791 Z0.000 E1.553
G1 X-1.072 Y-0.127 Z0.000 E1.349
G1 X-1.080 Y-0.933 Z0.000 E1.784
G1 X-1.006 Y-1.154 Z0.000 E1.913
G1 X-0.942 Y-0.678 Z0.000 E1.450
G1 X-0.968 Y0.181 Z0.000 E1.231
G1 X-1.075 Y0.873 Z0.000 E1.731
G1 X-1.166 Y0.954 Z0.000 E1.883
G1 X-1.134 Y0.357 Z0.000 E1.486
G1 X-0.955 Y-0.569 Z0.000 E1.389
G1 X-0.728 Y-1.279 Z0.000 E1.840
G1 X-0.618 Y-1.368 Z0.000 E1.877
G1 X-0.730 Y-0.818 Z0.000 E1.371
G1 X-1.026 Y0.001 Z0.000 E1.282
G1 X-1.317 Y0.565 Z0.000 E1.792
G1 X-1.386 Y0.521 Z0.000 E1.850
G1 X-1.135 Y-0.107 Z0.000 E1.425
G1 X-0.676 Y-0.937 Z0.000 E1.444
G1 X-0.277 Y-1.483 Z0.000 E1.885
G1 X-0.201 Y-1.447 Z0.000 E1.827
G1 X-0.523 Y-0.900 Z0.000 E1.300
G1 X-1.058 Y-0.212 Z0.000 E1.348
G1 X-1.462 Y0.177 Z0.000 E1.841
G1 X-1.444 Y0.037 Z0.000 E1.806
G1 X-0.963 Y-0.532 Z0.000 E1.375
G1 X-0.273 Y-1.175 Z0.000 E1.508
G1 X0.215 Y-1.520 Z0.000 E1.919
G1 X0.196 Y-1.399 Z0.000 E1.765
G1 X-0.331 Y-0.938 Z0.000 E1.244
G1 X-1.043 Y-0.458 Z0.000 E1.424
G1 X-1.480 Y-0.257 Z0.000 E1.877
G1 X-1.331 Y-0.436 Z0.000 E1.751
G1 X-0.644 Y-0.857 Z0.000 E1.340
G1 X0.195 Y-1.248 Z0.000 E1.579
G1 X0.688 Y-1.390 Z0.000 E1.939
G1 X0.538 Y-1.244 Z0.000 E1.694
G1 X-0.159 Y-0.952 Z0.000 E1.206
G1 X-0.962 Y-0.722 Z0.000 E1.504
G1 X-1.354 Y-0.690 Z0.000 E1.900
G1 X-1.061 Y-0.837 Z0.000 E1.689
G1 X-0.227 Y-1.034 Z0.000 E1.323
G1 X0.663 Y-1.142 Z0.000 E1.651
G1 X1.085 Y-1.115 Z0.000 E1.945
G1 X0.800 Y-1.016 Z0.000 E1.616
G1 X0.001 Y-0.953 Z0.000 E1.191
G1 X-0.800 Y-0.984 Z0.000 E1.585
G1 X-1.089 Y-1.070 Z0.000 E1.908
G1 X-0.668 Y-1.112 Z0.000 E1.622
G1 X0.226 Y-1.037 Z0.000 E1.326
G1 X1.066 Y-0.871 Z0.000 E1.720
G1 X1.365 Y-0.733 Z0.000 E1.936
G1 X0.971 Y-0.749 Z0.000 E1.533
G1 X0.159 Y-0.946 Z0.000 E1.199
G1 X-0.549 Y-1.210 Z0.000 E1.661
G1 X-0.705 Y-1.349 Z0.000 E1.903
G1 X-0.207 Y-1.225 Z0.000 E1.553
G1 X0.646 Y-0.865 Z0.000 E1.349
G1 X1.348 Y-0.469 Z0.000 E1.784
G1 X1.502 Y-0.294 Z0.000 E1.913
G1 X1.058 Y-0.477 Z0.000 E1.450
G1 X0.327 Y-0.929 Z0.000 E1.231
G1 X-0.219 Y-1.368 Z0.000 E1.731
G1 X-0.243 Y-1.487 Z0.000 E1.883
G1 X0.258 Y-1.160 Z0.000 E1.486
G1 X0.970 Y-0.542 Z0.000 E1.389
G1 X1.472 Y0.009 Z0.000 E1.840
G1 X1.494 Y0.149 Z0.000 E1.877
G1 X1.074 Y-0.223 Z0.000 E1.371
G1 X0.512 Y-0.889 Z0.000 E1.282
G1 X0.169 Y-1.423 Z0.000 E1.792
G1 X0.242 Y-1.460 Z0.000 E1.850
G1 X0.660 Y-0.930 Z0.000 E1.425
G1 X1.149 Y-0.117 Z0.000 E1.444
G1 X1.422 Y0.501 Z0.000 E1.885
G1 X1.354 Y0.549 Z0.000 E1.827
G1 X1.040 Y-0.003 Z0.000 E1.300
G1 X0.713 Y-0.810 Z0.000 E1.348
G1 X0.577 Y-1.355 Z0.000 E1.841
G1 X0.690 Y-1.269 Z0.000 E1.806
G1 X0.942 Y-0.568 Z0.000 E1.375
G1 X1.155 Y0.351 Z0.000 E1.508
G1 X1.208 Y0.946 Z0.000 E1.919
G1 X1.113 Y0.869 Z0.000 E1.765
G1 X0.978 Y0.182 Z0.000 E1.244
G1 X0.918 Y-0.675 Z0.000 E1.424
G1 X0.962 Y-1.153 Z0.000 E1.877
G1 X1.044 Y-0.935 Z0.000 E1.751
G1 X1.064 Y-0.129 Z0.000 E1.340
G1 X0.983 Y0.792 Z0.000 E1.579
G1 X0.860 Y1.291 Z0.000 E1.939
G1 X0.808 Y1.088 Z0.000 E1.694
G1 X0.904 Y0.338 Z0.000 E1.206
G1 X1.107 Y-0.472 Z0.000 E1.504
G1 X1.275 Y-0.828 Z0.000 E1.900
G1 X1.255 Y-0.500 Z0.000 E1.689
G1 X1.009 Y0.320 Z0.000 E1.323
G1 X0.658 Y1.145 Z0.000 E1.651
G1 X0.423 Y1.497 Z0.000 E1.945
G1 X0.480 Y1.200 Z0.000 E1.616
G1 X0.825 Y0.477 Z0.000 E1.191
G1 X1.252 Y-0.201 Z0.000 E1.585
G1 X1.471 Y-0.408 Z0.000 E1.908
G1 X1.297 Y-0.022 Z0.000 E1.622
G1 X0.785 Y0.714 Z0.000 E1.326
G1 X0.221 Y1.358 Z0.000 E1.720
G1 X-0.048 Y1.548 Z0.000 E1.936
G1 X0.163 Y1.216 Z0.000 E1.533
G1 X0.740 Y0.611 Z0.000 E1.199
G1 X1.323 Y0.130 Z0.000 E1.661
G1 X1.521 Y0.064 Z0.000 E1.903
G1 X1.164 Y0.433 Z0.000 E1.553
G1 X0.426 Y0.992 Z0.000 E1.349
G1 X-0.267 Y1.402 Z0.000 E1.784
G1 X-0.497 Y1.448 Z0.000 E1.913
G1 X-0.116 Y1.154 Z0.000 E1.450
G1 X0.641 Y0.748 Z0.000 E1.231
G1 X1.294 Y0.494 Z0.000 E1.731
G1 X1.409 Y0.533 Z0.000 E1.883
G1 X0.876 Y0.803 Z0.000 E1.486
G1 X-0.015 Y1.111 Z0.000 E1.389
G1 X-0.743 Y1.270 Z0.000 E1.840
G1 X-0.876 Y1.219 Z0.000 E1.877
G1 X-0.343 Y1.042 Z0.000 E1.371
G1 X0.514 Y0.888 Z0.000 E1.282
G1 X1.148 Y0.858 Z0.000 E1.792
G1 X1.144 Y0.940 Z0.000 E1.850
; Changed extrude rate to: 0.9375
; *************************************************************
G1 X-3.125 Y1.065 Z0.000 E3.095
G1 X-0.020 Y0.998 Z0.000 E0.935
G1 X-0.061 Y0.996 Z0.000 E0.935
G1 X-0.102 Y0.993 Z0.000 E0.935
G1 X-0.143 Y0.988 Z0.000 E0.935
G1 X-0.183 Y0.981 Z0.000 E0.935
G1 X-0.223 Y0.973 Z0.000 E0.935
G1 X-0.263 Y0.963 Z0.000 E0.935
G1 X-0.303 Y0.951 Z0.000 E0.935
G1 X-0.341 Y0.938 Z0.000 E0.935
G1 X-0.379 Y0.923 Z0.000 E0.935
G1 X-0.417 Y0.907 Z0.000 E0.935
G1 X-0.454 Y0.889 Z0.000 E0.935
G1 X-0.490 Y0.869 Z0.000 E0.935
G1 X-0.525 Y0.848 Z0.000 E0.935
G1 X-0.560 Y0.826 Z0.000 E0.935
G1 X-0.593 Y0.802 Z0.000 E0.935
G1 X-0.626 Y0.777 Z0.000 E0.935
G1 X-0.657 Y0.751 Z0.000 E0.935
G1 X-0.687 Y0.723 Z0.000 E0.935
G1 X-0.716 Y0.695 Z0.000 E0.935
G1 X-0.744 Y0.665 Z0.000 E0.935
G1 X-0.771 Y0.634 Z0.000 E0.935
G1 X-0.796 Y0.601 Z0.000 E0.935
G1 X-0.820 Y0.568 Z0.000 E0.935
G1 X-0.843 Y0.534 Z0.000 E0.935
G1 X-0.864 Y0.499 Z0.000 E0.935
G1 X-0.884 Y0.463 Z0.000 E0.935
G1 X-0.902 Y0.426 Z0.000 E0.935
G1 X-0.919 Y0.389 Z0.000 E0.935
G1 X-0.934 Y0.351 Z0.000 E0.935
G1 X-0.948 Y0.312 Z0.000 E0.935
G1 X-0.960 Y0.273 Z0.000 E0.935
G1 X-0.970 Y0.233 Z0.000 E0.935
G1 X-0.979 Y0.193 Z0.000 E0.935
G1 X-0.986 Y0.153 Z0.000 E0.935
G1 X-0.991 Y0.112 Z0.000 E0.935
G1 X-0.995 Y0.072 Z0.000 E0.935
G1 X-0.997 Y0.031 Z0.000 E0.935
G1 X-0.998 Y-0.010 Z0.000 E0.935
G1 X-0.997 Y-0.051 Z0.000 E0.935
G1 X-0.994 Y-0.092 Z0.000 E0.935
G1 X-0.989 Y-0.133 Z0.000 E0.935
G1 X-0.983 Y-0.173 Z0.000 E0.935
G1 X-0.975 Y-0.213 Z0.000 E0.935
G1 X-0.965 Y-0.253 Z0.000 E0.935
G1 X-0.954 Y-0.293 Z0.000 E0.935
G1 X-0.941 Y-0.332 Z0.000 E0.935
G1 X-0.927 Y-0.370 Z0.000 E0.935
G1 X-0.911 Y-0.408 Z0.000 E0.935
G1 X-0.893 Y-0.445 Z0.000 E0.935
G1 X-0.874 Y-0.481 Z0.000 E0.935
G1 X-0.854 Y-0.517 Z0.000 E0.935
G1 X-0.832 Y-0.551 Z0.000 E0.935
G1 X-0.808 Y-0.585 Z0.000 E0.935
G1 X-0.784 Y-0.618 Z0.000 E0.935
G1 X-0.758 Y-0.649 Z0.000 E0.935
G1 X-0.730 Y-0.680 Z0.000 E0.935
G1 X-0.702 Y-0.709 Z0.000 E0.935
G1 X-0.672 Y-0.737 Z0.000 E0.935
G1 X-0.641 Y-0.764 Z0.000 E0.935
G1 X-0.609 Y-0.790 Z0.000 E0.935
G1 X-0.577 Y-0.814 Z0.000 E0.935
G1 X-0.543 Y-0.837 Z0.000 E0.935
G1 X-0.508 Y-0.859 Z0.000 E0.935
G1 X-0.472 Y-0.879 Z0.000 E0.935
G1 X-0.436 Y-0.898 Z0.000 E0.935
G1 X-0.398 Y-0.915 Z0.000 E0.935
G1 X-0.360 Y-0.930 Z0.000 E0.935
G1 X-0.322 Y-0.944 Z0.000 E0.935
G1 X-0.283 Y-0.957 Z0.000 E0.935
G1 X-0.243 Y-0.968 Z0.000 E0.935
G1 X-0.203 Y-0.977 Z0.000 E0.935
G1 X-0.163 Y-0.984 Z0.000 E0.935
G1 X-0.123 Y-0.990 Z0.000 E0.935
G1 X-0.082 Y-0.994 Z0.000 E0.935
G1 X-0.041 Y-0.997 Z0.000 E0.935
G1 X-0.000 Y-0.998 Z0.000 E0.935
G1 X0.041 Y-0.997 Z0.000 E0.935
G1 X0.082 Y-0.994 Z0.000 E0.935
G1 X0.123 Y-0.990 Z0.000 E0.935
G1 X0.163 Y-0.984 Z0.000 E0.935
G1 X0.203 Y-0.977 Z0.000 E0.935
G1 X0.243 Y-0.968 Z0.000 E0.935
G1 X0.283 Y-0.957 Z0.000 E0.935
G1 X0.322 Y-0.944 Z0.000 E0.935
G1 X0.360 Y-0.930 Z0.000 E0.935
G1 X0.398 Y-0.915 Z0.000 E0.935
G1 X0.436 Y-0.898 Z0.000 E0.935
G1 X0.472 Y-0.879 Z0.000 E0.935
G1 X0.508 Y-0.859 Z0.000 E0.935
G1 X0.543 Y-0.837 Z0.000 E0.935
G1 X0.577 Y-0.814 Z0.000 E0.935
G1 X0.609 Y-0.790 Z0.000 E0.935
G1 X0.641 Y-0.764 Z0.000 E0.935
G1 X0.672 Y-0.737 Z0.000 E0.935
G1 X0.702 Y-0.709 Z0.000 E0.935
G1 X0.730 Y-0.680 Z0.000 E0.935
G1 X0.758 Y-0.649 Z0.000 E0.935
G1 X0.784 Y-0.618 Z0.000 E0.935
G1 X0.808 Y-0.585 Z0.000 E0.935
G1 X0.832 Y-0.551 Z0.000 E0.935
G1 X0.854 Y-0.517 Z0.000 E0.935
G1 X0.874 Y-0.481 Z0.000 E0.935
G1 X0.893 Y-0.445 Z0.000 E0.935
G1 X0.911 Y-0.408 Z0.000 E0.935
G1 X0.927 Y-0.370 Z0.000 E0.935
G1 X0.941 Y-0.332 Z0.000 E0.935
G1 X0.954 Y-0.293 Z0.000 E0.935
G1 X0.965 Y-0.253 Z0.000 E0.935
G1 X0.975 Y-0.213 Z0.000 E0.935
G1 X0.983 Y-0.173 Z0.000 E0.935
G1 X0.989 Y-0.133 Z0.000 E0.935
G1 X0.994 Y-0.092 Z0.000 E0.935
G1 X0.997 Y-0.051 Z0.000 E0.935
G1 X0.998 Y-0.010 Z0.000 E0.935
G1 X0.997 Y0.031 Z0.000 E0.935
G1 X0.995 Y0.072 Z0.000 E0.935
G1 X0.991 Y0.112 Z0.000 E0.935
G1 X0.986 Y0.153 Z0.000 E0.935
G1 X0.979 Y0.193 Z0.000 E0.935
G1 X0.970 Y0.233 Z0.000 E0.935
G1 X0.960 Y0.273 Z0.000 E0.935
G1 X0.948 Y0.312 Z0.000 E0.935
G1 X0.934 Y0.351 Z0.000 E0.935
G1 X0.919 Y0.389 Z0.000 E0.935
G1 X0.902 Y0.426 Z0.000 E0.935
G1 X0.884 Y0.463 Z0.000 E0.935
G1 X0.864 Y0.499 Z0.000 E0.935
G1 X0.843 Y0.534 Z0.000 E0.935
G1 X0.820 Y0.568 Z0.000 E0.935
G1 X0.796 Y0.601 Z0.000 E0.935
G1 X0.771 Y0.634 Z0.000 E0.935
G1 X0.744 Y0.665 Z0.000 E0.935
G1 X0.716 Y0.695 Z0.000 E0.935
G1 X0.687 Y0.723 Z0.000 E0.935
G1 X0.657 Y0.751 Z0.000 E0.935
G1 X0.626 Y0.777 Z0.000 E0.935
G1 X0.593 Y0.802 Z0.000 E0.935
G1 X0.560 Y0.826 Z0.000 E0.935
G1 X0.525 Y0.848 Z0.000 E0.935
G1 X0.490 Y0.869 Z0.000 E0.935
G1 X0.454 Y0.889 Z0.000 E0.935
G1 X0.417 Y0.907 Z0.000 E0.935
G1 X0.379 Y0.923 Z0.000 E0.935
G1 X0.341 Y0.938 Z0.000 E0.935
G1 X0.303 Y0.951 Z0.000 E0.935
G1 X0.263 Y0.963 Z0.000 E0.935
G1 X0.223 Y0.973 Z0.000 E0.935
G1 X0.183 Y0.981 Z0.000 E0.935
G1 X0.143 Y0.988 Z0.000 E0.935
G1 X0.102 Y0.993 Z0.000 E0.935
G1 X0.061 Y0.996 Z0.000 E0.935
G1 X0.020 Y0.998 Z0.000 E0.935
G1 X-2.100 Y0.000 Z0.000 E1.969
G1 X-0.022 Y0.996 Z0.000 E0.934
G1 X-0.067 Y0.994 Z0.000 E0.934
G1 X-0.112 Y0.990 Z0.000 E0.934
G1 X-0.156 Y0.984 Z0.000 E0.934
G1 X-0.200 Y0.976 Z0.000 E0.934
G1 X-0.243 Y0.966 Z0.000 E0.934
G1 X-0.287 Y0.954 Z0.000 E0.934
G1 X-0.329 Y0.940 Z0.000 E0.934
G1 X-0.371 Y0.925 Z0.000 E0.934
G1 X-0.412 Y0.907 Z0.000 E0.934
G1 X-0.452 Y0.888 Z0.000 E0.934
G1 X-0.492 Y0.866 Z0.000 E0.934
G1 X-0.530 Y0.844 Z0.000 E0.934
G1 X-0.567 Y0.819 Z0.000 E0.934
G1 X-0.604 Y0.793 Z0.000 E0.934
G1 X-0.638 Y0.765 Z0.000 E0.934
G1 X-0.672 Y0.735 Z0.000 E0.934
G1 X-0.704 Y0.704 Z0.000 E0.934
G1 X-0.735 Y0.672 Z0.000 E0.934
G1 X-0.765 Y0.638 Z0.000 E0.934
G1 X-0.793 Y0.604 Z0.000 E0.934
G1 X-0.819 Y0.567 Z0.000 E0.934
G1 X-0.844 Y0.530 Z0.000 E0.934
G1 X-0.866 Y0.492 Z0.000 E0.934
G1 X-0.888 Y0.452 Z0.000 E0.934
G1 X-0.907 Y0.412 Z0.000 E0.934
G1 X-0.925 Y0.371 Z0.000 E0.934
G1 X-0.940 Y0.329 Z0.000 E0.934
G1 X-0.954 Y0.287 Z0.000 E0.934
G1 X-0.966 Y0.243 Z0.000 E0.934
G1 X-0.976 Y0.200 Z0.000 E0.934
G1 X-0.984 Y0.156 Z0.000 E0.934
G1 X-0.990 Y0.112 Z0.000 E0.934
G1 X-0.994 Y0.067 Z0.000 E0.934
G1 X-0.996 Y0.022 Z0.000 E0.934
G1 X-0.996 Y-0.022 Z0.000 E0.934
G1 X-0.994 Y-0.067 Z0.000 E0.934
G1 X-0.990 Y-0.112 Z0.000 E0.934
G1 X-0.984 Y-0.156 Z0.000 E0.934
G1 X-0.976 Y-0.200 Z0.000 E0.934
G1 X-0.966 Y-0.243 Z0.000 E0.934
G1 X-0.954 Y-0.287 Z0.000 E0.934
G1 X-0.940 Y-0.329 Z0.000 E0.934
G1 X-0.925 Y-0.371 Z0.000 E0.934
G1 X-0.907 Y-0.412 Z0.000 E0.934
G1 X-0.888 Y-0.452 Z0.000 E0.934
G1 X-0.866 Y-0.492 Z0.000 E0.934
G1 X-0.844 Y-0.530 Z0.000 E0.934
G1 X-0.819 Y-0.567 Z0.000 E0.934
G1 X-0.793 Y-0.604 Z0.000 E0.934
G1 X-0.765 Y-0.638 Z0.000 E0.934
G1 X-0.735 Y-0.672 Z0.000 E0.934
G1 X-0.704 Y-0.704 Z0.000 E0.934
G1 X-0.672 Y-0.735 Z0.000 E0.934
G1 X-0.638 Y-0.765 Z0.000 E0.934
G1 X-0.604 Y-0.793 Z0.000 E0.934
G1 X-0.567 Y-0.819 Z0.000 E0.934
G1 X-0.530 Y-0.844 Z0.000 E0.934
G1 X-0.492 Y-0.866 Z0.000 E0.934
G1 X-0.452 Y-0.888 Z0.000 E0.934
G1 X-0.412 Y-0.907 Z0.000 E0.934
G1 X-0.371 Y-0.925 Z0.000 E0.934
G1 X-0.329 Y-0.940 Z0.000 E0.934
G1 X-0.287 Y-0.954 Z0.000 E0.934
G1 X-0.243 Y-0.966 Z0.000 E0.934
G1 X-0.200 Y-0.976 Z0.000 E0.934
G1 X-0.156 Y-0.984 Z0.000 E0.934
G1 X-0.112 Y-0.990 Z0.000 E0.934
G1 X-0.067 Y-0.994 Z0.000 E0.934
G1 X-0.022 Y-0.996 Z0.000 E0.934
G1 X0.022 Y-0.996 Z0.000 E0.934
G1 X0.067 Y-0.994 Z0.000 E0.934
G1 X0.112 Y-0.990 Z0.000 E0.934
G1 X0.156 Y-0.984 Z0.000 E0.934
G1 X0.200 Y-0.976 Z0.000 E0.934
G1 X0.243 Y-0.966 Z0.000 E0.934
G1 X0.287 Y-0.954 Z0.000 E0.934
G1 X0.329 Y-0.940 Z0.000 E0.934
G1 X0.371 Y-0.925 Z0.000 E0.934
G1 X0.412 Y-0.907 Z0.000 E0.934
G1 X0.452 Y-0.888 Z0.000 E0.934
G1 X0.492 Y-0.866 Z0.000 E0.934
G1 X0.530 Y-0.844 Z0.000 E0.934
G1 X0.567 Y-0.819 Z0.000 E0.934
G1 X0.604 Y-0.793 Z0.000 E0.934
G1 X0.638 Y-0.765 Z0.000 E0.934
G1 X0.672 Y-0.735 Z0.000 E0.934
G1 X0.704 Y-0.704 Z0.000 E0.934
G1 X0.735 Y-0.672 Z0.000 E0.934
G1 X0.765 Y-0.638 Z0.000 E0.934
G1 X0.793 Y-0.604 Z0.000 E0.934
G1 X0.819 Y-0.567 Z0.000 E0.934
G1 X0.844 Y-0.530 Z0.000 E0.934
G1 X0.866 Y-0.492 Z0.000 E0.934
G1 X0.888 Y-0.452 Z0.000 E0.934
G1 X0.907 Y-0.412 Z0.000 E0.934
G1 X0.925 Y-0.371 Z0.000 E0.934
G1 X0.940 Y-0.329 Z0.000 E0.934
G1 X0.954 Y-0.287 Z0.000 E0.934
G1 X0.966 Y-0.243 Z0.000 E0.934
G1 X0.976 Y-0.200 Z0.000 E0.934
G1 X0.984 Y-0.156 Z0.000 E0.934
G1 X0.990 Y-0.112 Z0.000 E0.934
G1 X0.994 Y-0.067 Z0.000 E0.934
G1 X0.996 Y-0.022 Z0.000 E0.934
G1 X0.996 Y0.022 Z0.000 E0.934
G1 X0.994 Y0.067 Z0.000 E0.934
G1 X0.990 Y0.112 Z0.000 E0.934
G1 X0.984 Y0.156 Z0.000 E0.934
G1 X0.976 Y0.200 Z0.000 E0.934
G1 X0.966 Y0.243 Z0.000 E0.934
G1 X0.954 Y0.287 Z0.000 E0.934
G1 X0.940 Y0.329 Z0.000 E0.934
G1 X0.925 Y0.371 Z0.000 E0.934
G1 X0.907 Y0.412 Z0.000 E0.934
G1 X0.888 Y0.452 Z0.000 E0.934
G1 X0.866 Y0.492 Z0.000 E0.934
G1 X0.844 Y0.530 Z0.000 E0.934
G1 X0.819 Y0.567 Z0.000 E0.934
G1 X0.793 Y0.604 Z0.000 E0.934
G1 X0.765 Y0.638 Z0.000 E0.934
G1 X0.735 Y0.672 Z0.000 E0.934
G1 X0.704 Y0.704 Z0.000 E0.934
G1 X0.672 Y0.735 Z0.000 E0.934
G1 X0.638 Y0.765 Z0.000 E0.934
G1 X0.604 Y0.793 Z0.000 E0.934
G1 X0.567 Y0.819 Z0.000 E0.934
G1 X0.530 Y0.844 Z0.000 E0.934
G1 X0.492 Y0.866 Z0.000 E0.934
G1 X0.452 Y0.888 Z0.000 E0.934
G1 X0.412 Y0.907 Z0.000 E0.934
G1 X0.371 Y0.925 Z0.000 E0.934
G1 X0.329 Y0.940 Z0.000 E0.934
G1 X0.287 Y0.954 Z0.000 E0.934
G1 X0.243 Y0.966 Z0.000 E0.934
G1 X0.200 Y0.976 Z0.000 E0.934
G1 X0.156 Y0.984 Z0.000 E0.934
G1 X0.112 Y0.990 Z0.000 E0.934
G1 X0.067 Y0.994 Z0.000 E0.934
G1 X0.022 Y0.996 Z0.000 E0.934
G1 X-2.100 Y0.000 Z0.000 E1.969
G1 X-0.025 Y0.994 Z0.000 E0.932
G1 X-0.074 Y0.992 Z0.000 E0.932
G1 X-0.123 Y0.987 Z0.000 E0.932
G1 X-0.171 Y0.979 Z0.000 E0.932
G1 X-0.220 Y0.970 Z0.000 E0.932
G1 X-0.267 Y0.958 Z0.000 E0.932
G1 X-0.314 Y0.943 Z0.000 E0.932
G1 X-0.361 Y0.927 Z0.000 E0.932
G1 X-0.406 Y0.908 Z0.000 E0.932
G1 X-0.450 Y0.887 Z0.000 E0.932
G1 X-0.494 Y0.863 Z0.000 E0.932
G1 X-0.536 Y0.838 Z0.000 E0.932
G1 X-0.576 Y0.810 Z0.000 E0.932
G1 X-0.616 Y0.781 Z0.000 E0.932
G1 X-0.654 Y0.749 Z0.000 E0.932
G1 X-0.690 Y0.716 Z0.000 E0.932
G1 X-0.724 Y0.681 Z0.000 E0.932
G1 X-0.757 Y0.644 Z0.000 E0.932
G1 X-0.788 Y0.606 Z0.000 E0.932
G1 X-0.817 Y0.566 Z0.000 E0.932
G1 X-0.844 Y0.525 Z0.000 E0.932
G1 X-0.869 Y0.483 Z0.000 E0.932
G1 X-0.892 Y0.439 Z0.000 E0.932
G1 X-0.913 Y0.395 Z0.000 E0.932
G1 X-0.931 Y0.349 Z0.000 E0.932
G1 X-0.947 Y0.303 Z0.000 E0.932
G1 X-0.961 Y0.255 Z0.000 E0.932
G1 X-0.972 Y0.208 Z0.000 E0.932
G1 X-0.981 Y0.159 Z0.000 E0.932
G1 X-0.988 Y0.110 Z0.000 E0.932
G1 X-0.992 Y0.061 Z0.000 E0.932
G1 X-0.994 Y0.012 Z0.000 E0.932
G1 X-0.994 Y-0.037 Z0.000 E0.932
G1 X-0.991 Y-0.086 Z0.000 E0.932
G1 X-0.985 Y-0.135 Z0.000 E0.932
G1 X-0.977 Y-0.183 Z0.000 E0.932
G1 X-0.967 Y-0.232 Z0.000 E0.932
G1 X-0.954 Y-0.279 Z0.000 E0.932
G1 X-0.939 Y-0.326 Z0.000 E0.932
G1 X-0.922 Y-0.372 Z0.000 E0.932
G1 X-0.903 Y-0.417 Z0.000 E0.932
G1 X-0.881 Y-0.461 Z0.000 E0.932
G1 X-0.857 Y-0.504 Z0.000 E0.932
G1 X-0.831 Y-0.546 Z0.000 E0.932
G1 X-0.803 Y-0.586 Z0.000 E0.932
G1 X-0.773 Y-0.625 Z0.000 E0.932
G1 X-0.741 Y-0.663 Z0.000 E0.932
G1 X-0.707 Y-0.699 Z0.000 E0.932
G1 X-0.672 Y-0.733 Z0.000 E0.932
G1 X-0.635 Y-0.765 Z0.000 E0.932
G1 X-0.596 Y-0.796 Z0.000 E0.932
G1 X-0.556 Y-0.824 Z0.000 E0.932
G1 X-0.515 Y-0.851 Z0.000 E0.932
G1 X-0.472 Y-0.875 Z0.000 E0.932
G1 X-0.428 Y-0.897 Z0.000 E0.932
G1 X-0.383 Y-0.917 Z0.000 E0.932
G1 X-0.338 Y-0.935 Z0.000 E0.932
G1 X-0.291 Y-0.951 Z0.000 E0.932
G1 X-0.243 Y-0.964 Z0.000 E0.932
G1 X-0.195 Y-0.975 Z0.000 E0.932
G1 X-0.147 Y-0.983 Z0.000 E0.932
G1 X-0.098 Y-0.989 Z0.000 E0.932
G1 X-0.049 Y-0.993 Z0.000 E0.932
G1 X-0.000 Y-0.994 Z0.000 E0.932
G1 X0.049 Y-0.993 Z0.000 E0.932
G1 X0.098 Y-0.989 Z0.000 E0.932
G1 X0.147 Y-0.983 Z0.000 E0.932
G1 X0.195 Y-0.975 Z0.000 E0.932
G1 X0.243 Y-0.964 Z0.000 E0.932
G1 X0.291 Y-0.951 Z0.000 E0.932
G1 X0.338 Y-0.935 Z0.000 E0.932
G1 X0.383 Y-0.917 Z0.000 E0.932
G1 X0.428 Y-0.897 Z0.000 E0.932
G1 X0.472 Y-0.875 Z0.000 E0.932
G1 X0.515 Y-0.851 Z0.000 E0.932
G1 X0.556 Y-0.824 Z0.000 E0.932
G1 X0.596 Y-0.796 Z0.000 E0.932
G1 X0.635 Y-0.765 Z0.000 E0.932
G1 X0.672 Y-0.733 Z0.000 E0.932
G1 X0.707 Y-0.699 Z0.000 E0.932
G1 X0.741 Y-0.663 Z0.000 E0.932
G1 X0.773 Y-0.625 Z0.000 E0.932
G1 X0.803 Y-0.586 Z0.000 E0.932
G1 X0.831 Y-0.546 Z0.000 E0.932
G1 X0.857 Y-0.504 Z0.000 E0.932
G1 X0.881 Y-0.461 Z0.000 E0.932
G1 X0.903 Y-0.417 Z0.000 E0.932
G1 X0.922 Y-0.372 Z0.000 E0.932
G1 X0.939 Y-0.326 Z0.000 E0.932
G1 X0.954 Y-0.279 Z0.000 E0.932
G1 X0.967 Y-0.232 Z0.000 E0.932
G1 X0.977 Y-0.183 Z0.000 E0.932
G1 X0.985 Y-0.135 Z0.000 E0.932
G1 X0.991 Y-0.086 Z0.000 E0.932
G1 X0.994 Y-0.037 Z0.000 E0.932
G1 X0.994 Y0.012 Z0.000 E0.932
G1 X0.992 Y0.061 Z0.000 E0.932
G1 X0.988 Y0.110 Z0.000 E0.932
G1 X0.981 Y0.159 Z0.000 E0.932
G1 X0.972 Y0.208 Z0.000 E0.932
G1 X0.961 Y0.255 Z0.000 E0.932
G1 X0.947 Y0.303 Z0.000 E0.932
G1 X0.931 Y0.349 Z0.000 E0.932
G1 X0.913 Y0.395 Z0.000 E0.932
G1 X0.892 Y0.439 Z0.000 E0.932
G1 X0.869 Y0.483 Z0.000 E0.932
G1 X0.844 Y0.525 Z0.000 E0.932
G1 X0.817 Y0.566 Z0.000 E0.932
G1 X0.788 Y0.606 Z0.000 E0.932
G1 X0.757 Y0.644 Z0.000 E0.932
G1 X0.724 Y0.681 Z0.000 E0.932
G1 X0.690 Y0.716 Z0.000 E0.932
G1 X0.654 Y0.749 Z0.000 E0.932
G1 X0.616 Y0.781 Z0.000 E0.932
G1 X0.576 Y0.810 Z0.000 E0.932
G1 X0.536 Y0.838 Z0.000 E0.932
G1 X0.494 Y0.863 Z0.000 E0.932
G1 X0.450 Y0.887 Z0.000 E0.932
G1 X0.406 Y0.908 Z0.000 E0.932
G1 X0.361 Y0.927 Z0.000 E0.932
G1 X0.314 Y0.943 Z0.000 E0.932
G1 X0.267 Y0.958 Z0.000 E0.932
G1 X0.220 Y0.970 Z0.000 E0.932
G1 X0.171 Y0.979 Z0.000 E0.932
G1 X0.123 Y0.987 Z0.000 E0.932
G1 X0.074 Y0.992 Z0.000 E0.932
G1 X0.025 Y0.994 Z0.000 E0.932
G1 X-2.100 Y0.000 Z0.000 E1.969
G1 X-0.027 Y0.992 Z0.000 E0.930
G1 X-0.082 Y0.989 Z0.000 E0.930
G1 X-0.136 Y0.983 Z0.000 E0.930
G1 X-0.190 Y0.974 Z0.000 E0.930
G1 X-0.244 Y0.962 Z0.000 E0.930
G1 X-0.296 Y0.947 Z0.000 E0.930
G1 X-0.348 Y0.929 Z0.000 E0.930
G1 X-0.398 Y0.908 Z0.000 E0.930
G1 X-0.448 Y0.885 Z0.000 E0.930
G1 X-0.496 Y0.859 Z0.000 E0.930
G1 X-0.543 Y0.830 Z0.000 E0.930
G1 X-0.587 Y0.799 Z0.000 E0.930
G1 X-0.631 Y0.766 Z0.000 E0.930
G1 X-0.672 Y0.730 Z0.000 E0.930
G1 X-0.711 Y0.692 Z0.000 E0.930
G1 X-0.748 Y0.651 Z0.000 E0.930
G1 X-0.783 Y0.609 Z0.000 E0.930
G1 X-0.815 Y0.565 Z0.000 E0.930
G1 X-0.845 Y0.519 Z0.000 E0.930
G1 X-0.872 Y0.472 Z0.000 E0.930
G1 X-0.897 Y0.423 Z0.000 E0.930
G1 X-0.919 Y0.373 Z0.000 E0.930
G1 X-0.938 Y0.322 Z0.000 E0.930
G1 X-0.955 Y0.270 Z0.000 E0.930
G1 X-0.968 Y0.217 Z0.000 E0.930
G1 X-0.978 Y0.163 Z0.000 E0.930
G1 X-0.986 Y0.109 Z0.000 E0.930
G1 X-0.990 Y0.055 Z0.000 E0.930
G1 X-0.992 Y-0.000 Z0.000 E0.930
G1 X-0.990 Y-0.055 Z0.000 E0.930
G1 X-0.986 Y-0.109 Z0.000 E0.930
G1 X-0.978 Y-0.163 Z0.000 E0.930
G1 X-0.968 Y-0.217 Z0.000 E0.930
G1 X-0.955 Y-0.270 Z0.000 E0.930
G1 X-0.938 Y-0.322 Z0.000 E0.930
G1 X-0.919 Y-0.373 Z0.000 E0.930
G1 X-0.897 Y-0.423 Z0.000 E0.930
G1 X-0.872 Y-0.472 Z0.000 E0.930
G1 X-0.845 Y-0.519 Z0.000 E0.930
G1 X-0.815 Y-0.565 Z0.000 E0.930
G1 X-0.783 Y-0.609 Z0.000 E0.930
G1 X-0.748 Y-0.651 Z0.000 E0.930
G1 X-0.711 Y-0.692 Z0.000 E0.930
G1 X-0.672 Y-0.730 Z0.000 E0.930
G1 X-0.631 Y-0.766 Z0.000 E0.930
G1 X-0.587 Y-0.799 Z0.000 E0.930
G1 X-0.543 Y-0.830 Z0.000 E0.930
G1 X-0.496 Y-0.859 Z0.000 E0.930
G1 X-0.448 Y-0.885 Z0.000 E0.930
G1 X-0.398 Y-0.908 Z0.000 E0.930
G1 X-0.348 Y-0.929 Z0.000 E0.930
G1 X-0.296 Y-0.947 Z0.000 E0.930
G1 X-0.244 Y-0.962 Z0.000 E0.930
G1 X-0.190 Y-0.974 Z0.000 E0.930
G1 X-0.136 Y-0.983 Z0.000 E0.930
G1 X-0.082 Y-0.989 Z0.000 E0.930
G1 X-0.027 Y-0.992 Z0.000 E0.930
G1 X0.027 Y-0.992 Z0.000 E0.930
G1 X0.082 Y-0.989 Z0.000 E0.930
G1 X0.136 Y-0.983 Z0.000 E0.930
G1 X0.190 Y-0.974 Z0.000 E0.930
G1 X0.244 Y-0.962 Z0.000 E0.930
G1 X0.296 Y-0.947 Z0.000 E0.930
G1 X0.348 Y-0.929 Z0.000 E0.930
G1 X0.398 Y-0.908 Z0.000 E0.930
G1 X0.448 Y-0.885 Z0.000 E0.930
G1 X0.496 Y-0.859 Z0.000 E0.930
G1 X0.543 Y-0.830 Z0.000 E0.930
G1 X0.587 Y-0.799 Z0.000 E0.930
G1 X0.631 Y-0.766 Z0.000 E0.930
G1 X0.672 Y-0.730 Z0.000 E0.930
G1 X0.711 Y-0.692 Z0.000 E0.930
G1 X0.748 Y-0.651 Z0.000 E0.930
G1 X0.783 Y-0.609 Z0.000 E0.930
G1 X0.815 Y-0.565 Z0.000 E0.930
G1 X0.845 Y-0.519 Z0.000 E0.930
G1 X0.872 Y-0.472 Z0.000 E0.930
G1 X0.897 Y-0.423 Z0.000 E0.930
G1 X0.919 Y-0.373 Z0.000 E0.930
G1 X0.938 Y-0.322 Z0.000 E0.930
G1 X0.955 Y-0.270 Z0.000 E0.930
G1 X0.968 Y-0.217 Z0.000 E0.930
G1 X0.978 Y-0.163 Z0.000 E0.930
G1 X0.986 Y-0.109 Z0.000 E0.930
G1 X0.990 Y-0.055 Z0.000 E0.930
G1 X0.992 Y0.000 Z0.000 E0.930
G1 X0.990 Y0.055 Z0.000 E0.930
G1 X0.986 Y0.109 Z0.000 E0.930
G1 X0.978 Y0.163 Z0.000 E0.930
G1 X0.968 Y0.217 Z0.000 E0.930
G1 X0.955 Y0.270 Z0.000 E0.930
G1 X0.938 Y0.322 Z0.000 E0.930
G1 X0.919 Y0.373 Z0.000 E0.930
G1 X0.897 Y0.423 Z0.000 E0.930
G1 X0.872 Y0.472 Z0.000 E0.930
G1 X0.845 Y0.519 Z0.000 E0.930
G1 X0.815 Y0.565 Z0.000 E0.930
G1 X0.783 Y0.609 Z0.000 E0.930
G1 X0.748 Y0.651 Z0.000 E0.930
G1 X0.711 Y0.692 Z0.000 E0.930
G1 X0.672 Y0.730 Z0.000 E0.930
G1 X0.631 Y0.766 Z0.000 E0.930
G1 X0.587 Y0.799 Z0.000 E0.930
G1 X0.543 Y0.830 Z0.000 E0.930
G1 X0.496 Y0.859 Z0.000 E0.930
G1 X0.448 Y0.885 Z0.000 E0.930
G1 X0.398 Y0.908 Z0.000 E0.930
G1 X0.348 Y0.929 Z0.000 E0.930
G1 X0.296 Y0.947 Z0.000 E0.930
G1 X0.244 Y0.962 Z0.000 E0.930
G1 X0.190 Y0.974 Z0.000 E0.930
G1 X0.136 Y0.983 Z0.000 E0.930
G1 X0.082 Y0.989 Z0.000 E0.930
G1 X0.027 Y0.992 Z0.000 E0.930
G1 X-2.100 Y0.000 Z0.000 E1.969
G1 X-0.031 Y0.998 Z0.000 E0.936
G1 X-0.094 Y0.994 Z0.000 E0.936
G1 X-0.156 Y0.987 Z0.000 E0.936
G1 X-0.218 Y0.975 Z0.000 E0.936
G1 X-0.279 Y0.959 Z0.000 E0.936
G1 X-0.338 Y0.940 Z0.000 E0.936
G1 X-0.397 Y0.917 Z0.000 E0.936
G1 X-0.453 Y0.890 Z0.000 E0.936
G1 X-0.508 Y0.860 Z0.000 E0.936
G1 X-0.561 Y0.826 Z0.000 E0.936
G1 X-0.612 Y0.789 Z0.000 E0.936
G1 X-0.661 Y0.749 Z0.000 E0.936
G1 X-0.706 Y0.706 Z0.000 E0.936
G1 X-0.749 Y0.661 Z0.000 E0.936
G1 X-0.789 Y0.612 Z0.000 E0.936
G1 X-0.826 Y0.561 Z0.000 E0.936
G1 X-0.860 Y0.508 Z0.000 E0.936
G1 X-0.890 Y0.453 Z0.000 E0.936
G1 X-0.917 Y0.397 Z0.000 E0.936
G1 X-0.940 Y0.338 Z0.000 E0.936
G1 X-0.959 Y0.279 Z0.000 E0.936
G1 X-0.975 Y0.218 Z0.000 E0.936
G1 X-0.987 Y0.156 Z0.000 E0.936
G1 X-0.994 Y0.094 Z0.000 E0.936
G1 X-0.998 Y0.031 Z0.000 E0.936
G1 X-0.998 Y-0.031 Z0.000 E0.936
G1 X-0.994 Y-0.094 Z0.000 E0.936
G1 X-0.987 Y-0.156 Z0.000 E0.936
G1 X-0.975 Y-0.218 Z0.000 E0.936
G1 X-0.959 Y-0.279 Z0.000 E0.936
G1 X-0.940 Y-0.338 Z0.000 E0.936
G1 X-0.917 Y-0.397 Z0.000 E0.936
G1 X-0.890 Y-0.453 Z0.000 E0.936
G1 X-0.860 Y-0.508 Z0.000 E0.936
G1 X-0.826 Y-0.561 Z0.000 E0.936
G1 X-0.789 Y-0.612 Z0.000 E0.936
G1 X-0.749 Y-0.661 Z0.000 E0.936
G1 X-0.706 Y-0.706 Z0.000 E0.936
G1 X-0.661 Y-0.749 Z0.000 E0.936
G1 X-0.612 Y-0.789 Z0.000 E0.936
G1 X-0.561 Y-0.826 Z0.000 E0.936
G1 X-0.508 Y-0.860 Z0.000 E0.936
G1 X-0.453 Y-0.890 Z0.000 E0.936
G1 X-0.397 Y-0.917 Z0.000 E0.936
G1 X-0.338 Y-0.940 Z0.000 E0.936
G1 X-0.279 Y-0.959 Z0.000 E0.936
G1 X-0.218 Y-0.975 Z0.000 E0.936
G1 X-0.156 Y-0.987 Z0.000 E0.936
G1 X-0.094 Y-0.994 Z0.000 E0.936
G1 X-0.031 Y-0.998 Z0.000 E0.936
G1 X0.031 Y-0.998 Z0.000 E0.936
G1 X0.094 Y-0.994 Z0.000 E0.936
G1 X0.156 Y-0.987 Z0.000 E0.936
G1 X0.218 Y-0.975 Z0.000 E0.936
G1 X0.279 Y-0.959 Z0.000 E0.936
G1 X0.338 Y-0.940 Z0.000 E0.936
G1 X0.397 Y-0.917 Z0.000 E0.936
G1 X0.453 Y-0.890 Z0.000 E0.936
G1 X0.508 Y-0.860 Z0.000 E0.936
G1 X0.561 Y-0.826 Z0.000 E0.936
G1 X0.612 Y-0.789 Z0.000 E0.936
G1 X0.661 Y-0.749 Z0.000 E0.936
G1 X0.706 Y-0.706 Z0.000 E0.936
G1 X0.749 Y-0.661 Z0.000 E0.936
G1 X0.789 Y-0.612 Z0.000 E0.936
G1 X0.826 Y-0.561 Z0.000 E0.936
G1 X0.860 Y-0.508 Z0.000 E0.936
G1 X0.890 Y-0.453 Z0.000 E0.936
G1 X0.917 Y-0.397 Z0.000 E0.936
G1 X0.940 Y-0.338 Z0.000 E0.936
G1 X0.959 Y-0.279 Z0.000 E0.936
G1 X0.975 Y-0.218 Z0.000 E0.936
G1 X0.987 Y-0.156 Z0.000 E0.936
G1 X0.994 Y-0.094 Z0.000 E0.936
G1 X0.998 Y-0.031 Z0.000 E0.936
G1 X0.998 Y0.031 Z0.000 E0.936
G1 X0.994 Y0.094 Z0.000 E0.936
G1 X0.987 Y0.156 Z0.000 E0.936
G1 X0.975 Y0.218 Z0.000 E0.936
G1 X0.959 Y0.279 Z0.000 E0.936
G1 X0.940 Y0.338 Z0.000 E0.936
G1 X0.917 Y0.397 Z0.000 E0.936
G1 X0.890 Y0.453 Z0.000 E0.936
G1 X0.860 Y0.508 Z0.000 E0.936
G1 X0.826 Y0.561 Z0.000 E0.936
G1 X0.789 Y0.612 Z0.000 E0.936
G1 X0.749 Y0.661 Z0.000 E0.936
G1 X0.706 Y0.706 Z0.000 E0.936
G1 X0.661 Y0.749 Z0.000 E0.936
G1 X0.612 Y0.789 Z0.000 E0.936
G1 X0.561 Y0.826 Z0.000 E0.936
G1 X0.508 Y0.860 Z0.000 E0.936
G1 X0.453 Y0.890 Z0.000 E0.936
G1 X0.397 Y0.917 Z0.000 E0.936
G1 X0.338 Y0.940 Z0.000 E0.936
G1 X0.279 Y0.959 Z0.000 E0.936
G1 X0.218 Y0.975 Z0.000 E0.936
G1 X0.156 Y0.987 Z0.000 E0.936
G1 X0.094 Y0.994 Z0.000 E0.936
G1 X0.031 Y0.998 Z0.000 E0.936
G1 X-2.100 Y0.000 Z0.000 E1.969
G1 X-0.036 Y0.996 Z0.000 E0.934
G1 X-0.108 Y0.991 Z0.000 E0.934
G1 X-0.179 Y0.980 Z0.000 E0.934
G1 X-0.249 Y0.965 Z0.000 E0.934
G1 X-0.318 Y0.944 Z0.000 E0.934
G1 X-0.385 Y0.919 Z0.000 E0.934
G1 X-0.451 Y0.889 Z0.000 E0.934
G1 X-0.514 Y0.854 Z0.000 E0.934
G1 X-0.574 Y0.815 Z0.000 E0.934
G1 X-0.631 Y0.771 Z0.000 E0.934
G1 X-0.685 Y0.723 Z0.000 E0.934
G1 X-0.736 Y0.672 Z0.000 E0.934
G1 X-0.782 Y0.617 Z0.000 E0.934
G1 X-0.825 Y0.559 Z0.000 E0.934
G1 X-0.863 Y0.498 Z0.000 E0.934
G1 X-0.897 Y0.435 Z0.000 E0.934
G1 X-0.926 Y0.369 Z0.000 E0.934
G1 X-0.950 Y0.301 Z0.000 E0.934
G1 X-0.969 Y0.232 Z0.000 E0.934
G1 X-0.983 Y0.161 Z0.000 E0.934
G1 X-0.992 Y0.090 Z0.000 E0.934
G1 X-0.996 Y0.018 Z0.000 E0.934
G1 X-0.995 Y-0.054 Z0.000 E0.934
G1 X-0.988 Y-0.126 Z0.000 E0.934
G1 X-0.977 Y-0.197 Z0.000 E0.934
G1 X-0.960 Y-0.267 Z0.000 E0.934
G1 X-0.938 Y-0.335 Z0.000 E0.934
G1 X-0.912 Y-0.402 Z0.000 E0.934
G1 X-0.880 Y-0.467 Z0.000 E0.934
G1 X-0.844 Y-0.529 Z0.000 E0.934
G1 X-0.804 Y-0.589 Z0.000 E0.934
G1 X-0.759 Y-0.645 Z0.000 E0.934
G1 X-0.711 Y-0.698 Z0.000 E0.934
G1 X-0.659 Y-0.748 Z0.000 E0.934
G1 X-0.603 Y-0.793 Z0.000 E0.934
G1 X-0.544 Y-0.835 Z0.000 E0.934
G1 X-0.483 Y-0.872 Z0.000 E0.934
G1 X-0.418 Y-0.904 Z0.000 E0.934
G1 X-0.352 Y-0.932 Z0.000 E0.934
G1 X-0.284 Y-0.955 Z0.000 E0.934
G1 X-0.214 Y-0.973 Z0.000 E0.934
G1 X-0.143 Y-0.986 Z0.000 E0.934
G1 X-0.072 Y-0.994 Z0.000 E0.934
G1 X0.000 Y-0.996 Z0.000 E0.934
G1 X0.072 Y-0.994 Z0.000 E0.934
G1 X0.143 Y-0.986 Z0.000 E0.934
G1 X0.214 Y-0.973 Z0.000 E0.934
G1 X0.284 Y-0.955 Z0.000 E0.934
G1 X0.352 Y-0.932 Z0.000 E0.934
G1 X0.418 Y-0.904 Z0.000 E0.934
G1 X0.483 Y-0.872 Z0.000 E0.934
G1 X0.544 Y-0.835 Z0.000 E0.934
G1 X0.603 Y-0.793 Z0.000 E0.934
G1 X0.659 Y-0.748 Z0.000 E0.934
G1 X0.711 Y-0.698 Z0.000 E0.934
G1 X0.759 Y-0.645 Z0.000 E0.934
G1 X0.804 Y-0.589 Z0.000 E0.934
G1 X0.844 Y-0.529 Z0.000 E0.934
G1 X0.880 Y-0.467 Z0.000 E0.934
G1 X0.912 Y-0.402 Z0.000 E0.934
G1 X0.938 Y-0.335 Z0.000 E0.934
G1 X0.960 Y-0.267 Z0.000 E0.934
G1 X0.977 Y-0.197 Z0.000 E0.934
G1 X0.988 Y-0.126 Z0.000 E0.934
G1 X0.995 Y-0.054 Z0.000 E0.934
G1 X0.996 Y0.018 Z0.000 E0.934
G1 X0.992 Y0.090 Z0.000 E0.934
G1 X0.983 Y0.161 Z0.000 E0.934
G1 X0.969 Y0.232 Z0.000 E0.934
G1 X0.950 Y0.301 Z0.000 E0.934
G1 X0.926 Y0.369 Z0.000 E0.934
G1 X0.897 Y0.435 Z0.000 E0.934
G1 X0.863 Y0.498 Z0.000 E0.934
G1 X0.825 Y0.559 Z0.000 E0.934
G1 X0.782 Y0.617 Z0.000 E0.934
G1 X0.736 Y0.672 Z0.000 E0.934
G1 X0.685 Y0.723 Z0.000 E0.934
G1 X0.631 Y0.771 Z0.000 E0.934
G1 X0.574 Y0.815 Z0.000 E0.934
G1 X0.514 Y0.854 Z0.000 E0.934
G1 X0.451 Y0.889 Z0.000 E0.934
G1 X0.385 Y0.919 Z0.000 E0.934
G1 X0.318 Y0.944 Z0.000 E0.934
G1 X0.249 Y0.965 Z0.000 E0.934
G1 X0.179 Y0.980 Z0.000 E0.934
G1 X0.108 Y0.991 Z0.000 E0.934
G1 X0.036 Y0.996 Z0.000 E0.934
G1 X-2.100 Y0.000 Z0.000 E1.969
G1 X-0.042 Y0.992 Z0.000 E0.931
G1 X-0.126 Y0.985 Z0.000 E0.931
G1 X-0.209 Y0.971 Z0.000 E0.931
G1 X-0.291 Y0.950 Z0.000 E0.931
G1 X-0.370 Y0.922 Z0.000 E0.931
G1 X-0.447 Y0.887 Z0.000 E0.931
G1 X-0.521 Y0.846 Z0.000 E0.931
G1 X-0.591 Y0.798 Z0.000 E0.931
G1 X-0.656 Y0.746 Z0.000 E0.931
G1 X-0.717 Y0.687 Z0.000 E0.931
G1 X-0.773 Y0.624 Z0.000 E0.931
G1 X-0.823 Y0.556 Z0.000 E0.931
G1 X-0.867 Y0.484 Z0.000 E0.931
G1 X-0.905 Y0.409 Z0.000 E0.931
G1 X-0.936 Y0.331 Z0.000 E0.931
G1 X-0.961 Y0.250 Z0.000 E0.931
G1 X-0.979 Y0.168 Z0.000 E0.931
G1 X-0.990 Y0.084 Z0.000 E0.931
G1 X-0.993 Y-0.000 Z0.000 E0.931
G1 X-0.990 Y-0.084 Z0.000 E0.931
G1 X-0.979 Y-0.168 Z0.000 E0.931
G1 X-0.961 Y-0.250 Z0.000 E0.931
G1 X-0.936 Y-0.331 Z0.000 E0.931
G1 X-0.905 Y-0.409 Z0.000 E0.931
G1 X-0.867 Y-0.484 Z0.000 E0.931
G1 X-0.823 Y-0.556 Z0.000 E0.931
G1 X-0.773 Y-0.624 Z0.000 E0.931
G1 X-0.717 Y-0.687 Z0.000 E0.931
G1 X-0.656 Y-0.746 Z0.000 E0.931
G1 X-0.591 Y-0.798 Z0.000 E0.931
G1 X-0.521 Y-0.846 Z0.000 E0.931
G1 X-0.447 Y-0.887 Z0.000 E0.931
G1 X-0.370 Y-0.922 Z0.000 E0.931
G1 X-0.291 Y-0.950 Z0.000 E0.931
G1 X-0.209 Y-0.971 Z0.000 E0.931
G1 X-0.126 Y-0.985 Z0.000 E0.931
G1 X-0.042 Y-0.992 Z0.000 E0.931
G1 X0.042 Y-0.992 Z0.000 E0.931
G1 X0.126 Y-0.985 Z0.000 E0.931
G1 X0.209 Y-0.971 Z0.000 E0.931
G1 X0.291 Y-0.950 Z0.000 E0.931
G1 X0.370 Y-0.922 Z0.000 E0.931
G1 X0.447 Y-0.887 Z0.000 E0.931
G1 X0.521 Y-0.846 Z0.000 E0.931
G1 X0.591 Y-0.798 Z0.000 E0.931
G1 X0.656 Y-0.746 Z0.000 E0.931
G1 X0.717 Y-0.687 Z0.000 E0.931
G1 X0.773 Y-0.624 Z0.000 E0.931
G1 X0.823 Y-0.556 Z0.000 E0.931
G1 X0.867 Y-0.484 Z0.000 E0.931
G1 X0.905 Y-0.409 Z0.000 E0.931
G1 X0.936 Y-0.331 Z0.000 E0.931
G1 X0.961 Y-0.250 Z0.000 E0.931
G1 X0.979 Y-0.168 Z0.000 E0.931
G1 X0.990 Y-0.084 Z0.000 E0.931
G1 X0.993 Y0.000 Z0.000 E0.931
G1 X0.990 Y0.084 Z0.000 E0.931
G1 X0.979 Y0.168 Z0.000 E0.931
G1 X0.961 Y0.250 Z0.000 E0.931
G1 X0.936 Y0.331 Z0.000 E0.931
G1 X0.905 Y0.409 Z0.000 E0.931
G1 X0.867 Y0.484 Z0.000 E0.931
G1 X0.823 Y0.556 Z0.000 E0.931
G1 X0.773 Y0.624 Z0.000 E0.931
G1 X0.717 Y0.687 Z0.000 E0.931
G1 X0.656 Y0.746 Z0.000 E0.931
G1 X0.591 Y0.798 Z0.000 E0.931
G1 X0.521 Y0.846 Z0.000 E0.931
G1 X0.447 Y0.887 Z0.000 E0.931
G1 X0.370 Y0.922 Z0.000 E0.931
G1 X0.291 Y0.950 Z0.000 E0.931
G1 X0.209 Y0.971 Z0.000 E0.931
G1 X0.126 Y0.985 Z0.000 E0.931
G1 X0.042 Y0.992 Z0.000 E0.931
G1 X-2.100 Y0.000 Z0.000 E1.969
G1 X-0.051 Y0.987 Z0.000 E0.927
G1 X-0.152 Y0.977 Z0.000 E0.927
G1 X-0.252 Y0.956 Z0.000 E0.927
G1 X-0.349 Y0.925 Z0.000 E0.927
G1 X-0.442 Y0.884 Z0.000 E0.927
G1 X-0.530 Y0.834 Z0.000 E0.927
G1 X-0.613 Y0.775 Z0.000 E0.927
G1 X-0.690 Y0.708 Z0.000 E0.927
G1 X-0.759 Y0.633 Z0.000 E0.927
G1 X-0.820 Y0.552 Z0.000 E0.927
G1 X-0.872 Y0.465 Z0.000 E0.927
G1 X-0.916 Y0.372 Z0.000 E0.927
G1 X-0.949 Y0.276 Z0.000 E0.927
G1 X-0.972 Y0.177 Z0.000 E0.927
G1 X-0.985 Y0.076 Z0.000 E0.927
G1 X-0.988 Y-0.025 Z0.000 E0.927
G1 X-0.980 Y-0.127 Z0.000 E0.927
G1 X-0.962 Y-0.227 Z0.000 E0.927
G1 X-0.934 Y-0.325 Z0.000 E0.927
G1 X-0.895 Y-0.419 Z0.000 E0.927
G1 X-0.847 Y-0.509 Z0.000 E0.927
G1 X-0.791 Y-0.593 Z0.000 E0.927
G1 X-0.725 Y-0.671 Z0.000 E0.927
G1 X-0.652 Y-0.742 Z0.000 E0.927
G1 X-0.573 Y-0.806 Z0.000 E0.927
G1 X-0.487 Y-0.860 Z0.000 E0.927
G1 X-0.396 Y-0.906 Z0.000 E0.927
G1 X-0.301 Y-0.942 Z0.000 E0.927
G1 X-0.202 Y-0.967 Z0.000 E0.927
G1 X-0.102 Y-0.983 Z0.000 E0.927
G1 X0.000 Y-0.988 Z0.000 E0.927
G1 X0.102 Y-0.983 Z0.000 E0.927
G1 X0.202 Y-0.967 Z0.000 E0.927
G1 X0.301 Y-0.942 Z0.000 E0.927
G1 X0.396 Y-0.906 Z0.000 E0.927
G1 X0.487 Y-0.860 Z0.000 E0.927
G1 X0.573 Y-0.806 Z0.000 E0.927
G1 X0.652 Y-0.742 Z0.000 E0.927
G1 X0.725 Y-0.671 Z0.000 E0.927
G1 X0.791 Y-0.593 Z0.000 E0.927
G1 X0.847 Y-0.509 Z0.000 E0.927
G1 X0.895 Y-0.419 Z0.000 E0.927
G1 X0.934 Y-0.325 Z0.000 E0.927
G1 X0.962 Y-0.227 Z0.000 E0.927
G1 X0.980 Y-0.127 Z0.000 E0.927
G1 X0.988 Y-0.025 Z0.000 E0.927
G1 X0.985 Y0.076 Z0.000 E0.927
G1 X0.972 Y0.177 Z0.000 E0.927
G1 X0.949 Y0.276 Z0.000 E0.927
G1 X0.916 Y0.372 Z0.000 E0.927
G1 X0.872 Y0.465 Z0.000 E0.927
G1 X0.820 Y0.552 Z0.000 E0.927
G1 X0.759 Y0.633 Z0.000 E0.927
G1 X0.690 Y0.708 Z0.000 E0.927
G1 X0.613 Y0.775 Z0.000 E0.927
G1 X0.530 Y0.834 Z0.000 E0.927
G1 X0.442 Y0.884 Z0.000 E0.927
G1 X0.349 Y0.925 Z0.000 E0.927
G1 X0.252 Y0.956 Z0.000 E0.927
G1 X0.152 Y0.977 Z0.000 E0.927
G1 X0.051 Y0.987 Z0.000 E0.927
G1 X-2.100 Y0.000 Z0.000 E1.969
G1 X-0.064 Y0.979 Z0.000 E0.920
G1 X-0.191 Y0.962 Z0.000 E0.920
G1 X-0.315 Y0.929 Z0.000 E0.920
G1 X-0.434 Y0.880 Z0.000 E0.920
G1 X-0.545 Y0.816 Z0.000 E0.920
G1 X-0.647 Y0.738 Z0.000 E0.920
G1 X-0.738 Y0.647 Z0.000 E0.920
G1 X-0.816 Y0.545 Z0.000 E0.920
G1 X-0.880 Y0.434 Z0.000 E0.920
G1 X-0.929 Y0.315 Z0.000 E0.920
G1 X-0.962 Y0.191 Z0.000 E0.920
G1 X-0.979 Y0.064 Z0.000 E0.920
G1 X-0.979 Y-0.064 Z0.000 E0.920
G1 X-0.962 Y-0.191 Z0.000 E0.920
G1 X-0.929 Y-0.315 Z0.000 E0.920
G1 X-0.880 Y-0.434 Z0.000 E0.920
G1 X-0.816 Y-0.545 Z0.000 E0.920
G1 X-0.738 Y-0.647 Z0.000 E0.920
G1 X-0.647 Y-0.738 Z0.000 E0.920
G1 X-0.545 Y-0.816 Z0.000 E0.920
G1 X-0.434 Y-0.880 Z0.000 E0.920
G1 X-0.315 Y-0.929 Z0.000 E0.920
G1 X-0.191 Y-0.962 Z0.000 E0.920
G1 X-0.064 Y-0.979 Z0.000 E0.920
G1 X0.064 Y-0.979 Z0.000 E0.920
G1 X0.191 Y-0.962 Z0.000 E0.920
G1 X0.315 Y-0.929 Z0.000 E0.920
G1 X0.434 Y-0.880 Z0.000 E0.920
G1 X0.545 Y-0.816 Z0.000 E0.920
G1 X0.647 Y-0.738 Z0.000 E0.920
G1 X0.738 Y-0.647 Z0.000 E0.920
G1 X0.816 Y-0.545 Z0.000 E0.920
G1 X0.880 Y-0.434 Z0.000 E0.920
G1 X0.929 Y-0.315 Z0.000 E0.920
G1 X0.962 Y-0.191 Z0.000 E0.920
G1 X0.979 Y-0.064 Z0.000 E0.920
G1 X0.979 Y0.064 Z0.000 E0.920
G1 X0.962 Y0.191 Z0.000 E0.920
G1 X0.929 Y0.315 Z0.000 E0.920
G1 X0.880 Y0.434 Z0.000 E0.920
G1 X0.816 Y0.545 Z0.000 E0.920
G1 X0.738 Y0.647 Z0.000 E0.920
G1 X0.647 Y0.738 Z0.000 E0.920
G1 X0.545 Y0.816 Z0.000 E0.920
G1 X0.434 Y0.880 Z0.000 E0.920
G1 X0.315 Y0.929 Z0.000 E0.920
G1 X0.191 Y0.962 Z0.000 E0.920
G1 X0.064 Y0.979 Z0.000 E0.920
G1 X-2.100 Y0.000 Z0.000 E1.969
G1 X-0.092 Y0.992 Z0.000 E0.934
G1 X-0.273 Y0.958 Z0.000 E0.934
G1 X-0.444 Y0.892 Z0.000 E0.934
G1 X-0.601 Y0.795 Z0.000 E0.934
G1 X-0.736 Y0.671 Z0.000 E0.934
G1 X-0.847 Y0.525 Z0.000 E0.934
G1 X-0.929 Y0.360 Z0.000 E0.934
G1 X-0.980 Y0.183 Z0.000 E0.934
G1 X-0.996 Y0.000 Z0.000 E0.934
G1 X-0.980 Y-0.183 Z0.000 E0.934
G1 X-0.929 Y-0.360 Z0.000 E0.934
G1 X-0.847 Y-0.525 Z0.000 E0.934
G1 X-0.736 Y-0.671 Z0.000 E0.934
G1 X-0.601 Y-0.795 Z0.000 E0.934
G1 X-0.444 Y-0.892 Z0.000 E0.934
G1 X-0.273 Y-0.958 Z0.000 E0.934
G1 X-0.092 Y-0.992 Z0.000 E0.934
G1 X0.092 Y-0.992 Z0.000 E0.934
G1 X0.273 Y-0.958 Z0.000 E0.934
G1 X0.444 Y-0.892 Z0.000 E0.934
G1 X0.601 Y-0.795 Z0.000 E0.934
G1 X0.736 Y-0.671 Z0.000 E0.934
G1 X0.847 Y-0.525 Z0.000 E0.934
G1 X0.929 Y-0.360 Z0.000 E0.934
G1 X0.980 Y-0.183 Z0.000 E0.934
G1 X0.996 Y-0.000 Z0.000 E0.934
G1 X0.980 Y0.183 Z0.000 E0.934
G1 X0.929 Y0.360 Z0.000 E0.934
G1 X0.847 Y0.525 Z0.000 E0.934
G1 X0.736 Y0.671 Z0.000 E0.934
G1 X0.601 Y0.795 Z0.000 E0.934
G1 X0.444 Y0.892 Z0.000 E0.934
G1 X0.273 Y0.958 Z0.000 E0.934
G1 X0.092 Y0.992 Z0.000 E0.934
G1 X-2.100 Y0.000 Z0.000 E1.969
G1 X-0.147 Y0.973 Z0.000 E0.922
G1 X-0.427 Y0.886 Z0.000 E0.922
G1 X-0.669 Y0.721 Z0.000 E0.922
G1 X-0.852 Y0.492 Z0.000 E0.922
G1 X-0.959 Y0.219 Z0.000 E0.922
G1 X-0.981 Y-0.074 Z0.000 E0.922
G1 X-0.916 Y-0.359 Z0.000 E0.922
G1 X-0.769 Y-0.613 Z0.000 E0.922
G1 X-0.554 Y-0.813 Z0.000 E0.922
G1 X-0.290 Y-0.940 Z0.000 E0.922
G1 X0.000 Y-0.984 Z0.000 E0.922
G1 X0.290 Y-0.940 Z0.000 E0.922
G1 X0.554 Y-0.813 Z0.000 E0.922
G1 X0.769 Y-0.613 Z0.000 E0.922
G1 X0.916 Y-0.359 Z0.000 E0.922
G1 X0.981 Y-0.074 Z0.000 E0.922
G1 X0.959 Y0.219 Z0.000 E0.922
G1 X0.852 Y0.492 Z0.000 E0.922
G1 X0.669 Y0.721 Z0.000 E0.922
G1 X0.427 Y0.886 Z0.000 E0.922
G1 X0.147 Y0.973 Z0.000 E0.922
G1 X-2.100 Y0.000 Z0.000 E1.969
G1 X-0.351 Y0.849 Z0.000 E0.861
G1 X-0.849 Y0.351 Z0.000 E0.861
G1 X-0.849 Y-0.351 Z0.000 E0.861
G1 X-0.351 Y-0.849 Z0.000 E0.861
G1 X0.351 Y-0.849 Z0.000 E0.861
G1 X0.849 Y-0.351 Z0.000 E0.861
G1 X0.849 Y0.351 Z0.000 E0.861
G1 X0.351 Y0.849 Z0.000 E0.861
; Changed extrude rate to: 1.25
; *************************************************************
G1 Z0.800
G1 X24.583 Y0.985 Z0.000 E30.753
G1 X1.004 Y1.023 Z0.000 E1.792
G1 X0.962 Y1.099 Z0.000 E1.826
G1 X0.300 Y1.093 Z0.000 E1.416
G1 X-0.610 Y0.972 Z0.000 E1.435
G1 X-1.251 Y0.806 Z0.000 E1.860
G1 X-1.271 Y0.720 Z0.000 E1.826
G1 X-0.690 Y0.805 Z0.000 E1.326
G1 X0.120 Y1.038 Z0.000 E1.306
G1 X0.658 Y1.273 Z0.000 E1.792
G1 X0.595 Y1.334 Z0.000 E1.826
G1 X-0.035 Y1.133 Z0.000 E1.416
G1 X-0.869 Y0.749 Z0.000 E1.435
G1 X-1.433 Y0.401 Z0.000 E1.860
G1 X-1.427 Y0.313 Z0.000 E1.826
G1 X-0.897 Y0.566 Z0.000 E1.326
G1 X-0.191 Y1.027 Z0.000 E1.306
G1 X0.253 Y1.411 Z0.000 E1.792
G1 X0.176 Y1.450 Z0.000 E1.826
G1 X-0.368 Y1.072 Z0.000 E1.416
G1 X-1.052 Y0.460 Z0.000 E1.435
G1 X-1.487 Y-0.039 Z0.000 E1.860
G1 X-1.456 Y-0.121 Z0.000 E1.826
G1 X-1.024 Y0.277 Z0.000 E1.326
G1 X-0.486 Y0.925 Z0.000 E1.306
G1 X-0.174 Y1.423 Z0.000 E1.792
G1 X-0.259 Y1.438 Z0.000 E1.826
G1 X-0.667 Y0.916 Z0.000 E1.416
G1 X-1.140 Y0.129 Z0.000 E1.435
G1 X-1.410 Y-0.476 Z0.000 E1.860
G1 X-1.355 Y-0.545 Z0.000 E1.826
G1 X-1.060 Y-0.037 Z0.000 E1.326
G1 X-0.737 Y0.741 Z0.000 E1.306
G1 X-0.585 Y1.308 Z0.000 E1.792
G1 X-0.672 Y1.297 Z0.000 E1.826
G1 X-0.908 Y0.679 Z0.000 E1.416
G1 X-1.128 Y-0.212 Z0.000 E1.435
G1 X-1.207 Y-0.870 Z0.000 E1.860
G1 X-1.134 Y-0.920 Z0.000 E1.826
G1 X-1.002 Y-0.348 Z0.000 E1.326
G1 X-0.922 Y0.491 Z0.000 E1.306
G1 X-0.945 Y1.078 Z0.000 E1.792
G1 X-1.024 Y1.042 Z0.000 E1.826
G1 X-1.067 Y0.381 Z0.000 E1.416
G1 X-1.015 Y-0.535 Z0.000 E1.435
G1 X-0.897 Y-1.187 Z0.000 E1.860
G1 X-0.813 Y-1.214 Z0.000 E1.826
G1 X-0.855 Y-0.628 Z0.000 E1.326
G1 X-1.026 Y0.197 Z0.000 E1.306
G1 X-1.221 Y0.751 Z0.000 E1.792
G1 X-1.286 Y0.694 Z0.000 E1.826
G1 X-1.132 Y0.049 Z0.000 E1.416
G1 X-0.812 Y-0.811 Z0.000 E1.435
G1 X-0.507 Y-1.399 Z0.000 E1.860
G1 X-0.419 Y-1.400 Z0.000 E1.826
G1 X-0.632 Y-0.852 Z0.000 E1.326
G1 X-1.039 Y-0.114 Z0.000 E1.306
G1 X-1.388 Y0.358 Z0.000 E1.792
G1 X-1.433 Y0.284 Z0.000 E1.826
G1 X-1.096 Y-0.287 Z0.000 E1.416
G1 X-0.537 Y-1.014 Z0.000 E1.435
G1 X-0.072 Y-1.486 Z0.000 E1.860
G1 X0.012 Y-1.461 Z0.000 E1.826
G1 X-0.352 Y-1.000 Z0.000 E1.326
G1 X-0.959 Y-0.415 Z0.000 E1.306
G1 X-1.432 Y-0.067 Z0.000 E1.792
G1 X-1.453 Y-0.151 Z0.000 E1.826
G1 X-0.963 Y-0.597 Z0.000 E1.416
G1 X-0.214 Y-1.127 Z0.000 E1.435
G1 X0.369 Y-1.441 Z0.000 E1.860
G1 X0.442 Y-1.392 Z0.000 E1.826
G1 X-0.042 Y-1.060 Z0.000 E1.326
G1 X-0.794 Y-0.679 Z0.000 E1.306
G1 X-1.348 Y-0.486 Z0.000 E1.792
G1 X-1.344 Y-0.573 Z0.000 E1.826
G1 X-0.744 Y-0.854 Z0.000 E1.416
G1 X0.128 Y-1.141 Z0.000 E1.435
G1 X0.777 Y-1.269 Z0.000 E1.860
G1 X0.833 Y-1.200 Z0.000 E1.826
G1 X0.272 Y-1.025 Z0.000 E1.326
G1 X-0.558 Y-0.883 Z0.000 E1.306
G1 X-1.145 Y-0.862 Z0.000 E1.792
G1 X-1.115 Y-0.944 Z0.000 E1.826
G1 X-0.460 Y-1.036 Z0.000 E1.416
G1 X0.458 Y-1.052 Z0.000 E1.435
G1 X1.117 Y-0.983 Z0.000 E1.860
G1 X1.150 Y-0.901 Z0.000 E1.826
G1 X0.562 Y-0.899 Z0.000 E1.326
G1 X-0.273 Y-1.009 Z0.000 E1.306
G1 X-0.840 Y-1.161 Z0.000 E1.792
G1 X-0.788 Y-1.230 Z0.000 E1.826
G1 X-0.134 Y-1.125 Z0.000 E1.416
G1 X0.748 Y-0.871 Z0.000 E1.435
G1 X1.357 Y-0.610 Z0.000 E1.860
G1 X1.364 Y-0.522 Z0.000 E1.826
G1 X0.802 Y-0.694 Z0.000 E1.326
G1 X0.036 Y-1.044 Z0.000 E1.306
G1 X-0.461 Y-1.357 Z0.000 E1.792
G1 X-0.390 Y-1.408 Z0.000 E1.826
G1 X0.204 Y-1.115 Z0.000 E1.416
G1 X0.971 Y-0.611 Z0.000 E1.435
G1 X1.477 Y-0.183 Z0.000 E1.860
G1 X1.458 Y-0.097 Z0.000 E1.826
G1 X0.971 Y-0.426 Z0.000 E1.326
G1 X0.342 Y-0.987 Z0.000 E1.306
G1 X-0.040 Y-1.433 Z0.000 E1.792
G1 X0.042 Y-1.460 Z0.000 E1.826
G1 X0.523 Y-1.005 Z0.000 E1.416
G1 X1.108 Y-0.298 Z0.000 E1.435
G1 X1.465 Y0.260 Z0.000 E1.860
G1 X1.421 Y0.337 Z0.000 E1.826
G1 X1.054 Y-0.121 Z0.000 E1.326
G1 X0.618 Y-0.842 Z0.000 E1.306
G1 X0.384 Y-1.381 Z0.000 E1.792
G1 X0.471 Y-1.383 Z0.000 E1.826
G1 X0.796 Y-0.806 Z0.000 E1.416
G1 X1.147 Y0.042 Z0.000 E1.435
G1 X1.323 Y0.680 Z0.000 E1.860
G1 X1.259 Y0.741 Z0.000 E1.826
G1 X1.042 Y0.195 Z0.000 E1.326
G1 X0.839 Y-0.623 Z0.000 E1.306
G1 X0.774 Y-1.207 Z0.000 E1.792
G1 X0.858 Y-1.183 Z0.000 E1.826
G1 X0.999 Y-0.536 Z0.000 E1.416
G1 X1.084 Y0.378 Z0.000 E1.435
G1 X1.064 Y1.040 Z0.000 E1.860
G1 X0.985 Y1.079 Z0.000 E1.826
G1 X0.939 Y0.493 Z0.000 E1.326
G1 X0.985 Y-0.348 Z0.000 E1.306
G1 X1.095 Y-0.925 Z0.000 E1.792
G1 X1.168 Y-0.877 Z0.000 E1.826
G1 X1.112 Y-0.218 Z0.000 E1.416
G1 X0.924 Y0.681 Z0.000 E1.435
G1 X0.710 Y1.308 Z0.000 E1.860
G1 X0.623 Y1.322 Z0.000 E1.826
G1 X0.752 Y0.748 Z0.000 E1.326
G1 X1.044 Y-0.042 Z0.000 E1.306
G1 X1.319 Y-0.561 Z0.000 E1.792
G1 X1.375 Y-0.494 Z0.000 E1.826
G1 X1.127 Y0.120 Z0.000 E1.416
G1 X0.682 Y0.923 Z0.000 E1.435
G1 X0.293 Y1.459 Z0.000 E1.860
G1 X0.206 Y1.446 Z0.000 E1.826
G1 X0.498 Y0.937 Z0.000 E1.326
G1 X1.010 Y0.268 Z0.000 E1.306
G1 X1.426 Y-0.147 Z0.000 E1.792
G1 X1.459 Y-0.067 Z0.000 E1.826
G1 X1.041 Y0.447 Z0.000 E1.416
G1 X0.380 Y1.083 Z0.000 E1.435
G1 X-0.150 Y1.480 Z0.000 E1.860
G1 X-0.230 Y1.443 Z0.000 E1.826
G1 X0.199 Y1.042 Z0.000 E1.326
G1 X0.886 Y0.553 Z0.000 E1.306
G1 X1.406 Y0.279 Z0.000 E1.792
G1 X1.414 Y0.366 Z0.000 E1.826
G1 X0.863 Y0.734 Z0.000 E1.416
G1 X0.044 Y1.147 Z0.000 E1.435
G1 X-0.580 Y1.370 Z0.000 E1.860
G1 X-0.645 Y1.311 Z0.000 E1.826
G1 X-0.116 Y1.054 Z0.000 E1.326
G1 X0.684 Y0.790 Z0.000 E1.306
G1 X1.261 Y0.681 Z0.000 E1.792
G1 X1.243 Y0.767 Z0.000 E1.826
G1 X0.609 Y0.956 Z0.000 E1.416
G1 X-0.296 Y1.109 Z0.000 E1.435
G1 X-0.958 Y1.139 Z0.000 E1.860
G1 X-1.003 Y1.062 Z0.000 E1.826
; Changed extrude rate to: 0.9375
; *************************************************************
G1 X-1.022 Y0.945 Z0.000 E1.305
G1 X-0.020 Y0.997 Z0.000 E0.935
G1 X-0.060 Y0.995 Z0.000 E0.935
G1 X-0.100 Y0.992 Z0.000 E0.935
G1 X-0.140 Y0.987 Z0.000 E0.935
G1 X-0.180 Y0.981 Z0.000 E0.935
G1 X-0.219 Y0.973 Z0.000 E0.935
G1 X-0.258 Y0.963 Z0.000 E0.935
G1 X-0.297 Y0.952 Z0.000 E0.935
G1 X-0.335 Y0.939 Z0.000 E0.935
G1 X-0.372 Y0.925 Z0.000 E0.935
G1 X-0.409 Y0.909 Z0.000 E0.935
G1 X-0.446 Y0.892 Z0.000 E0.935
G1 X-0.481 Y0.874 Z0.000 E0.935
G1 X-0.516 Y0.853 Z0.000 E0.935
G1 X-0.550 Y0.832 Z0.000 E0.935
G1 X-0.583 Y0.809 Z0.000 E0.935
G1 X-0.615 Y0.785 Z0.000 E0.935
G1 X-0.646 Y0.760 Z0.000 E0.935
G1 X-0.676 Y0.733 Z0.000 E0.935
G1 X-0.705 Y0.705 Z0.000 E0.935
G1 X-0.733 Y0.676 Z0.000 E0.935
G1 X-0.760 Y0.646 Z0.000 E0.935
G1 X-0.785 Y0.615 Z0.000 E0.935
G1 X-0.809 Y0.583 Z0.000 E0.935
G1 X-0.832 Y0.550 Z0.000 E0.935
G1 X-0.853 Y0.516 Z0.000 E0.935
G1 X-0.874 Y0.481 Z0.000 E0.935
G1 X-0.892 Y0.446 Z0.000 E0.935
G1 X-0.909 Y0.409 Z0.000 E0.935
G1 X-0.925 Y0.372 Z0.000 E0.935
G1 X-0.939 Y0.335 Z0.000 E0.935
G1 X-0.952 Y0.297 Z0.000 E0.935
G1 X-0.963 Y0.258 Z0.000 E0.935
G1 X-0.973 Y0.219 Z0.000 E0.935
G1 X-0.981 Y0.180 Z0.000 E0.935
G1 X-0.987 Y0.140 Z0.000 E0.935
G1 X-0.992 Y0.100 Z0.000 E0.935
G1 X-0.995 Y0.060 Z0.000 E0.935
G1 X-0.997 Y0.020 Z0.000 E0.935
G1 X-0.997 Y-0.020 Z0.000 E0.935
G1 X-0.995 Y-0.060 Z0.000 E0.935
G1 X-0.992 Y-0.100 Z0.000 E0.935
G1 X-0.987 Y-0.140 Z0.000 E0.935
G1 X-0.981 Y-0.180 Z0.000 E0.935
G1 X-0.973 Y-0.219 Z0.000 E0.935
G1 X-0.963 Y-0.258 Z0.000 E0.935
G1 X-0.952 Y-0.297 Z0.000 E0.935
G1 X-0.939 Y-0.335 Z0.000 E0.935
G1 X-0.925 Y-0.372 Z0.000 E0.935
G1 X-0.909 Y-0.409 Z0.000 E0.935
G1 X-0.892 Y-0.446 Z0.000 E0.935
G1 X-0.874 Y-0.481 Z0.000 E0.935
G1 X-0.853 Y-0.516 Z0.000 E0.935
G1 X-0.832 Y-0.550 Z0.000 E0.935
G1 X-0.809 Y-0.583 Z0.000 E0.935
G1 X-0.785 Y-0.615 Z0.000 E0.935
G1 X-0.760 Y-0.646 Z0.000 E0.935
G1 X-0.733 Y-0.676 Z0.000 E0.935
G1 X-0.705 Y-0.705 Z0.000 E0.935
G1 X-0.676 Y-0.733 Z0.000 E0.935
G1 X-0.646 Y-0.760 Z0.000 E0.935
G1 X-0.615 Y-0.785 Z0.000 E0.935
G1 X-0.583 Y-0.809 Z0.000 E0.935
G1 X-0.550 Y-0.832 Z0.000 E0.935
G1 X-0.516 Y-0.853 Z0.000 E0.935
G1 X-0.481 Y-0.874 Z0.000 E0.935
G1 X-0.446 Y-0.892 Z0.000 E0.935
G1 X-0.409 Y-0.909 Z0.000 E0.935
G1 X-0.372 Y-0.925 Z0.000 E0.935
G1 X-0.335 Y-0.939 Z0.000 E0.935
G1 X-0.297 Y-0.952 Z0.000 E0.935
G1 X-0.258 Y-0.963 Z0.000 E0.935
G1 X-0.219 Y-0.973 Z0.000 E0.935
G1 X-0.180 Y-0.981 Z0.000 E0.935
G1 X-0.140 Y-0.987 Z0.000 E0.935
G1 X-0.100 Y-0.992 Z0.000 E0.935
G1 X-0.060 Y-0.995 Z0.000 E0.935
G1 X-0.020 Y-0.997 Z0.000 E0.935
G1 X0.020 Y-0.997 Z0.000 E0.935
G1 X0.060 Y-0.995 Z0.000 E0.935
G1 X0.100 Y-0.992 Z0.000 E0.935
G1 X0.140 Y-0.987 Z0.000 E0.935
G1 X0.180 Y-0.981 Z0.000 E0.935
G1 X0.219 Y-0.973 Z0.000 E0.935
G1 X0.258 Y-0.963 Z0.000 E0.935
G1 X0.297 Y-0.952 Z0.000 E0.935
G1 X0.335 Y-0.939 Z0.000 E0.935
G1 X0.372 Y-0.925 Z0.000 E0.935
G1 X0.409 Y-0.909 Z0.000 E0.935
G1 X0.446 Y-0.892 Z0.000 E0.935
G1 X0.481 Y-0.874 Z0.000 E0.935
G1 X0.516 Y-0.853 Z0.000 E0.935
G1 X0.550 Y-0.832 Z0.000 E0.935
G1 X0.583 Y-0.809 Z0.000 E0.935
G1 X0.615 Y-0.785 Z0.000 E0.935
G1 X0.646 Y-0.760 Z0.000 E0.935
G1 X0.676 Y-0.733 Z0.000 E0.935
G1 X0.705 Y-0.705 Z0.000 E0.935
G1 X0.733 Y-0.676 Z0.000 E0.935
G1 X0.760 Y-0.646 Z0.000 E0.935
G1 X0.785 Y-0.615 Z0.000 E0.935
G1 X0.809 Y-0.583 Z0.000 E0.935
G1 X0.832 Y-0.550 Z0.000 E0.935
G1 X0.853 Y-0.516 Z0.000 E0.935
G1 X0.874 Y-0.481 Z0.000 E0.935
G1 X0.892 Y-0.446 Z0.000 E0.935
G1 X0.909 Y-0.409 Z0.000 E0.935
G1 X0.925 Y-0.372 Z0.000 E0.935
G1 X0.939 Y-0.335 Z0.000 E0.935
G1 X0.952 Y-0.297 Z0.000 E0.935
G1 X0.963 Y-0.258 Z0.000 E0.935
G1 X0.973 Y-0.219 Z0.000 E0.935
G1 X0.981 Y-0.180 Z0.000 E0.935
G1 X0.987 Y-0.140 Z0.000 E0.935
G1 X0.992 Y-0.100 Z0.000 E0.935
G1 X0.995 Y-0.060 Z0.000 E0.935
G1 X0.997 Y-0.020 Z0.000 E0.935
G1 X0.997 Y0.020 Z0.000 E0.935
G1 X0.995 Y0.060 Z0.000 E0.935
G1 X0.992 Y0.100 Z0.000 E0.935
G1 X0.987 Y0.140 Z0.000 E0.935
G1 X0.981 Y0.180 Z0.000 E0.935
G1 X0.973 Y0.219 Z0.000 E0.935
G1 X0.963 Y0.258 Z0.000 E0.935
G1 X0.952 Y0.297 Z0.000 E0.935
G1 X0.939 Y0.335 Z0.000 E0.935
G1 X0.925 Y0.372 Z0.000 E0.935
G1 X0.909 Y0.409 Z0.000 E0.935
G1 X0.892 Y0.446 Z0.000 E0.935
G1 X0.874 Y0.481 Z0.000 E0.935
G1 X0.853 Y0.516 Z0.000 E0.935
G1 X0.832 Y0.550 Z0.000 E0.935
G1 X0.809 Y0.583 Z0.000 E0.935
G1 X0.785 Y0.615 Z0.000 E0.935
G1 X0.760 Y0.646 Z0.000 E0.935
G1 X0.733 Y0.676 Z0.000 E0.935
G1 X0.705 Y0.705 Z0.000 E0.935
G1 X0.676 Y0.733 Z0.000 E0.935
G1 X0.646 Y0.760 Z0.000 E0.935
G1 X0.615 Y0.785 Z0.000 E0.935
G1 X0.583 Y0.809 Z0.000 E0.935
G1 X0.550 Y0.832 Z0.000 E0.935
G1 X0.516 Y0.853 Z0.000 E0.935
G1 X0.481 Y0.874 Z0.000 E0.935
G1 X0.446 Y0.892 Z0.000 E0.935
G1 X0.409 Y0.909 Z0.000 E0.935
G1 X0.372 Y0.925 Z0.000 E0.935
G1 X0.335 Y0.939 Z0.000 E0.935
G1 X0.297 Y0.952 Z0.000 E0.935
G1 X0.258 Y0.963 Z0.000 E0.935
G1 X0.219 Y0.973 Z0.000 E0.935
G1 X0.180 Y0.981 Z0.000 E0.935
G1 X0.140 Y0.987 Z0.000 E0.935
G1 X0.100 Y0.992 Z0.000 E0.935
G1 X0.060 Y0.995 Z0.000 E0.935
G1 X0.020 Y0.997 Z0.000 E0.935
G1 X-2.100 Y-0.000 Z0.000 E1.969
G1 X-0.022 Y0.995 Z0.000 E0.933
G1 X-0.066 Y0.993 Z0.000 E0.933
G1 X-0.109 Y0.990 Z0.000 E0.933
G1 X-0.153 Y0.984 Z0.000 E0.933
G1 X-0.196 Y0.976 Z0.000 E0.933
G1 X-0.238 Y0.967 Z0.000 E0.933
G1 X-0.281 Y0.955 Z0.000 E0.933
G1 X-0.322 Y0.942 Z0.000 E0.933
G1 X-0.363 Y0.927 Z0.000 E0.933
G1 X-0.404 Y0.910 Z0.000 E0.933
G1 X-0.443 Y0.892 Z0.000 E0.933
G1 X-0.482 Y0.871 Z0.000 E0.933
G1 X-0.520 Y0.849 Z0.000 E0.933
G1 X-0.557 Y0.826 Z0.000 E0.933
G1 X-0.592 Y0.800 Z0.000 E0.933
G1 X-0.627 Y0.774 Z0.000 E0.933
G1 X-0.660 Y0.745 Z0.000 E0.933
G1 X-0.692 Y0.716 Z0.000 E0.933
G1 X-0.723 Y0.684 Z0.000 E0.933
G1 X-0.752 Y0.652 Z0.000 E0.933
G1 X-0.780 Y0.618 Z0.000 E0.933
G1 X-0.807 Y0.583 Z0.000 E0.933
G1 X-0.832 Y0.547 Z0.000 E0.933
G1 X-0.855 Y0.510 Z-0.000 E0.933
G1 X-0.876 Y0.472 Z0.000 E0.933
G1 X-0.896 Y0.433 Z0.000 E0.933
G1 X-0.915 Y0.394 Z0.000 E0.933
G1 X-0.931 Y0.353 Z0.000 E0.933
G1 X-0.946 Y0.312 Z0.000 E0.933
G1 X-0.958 Y0.270 Z0.000 E0.933
G1 X-0.969 Y0.228 Z0.000 E0.933
G1 X-0.978 Y0.185 Z0.000 E0.933
G1 X-0.986 Y0.142 Z0.000 E0.933
G1 X-0.991 Y0.098 Z0.000 E0.933
G1 X-0.994 Y0.055 Z0.000 E0.933
G1 X-0.996 Y0.011 Z0.000 E0.933
G1 X-0.995 Y-0.033 Z0.000 E0.933
G1 X-0.993 Y-0.076 Z0.000 E0.933
G1 X-0.988 Y-0.120 Z0.000 E0.933
G1 X-0.982 Y-0.163 Z0.000 E0.933
G1 X-0.974 Y-0.206 Z0.000 E0.933
G1 X-0.964 Y-0.249 Z0.000 E0.933
G1 X-0.952 Y-0.291 Z0.000 E0.933
G1 X-0.938 Y-0.333 Z0.000 E0.933
G1 X-0.923 Y-0.373 Z0.000 E0.933
G1 X-0.906 Y-0.414 Z0.000 E0.933
G1 X-0.887 Y-0.453 Z0.000 E0.933
G1 X-0.866 Y-0.492 Z-0.000 E0.933
G1 X-0.843 Y-0.529 Z0.000 E0.933
G1 X-0.819 Y-0.566 Z0.000 E0.933
G1 X-0.794 Y-0.601 Z0.000 E0.933
G1 X-0.767 Y-0.635 Z0.000 E0.933
G1 X-0.738 Y-0.668 Z0.000 E0.933
G1 X-0.708 Y-0.700 Z0.000 E0.933
G1 X-0.676 Y-0.731 Z0.000 E0.933
G1 X-0.644 Y-0.760 Z0.000 E0.933
G1 X-0.610 Y-0.787 Z0.000 E0.933
G1 X-0.575 Y-0.813 Z0.000 E0.933
G1 X-0.538 Y-0.838 Z0.000 E0.933
G1 X-0.501 Y-0.860 Z-0.000 E0.933
G1 X-0.463 Y-0.882 Z0.000 E0.933
G1 X-0.424 Y-0.901 Z0.000 E0.933
G1 X-0.384 Y-0.919 Z0.000 E0.933
G1 X-0.343 Y-0.935 Z0.000 E0.933
G1 X-0.301 Y-0.949 Z0.000 E0.933
G1 X-0.259 Y-0.961 Z0.000 E0.933
G1 X-0.217 Y-0.972 Z0.000 E0.933
G1 X-0.174 Y-0.980 Z0.000 E0.933
G1 X-0.131 Y-0.987 Z0.000 E0.933
G1 X-0.087 Y-0.992 Z0.000 E0.933
G1 X-0.044 Y-0.995 Z0.000 E0.933
G1 X-0.000 Y-0.996 Z0.000 E0.933
G1 X0.044 Y-0.995 Z0.000 E0.933
G1 X0.087 Y-0.992 Z0.000 E0.933
G1 X0.131 Y-0.987 Z0.000 E0.933
G1 X0.174 Y-0.980 Z0.000 E0.933
G1 X0.217 Y-0.972 Z0.000 E0.933
G1 X0.259 Y-0.961 Z0.000 E0.933
G1 X0.301 Y-0.949 Z0.000 E0.933
G1 X0.343 Y-0.935 Z0.000 E0.933
G1 X0.384 Y-0.919 Z0.000 E0.933
G1 X0.424 Y-0.901 Z0.000 E0.933
G1 X0.463 Y-0.882 Z0.000 E0.933
G1 X0.501 Y-0.860 Z-0.000 E0.933
G1 X0.538 Y-0.838 Z0.000 E0.933
G1 X0.575 Y-0.813 Z0.000 E0.933
G1 X0.610 Y-0.787 Z0.000 E0.933
G1 X0.644 Y-0.760 Z0.000 E0.933
G1 X0.676 Y-0.731 Z0.000 E0.933
G1 X0.708 Y-0.700 Z0.000 E0.933
G1 X0.738 Y-0.668 Z0.000 E0.933
G1 X0.767 Y-0.635 Z0.000 E0.933
G1 X0.794 Y-0.601 Z0.000 E0.933
G1 X0.819 Y-0.566 Z0.000 E0.933
G1 X0.843 Y-0.529 Z0.000 E0.933
G1 X0.866 Y-0.492 Z0.000 E0.933
G1 X0.887 Y-0.453 Z0.000 E0.933
G1 X0.906 Y-0.414 Z0.000 E0.933
G1 X0.923 Y-0.373 Z0.000 E0.933
G1 X0.938 Y-0.333 Z0.000 E0.933
G1 X0.952 Y-0.291 Z0.000 E0.933
G1 X0.964 Y-0.249 Z0.000 E0.933
G1 X0.974 Y-0.206 Z0.000 E0.933
G1 X0.982 Y-0.163 Z0.000 E0.933
G1 X0.988 Y-0.120 Z0.000 E0.933
G1 X0.993 Y-0.076 Z0.000 E0.933
G1 X0.995 Y-0.033 Z0.000 E0.933
G1 X0.996 Y0.011 Z0.000 E0.933
G1 X0.994 Y0.055 Z0.000 E0.933
G1 X0.991 Y0.098 Z0.000 E0.933
G1 X0.986 Y0.142 Z0.000 E0.933
G1 X0.978 Y0.185 Z0.000 E0.933
G1 X0.969 Y0.228 Z0.000 E0.933
G1 X0.958 Y0.270 Z0.000 E0.933
G1 X0.946 Y0.312 Z0.000 E0.933
G1 X0.931 Y0.353 Z0.000 E0.933
G1 X0.915 Y0.394 Z0.000 E0.933
G1 X0.896 Y0.433 Z0.000 E0.933
G1 X0.876 Y0.472 Z0.000 E0.933
G1 X0.855 Y0.510 Z0.000 E0.933
G1 X0.832 Y0.547 Z0.000 E0.933
G1 X0.807 Y0.583 Z0.000 E0.933
G1 X0.780 Y0.618 Z0.000 E0.933
G1 X0.752 Y0.652 Z0.000 E0.933
G1 X0.723 Y0.684 Z0.000 E0.933
G1 X0.692 Y0.716 Z0.000 E0.933
G1 X0.660 Y0.745 Z0.000 E0.933
G1 X0.627 Y0.774 Z0.000 E0.933
G1 X0.592 Y0.800 Z0.000 E0.933
G1 X0.557 Y0.826 Z0.000 E0.933
G1 X0.520 Y0.849 Z0.000 E0.933
G1 X0.482 Y0.871 Z0.000 E0.933
G1 X0.443 Y0.892 Z0.000 E0.933
G1 X0.404 Y0.910 Z0.000 E0.933
G1 X0.363 Y0.927 Z0.000 E0.933
G1 X0.322 Y0.942 Z0.000 E0.933
G1 X0.281 Y0.955 Z0.000 E0.933
G1 X0.238 Y0.967 Z0.000 E0.933
G1 X0.196 Y0.976 Z0.000 E0.933
G1 X0.153 Y0.984 Z0.000 E0.933
G1 X0.109 Y0.990 Z0.000 E0.933
G1 X0.066 Y0.993 Z0.000 E0.933
G1 X0.022 Y0.995 Z0.000 E0.933
G1 X-2.100 Y0.000 Z0.000 E1.969
G1 X-0.024 Y0.993 Z0.000 E0.932
G1 X-0.072 Y0.991 Z0.000 E0.932
G1 X-0.120 Y0.986 Z0.000 E0.932
G1 X-0.167 Y0.980 Z0.000 E0.932
G1 X-0.214 Y0.970 Z0.000 E0.932
G1 X-0.261 Y0.959 Z0.000 E0.932
G1 X-0.307 Y0.945 Z0.000 E0.932
G1 X-0.352 Y0.929 Z0.000 E0.932
G1 X-0.397 Y0.911 Z0.000 E0.932
G1 X-0.440 Y0.891 Z0.000 E0.932
G1 X-0.483 Y0.868 Z0.000 E0.932
G1 X-0.524 Y0.844 Z0.000 E0.932
G1 X-0.564 Y0.818 Z0.000 E0.932
G1 X-0.603 Y0.790 Z0.000 E0.932
G1 X-0.641 Y0.760 Z0.000 E0.932
G1 X-0.677 Y0.728 Z0.000 E0.932
G1 X-0.711 Y0.694 Z0.000 E0.932
G1 X-0.744 Y0.659 Z0.000 E0.932
G1 X-0.775 Y0.622 Z0.000 E0.932
G1 X-0.804 Y0.584 Z0.000 E0.932
G1 X-0.831 Y0.545 Z0.000 E0.932
G1 X-0.857 Y0.504 Z-0.000 E0.932
G1 X-0.880 Y0.462 Z0.000 E0.932
G1 X-0.901 Y0.419 Z0.000 E0.932
G1 X-0.920 Y0.375 Z0.000 E0.932
G1 X-0.937 Y0.330 Z0.000 E0.932
G1 X-0.952 Y0.284 Z0.000 E0.932
G1 X-0.965 Y0.238 Z0.000 E0.932
G1 X-0.975 Y0.191 Z0.000 E0.932
G1 X-0.983 Y0.144 Z0.000 E0.932
G1 X-0.989 Y0.096 Z0.000 E0.932
G1 X-0.993 Y0.048 Z0.000 E0.932
G1 X-0.994 Y0.000 Z0.000 E0.932
G1 X-0.993 Y-0.048 Z0.000 E0.932
G1 X-0.989 Y-0.096 Z0.000 E0.932
G1 X-0.983 Y-0.144 Z0.000 E0.932
G1 X-0.975 Y-0.191 Z0.000 E0.932
G1 X-0.965 Y-0.238 Z0.000 E0.932
G1 X-0.952 Y-0.284 Z0.000 E0.932
G1 X-0.937 Y-0.330 Z0.000 E0.932
G1 X-0.920 Y-0.375 Z0.000 E0.932
G1 X-0.901 Y-0.419 Z0.000 E0.932
G1 X-0.880 Y-0.462 Z0.000 E0.932
G1 X-0.857 Y-0.504 Z-0.000 E0.932
G1 X-0.831 Y-0.545 Z0.000 E0.932
G1 X-0.804 Y-0.584 Z0.000 E0.932
G1 X-0.775 Y-0.622 Z0.000 E0.932
G1 X-0.744 Y-0.659 Z0.000 E0.932
G1 X-0.711 Y-0.694 Z0.000 E0.932
G1 X-0.677 Y-0.728 Z0.000 E0.932
G1 X-0.641 Y-0.760 Z0.000 E0.932
G1 X-0.603 Y-0.790 Z0.000 E0.932
G1 X-0.564 Y-0.818 Z0.000 E0.932
G1 X-0.524 Y-0.844 Z0.000 E0.932
G1 X-0.483 Y-0.868 Z-0.000 E0.932
G1 X-0.440 Y-0.891 Z0.000 E0.932
G1 X-0.397 Y-0.911 Z0.000 E0.932
G1 X-0.352 Y-0.929 Z0.000 E0.932
G1 X-0.307 Y-0.945 Z0.000 E0.932
G1 X-0.261 Y-0.959 Z0.000 E0.932
G1 X-0.214 Y-0.970 Z0.000 E0.932
G1 X-0.167 Y-0.980 Z0.000 E0.932
G1 X-0.120 Y-0.986 Z0.000 E0.932
G1 X-0.072 Y-0.991 Z0.000 E0.932
G1 X-0.024 Y-0.993 Z0.000 E0.932
G1 X0.024 Y-0.993 Z0.000 E0.932
G1 X0.072 Y-0.991 Z0.000 E0.932
G1 X0.120 Y-0.986 Z0.000 E0.932
G1 X0.167 Y-0.980 Z0.000 E0.932
G1 X0.214 Y-0.970 Z0.000 E0.932
G1 X0.261 Y-0.959 Z0.000 E0.932
G1 X0.307 Y-0.945 Z0.000 E0.932
G1 X0.352 Y-0.929 Z0.000 E0.932
G1 X0.397 Y-0.911 Z0.000 E0.932
G1 X0.440 Y-0.891 Z0.000 E0.932
G1 X0.483 Y-0.868 Z-0.000 E0.932
G1 X0.524 Y-0.844 Z0.000 E0.932
G1 X0.564 Y-0.818 Z0.000 E0.932
G1 X0.603 Y-0.790 Z0.000 E0.932
G1 X0.641 Y-0.760 Z0.000 E0.932
G1 X0.677 Y-0.728 Z0.000 E0.932
G1 X0.711 Y-0.694 Z0.000 E0.932
G1 X0.744 Y-0.659 Z0.000 E0.932
G1 X0.775 Y-0.622 Z0.000 E0.932
G1 X0.804 Y-0.584 Z0.000 E0.932
G1 X0.831 Y-0.545 Z0.000 E0.932
G1 X0.857 Y-0.504 Z0.000 E0.932
G1 X0.880 Y-0.462 Z0.000 E0.932
G1 X0.901 Y-0.419 Z0.000 E0.932
G1 X0.920 Y-0.375 Z0.000 E0.932
G1 X0.937 Y-0.330 Z0.000 E0.932
G1 X0.952 Y-0.284 Z0.000 E0.932
G1 X0.965 Y-0.238 Z0.000 E0.932
G1 X0.975 Y-0.191 Z0.000 E0.932
G1 X0.983 Y-0.144 Z0.000 E0.932
G1 X0.989 Y-0.096 Z0.000 E0.932
G1 X0.993 Y-0.048 Z0.000 E0.932
G1 X0.994 Y-0.000 Z0.000 E0.932
G1 X0.993 Y0.048 Z0.000 E0.932
G1 X0.989 Y0.096 Z0.000 E0.932
G1 X0.983 Y0.144 Z0.000 E0.932
G1 X0.975 Y0.191 Z0.000 E0.932
G1 X0.965 Y0.238 Z0.000 E0.932
G1 X0.952 Y0.284 Z0.000 E0.932
G1 X0.937 Y0.330 Z0.000 E0.932
G1 X0.920 Y0.375 Z0.000 E0.932
G1 X0.901 Y0.419 Z0.000 E0.932
G1 X0.880 Y0.462 Z0.000 E0.932
G1 X0.857 Y0.504 Z0.000 E0.932
G1 X0.831 Y0.545 Z0.000 E0.932
G1 X0.804 Y0.584 Z0.000 E0.932
G1 X0.775 Y0.622 Z0.000 E0.932
G1 X0.744 Y0.659 Z0.000 E0.932
G1 X0.711 Y0.694 Z0.000 E0.932
G1 X0.677 Y0.728 Z0.000 E0.932
G1 X0.641 Y0.760 Z0.000 E0.932
G1 X0.603 Y0.790 Z0.000 E0.932
G1 X0.564 Y0.818 Z0.000 E0.932
G1 X0.524 Y0.844 Z0.000 E0.932
G1 X0.483 Y0.868 Z0.000 E0.932
G1 X0.440 Y0.891 Z0.000 E0.932
G1 X0.397 Y0.911 Z0.000 E0.932
G1 X0.352 Y0.929 Z0.000 E0.932
G1 X0.307 Y0.945 Z0.000 E0.932
G1 X0.261 Y0.959 Z0.000 E0.932
G1 X0.214 Y0.970 Z0.000 E0.932
G1 X0.167 Y0.980 Z0.000 E0.932
G1 X0.120 Y0.986 Z0.000 E0.932
G1 X0.072 Y0.991 Z0.000 E0.932
G1 X0.024 Y0.993 Z0.000 E0.932
G1 X-2.100 Y0.000 Z0.000 E1.969
G1 X-0.027 Y1.000 Z0.000 E0.937
G1 X-0.081 Y0.997 Z0.000 E0.937
G1 X-0.135 Y0.991 Z0.000 E0.937
G1 X-0.188 Y0.982 Z0.000 E0.937
G1 X-0.241 Y0.970 Z0.000 E0.937
G1 X-0.293 Y0.956 Z0.000 E0.937
G1 X-0.345 Y0.939 Z0.000 E0.937
G1 X-0.395 Y0.919 Z0.000 E0.937
G1 X-0.444 Y0.896 Z0.000 E0.937
G1 X-0.492 Y0.870 Z0.000 E0.937
G1 X-0.539 Y0.842 Z0.000 E0.937
G1 X-0.583 Y0.812 Z0.000 E0.937
G1 X-0.626 Y0.779 Z0.000 E0.937
G1 X-0.668 Y0.744 Z0.000 E0.937
G1 X-0.707 Y0.707 Z0.000 E0.937
G1 X-0.744 Y0.668 Z0.000 E0.937
G1 X-0.779 Y0.626 Z0.000 E0.937
G1 X-0.812 Y0.583 Z0.000 E0.937
G1 X-0.842 Y0.539 Z0.000 E0.937
G1 X-0.870 Y0.492 Z-0.000 E0.937
G1 X-0.896 Y0.444 Z0.000 E0.937
G1 X-0.919 Y0.395 Z0.000 E0.937
G1 X-0.939 Y0.345 Z0.000 E0.937
G1 X-0.956 Y0.293 Z0.000 E0.937
G1 X-0.970 Y0.241 Z0.000 E0.937
G1 X-0.982 Y0.188 Z0.000 E0.937
G1 X-0.991 Y0.135 Z0.000 E0.937
G1 X-0.997 Y0.081 Z0.000 E0.937
G1 X-1.000 Y0.027 Z0.000 E0.937
G1 X-1.000 Y-0.027 Z0.000 E0.937
G1 X-0.997 Y-0.081 Z0.000 E0.937
G1 X-0.991 Y-0.135 Z0.000 E0.937
G1 X-0.982 Y-0.188 Z0.000 E0.937
G1 X-0.970 Y-0.241 Z0.000 E0.937
G1 X-0.956 Y-0.293 Z0.000 E0.937
G1 X-0.939 Y-0.345 Z0.000 E0.937
G1 X-0.919 Y-0.395 Z0.000 E0.937
G1 X-0.896 Y-0.444 Z0.000 E0.937
G1 X-0.870 Y-0.492 Z-0.000 E0.937
G1 X-0.842 Y-0.539 Z0.000 E0.937
G1 X-0.812 Y-0.583 Z0.000 E0.937
G1 X-0.779 Y-0.626 Z0.000 E0.937
G1 X-0.744 Y-0.668 Z0.000 E0.937
G1 X-0.707 Y-0.707 Z0.000 E0.937
G1 X-0.668 Y-0.744 Z0.000 E0.937
G1 X-0.626 Y-0.779 Z0.000 E0.937
G1 X-0.583 Y-0.812 Z0.000 E0.937
G1 X-0.539 Y-0.842 Z0.000 E0.937
G1 X-0.492 Y-0.870 Z-0.000 E0.937
G1 X-0.444 Y-0.896 Z0.000 E0.937
G1 X-0.395 Y-0.919 Z0.000 E0.937
G1 X-0.345 Y-0.939 Z0.000 E0.937
G1 X-0.293 Y-0.956 Z0.000 E0.937
G1 X-0.241 Y-0.970 Z0.000 E0.937
G1 X-0.188 Y-0.982 Z0.000 E0.937
G1 X-0.135 Y-0.991 Z0.000 E0.937
G1 X-0.081 Y-0.997 Z0.000 E0.937
G1 X-0.027 Y-1.000 Z0.000 E0.937
G1 X0.027 Y-1.000 Z0.000 E0.937
G1 X0.081 Y-0.997 Z0.000 E0.937
G1 X0.135 Y-0.991 Z0.000 E0.937
G1 X0.188 Y-0.982 Z0.000 E0.937
G1 X0.241 Y-0.970 Z0.000 E0.937
G1 X0.293 Y-0.956 Z0.000 E0.937
G1 X0.345 Y-0.939 Z0.000 E0.937
G1 X0.395 Y-0.919 Z0.000 E0.937
G1 X0.444 Y-0.896 Z0.000 E0.937
G1 X0.492 Y-0.870 Z-0.000 E0.937
G1 X0.539 Y-0.842 Z0.000 E0.937
G1 X0.583 Y-0.812 Z0.000 E0.937
G1 X0.626 Y-0.779 Z0.000 E0.937
G1 X0.668 Y-0.744 Z0.000 E0.937
G1 X0.707 Y-0.707 Z0.000 E0.937
G1 X0.744 Y-0.668 Z0.000 E0.937
G1 X0.779 Y-0.626 Z0.000 E0.937
G1 X0.812 Y-0.583 Z0.000 E0.937
G1 X0.842 Y-0.539 Z0.000 E0.937
G1 X0.870 Y-0.492 Z0.000 E0.937
G1 X0.896 Y-0.444 Z0.000 E0.937
G1 X0.919 Y-0.395 Z0.000 E0.937
G1 X0.939 Y-0.345 Z0.000 E0.937
G1 X0.956 Y-0.293 Z0.000 E0.937
G1 X0.970 Y-0.241 Z0.000 E0.937
G1 X0.982 Y-0.188 Z0.000 E0.937
G1 X0.991 Y-0.135 Z0.000 E0.937
G1 X0.997 Y-0.081 Z0.000 E0.937
G1 X1.000 Y-0.027 Z0.000 E0.937
G1 X1.000 Y0.027 Z0.000 E0.937
G1 X0.997 Y0.081 Z0.000 E0.937
G1 X0.991 Y0.135 Z0.000 E0.937
G1 X0.982 Y0.188 Z0.000 E0.937
G1 X0.970 Y0.241 Z0.000 E0.937
G1 X0.956 Y0.293 Z0.000 E0.937
G1 X0.939 Y0.345 Z0.000 E0.937
G1 X0.919 Y0.395 Z0.000 E0.937
G1 X0.896 Y0.444 Z0.000 E0.937
G1 X0.870 Y0.492 Z0.000 E0.937
G1 X0.842 Y0.539 Z0.000 E0.937
G1 X0.812 Y0.583 Z0.000 E0.937
G1 X0.779 Y0.626 Z0.000 E0.937
G1 X0.744 Y0.668 Z0.000 E0.937
G1 X0.707 Y0.707 Z0.000 E0.937
G1 X0.668 Y0.744 Z0.000 E0.937
G1 X0.626 Y0.779 Z0.000 E0.937
G1 X0.583 Y0.812 Z0.000 E0.937
G1 X0.539 Y0.842 Z0.000 E0.937
G1 X0.492 Y0.870 Z0.000 E0.937
G1 X0.444 Y0.896 Z0.000 E0.937
G1 X0.395 Y0.919 Z0.000 E0.937
G1 X0.345 Y0.939 Z0.000 E0.937
G1 X0.293 Y0.956 Z0.000 E0.937
G1 X0.241 Y0.970 Z0.000 E0.937
G1 X0.188 Y0.982 Z0.000 E0.937
G1 X0.135 Y0.991 Z0.000 E0.937
G1 X0.081 Y0.997 Z0.000 E0.937
G1 X0.027 Y1.000 Z0.000 E0.937
G1 X-2.100 Y-0.000 Z0.000 E1.969
G1 X-0.030 Y0.998 Z0.000 E0.936
G1 X-0.091 Y0.994 Z0.000 E0.936
G1 X-0.152 Y0.986 Z0.000 E0.936
G1 X-0.211 Y0.975 Z0.000 E0.936
G1 X-0.271 Y0.961 Z0.000 E0.936
G1 X-0.329 Y0.942 Z0.000 E0.936
G1 X-0.385 Y0.921 Z0.000 E0.936
G1 X-0.441 Y0.895 Z0.000 E0.936
G1 X-0.495 Y0.867 Z0.000 E0.936
G1 X-0.547 Y0.835 Z0.000 E0.936
G1 X-0.596 Y0.800 Z0.000 E0.936
G1 X-0.644 Y0.762 Z0.000 E0.936
G1 X-0.689 Y0.722 Z0.000 E0.936
G1 X-0.732 Y0.678 Z0.000 E0.936
G1 X-0.772 Y0.632 Z0.000 E0.936
G1 X-0.809 Y0.584 Z0.000 E0.936
G1 X-0.843 Y0.534 Z0.000 E0.936
G1 X-0.874 Y0.481 Z-0.000 E0.936
G1 X-0.902 Y0.427 Z0.000 E0.936
G1 X-0.926 Y0.371 Z0.000 E0.936
G1 X-0.947 Y0.314 Z0.000 E0.936
G1 X-0.965 Y0.256 Z0.000 E0.936
G1 X-0.978 Y0.197 Z0.000 E0.936
G1 X-0.989 Y0.137 Z0.000 E0.936
G1 X-0.995 Y0.076 Z0.000 E0.936
G1 X-0.998 Y0.015 Z0.000 E0.936
G1 X-0.997 Y-0.046 Z0.000 E0.936
G1 X-0.992 Y-0.106 Z0.000 E0.936
G1 X-0.984 Y-0.167 Z0.000 E0.936
G1 X-0.972 Y-0.226 Z0.000 E0.936
G1 X-0.956 Y-0.285 Z0.000 E0.936
G1 X-0.937 Y-0.343 Z0.000 E0.936
G1 X-0.915 Y-0.399 Z0.000 E0.936
G1 X-0.889 Y-0.454 Z0.000 E0.936
G1 X-0.859 Y-0.508 Z-0.000 E0.936
G1 X-0.827 Y-0.559 Z0.000 E0.936
G1 X-0.791 Y-0.609 Z0.000 E0.936
G1 X-0.752 Y-0.656 Z0.000 E0.936
G1 X-0.711 Y-0.700 Z0.000 E0.936
G1 X-0.667 Y-0.742 Z0.000 E0.936
G1 X-0.621 Y-0.782 Z0.000 E0.936
G1 X-0.572 Y-0.818 Z0.000 E0.936
G1 X-0.521 Y-0.851 Z-0.000 E0.936
G1 X-0.468 Y-0.881 Z0.000 E0.936
G1 X-0.413 Y-0.908 Z0.000 E0.936
G1 X-0.357 Y-0.932 Z0.000 E0.936
G1 X-0.300 Y-0.952 Z0.000 E0.936
G1 X-0.241 Y-0.968 Z0.000 E0.936
G1 X-0.182 Y-0.981 Z0.000 E0.936
G1 X-0.121 Y-0.991 Z0.000 E0.936
G1 X-0.061 Y-0.996 Z0.000 E0.936
G1 X0.000 Y-0.998 Z0.000 E0.936
G1 X0.061 Y-0.996 Z0.000 E0.936
G1 X0.121 Y-0.991 Z0.000 E0.936
G1 X0.182 Y-0.981 Z0.000 E0.936
G1 X0.241 Y-0.968 Z0.000 E0.936
G1 X0.300 Y-0.952 Z0.000 E0.936
G1 X0.357 Y-0.932 Z0.000 E0.936
G1 X0.413 Y-0.908 Z0.000 E0.936
G1 X0.468 Y-0.881 Z0.000 E0.936
G1 X0.521 Y-0.851 Z-0.000 E0.936
G1 X0.572 Y-0.818 Z0.000 E0.936
G1 X0.621 Y-0.782 Z0.000 E0.936
G1 X0.667 Y-0.742 Z0.000 E0.936
G1 X0.711 Y-0.700 Z0.000 E0.936
G1 X0.752 Y-0.656 Z0.000 E0.936
G1 X0.791 Y-0.609 Z0.000 E0.936
G1 X0.827 Y-0.559 Z0.000 E0.936
G1 X0.859 Y-0.508 Z0.000 E0.936
G1 X0.889 Y-0.454 Z0.000 E0.936
G1 X0.915 Y-0.399 Z0.000 E0.936
G1 X0.937 Y-0.343 Z0.000 E0.936
G1 X0.956 Y-0.285 Z0.000 E0.936
G1 X0.972 Y-0.226 Z0.000 E0.936
G1 X0.984 Y-0.167 Z0.000 E0.936
G1 X0.992 Y-0.106 Z0.000 E0.936
G1 X0.997 Y-0.046 Z0.000 E0.936
G1 X0.998 Y0.015 Z0.000 E0.936
G1 X0.995 Y0.076 Z0.000 E0.936
G1 X0.989 Y0.137 Z0.000 E0.936
G1 X0.978 Y0.197 Z0.000 E0.936
G1 X0.965 Y0.256 Z0.000 E0.936
G1 X0.947 Y0.314 Z0.000 E0.936
G1 X0.926 Y0.371 Z0.000 E0.936
G1 X0.902 Y0.427 Z0.000 E0.936
G1 X0.874 Y0.481 Z0.000 E0.936
G1 X0.843 Y0.534 Z0.000 E0.936
G1 X0.809 Y0.584 Z0.000 E0.936
G1 X0.772 Y0.632 Z0.000 E0.936
G1 X0.732 Y0.678 Z0.000 E0.936
G1 X0.689 Y0.722 Z0.000 E0.936
G1 X0.644 Y0.762 Z0.000 E0.936
G1 X0.596 Y0.800 Z0.000 E0.936
G1 X0.547 Y0.835 Z0.000 E0.936
G1 X0.495 Y0.867 Z0.000 E0.936
G1 X0.441 Y0.895 Z0.000 E0.936
G1 X0.385 Y0.921 Z0.000 E0.936
G1 X0.329 Y0.942 Z0.000 E0.936
G1 X0.271 Y0.961 Z0.000 E0.936
G1 X0.211 Y0.975 Z0.000 E0.936
G1 X0.152 Y0.986 Z0.000 E0.936
G1 X0.091 Y0.994 Z0.000 E0.936
G1 X0.030 Y0.998 Z0.000 E0.936
G1 X-2.100 Y-0.000 Z0.000 E1.969
G1 X-0.035 Y0.995 Z0.000 E0.933
G1 X-0.104 Y0.990 Z0.000 E0.933
G1 X-0.173 Y0.980 Z0.000 E0.933
G1 X-0.241 Y0.966 Z0.000 E0.933
G1 X-0.308 Y0.947 Z0.000 E0.933
G1 X-0.373 Y0.923 Z0.000 E0.933
G1 X-0.436 Y0.895 Z0.000 E0.933
G1 X-0.498 Y0.862 Z0.000 E0.933
G1 X-0.557 Y0.825 Z0.000 E0.933
G1 X-0.613 Y0.784 Z0.000 E0.933
G1 X-0.666 Y0.740 Z0.000 E0.933
G1 X-0.716 Y0.692 Z0.000 E0.933
G1 X-0.763 Y0.640 Z0.000 E0.933
G1 X-0.805 Y0.585 Z0.000 E0.933
G1 X-0.844 Y0.528 Z-0.000 E0.933
G1 X-0.879 Y0.467 Z0.000 E0.933
G1 X-0.909 Y0.405 Z0.000 E0.933
G1 X-0.935 Y0.340 Z0.000 E0.933
G1 X-0.957 Y0.274 Z0.000 E0.933
G1 X-0.974 Y0.207 Z0.000 E0.933
G1 X-0.986 Y0.139 Z0.000 E0.933
G1 X-0.993 Y0.069 Z0.000 E0.933
G1 X-0.995 Y-0.000 Z0.000 E0.933
G1 X-0.993 Y-0.069 Z0.000 E0.933
G1 X-0.986 Y-0.139 Z0.000 E0.933
G1 X-0.974 Y-0.207 Z0.000 E0.933
G1 X-0.957 Y-0.274 Z0.000 E0.933
G1 X-0.935 Y-0.340 Z0.000 E0.933
G1 X-0.909 Y-0.405 Z0.000 E0.933
G1 X-0.879 Y-0.467 Z0.000 E0.933
G1 X-0.844 Y-0.528 Z-0.000 E0.933
G1 X-0.805 Y-0.585 Z0.000 E0.933
G1 X-0.763 Y-0.640 Z0.000 E0.933
G1 X-0.716 Y-0.692 Z0.000 E0.933
G1 X-0.666 Y-0.740 Z0.000 E0.933
G1 X-0.613 Y-0.784 Z0.000 E0.933
G1 X-0.557 Y-0.825 Z0.000 E0.933
G1 X-0.498 Y-0.862 Z-0.000 E0.933
G1 X-0.436 Y-0.895 Z0.000 E0.933
G1 X-0.373 Y-0.923 Z0.000 E0.933
G1 X-0.308 Y-0.947 Z0.000 E0.933
G1 X-0.241 Y-0.966 Z0.000 E0.933
G1 X-0.173 Y-0.980 Z0.000 E0.933
G1 X-0.104 Y-0.990 Z0.000 E0.933
G1 X-0.035 Y-0.995 Z0.000 E0.933
G1 X0.035 Y-0.995 Z0.000 E0.933
G1 X0.104 Y-0.990 Z0.000 E0.933
G1 X0.173 Y-0.980 Z0.000 E0.933
G1 X0.241 Y-0.966 Z0.000 E0.933
G1 X0.308 Y-0.947 Z0.000 E0.933
G1 X0.373 Y-0.923 Z0.000 E0.933
G1 X0.436 Y-0.895 Z0.000 E0.933
G1 X0.498 Y-0.862 Z-0.000 E0.933
G1 X0.557 Y-0.825 Z0.000 E0.933
G1 X0.613 Y-0.784 Z0.000 E0.933
G1 X0.666 Y-0.740 Z0.000 E0.933
G1 X0.716 Y-0.692 Z0.000 E0.933
G1 X0.763 Y-0.640 Z0.000 E0.933
G1 X0.805 Y-0.585 Z0.000 E0.933
G1 X0.844 Y-0.528 Z0.000 E0.933
G1 X0.879 Y-0.467 Z0.000 E0.933
G1 X0.909 Y-0.405 Z0.000 E0.933
G1 X0.935 Y-0.340 Z0.000 E0.933
G1 X0.957 Y-0.274 Z0.000 E0.933
G1 X0.974 Y-0.207 Z0.000 E0.933
G1 X0.986 Y-0.139 Z0.000 E0.933
G1 X0.993 Y-0.069 Z0.000 E0.933
G1 X0.995 Y0.000 Z0.000 E0.933
G1 X0.993 Y0.069 Z0.000 E0.933
G1 X0.986 Y0.139 Z0.000 E0.933
G1 X0.974 Y0.207 Z0.000 E0.933
G1 X0.957 Y0.274 Z0.000 E0.933
G1 X0.935 Y0.340 Z0.000 E0.933
G1 X0.909 Y0.405 Z0.000 E0.933
G1 X0.879 Y0.467 Z0.000 E0.933
G1 X0.844 Y0.528 Z0.000 E0.933
G1 X0.805 Y0.585 Z0.000 E0.933
G1 X0.763 Y0.640 Z0.000 E0.933
G1 X0.716 Y0.692 Z0.000 E0.933
G1 X0.666 Y0.740 Z0.000 E0.933
G1 X0.613 Y0.784 Z0.000 E0.933
G1 X0.557 Y0.825 Z0.000 E0.933
G1 X0.498 Y0.862 Z0.000 E0.933
G1 X0.436 Y0.895 Z0.000 E0.933
G1 X0.373 Y0.923 Z0.000 E0.933
G1 X0.308 Y0.947 Z0.000 E0.933
G1 X0.241 Y0.966 Z0.000 E0.933
G1 X0.173 Y0.980 Z0.000 E0.933
G1 X0.104 Y0.990 Z0.000 E0.933
G1 X0.035 Y0.995 Z0.000 E0.933
G1 X-2.100 Y-0.000 Z0.000 E1.969
G1 X-0.040 Y0.991 Z0.000 E0.930
G1 X-0.121 Y0.985 Z0.000 E0.930
G1 X-0.201 Y0.972 Z0.000 E0.930
G1 X-0.280 Y0.952 Z0.000 E0.930
G1 X-0.356 Y0.926 Z0.000 E0.930
G1 X-0.430 Y0.894 Z0.000 E0.930
G1 X-0.502 Y0.856 Z0.000 E0.930
G1 X-0.570 Y0.812 Z0.000 E0.930
G1 X-0.634 Y0.763 Z0.000 E0.930
G1 X-0.694 Y0.709 Z0.000 E0.930
G1 X-0.750 Y0.650 Z0.000 E0.930
G1 X-0.800 Y0.586 Z0.000 E0.930
G1 X-0.845 Y0.519 Z-0.000 E0.930
G1 X-0.885 Y0.449 Z0.000 E0.930
G1 X-0.919 Y0.375 Z0.000 E0.930
G1 X-0.946 Y0.299 Z0.000 E0.930
G1 X-0.967 Y0.221 Z0.000 E0.930
G1 X-0.982 Y0.141 Z0.000 E0.930
G1 X-0.990 Y0.061 Z0.000 E0.930
G1 X-0.992 Y-0.020 Z0.000 E0.930
G1 X-0.987 Y-0.101 Z0.000 E0.930
G1 X-0.975 Y-0.181 Z0.000 E0.930
G1 X-0.957 Y-0.260 Z0.000 E0.930
G1 X-0.933 Y-0.337 Z0.000 E0.930
G1 X-0.903 Y-0.412 Z0.000 E0.930
G1 X-0.866 Y-0.484 Z-0.000 E0.930
G1 X-0.824 Y-0.553 Z0.000 E0.930
G1 X-0.776 Y-0.619 Z0.000 E0.930
G1 X-0.723 Y-0.680 Z0.000 E0.930
G1 X-0.665 Y-0.736 Z0.000 E0.930
G1 X-0.603 Y-0.788 Z0.000 E0.930
G1 X-0.536 Y-0.835 Z0.000 E0.930
G1 X-0.467 Y-0.876 Z-0.000 E0.930
G1 X-0.394 Y-0.911 Z0.000 E0.930
G1 X-0.318 Y-0.940 Z0.000 E0.930
G1 X-0.240 Y-0.963 Z0.000 E0.930
G1 X-0.161 Y-0.979 Z0.000 E0.930
G1 X-0.081 Y-0.989 Z0.000 E0.930
G1 X-0.000 Y-0.992 Z0.000 E0.930
G1 X0.081 Y-0.989 Z0.000 E0.930
G1 X0.161 Y-0.979 Z0.000 E0.930
G1 X0.240 Y-0.963 Z0.000 E0.930
G1 X0.318 Y-0.940 Z0.000 E0.930
G1 X0.394 Y-0.911 Z0.000 E0.930
G1 X0.467 Y-0.876 Z-0.000 E0.930
G1 X0.536 Y-0.835 Z0.000 E0.930
G1 X0.603 Y-0.788 Z0.000 E0.930
G1 X0.665 Y-0.736 Z0.000 E0.930
G1 X0.723 Y-0.680 Z0.000 E0.930
G1 X0.776 Y-0.619 Z0.000 E0.930
G1 X0.824 Y-0.553 Z0.000 E0.930
G1 X0.866 Y-0.484 Z0.000 E0.930
G1 X0.903 Y-0.412 Z0.000 E0.930
G1 X0.933 Y-0.337 Z0.000 E0.930
G1 X0.957 Y-0.260 Z0.000 E0.930
G1 X0.975 Y-0.181 Z0.000 E0.930
G1 X0.987 Y-0.101 Z0.000 E0.930
G1 X0.992 Y-0.020 Z0.000 E0.930
G1 X0.990 Y0.061 Z0.000 E0.930
G1 X0.982 Y0.141 Z0.000 E0.930
G1 X0.967 Y0.221 Z0.000 E0.930
G1 X0.946 Y0.299 Z0.000 E0.930
G1 X0.919 Y0.375 Z0.000 E0.930
G1 X0.885 Y0.449 Z0.000 E0.930
G1 X0.845 Y0.519 Z0.000 E0.930
G1 X0.800 Y0.586 Z0.000 E0.930
G1 X0.750 Y0.650 Z0.000 E0.930
G1 X0.694 Y0.709 Z0.000 E0.930
G1 X0.634 Y0.763 Z0.000 E0.930
G1 X0.570 Y0.812 Z0.000 E0.930
G1 X0.502 Y0.856 Z0.000 E0.930
G1 X0.430 Y0.894 Z0.000 E0.930
G1 X0.356 Y0.926 Z0.000 E0.930
G1 X0.280 Y0.952 Z0.000 E0.930
G1 X0.201 Y0.972 Z0.000 E0.930
G1 X0.121 Y0.985 Z0.000 E0.930
G1 X0.040 Y0.991 Z0.000 E0.930
G1 X-2.100 Y-0.000 Z0.000 E1.969
G1 X-0.048 Y0.986 Z0.000 E0.926
G1 X-0.145 Y0.977 Z0.000 E0.926
G1 X-0.240 Y0.958 Z0.000 E0.926
G1 X-0.333 Y0.930 Z0.000 E0.926
G1 X-0.422 Y0.893 Z0.000 E0.926
G1 X-0.508 Y0.847 Z0.000 E0.926
G1 X-0.588 Y0.793 Z0.000 E0.926
G1 X-0.663 Y0.732 Z0.000 E0.926
G1 X-0.732 Y0.663 Z0.000 E0.926
G1 X-0.793 Y0.588 Z0.000 E0.926
G1 X-0.847 Y0.508 Z-0.000 E0.926
G1 X-0.893 Y0.422 Z0.000 E0.926
G1 X-0.930 Y0.333 Z0.000 E0.926
G1 X-0.958 Y0.240 Z0.000 E0.926
G1 X-0.977 Y0.145 Z0.000 E0.926
G1 X-0.986 Y0.048 Z0.000 E0.926
G1 X-0.986 Y-0.048 Z0.000 E0.926
G1 X-0.977 Y-0.145 Z0.000 E0.926
G1 X-0.958 Y-0.240 Z0.000 E0.926
G1 X-0.930 Y-0.333 Z0.000 E0.926
G1 X-0.893 Y-0.422 Z0.000 E0.926
G1 X-0.847 Y-0.508 Z-0.000 E0.926
G1 X-0.793 Y-0.588 Z0.000 E0.926
G1 X-0.732 Y-0.663 Z0.000 E0.926
G1 X-0.663 Y-0.732 Z0.000 E0.926
G1 X-0.588 Y-0.793 Z0.000 E0.926
G1 X-0.508 Y-0.847 Z-0.000 E0.926
G1 X-0.422 Y-0.893 Z0.000 E0.926
G1 X-0.333 Y-0.930 Z0.000 E0.926
G1 X-0.240 Y-0.958 Z0.000 E0.926
G1 X-0.145 Y-0.977 Z0.000 E0.926
G1 X-0.048 Y-0.986 Z0.000 E0.926
G1 X0.048 Y-0.986 Z0.000 E0.926
G1 X0.145 Y-0.977 Z0.000 E0.926
G1 X0.240 Y-0.958 Z0.000 E0.926
G1 X0.333 Y-0.930 Z0.000 E0.926
G1 X0.422 Y-0.893 Z0.000 E0.926
G1 X0.508 Y-0.847 Z-0.000 E0.926
G1 X0.588 Y-0.793 Z0.000 E0.926
G1 X0.663 Y-0.732 Z0.000 E0.926
G1 X0.732 Y-0.663 Z0.000 E0.926
G1 X0.793 Y-0.588 Z0.000 E0.926
G1 X0.847 Y-0.508 Z0.000 E0.926
G1 X0.893 Y-0.422 Z0.000 E0.926
G1 X0.930 Y-0.333 Z0.000 E0.926
G1 X0.958 Y-0.240 Z0.000 E0.926
G1 X0.977 Y-0.145 Z0.000 E0.926
G1 X0.986 Y-0.048 Z0.000 E0.926
G1 X0.986 Y0.048 Z0.000 E0.926
G1 X0.977 Y0.145 Z0.000 E0.926
G1 X0.958 Y0.240 Z0.000 E0.926
G1 X0.930 Y0.333 Z0.000 E0.926
G1 X0.893 Y0.422 Z0.000 E0.926
G1 X0.847 Y0.508 Z0.000 E0.926
G1 X0.793 Y0.588 Z0.000 E0.926
G1 X0.732 Y0.663 Z0.000 E0.926
G1 X0.663 Y0.732 Z0.000 E0.926
G1 X0.588 Y0.793 Z0.000 E0.926
G1 X0.508 Y0.847 Z0.000 E0.926
G1 X0.422 Y0.893 Z0.000 E0.926
G1 X0.333 Y0.930 Z0.000 E0.926
G1 X0.240 Y0.958 Z0.000 E0.926
G1 X0.145 Y0.977 Z0.000 E0.926
G1 X0.048 Y0.986 Z0.000 E0.926
G1 X-2.100 Y-0.000 Z0.000 E1.969
G1 X-0.060 Y0.978 Z0.000 E0.919
G1 X-0.180 Y0.964 Z0.000 E0.919
G1 X-0.297 Y0.934 Z0.000 E0.919
G1 X-0.410 Y0.891 Z0.000 E0.919
G1 X-0.516 Y0.833 Z0.000 E0.919
G1 X-0.615 Y0.764 Z0.000 E0.919
G1 X-0.704 Y0.682 Z0.000 E0.919
G1 X-0.782 Y0.591 Z0.000 E0.919
G1 X-0.849 Y0.490 Z-0.000 E0.919
G1 X-0.903 Y0.382 Z0.000 E0.919
G1 X-0.943 Y0.268 Z0.000 E0.919
G1 X-0.969 Y0.150 Z0.000 E0.919
G1 X-0.980 Y0.030 Z0.000 E0.919
G1 X-0.976 Y-0.090 Z0.000 E0.919
G1 X-0.958 Y-0.210 Z0.000 E0.919
G1 X-0.925 Y-0.326 Z0.000 E0.919
G1 X-0.878 Y-0.437 Z0.000 E0.919
G1 X-0.817 Y-0.541 Z-0.000 E0.919
G1 X-0.744 Y-0.638 Z0.000 E0.919
G1 X-0.660 Y-0.724 Z0.000 E0.919
G1 X-0.566 Y-0.800 Z0.000 E0.919
G1 X-0.464 Y-0.864 Z-0.000 E0.919
G1 X-0.354 Y-0.914 Z0.000 E0.919
G1 X-0.239 Y-0.951 Z0.000 E0.919
G1 X-0.120 Y-0.973 Z0.000 E0.919
G1 X0.000 Y-0.980 Z0.000 E0.919
G1 X0.120 Y-0.973 Z0.000 E0.919
G1 X0.239 Y-0.951 Z0.000 E0.919
G1 X0.354 Y-0.914 Z0.000 E0.919
G1 X0.464 Y-0.864 Z-0.000 E0.919
G1 X0.566 Y-0.800 Z0.000 E0.919
G1 X0.660 Y-0.724 Z0.000 E0.919
G1 X0.744 Y-0.638 Z0.000 E0.919
G1 X0.817 Y-0.541 Z0.000 E0.919
G1 X0.878 Y-0.437 Z0.000 E0.919
G1 X0.925 Y-0.326 Z0.000 E0.919
G1 X0.958 Y-0.210 Z0.000 E0.919
G1 X0.976 Y-0.090 Z0.000 E0.919
G1 X0.980 Y0.030 Z0.000 E0.919
G1 X0.969 Y0.150 Z0.000 E0.919
G1 X0.943 Y0.268 Z0.000 E0.919
G1 X0.903 Y0.382 Z0.000 E0.919
G1 X0.849 Y0.490 Z0.000 E0.919
G1 X0.782 Y0.591 Z0.000 E0.919
G1 X0.704 Y0.682 Z0.000 E0.919
G1 X0.615 Y0.764 Z0.000 E0.919
G1 X0.516 Y0.833 Z0.000 E0.919
G1 X0.410 Y0.891 Z0.000 E0.919
G1 X0.297 Y0.934 Z0.000 E0.919
G1 X0.180 Y0.964 Z0.000 E0.919
G1 X0.060 Y0.978 Z0.000 E0.919
G1 X-2.100 Y-0.000 Z0.000 E1.969
G1 X-0.084 Y0.991 Z0.000 E0.932
G1 X-0.251 Y0.962 Z0.000 E0.932
G1 X-0.410 Y0.906 Z0.000 E0.932
G1 X-0.557 Y0.824 Z0.000 E0.932
G1 X-0.688 Y0.718 Z0.000 E0.932
G1 X-0.799 Y0.591 Z0.000 E0.932
G1 X-0.888 Y0.448 Z-0.000 E0.932
G1 X-0.951 Y0.291 Z0.000 E0.932
G1 X-0.986 Y0.126 Z0.000 E0.932
G1 X-0.993 Y-0.042 Z0.000 E0.932
G1 X-0.972 Y-0.209 Z0.000 E0.932
G1 X-0.923 Y-0.371 Z0.000 E0.932
G1 X-0.847 Y-0.521 Z-0.000 E0.932
G1 X-0.746 Y-0.657 Z0.000 E0.932
G1 X-0.625 Y-0.774 Z0.000 E0.932
G1 X-0.485 Y-0.868 Z-0.000 E0.932
G1 X-0.331 Y-0.938 Z0.000 E0.932
G1 X-0.168 Y-0.980 Z0.000 E0.932
G1 X-0.000 Y-0.994 Z0.000 E0.932
G1 X0.168 Y-0.980 Z0.000 E0.932
G1 X0.331 Y-0.938 Z0.000 E0.932
G1 X0.485 Y-0.868 Z-0.000 E0.932
G1 X0.625 Y-0.774 Z0.000 E0.932
G1 X0.746 Y-0.657 Z0.000 E0.932
G1 X0.847 Y-0.521 Z0.000 E0.932
G1 X0.923 Y-0.371 Z0.000 E0.932
G1 X0.972 Y-0.209 Z0.000 E0.932
G1 X0.993 Y-0.042 Z0.000 E0.932
G1 X0.986 Y0.126 Z0.000 E0.932
G1 X0.951 Y0.291 Z0.000 E0.932
G1 X0.888 Y0.448 Z0.000 E0.932
G1 X0.799 Y0.591 Z0.000 E0.932
G1 X0.688 Y0.718 Z0.000 E0.932
G1 X0.557 Y0.824 Z0.000 E0.932
G1 X0.410 Y0.906 Z0.000 E0.932
G1 X0.251 Y0.962 Z0.000 E0.932
G1 X0.084 Y0.991 Z0.000 E0.932
G1 X-2.100 Y-0.000 Z0.000 E1.969
G1 X-0.128 Y0.974 Z0.000 E0.921
G1 X-0.376 Y0.907 Z0.000 E0.921
G1 X-0.598 Y0.779 Z0.000 E0.921
G1 X-0.779 Y0.598 Z-0.000 E0.921
G1 X-0.907 Y0.376 Z0.000 E0.921
G1 X-0.974 Y0.128 Z0.000 E0.921
G1 X-0.974 Y-0.128 Z0.000 E0.921
G1 X-0.907 Y-0.376 Z0.000 E0.921
G1 X-0.779 Y-0.598 Z-0.000 E0.921
G1 X-0.598 Y-0.779 Z-0.000 E0.921
G1 X-0.376 Y-0.907 Z0.000 E0.921
G1 X-0.128 Y-0.974 Z0.000 E0.921
G1 X0.128 Y-0.974 Z0.000 E0.921
G1 X0.376 Y-0.907 Z0.000 E0.921
G1 X0.598 Y-0.779 Z-0.000 E0.921
G1 X0.779 Y-0.598 Z0.000 E0.921
G1 X0.907 Y-0.376 Z0.000 E0.921
G1 X0.974 Y-0.128 Z0.000 E0.921
G1 X0.974 Y0.128 Z0.000 E0.921
G1 X0.907 Y0.376 Z0.000 E0.921
G1 X0.779 Y0.598 Z0.000 E0.921
G1 X0.598 Y0.779 Z0.000 E0.921
G1 X0.376 Y0.907 Z0.000 E0.921
G1 X0.128 Y0.974 Z0.000 E0.921
G1 X-2.100 Y-0.000 Z0.000 E1.969
G1 X-0.264 Y0.899 Z0.000 E0.878
G1 X-0.708 Y0.613 Z-0.000 E0.878
G1 X-0.927 Y0.133 Z0.000 E0.878
G1 X-0.852 Y-0.389 Z-0.000 E0.878
G1 X-0.506 Y-0.788 Z-0.000 E0.878
G1 X0.000 Y-0.937 Z0.000 E0.878
G1 X0.506 Y-0.788 Z-0.000 E0.878
G1 X0.852 Y-0.389 Z0.000 E0.878
G1 X0.927 Y0.133 Z0.000 E0.878
G1 X0.708 Y0.613 Z0.000 E0.878
G1 X0.264 Y0.899 Z0.000 E0.878
; Changed extrude rate to: 1.25
; *************************************************************
G1 Z0.800
G1 X26.712 Y1.023 Z0.000 E33.414
G1 X-1.089 Y0.985 Z0.000 E1.835
G1 X-1.145 Y0.904 Z0.000 E1.824
G1 X-0.602 Y0.897 Z0.000 E1.350
G1 X0.204 Y0.996 Z0.000 E1.271
G1 X0.793 Y1.145 Z0.000 E1.741
G1 X0.810 Y1.226 Z0.000 E1.837
G1 X0.235 Y1.146 Z0.000 E1.462
G1 X-0.617 Y0.913 Z0.000 E1.377
G1 X-1.276 Y0.650 Z0.000 E1.790
G1 X-1.394 Y0.525 Z0.000 E1.862
G1 X-0.938 Y0.643 Z0.000 E1.421
G1 X-0.200 Y0.960 Z0.000 E1.226
G1 X0.374 Y1.292 Z0.000 E1.682
G1 X0.450 Y1.418 Z0.000 E1.860
G1 X-0.015 Y1.218 Z0.000 E1.522
G1 X-0.754 Y0.764 Z0.000 E1.342
G1 X-1.357 Y0.296 Z0.000 E1.736
G1 X-1.509 Y0.088 Z0.000 E1.889
G1 X-1.164 Y0.280 Z0.000 E1.497
G1 X-0.560 Y0.778 Z0.000 E1.198
G1 X-0.066 Y1.291 Z0.000 E1.616
G1 X0.035 Y1.496 Z0.000 E1.871
G1 X-0.300 Y1.232 Z0.000 E1.585
G1 X-0.865 Y0.608 Z0.000 E1.322
G1 X-1.340 Y-0.045 Z0.000 E1.676
G1 X-1.480 Y-0.358 Z0.000 E1.904
G1 X-1.250 Y-0.145 Z0.000 E1.573
G1 X-0.825 Y0.476 Z0.000 E1.191
G1 X-0.474 Y1.141 Z0.000 E1.544
G1 X-0.393 Y1.443 Z0.000 E1.869
G1 X-0.603 Y1.172 Z0.000 E1.647
G1 X-0.956 Y0.446 Z0.000 E1.319
G1 X-1.242 Y-0.346 Z0.000 E1.612
G1 X-1.317 Y-0.766 Z0.000 E1.905
G1 X-1.182 Y-0.581 Z0.000 E1.646
G1 X-0.959 Y0.096 Z0.000 E1.204
G1 X-0.800 Y0.862 Z0.000 E1.470
G1 X-0.790 Y1.256 Z0.000 E1.855
G1 X-0.902 Y1.025 Z0.000 E1.706
G1 X-1.032 Y0.273 Z0.000 E1.334
G1 X-1.086 Y-0.593 Z0.000 E1.547
G1 X-1.044 Y-1.098 Z0.000 E1.894
G1 X-0.967 Y-0.972 Z0.000 E1.714
G1 X-0.941 Y-0.309 Z0.000 E1.237
G1 X-1.004 Y0.491 Z0.000 E1.397
G1 X-1.112 Y0.950 Z0.000 E1.828
G1 X-1.166 Y0.787 Z0.000 E1.758
G1 X-1.088 Y0.082 Z0.000 E1.364
G1 X-0.894 Y-0.780 Z0.000 E1.483
G1 X-0.694 Y-1.325 Z0.000 E1.870
G1 X-0.630 Y-1.271 Z0.000 E1.774
G1 X-0.772 Y-0.681 Z0.000 E1.287
G1 X-1.061 Y0.079 Z0.000 E1.329
G1 X-1.320 Y0.555 Z0.000 E1.790
G1 X-1.364 Y0.469 Z0.000 E1.802
G1 X-1.119 Y-0.133 Z0.000 E1.408
G1 X-0.688 Y-0.909 Z0.000 E1.426
G1 X-0.308 Y-1.435 Z0.000 E1.835
G1 X-0.210 Y-1.444 Z0.000 E1.824
G1 X-0.475 Y-0.970 Z0.000 E1.350
G1 X-0.965 Y-0.321 Z0.000 E1.271
G1 X-1.388 Y0.114 Z0.000 E1.741
G1 X-1.467 Y0.089 Z0.000 E1.837
G1 X-1.110 Y-0.369 Z0.000 E1.462
G1 X-0.483 Y-0.991 Z0.000 E1.377
G1 X0.075 Y-1.430 Z0.000 E1.790
G1 X0.242 Y-1.470 Z0.000 E1.862
G1 X-0.088 Y-1.134 Z0.000 E1.421
G1 X-0.731 Y-0.654 Z0.000 E1.226
G1 X-1.306 Y-0.322 Z0.000 E1.682
G1 X-1.453 Y-0.320 Z0.000 E1.860
G1 X-1.047 Y-0.622 Z0.000 E1.522
G1 X-0.284 Y-1.035 Z0.000 E1.342
G1 X0.422 Y-1.323 Z0.000 E1.736
G1 X0.678 Y-1.351 Z0.000 E1.889
G1 X0.339 Y-1.149 Z0.000 E1.497
G1 X-0.393 Y-0.874 Z0.000 E1.198
G1 X-1.085 Y-0.702 Z0.000 E1.616
G1 X-1.313 Y-0.717 Z0.000 E1.871
G1 X-0.917 Y-0.876 Z0.000 E1.585
G1 X-0.094 Y-1.053 Z0.000 E1.322
G1 X0.709 Y-1.138 Z0.000 E1.676
G1 X1.050 Y-1.103 Z0.000 E1.904
G1 X0.751 Y-1.010 Z0.000 E1.573
G1 X0.001 Y-0.953 Z0.000 E1.191
G1 X-0.751 Y-0.981 Z0.000 E1.544
G1 X-1.053 Y-1.062 Z0.000 E1.869
G1 X-0.713 Y-1.108 Z0.000 E1.647
G1 X0.092 Y-1.051 Z0.000 E1.319
G1 X0.921 Y-0.903 Z0.000 E1.612
G1 X1.322 Y-0.758 Z0.000 E1.905
G1 X1.094 Y-0.733 Z0.000 E1.646
G1 X0.396 Y-0.878 Z0.000 E1.204
G1 X-0.346 Y-1.124 Z0.000 E1.470
G1 X-0.692 Y-1.312 Z0.000 E1.855
G1 X-0.437 Y-1.293 Z0.000 E1.706
G1 X0.280 Y-1.030 Z0.000 E1.334
G1 X1.057 Y-0.644 Z0.000 E1.547
G1 X1.473 Y-0.355 Z0.000 E1.894
G1 X1.325 Y-0.351 Z0.000 E1.714
G1 X0.738 Y-0.660 Z0.000 E1.237
G1 X0.076 Y-1.115 Z0.000 E1.397
G1 X-0.267 Y-1.438 Z0.000 E1.828
G1 X-0.099 Y-1.403 Z0.000 E1.758
G1 X0.474 Y-0.983 Z0.000 E1.364
G1 X1.122 Y-0.385 Z0.000 E1.483
G1 X1.495 Y0.061 Z0.000 E1.870
G1 X1.416 Y0.090 Z0.000 E1.774
G1 X0.976 Y-0.328 Z0.000 E1.287
G1 X0.462 Y-0.958 Z0.000 E1.329
G1 X0.179 Y-1.421 Z0.000 E1.790
G1 X0.276 Y-1.415 Z0.000 E1.802
G1 X0.674 Y-0.903 Z0.000 E1.408
G1 X1.132 Y-0.142 Z0.000 E1.426
G1 X1.397 Y0.451 Z0.000 E1.835
G1 X1.355 Y0.540 Z0.000 E1.824
G1 X1.078 Y0.073 Z0.000 E1.350
G1 X0.760 Y-0.675 Z0.000 E1.271
G1 X0.595 Y-1.259 Z0.000 E1.741
G1 X0.656 Y-1.315 Z0.000 E1.837
G1 X0.875 Y-0.776 Z0.000 E1.462
G1 X1.099 Y0.077 Z0.000 E1.377
G1 X1.201 Y0.780 Z0.000 E1.790
G1 X1.152 Y0.945 Z0.000 E1.862
G1 X1.026 Y0.491 Z0.000 E1.421
G1 X0.932 Y-0.306 Z0.000 E1.226
G1 X0.932 Y-0.970 Z0.000 E1.682
G1 X1.003 Y-1.099 Z0.000 E1.860
G1 X1.062 Y-0.596 Z0.000 E1.522
G1 X1.039 Y0.272 Z0.000 E1.342
G1 X0.935 Y1.027 Z0.000 E1.736
G1 X0.831 Y1.263 Z0.000 E1.889
G1 X0.825 Y0.868 Z0.000 E1.497
G1 X0.954 Y0.096 Z0.000 E1.198
G1 X1.151 Y-0.588 Z0.000 E1.616
G1 X1.278 Y-0.779 Z0.000 E1.871
G1 X1.217 Y-0.357 Z0.000 E1.585
G1 X0.959 Y0.445 Z0.000 E1.322
G1 X0.632 Y1.183 Z0.000 E1.676
G1 X0.430 Y1.461 Z0.000 E1.904
G1 X0.499 Y1.155 Z0.000 E1.573
G1 X0.825 Y0.477 Z0.000 E1.191
G1 X1.225 Y-0.160 Z0.000 E1.544
G1 X1.446 Y-0.381 Z0.000 E1.869
G1 X1.316 Y-0.064 Z0.000 E1.647
G1 X0.865 Y0.605 Z0.000 E1.319
G1 X0.321 Y1.249 Z0.000 E1.612
G1 X-0.005 Y1.524 Z0.000 E1.905
G1 X0.088 Y1.314 Z0.000 E1.646
G1 X0.562 Y0.782 Z0.000 E1.204
G1 X1.147 Y0.262 Z0.000 E1.470
G1 X1.483 Y0.057 Z0.000 E1.855
G1 X1.338 Y0.268 Z0.000 E1.706
G1 X0.752 Y0.757 Z0.000 E1.334
G1 X0.029 Y1.237 Z0.000 E1.547
G1 X-0.429 Y1.453 Z0.000 E1.894
G1 X-0.359 Y1.323 Z0.000 E1.714
G1 X0.203 Y0.969 Z0.000 E1.237
G1 X0.928 Y0.624 Z0.000 E1.397
G1 X1.379 Y0.488 Z0.000 E1.828
G1 X1.265 Y0.616 Z0.000 E1.758
G1 X0.615 Y0.902 Z0.000 E1.364
G1 X-0.228 Y1.164 Z0.000 E1.483
G1 X-0.801 Y1.264 Z0.000 E1.870
G1 X-0.786 Y1.181 Z0.000 E1.774
G1 X-0.204 Y1.009 Z0.000 E1.287
G1 X0.598 Y0.879 Z0.000 E1.329
G1 X1.141 Y0.865 Z0.000 E1.790
G1 X1.088 Y0.947 Z0.000 E1.802
; Changed extrude rate to: 0.9375
; *************************************************************
G1 X-3.155 Y1.063 Z0.000 E3.121
G1 X-0.020 Y0.996 Z0.000 E0.934
G1 X-0.059 Y0.995 Z0.000 E0.934
G1 X-0.098 Y0.992 Z0.000 E0.934
G1 X-0.137 Y0.987 Z0.000 E0.934
G1 X-0.176 Y0.981 Z0.000 E0.934
G1 X-0.215 Y0.973 Z0.000 E0.934
G1 X-0.253 Y0.964 Z0.000 E0.934
G1 X-0.291 Y0.953 Z0.000 E0.934
G1 X-0.328 Y0.941 Z0.000 E0.934
G1 X-0.365 Y0.927 Z0.000 E0.934
G1 X-0.402 Y0.912 Z0.000 E0.934
G1 X-0.437 Y0.895 Z0.000 E0.934
G1 X-0.472 Y0.877 Z0.000 E0.934
G1 X-0.507 Y0.858 Z0.000 E0.934
G1 X-0.540 Y0.837 Z0.000 E0.934
G1 X-0.573 Y0.815 Z0.000 E0.934
G1 X-0.605 Y0.792 Z0.000 E0.934
G1 X-0.635 Y0.768 Z0.000 E0.934
G1 X-0.665 Y0.742 Z0.000 E0.934
G1 X-0.694 Y0.715 Z0.000 E0.934
G1 X-0.722 Y0.687 Z0.000 E0.934
G1 X-0.748 Y0.658 Z0.000 E0.934
G1 X-0.774 Y0.628 Z0.000 E0.934
G1 X-0.798 Y0.597 Z0.000 E0.934
G1 X-0.821 Y0.565 Z0.000 E0.934
G1 X-0.843 Y0.532 Z0.000 E0.934
G1 X-0.863 Y0.498 Z0.000 E0.934
G1 X-0.882 Y0.464 Z0.000 E0.934
G1 X-0.900 Y0.429 Z0.000 E0.934
G1 X-0.916 Y0.393 Z0.000 E0.934
G1 X-0.931 Y0.356 Z0.000 E0.934
G1 X-0.944 Y0.319 Z0.000 E0.934
G1 X-0.956 Y0.282 Z0.000 E0.934
G1 X-0.966 Y0.244 Z0.000 E0.934
G1 X-0.975 Y0.205 Z0.000 E0.934
G1 X-0.982 Y0.167 Z0.000 E0.934
G1 X-0.988 Y0.128 Z0.000 E0.934
G1 X-0.993 Y0.088 Z0.000 E0.934
G1 X-0.995 Y0.049 Z0.000 E0.934
G1 X-0.996 Y0.010 Z0.000 E0.934
G1 X-0.996 Y-0.030 Z0.000 E0.934
G1 X-0.994 Y-0.069 Z0.000 E0.934
G1 X-0.991 Y-0.108 Z0.000 E0.934
G1 X-0.986 Y-0.147 Z0.000 E0.934
G1 X-0.979 Y-0.186 Z0.000 E0.934
G1 X-0.971 Y-0.224 Z0.000 E0.934
G1 X-0.961 Y-0.263 Z0.000 E0.934
G1 X-0.950 Y-0.300 Z0.000 E0.934
G1 X-0.937 Y-0.338 Z0.000 E0.934
G1 X-0.923 Y-0.374 Z0.000 E0.934
G1 X-0.908 Y-0.411 Z0.000 E0.934
G1 X-0.891 Y-0.446 Z0.000 E0.934
G1 X-0.873 Y-0.481 Z0.000 E0.934
G1 X-0.853 Y-0.515 Z0.000 E0.934
G1 X-0.832 Y-0.548 Z0.000 E0.934
G1 X-0.810 Y-0.581 Z0.000 E0.934
G1 X-0.786 Y-0.612 Z0.000 E0.934
G1 X-0.761 Y-0.643 Z0.000 E0.934
G1 X-0.735 Y-0.673 Z0.000 E0.934
G1 X-0.708 Y-0.701 Z0.000 E0.934
G1 X-0.680 Y-0.729 Z0.000 E0.934
G1 X-0.651 Y-0.755 Z0.000 E0.934
G1 X-0.620 Y-0.780 Z0.000 E0.934
G1 X-0.589 Y-0.804 Z0.000 E0.934
G1 X-0.557 Y-0.826 Z0.000 E0.934
G1 X-0.524 Y-0.848 Z0.000 E0.934
G1 X-0.490 Y-0.868 Z0.000 E0.934
G1 X-0.455 Y-0.887 Z0.000 E0.934
G1 X-0.420 Y-0.904 Z0.000 E0.934
G1 X-0.384 Y-0.920 Z0.000 E0.934
G1 X-0.347 Y-0.934 Z0.000 E0.934
G1 X-0.310 Y-0.947 Z0.000 E0.934
G1 X-0.272 Y-0.959 Z0.000 E0.934
G1 X-0.234 Y-0.969 Z0.000 E0.934
G1 X-0.196 Y-0.977 Z0.000 E0.934
G1 X-0.157 Y-0.984 Z0.000 E0.934
G1 X-0.118 Y-0.989 Z0.000 E0.934
G1 X-0.079 Y-0.993 Z0.000 E0.934
G1 X-0.039 Y-0.996 Z0.000 E0.934
G1 X-0.000 Y-0.996 Z0.000 E0.934
G1 X0.039 Y-0.996 Z0.000 E0.934
G1 X0.079 Y-0.993 Z0.000 E0.934
G1 X0.118 Y-0.989 Z0.000 E0.934
G1 X0.157 Y-0.984 Z0.000 E0.934
G1 X0.196 Y-0.977 Z0.000 E0.934
G1 X0.234 Y-0.969 Z0.000 E0.934
G1 X0.272 Y-0.959 Z0.000 E0.934
G1 X0.310 Y-0.947 Z0.000 E0.934
G1 X0.347 Y-0.934 Z0.000 E0.934
G1 X0.384 Y-0.920 Z0.000 E0.934
G1 X0.420 Y-0.904 Z0.000 E0.934
G1 X0.455 Y-0.887 Z0.000 E0.934
G1 X0.490 Y-0.868 Z0.000 E0.934
G1 X0.524 Y-0.848 Z0.000 E0.934
G1 X0.557 Y-0.826 Z0.000 E0.934
G1 X0.589 Y-0.804 Z0.000 E0.934
G1 X0.620 Y-0.780 Z0.000 E0.934
G1 X0.651 Y-0.755 Z0.000 E0.934
G1 X0.680 Y-0.729 Z0.000 E0.934
G1 X0.708 Y-0.701 Z0.000 E0.934
G1 X0.735 Y-0.673 Z0.000 E0.934
G1 X0.761 Y-0.643 Z0.000 E0.934
G1 X0.786 Y-0.612 Z0.000 E0.934
G1 X0.810 Y-0.581 Z0.000 E0.934
G1 X0.832 Y-0.548 Z0.000 E0.934
G1 X0.853 Y-0.515 Z0.000 E0.934
G1 X0.873 Y-0.481 Z0.000 E0.934
G1 X0.891 Y-0.446 Z0.000 E0.934
G1 X0.908 Y-0.411 Z0.000 E0.934
G1 X0.923 Y-0.374 Z0.000 E0.934
G1 X0.937 Y-0.338 Z0.000 E0.934
G1 X0.950 Y-0.300 Z0.000 E0.934
G1 X0.961 Y-0.263 Z0.000 E0.934
G1 X0.971 Y-0.224 Z0.000 E0.934
G1 X0.979 Y-0.186 Z0.000 E0.934
G1 X0.986 Y-0.147 Z0.000 E0.934
G1 X0.991 Y-0.108 Z0.000 E0.934
G1 X0.994 Y-0.069 Z0.000 E0.934
G1 X0.996 Y-0.030 Z0.000 E0.934
G1 X0.996 Y0.010 Z0.000 E0.934
G1 X0.995 Y0.049 Z0.000 E0.934
G1 X0.993 Y0.088 Z0.000 E0.934
G1 X0.988 Y0.128 Z0.000 E0.934
G1 X0.982 Y0.167 Z0.000 E0.934
G1 X0.975 Y0.205 Z0.000 E0.934
G1 X0.966 Y0.244 Z0.000 E0.934
G1 X0.956 Y0.282 Z0.000 E0.934
G1 X0.944 Y0.319 Z0.000 E0.934
G1 X0.931 Y0.356 Z0.000 E0.934
G1 X0.916 Y0.393 Z0.000 E0.934
G1 X0.900 Y0.429 Z0.000 E0.934
G1 X0.882 Y0.464 Z0.000 E0.934
G1 X0.863 Y0.498 Z0.000 E0.934
G1 X0.843 Y0.532 Z0.000 E0.934
G1 X0.821 Y0.565 Z0.000 E0.934
G1 X0.798 Y0.597 Z0.000 E0.934
G1 X0.774 Y0.628 Z0.000 E0.934
G1 X0.748 Y0.658 Z0.000 E0.934
G1 X0.722 Y0.687 Z0.000 E0.934
G1 X0.694 Y0.715 Z0.000 E0.934
G1 X0.665 Y0.742 Z0.000 E0.934
G1 X0.635 Y0.768 Z0.000 E0.934
G1 X0.605 Y0.792 Z0.000 E0.934
G1 X0.573 Y0.815 Z0.000 E0.934
G1 X0.540 Y0.837 Z0.000 E0.934
G1 X0.507 Y0.858 Z0.000 E0.934
G1 X0.472 Y0.877 Z0.000 E0.934
G1 X0.437 Y0.895 Z0.000 E0.934
G1 X0.402 Y0.912 Z0.000 E0.934
G1 X0.365 Y0.927 Z0.000 E0.934
G1 X0.328 Y0.941 Z0.000 E0.934
G1 X0.291 Y0.953 Z0.000 E0.934
G1 X0.253 Y0.964 Z0.000 E0.934
G1 X0.215 Y0.973 Z0.000 E0.934
G1 X0.176 Y0.981 Z0.000 E0.934
G1 X0.137 Y0.987 Z0.000 E0.934
G1 X0.098 Y0.992 Z0.000 E0.934
G1 X0.059 Y0.995 Z0.000 E0.934
G1 X0.020 Y0.996 Z0.000 E0.934
G1 X-2.100 Y-0.000 Z0.000 E1.969
G1 X-0.021 Y0.995 Z0.000 E0.933
G1 X-0.064 Y0.993 Z0.000 E0.933
G1 X-0.107 Y0.989 Z0.000 E0.933
G1 X-0.149 Y0.984 Z0.000 E0.933
G1 X-0.191 Y0.976 Z0.000 E0.933
G1 X-0.233 Y0.967 Z0.000 E0.933
G1 X-0.275 Y0.956 Z0.000 E0.933
G1 X-0.316 Y0.943 Z0.000 E0.933
G1 X-0.356 Y0.929 Z0.000 E0.933
G1 X-0.395 Y0.913 Z0.000 E0.933
G1 X-0.434 Y0.895 Z0.000 E0.933
G1 X-0.472 Y0.875 Z0.000 E0.933
G1 X-0.510 Y0.854 Z0.000 E0.933
G1 X-0.546 Y0.832 Z0.000 E0.933
G1 X-0.581 Y0.807 Z0.000 E0.933
G1 X-0.615 Y0.782 Z0.000 E0.933
G1 X-0.649 Y0.754 Z0.000 E0.933
G1 X-0.680 Y0.726 Z0.000 E0.933
G1 X-0.711 Y0.696 Z0.000 E0.933
G1 X-0.740 Y0.665 Z0.000 E0.933
G1 X-0.768 Y0.632 Z0.000 E0.933
G1 X-0.795 Y0.598 Z0.000 E0.933
G1 X-0.820 Y0.564 Z0.000 E0.933
G1 X-0.843 Y0.528 Z0.000 E0.933
G1 X-0.865 Y0.491 Z-0.000 E0.933
G1 X-0.885 Y0.454 Z0.000 E0.933
G1 X-0.904 Y0.415 Z0.000 E0.933
G1 X-0.921 Y0.376 Z0.000 E0.933
G1 X-0.936 Y0.336 Z0.000 E0.933
G1 X-0.950 Y0.295 Z0.000 E0.933
G1 X-0.962 Y0.254 Z0.000 E0.933
G1 X-0.972 Y0.212 Z0.000 E0.933
G1 X-0.980 Y0.170 Z0.000 E0.933
G1 X-0.987 Y0.128 Z0.000 E0.933
G1 X-0.991 Y0.086 Z0.000 E0.933
G1 X-0.994 Y0.043 Z0.000 E0.933
G1 X-0.995 Y0.000 Z0.000 E0.933
G1 X-0.994 Y-0.043 Z0.000 E0.933
G1 X-0.991 Y-0.086 Z0.000 E0.933
G1 X-0.987 Y-0.128 Z0.000 E0.933
G1 X-0.980 Y-0.170 Z0.000 E0.933
G1 X-0.972 Y-0.212 Z0.000 E0.933
G1 X-0.962 Y-0.254 Z0.000 E0.933
G1 X-0.950 Y-0.295 Z0.000 E0.933
G1 X-0.936 Y-0.336 Z0.000 E0.933
G1 X-0.921 Y-0.376 Z0.000 E0.933
G1 X-0.904 Y-0.415 Z0.000 E0.933
G1 X-0.885 Y-0.454 Z0.000 E0.933
G1 X-0.865 Y-0.491 Z-0.000 E0.933
G1 X-0.843 Y-0.528 Z0.000 E0.933
G1 X-0.820 Y-0.564 Z0.000 E0.933
G1 X-0.795 Y-0.598 Z0.000 E0.933
G1 X-0.768 Y-0.632 Z0.000 E0.933
G1 X-0.740 Y-0.665 Z0.000 E0.933
G1 X-0.711 Y-0.696 Z0.000 E0.933
G1 X-0.680 Y-0.726 Z0.000 E0.933
G1 X-0.649 Y-0.754 Z0.000 E0.933
G1 X-0.615 Y-0.782 Z0.000 E0.933
G1 X-0.581 Y-0.807 Z0.000 E0.933
G1 X-0.546 Y-0.832 Z0.000 E0.933
G1 X-0.510 Y-0.854 Z-0.000 E0.933
G1 X-0.472 Y-0.875 Z0.000 E0.933
G1 X-0.434 Y-0.895 Z0.000 E0.933
G1 X-0.395 Y-0.913 Z0.000 E0.933
G1 X-0.356 Y-0.929 Z0.000 E0.933
G1 X-0.316 Y-0.943 Z0.000 E0.933
G1 X-0.275 Y-0.956 Z0.000 E0.933
G1 X-0.233 Y-0.967 Z0.000 E0.933
G1 X-0.191 Y-0.976 Z0.000 E0.933
G1 X-0.149 Y-0.984 Z0.000 E0.933
G1 X-0.107 Y-0.989 Z0.000 E0.933
G1 X-0.064 Y-0.993 Z0.000 E0.933
G1 X-0.021 Y-0.995 Z0.000 E0.933
G1 X0.021 Y-0.995 Z0.000 E0.933
G1 X0.064 Y-0.993 Z0.000 E0.933
G1 X0.107 Y-0.989 Z0.000 E0.933
G1 X0.149 Y-0.984 Z0.000 E0.933
G1 X0.191 Y-0.976 Z0.000 E0.933
G1 X0.233 Y-0.967 Z0.000 E0.933
G1 X0.275 Y-0.956 Z0.000 E0.933
G1 X0.316 Y-0.943 Z0.000 E0.933
G1 X0.356 Y-0.929 Z0.000 E0.933
G1 X0.395 Y-0.913 Z0.000 E0.933
G1 X0.434 Y-0.895 Z0.000 E0.933
G1 X0.472 Y-0.875 Z0.000 E0.933
G1 X0.510 Y-0.854 Z-0.000 E0.933
G1 X0.546 Y-0.832 Z0.000 E0.933
G1 X0.581 Y-0.807 Z0.000 E0.933
G1 X0.615 Y-0.782 Z0.000 E0.933
G1 X0.649 Y-0.754 Z0.000 E0.933
G1 X0.680 Y-0.726 Z0.000 E0.933
G1 X0.711 Y-0.696 Z0.000 E0.933
G1 X0.740 Y-0.665 Z0.000 E0.933
G1 X0.768 Y-0.632 Z0.000 E0.933
G1 X0.795 Y-0.598 Z0.000 E0.933
G1 X0.820 Y-0.564 Z0.000 E0.933
G1 X0.843 Y-0.528 Z0.000 E0.933
G1 X0.865 Y-0.491 Z0.000 E0.933
G1 X0.885 Y-0.454 Z0.000 E0.933
G1 X0.904 Y-0.415 Z0.000 E0.933
G1 X0.921 Y-0.376 Z0.000 E0.933
G1 X0.936 Y-0.336 Z0.000 E0.933
G1 X0.950 Y-0.295 Z0.000 E0.933
G1 X0.962 Y-0.254 Z0.000 E0.933
G1 X0.972 Y-0.212 Z0.000 E0.933
G1 X0.980 Y-0.170 Z0.000 E0.933
G1 X0.987 Y-0.128 Z0.000 E0.933
G1 X0.991 Y-0.086 Z0.000 E0.933
G1 X0.994 Y-0.043 Z0.000 E0.933
G1 X0.995 Y-0.000 Z0.000 E0.933
G1 X0.994 Y0.043 Z0.000 E0.933
G1 X0.991 Y0.086 Z0.000 E0.933
G1 X0.987 Y0.128 Z0.000 E0.933
G1 X0.980 Y0.170 Z0.000 E0.933
G1 X0.972 Y0.212 Z0.000 E0.933
G1 X0.962 Y0.254 Z0.000 E0.933
G1 X0.950 Y0.295 Z0.000 E0.933
G1 X0.936 Y0.336 Z0.000 E0.933
G1 X0.921 Y0.376 Z0.000 E0.933
G1 X0.904 Y0.415 Z0.000 E0.933
G1 X0.885 Y0.454 Z0.000 E0.933
G1 X0.865 Y0.491 Z0.000 E0.933
G1 X0.843 Y0.528 Z0.000 E0.933
G1 X0.820 Y0.564 Z0.000 E0.933
G1 X0.795 Y0.598 Z0.000 E0.933
G1 X0.768 Y0.632 Z0.000 E0.933
G1 X0.740 Y0.665 Z0.000 E0.933
G1 X0.711 Y0.696 Z0.000 E0.933
G1 X0.680 Y0.726 Z0.000 E0.933
G1 X0.649 Y0.754 Z0.000 E0.933
G1 X0.615 Y0.782 Z0.000 E0.933
G1 X0.581 Y0.807 Z0.000 E0.933
G1 X0.546 Y0.832 Z0.000 E0.933
G1 X0.510 Y0.854 Z0.000 E0.933
G1 X0.472 Y0.875 Z0.000 E0.933
G1 X0.434 Y0.895 Z0.000 E0.933
G1 X0.395 Y0.913 Z0.000 E0.933
G1 X0.356 Y0.929 Z0.000 E0.933
G1 X0.316 Y0.943 Z0.000 E0.933
G1 X0.275 Y0.956 Z0.000 E0.933
G1 X0.233 Y0.967 Z0.000 E0.933
G1 X0.191 Y0.976 Z0.000 E0.933
G1 X0.149 Y0.984 Z0.000 E0.933
G1 X0.107 Y0.989 Z0.000 E0.933
G1 X0.064 Y0.993 Z0.000 E0.933
G1 X0.021 Y0.995 Z0.000 E0.933
G1 X-2.100 Y0.000 Z0.000 E1.969
G1 X-0.023 Y0.993 Z0.000 E0.931
G1 X-0.070 Y0.990 Z0.000 E0.931
G1 X-0.117 Y0.986 Z0.000 E0.931
G1 X-0.163 Y0.979 Z0.000 E0.931
G1 X-0.209 Y0.970 Z0.000 E0.931
G1 X-0.255 Y0.959 Z0.000 E0.931
G1 X-0.300 Y0.946 Z0.000 E0.931
G1 X-0.344 Y0.931 Z0.000 E0.931
G1 X-0.388 Y0.914 Z0.000 E0.931
G1 X-0.431 Y0.894 Z0.000 E0.931
G1 X-0.473 Y0.873 Z0.000 E0.931
G1 X-0.513 Y0.850 Z0.000 E0.931
G1 X-0.553 Y0.825 Z0.000 E0.931
G1 X-0.591 Y0.798 Z0.000 E0.931
G1 X-0.628 Y0.769 Z0.000 E0.931
G1 X-0.664 Y0.738 Z0.000 E0.931
G1 X-0.698 Y0.706 Z0.000 E0.931
G1 X-0.730 Y0.672 Z0.000 E0.931
G1 X-0.761 Y0.637 Z0.000 E0.931
G1 X-0.791 Y0.601 Z0.000 E0.931
G1 X-0.818 Y0.563 Z0.000 E0.931
G1 X-0.844 Y0.523 Z0.000 E0.931
G1 X-0.868 Y0.483 Z-0.000 E0.931
G1 X-0.889 Y0.441 Z0.000 E0.931
G1 X-0.909 Y0.399 Z0.000 E0.931
G1 X-0.927 Y0.355 Z0.000 E0.931
G1 X-0.943 Y0.311 Z0.000 E0.931
G1 X-0.956 Y0.266 Z0.000 E0.931
G1 X-0.968 Y0.221 Z0.000 E0.931
G1 X-0.977 Y0.175 Z0.000 E0.931
G1 X-0.984 Y0.129 Z0.000 E0.931
G1 X-0.989 Y0.082 Z0.000 E0.931
G1 X-0.992 Y0.035 Z0.000 E0.931
G1 X-0.993 Y-0.012 Z0.000 E0.931
G1 X-0.991 Y-0.059 Z0.000 E0.931
G1 X-0.987 Y-0.105 Z0.000 E0.931
G1 X-0.981 Y-0.152 Z0.000 E0.931
G1 X-0.973 Y-0.198 Z0.000 E0.931
G1 X-0.962 Y-0.244 Z0.000 E0.931
G1 X-0.950 Y-0.289 Z0.000 E0.931
G1 X-0.935 Y-0.333 Z0.000 E0.931
G1 X-0.918 Y-0.377 Z0.000 E0.931
G1 X-0.900 Y-0.420 Z0.000 E0.931
G1 X-0.879 Y-0.462 Z0.000 E0.931
G1 X-0.856 Y-0.503 Z-0.000 E0.931
G1 X-0.831 Y-0.543 Z0.000 E0.931
G1 X-0.805 Y-0.582 Z0.000 E0.931
G1 X-0.776 Y-0.619 Z0.000 E0.931
G1 X-0.746 Y-0.655 Z0.000 E0.931
G1 X-0.714 Y-0.689 Z0.000 E0.931
G1 X-0.681 Y-0.722 Z0.000 E0.931
G1 X-0.646 Y-0.754 Z0.000 E0.931
G1 X-0.610 Y-0.783 Z0.000 E0.931
G1 X-0.572 Y-0.811 Z0.000 E0.931
G1 X-0.533 Y-0.838 Z0.000 E0.931
G1 X-0.493 Y-0.862 Z-0.000 E0.931
G1 X-0.452 Y-0.884 Z0.000 E0.931
G1 X-0.410 Y-0.904 Z0.000 E0.931
G1 X-0.366 Y-0.923 Z0.000 E0.931
G1 X-0.322 Y-0.939 Z0.000 E0.931
G1 X-0.278 Y-0.953 Z0.000 E0.931
G1 X-0.232 Y-0.965 Z0.000 E0.931
G1 X-0.186 Y-0.975 Z0.000 E0.931
G1 X-0.140 Y-0.983 Z0.000 E0.931
G1 X-0.094 Y-0.988 Z0.000 E0.931
G1 X-0.047 Y-0.992 Z0.000 E0.931
G1 X-0.000 Y-0.993 Z0.000 E0.931
G1 X0.047 Y-0.992 Z0.000 E0.931
G1 X0.094 Y-0.988 Z0.000 E0.931
G1 X0.140 Y-0.983 Z0.000 E0.931
G1 X0.186 Y-0.975 Z0.000 E0.931
G1 X0.232 Y-0.965 Z0.000 E0.931
G1 X0.278 Y-0.953 Z0.000 E0.931
G1 X0.322 Y-0.939 Z0.000 E0.931
G1 X0.366 Y-0.923 Z0.000 E0.931
G1 X0.410 Y-0.904 Z0.000 E0.931
G1 X0.452 Y-0.884 Z0.000 E0.931
G1 X0.493 Y-0.862 Z-0.000 E0.931
G1 X0.533 Y-0.838 Z0.000 E0.931
G1 X0.572 Y-0.811 Z0.000 E0.931
G1 X0.610 Y-0.783 Z0.000 E0.931
G1 X0.646 Y-0.754 Z0.000 E0.931
G1 X0.681 Y-0.722 Z0.000 E0.931
G1 X0.714 Y-0.689 Z0.000 E0.931
G1 X0.746 Y-0.655 Z0.000 E0.931
G1 X0.776 Y-0.619 Z0.000 E0.931
G1 X0.805 Y-0.582 Z0.000 E0.931
G1 X0.831 Y-0.543 Z0.000 E0.931
G1 X0.856 Y-0.503 Z0.000 E0.931
G1 X0.879 Y-0.462 Z0.000 E0.931
G1 X0.900 Y-0.420 Z0.000 E0.931
G1 X0.918 Y-0.377 Z0.000 E0.931
G1 X0.935 Y-0.333 Z0.000 E0.931
G1 X0.950 Y-0.289 Z0.000 E0.931
G1 X0.962 Y-0.244 Z0.000 E0.931
G1 X0.973 Y-0.198 Z0.000 E0.931
G1 X0.981 Y-0.152 Z0.000 E0.931
G1 X0.987 Y-0.105 Z0.000 E0.931
G1 X0.991 Y-0.059 Z0.000 E0.931
G1 X0.993 Y-0.012 Z0.000 E0.931
G1 X0.992 Y0.035 Z0.000 E0.931
G1 X0.989 Y0.082 Z0.000 E0.931
G1 X0.984 Y0.129 Z0.000 E0.931
G1 X0.977 Y0.175 Z0.000 E0.931
G1 X0.968 Y0.221 Z0.000 E0.931
G1 X0.956 Y0.266 Z0.000 E0.931
G1 X0.943 Y0.311 Z0.000 E0.931
G1 X0.927 Y0.355 Z0.000 E0.931
G1 X0.909 Y0.399 Z0.000 E0.931
G1 X0.889 Y0.441 Z0.000 E0.931
G1 X0.868 Y0.483 Z0.000 E0.931
G1 X0.844 Y0.523 Z0.000 E0.931
G1 X0.818 Y0.563 Z0.000 E0.931
G1 X0.791 Y0.601 Z0.000 E0.931
G1 X0.761 Y0.637 Z0.000 E0.931
G1 X0.730 Y0.672 Z0.000 E0.931
G1 X0.698 Y0.706 Z0.000 E0.931
G1 X0.664 Y0.738 Z0.000 E0.931
G1 X0.628 Y0.769 Z0.000 E0.931
G1 X0.591 Y0.798 Z0.000 E0.931
G1 X0.553 Y0.825 Z0.000 E0.931
G1 X0.513 Y0.850 Z0.000 E0.931
G1 X0.473 Y0.873 Z0.000 E0.931
G1 X0.431 Y0.894 Z0.000 E0.931
G1 X0.388 Y0.914 Z0.000 E0.931
G1 X0.344 Y0.931 Z0.000 E0.931
G1 X0.300 Y0.946 Z0.000 E0.931
G1 X0.255 Y0.959 Z0.000 E0.931
G1 X0.209 Y0.970 Z0.000 E0.931
G1 X0.163 Y0.979 Z0.000 E0.931
G1 X0.117 Y0.986 Z0.000 E0.931
G1 X0.070 Y0.990 Z0.000 E0.931
G1 X0.023 Y0.993 Z0.000 E0.931
G1 X-2.100 Y0.000 Z0.000 E1.969
G1 X-0.026 Y0.998 Z0.000 E0.936
G1 X-0.079 Y0.996 Z0.000 E0.936
G1 X-0.131 Y0.990 Z0.000 E0.936
G1 X-0.184 Y0.982 Z0.000 E0.936
G1 X-0.235 Y0.971 Z0.000 E0.936
G1 X-0.286 Y0.957 Z0.000 E0.936
G1 X-0.336 Y0.940 Z0.000 E0.936
G1 X-0.385 Y0.921 Z0.000 E0.936
G1 X-0.433 Y0.900 Z0.000 E0.936
G1 X-0.480 Y0.876 Z0.000 E0.936
G1 X-0.526 Y0.849 Z0.000 E0.936
G1 X-0.570 Y0.820 Z0.000 E0.936
G1 X-0.612 Y0.789 Z0.000 E0.936
G1 X-0.653 Y0.756 Z0.000 E0.936
G1 X-0.692 Y0.720 Z0.000 E0.936
G1 X-0.729 Y0.683 Z0.000 E0.936
G1 X-0.764 Y0.643 Z0.000 E0.936
G1 X-0.797 Y0.602 Z0.000 E0.936
G1 X-0.828 Y0.559 Z0.000 E0.936
G1 X-0.856 Y0.515 Z-0.000 E0.936
G1 X-0.882 Y0.469 Z0.000 E0.936
G1 X-0.905 Y0.421 Z0.000 E0.936
G1 X-0.926 Y0.373 Z0.000 E0.936
G1 X-0.945 Y0.324 Z0.000 E0.936
G1 X-0.961 Y0.273 Z0.000 E0.936
G1 X-0.974 Y0.222 Z0.000 E0.936
G1 X-0.984 Y0.171 Z0.000 E0.936
G1 X-0.992 Y0.118 Z0.000 E0.936
G1 X-0.997 Y0.066 Z0.000 E0.936
G1 X-0.999 Y0.013 Z0.000 E0.936
G1 X-0.998 Y-0.040 Z0.000 E0.936
G1 X-0.994 Y-0.092 Z0.000 E0.936
G1 X-0.988 Y-0.145 Z0.000 E0.936
G1 X-0.979 Y-0.196 Z0.000 E0.936
G1 X-0.967 Y-0.248 Z0.000 E0.936
G1 X-0.953 Y-0.299 Z0.000 E0.936
G1 X-0.936 Y-0.348 Z0.000 E0.936
G1 X-0.916 Y-0.397 Z0.000 E0.936
G1 X-0.894 Y-0.445 Z0.000 E0.936
G1 X-0.869 Y-0.492 Z-0.000 E0.936
G1 X-0.842 Y-0.537 Z0.000 E0.936
G1 X-0.813 Y-0.581 Z0.000 E0.936
G1 X-0.781 Y-0.623 Z0.000 E0.936
G1 X-0.747 Y-0.663 Z0.000 E0.936
G1 X-0.711 Y-0.702 Z0.000 E0.936
G1 X-0.673 Y-0.738 Z0.000 E0.936
G1 X-0.633 Y-0.773 Z0.000 E0.936
G1 X-0.591 Y-0.805 Z0.000 E0.936
G1 X-0.548 Y-0.835 Z0.000 E0.936
G1 X-0.503 Y-0.863 Z-0.000 E0.936
G1 X-0.457 Y-0.888 Z0.000 E0.936
G1 X-0.409 Y-0.911 Z0.000 E0.936
G1 X-0.361 Y-0.931 Z0.000 E0.936
G1 X-0.311 Y-0.949 Z0.000 E0.936
G1 X-0.261 Y-0.964 Z0.000 E0.936
G1 X-0.209 Y-0.977 Z0.000 E0.936
G1 X-0.158 Y-0.986 Z0.000 E0.936
G1 X-0.105 Y-0.993 Z0.000 E0.936
G1 X-0.053 Y-0.997 Z0.000 E0.936
G1 X0.000 Y-0.999 Z0.000 E0.936
G1 X0.053 Y-0.997 Z0.000 E0.936
G1 X0.105 Y-0.993 Z0.000 E0.936
G1 X0.158 Y-0.986 Z0.000 E0.936
G1 X0.209 Y-0.977 Z0.000 E0.936
G1 X0.261 Y-0.964 Z0.000 E0.936
G1 X0.311 Y-0.949 Z0.000 E0.936
G1 X0.361 Y-0.931 Z0.000 E0.936
G1 X0.409 Y-0.911 Z0.000 E0.936
G1 X0.457 Y-0.888 Z0.000 E0.936
G1 X0.503 Y-0.863 Z-0.000 E0.936
G1 X0.548 Y-0.835 Z0.000 E0.936
G1 X0.591 Y-0.805 Z0.000 E0.936
G1 X0.633 Y-0.773 Z0.000 E0.936
G1 X0.673 Y-0.738 Z0.000 E0.936
G1 X0.711 Y-0.702 Z0.000 E0.936
G1 X0.747 Y-0.663 Z0.000 E0.936
G1 X0.781 Y-0.623 Z0.000 E0.936
G1 X0.813 Y-0.581 Z0.000 E0.936
G1 X0.842 Y-0.537 Z0.000 E0.936
G1 X0.869 Y-0.492 Z0.000 E0.936
G1 X0.894 Y-0.445 Z0.000 E0.936
G1 X0.916 Y-0.397 Z0.000 E0.936
G1 X0.936 Y-0.348 Z0.000 E0.936
G1 X0.953 Y-0.299 Z0.000 E0.936
G1 X0.967 Y-0.248 Z0.000 E0.936
G1 X0.979 Y-0.196 Z0.000 E0.936
G1 X0.988 Y-0.145 Z0.000 E0.936
G1 X0.994 Y-0.092 Z0.000 E0.936
G1 X0.998 Y-0.040 Z0.000 E0.936
G1 X0.999 Y0.013 Z0.000 E0.936
G1 X0.997 Y0.066 Z0.000 E0.936
G1 X0.992 Y0.118 Z0.000 E0.936
G1 X0.984 Y0.171 Z0.000 E0.936
G1 X0.974 Y0.222 Z0.000 E0.936
G1 X0.961 Y0.273 Z0.000 E0.936
G1 X0.945 Y0.324 Z0.000 E0.936
G1 X0.926 Y0.373 Z0.000 E0.936
G1 X0.905 Y0.421 Z0.000 E0.936
G1 X0.882 Y0.469 Z0.000 E0.936
G1 X0.856 Y0.515 Z0.000 E0.936
G1 X0.828 Y0.559 Z0.000 E0.936
G1 X0.797 Y0.602 Z0.000 E0.936
G1 X0.764 Y0.643 Z0.000 E0.936
G1 X0.729 Y0.683 Z0.000 E0.936
G1 X0.692 Y0.720 Z0.000 E0.936
G1 X0.653 Y0.756 Z0.000 E0.936
G1 X0.612 Y0.789 Z0.000 E0.936
G1 X0.570 Y0.820 Z0.000 E0.936
G1 X0.526 Y0.849 Z0.000 E0.936
G1 X0.480 Y0.876 Z0.000 E0.936
G1 X0.433 Y0.900 Z0.000 E0.936
G1 X0.385 Y0.921 Z0.000 E0.936
G1 X0.336 Y0.940 Z0.000 E0.936
G1 X0.286 Y0.957 Z0.000 E0.936
G1 X0.235 Y0.971 Z0.000 E0.936
G1 X0.184 Y0.982 Z0.000 E0.936
G1 X0.131 Y0.990 Z0.000 E0.936
G1 X0.079 Y0.996 Z0.000 E0.936
G1 X0.026 Y0.998 Z0.000 E0.936
