; *************************************************
; *************************************************
; ******* File generated by Extruder Turtle *******
; ******* written by Leah Buechley and  ***********
; ******* and Franklin Pezutti-Dyer ***************
; **** Hand and Machine Lab, UNM, 2021-present ****
; *************************************************
; *************************************************
; *************** Lutum initialization **************
; 300 x 300 x 400 build volume
; T0 extruder 0
; T1 extruder 1

G28            ; Home
G21	           ; Metric units
G90            ; Absolute positioning
M82            ; Absolute extrusion
M302           ; Allow cold extrusion

G1 Z15.0 F1500 ; Move up 15mm to extrude
G92 E0         ; Zero extruder
; G1 F2000 E5    ; Prime Extruder: Extrude some clay
G92 E0         ; Zero extruder

G0 F2000 X150.0 Y150.0 Z1.0 ; Move to starting position
M83 					  ; Relative extrustion
G91                       ; Relative coordinates for X,Y,Z axes
T0				; Use extruder 0

G1 F1000
; ********** End printer initialization ***********
; *************************************************

G1 X4.0277 Y0.0 E4.0277
G1 X3.9755 Y-0.6461 E4.0277
G1 X3.8204 Y-1.2754 E4.0277
G1 X3.5663 Y-1.8718 E4.0277
G1 X3.2199 Y-2.4196 E4.0277
G1 X2.7901 Y-2.9048 E4.0277
G1 X2.288 Y-3.3147 E4.0277
G1 X1.7266 Y-3.6388 E4.0277
G1 X1.1206 Y-3.8687 E4.0277
G1 X0.4855 Y-3.9983 E4.0277
G1 X-0.1622 Y-4.0244 E4.0277
G1 X-0.8056 Y-3.9463 E4.0277
G1 X-1.4282 Y-3.7659 E4.0277
G1 X-2.0138 Y-3.4881 E4.0277
G1 X-2.5473 Y-3.1199 E4.0277
G1 X-3.0148 Y-2.6708 E4.0277
G1 X-3.4042 Y-2.1527 E4.0277
G1 X-3.7054 Y-1.5787 E4.0277
G1 X-3.9106 Y-0.9639 E4.0277
G1 X-4.0146 Y-0.3241 E4.0277
G1 X-4.0146 Y0.3241 E4.0277
G1 X-3.9106 Y0.9639 E4.0277
G1 X-3.7054 Y1.5787 E4.0277
G1 X-3.4042 Y2.1527 E4.0277
G1 X-3.0148 Y2.6708 E4.0277
G1 X-2.5473 Y3.1199 E4.0277
G1 X-2.0138 Y3.4881 E4.0277
G1 X-1.4282 Y3.7659 E4.0277
G1 X-0.8056 Y3.9463 E4.0277
G1 X-0.1622 Y4.0244 E4.0277
G1 X0.4855 Y3.9983 E4.0277
G1 X1.1206 Y3.8687 E4.0277
G1 X1.7266 Y3.6388 E4.0277
G1 X2.288 Y3.3147 E4.0277
G1 X2.7901 Y2.9048 E4.0277
G1 X3.2199 Y2.4196 E4.0277
G1 X3.5663 Y1.8718 E4.0277
G1 X3.8204 Y1.2754 E4.0277
G1 X3.9755 Y0.6461 E4.0277
G1 X4.0277 Y-0.0 E4.0277
; new layer
G1 Z1.0
; ************** Tool change sequence ***************
T1
M302 ; Allow cold extrusion
G0 Z5 ; move up in Z
G90 ; absolute positioning
G0 X154.0277 F5000; move to correct X position
G91 ; relative positioning
G0 Z-5 ; move down in Z
G0 F1000 ; reset speed
; ************** Tool change sequence end ***********
G1 X3.9755 Y-0.6461 E0.0
G1 X3.8204 Y-1.2754 E0.0
G1 X3.5663 Y-1.8718 E0.0
G1 X3.2199 Y-2.4196 E0.0
G1 X2.7901 Y-2.9048 E0.0
G1 X2.288 Y-3.3147 E0.0
G1 X1.7266 Y-3.6388 E0.0
G1 X1.1206 Y-3.8687 E0.0
G1 X0.4855 Y-3.9983 E0.0
G1 X-0.1622 Y-4.0244 E0.0
G1 X-0.8056 Y-3.9463 E0.0
G1 X-1.4282 Y-3.7659 E0.0
G1 X-2.0138 Y-3.4881 E0.0
G1 X-2.5473 Y-3.1199 E0.0
G1 X-3.0148 Y-2.6708 E0.0
G1 X-3.4042 Y-2.1527 E0.0
G1 X-3.7054 Y-1.5787 E0.0
G1 X-3.9106 Y-0.9639 E0.0
G1 X-4.0146 Y-0.3241 E0.0
G1 X-4.0146 Y0.3241 E0.0
G1 X-3.9106 Y0.9639 E0.0
G1 X-3.7054 Y1.5787 E0.0
G1 X-3.4042 Y2.1527 E0.0
G1 X-3.0148 Y2.6708 E0.0
G1 X-2.5473 Y3.1199 E0.0
G1 X-2.0138 Y3.4881 E0.0
G1 X-1.4282 Y3.7659 E0.0
G1 X-0.8056 Y3.9463 E0.0
G1 X-0.1622 Y4.0244 E0.0
G1 X0.4855 Y3.9983 E0.0
G1 X1.1206 Y3.8687 E0.0
G1 X1.7266 Y3.6388 E0.0
G1 X2.288 Y3.3147 E0.0
G1 X2.7901 Y2.9048 E0.0
G1 X3.2199 Y2.4196 E0.0
G1 X3.5663 Y1.8718 E0.0
G1 X3.8204 Y1.2754 E0.0
G1 X3.9755 Y0.6461 E0.0
G1 X4.0277 Y-0.0 E0.0
G1 X3.9755 Y-0.6461 E0.0
G1 Z1.0
; ************** Tool change sequence ***************
T0
M302 ; Allow cold extrusion
G0 Z5 ; move up in Z
G90 ; absolute positioning
G0 X158.0032 F5000; move to correct X position
G91 ; relative positioning
G0 Z-5 ; move down in Z
G0 F1000 ; reset speed
; ************** Tool change sequence end ***********
G1 X3.8204 Y-1.2754 E4.0277
G1 X3.5663 Y-1.8718 E4.0277
G1 X3.2199 Y-2.4196 E4.0277
G1 X2.7901 Y-2.9048 E4.0277
G1 X2.288 Y-3.3147 E4.0277
G1 X1.7266 Y-3.6388 E4.0277
G1 X1.1206 Y-3.8687 E4.0277
G1 X0.4855 Y-3.9983 E4.0277
G1 X-0.1622 Y-4.0244 E4.0277
G1 X-0.8056 Y-3.9463 E4.0277
G1 X-1.4282 Y-3.7659 E4.0277
G1 X-2.0138 Y-3.4881 E4.0277
G1 X-2.5473 Y-3.1199 E4.0277
G1 X-3.0148 Y-2.6708 E4.0277
G1 X-3.4042 Y-2.1527 E4.0277
G1 X-3.7054 Y-1.5787 E4.0277
G1 X-3.9106 Y-0.9639 E4.0277
G1 X-4.0146 Y-0.3241 E4.0277
G1 X-4.0146 Y0.3241 E4.0277
G1 X-3.9106 Y0.9639 E4.0277
G1 X-3.7054 Y1.5787 E4.0277
G1 X-3.4042 Y2.1527 E4.0277
G1 X-3.0148 Y2.6708 E4.0277
G1 X-2.5473 Y3.1199 E4.0277
G1 X-2.0138 Y3.4881 E4.0277
G1 X-1.4282 Y3.7659 E4.0277
G1 X-0.8056 Y3.9463 E4.0277
G1 X-0.1622 Y4.0244 E4.0277
G1 X0.4855 Y3.9983 E4.0277
G1 X1.1206 Y3.8687 E4.0277
G1 X1.7266 Y3.6388 E4.0277
G1 X2.288 Y3.3147 E4.0277
G1 X2.7901 Y2.9048 E4.0277
G1 X3.2199 Y2.4196 E4.0277
G1 X3.5663 Y1.8718 E4.0277
G1 X3.8204 Y1.2754 E4.0277
G1 X3.9755 Y0.6461 E4.0277
G1 X4.0277 Y-0.0 E4.0277
G1 X3.9755 Y-0.6461 E4.0277
G1 X3.8204 Y-1.2754 E4.0277
; new layer
G1 Z1.0
; ************** Tool change sequence ***************
T1
M302 ; Allow cold extrusion
G0 Z5 ; move up in Z
G90 ; absolute positioning
G0 X161.8236 F5000; move to correct X position
G91 ; relative positioning
G0 Z-5 ; move down in Z
G0 F1000 ; reset speed
; ************** Tool change sequence end ***********
G1 X3.5663 Y-1.8718 E0.0
G1 X3.2199 Y-2.4196 E0.0
G1 X2.7901 Y-2.9048 E0.0
G1 X2.288 Y-3.3147 E0.0
G1 X1.7266 Y-3.6388 E0.0
G1 X1.1206 Y-3.8687 E0.0
G1 X0.4855 Y-3.9983 E0.0
G1 X-0.1622 Y-4.0244 E0.0
G1 X-0.8056 Y-3.9463 E0.0
G1 X-1.4282 Y-3.7659 E0.0
G1 X-2.0138 Y-3.4881 E0.0
G1 X-2.5473 Y-3.1199 E0.0
G1 X-3.0148 Y-2.6708 E0.0
G1 X-3.4042 Y-2.1527 E0.0
G1 X-3.7054 Y-1.5787 E0.0
G1 X-3.9106 Y-0.9639 E0.0
G1 X-4.0146 Y-0.3241 E0.0
G1 X-4.0146 Y0.3241 E0.0
G1 X-3.9106 Y0.9639 E0.0
G1 X-3.7054 Y1.5787 E0.0
G1 X-3.4042 Y2.1527 E0.0
G1 X-3.0148 Y2.6708 E0.0
G1 X-2.5473 Y3.1199 E0.0
G1 X-2.0138 Y3.4881 E0.0
G1 X-1.4282 Y3.7659 E0.0
G1 X-0.8056 Y3.9463 E0.0
G1 X-0.1622 Y4.0244 E0.0
G1 X0.4855 Y3.9983 E0.0
G1 X1.1206 Y3.8687 E0.0
G1 X1.7266 Y3.6388 E0.0
G1 X2.288 Y3.3147 E0.0
G1 X2.7901 Y2.9048 E0.0
G1 X3.2199 Y2.4196 E0.0
G1 X3.5663 Y1.8718 E0.0
G1 X3.8204 Y1.2754 E0.0
G1 X3.9755 Y0.6461 E0.0
G1 X4.0277 Y-0.0 E0.0
G1 X3.9755 Y-0.6461 E0.0
G1 X3.8204 Y-1.2754 E0.0
G1 X3.5663 Y-1.8718 E0.0
G1 Z1.0
; ************** Tool change sequence ***************
T0
M302 ; Allow cold extrusion
G0 Z5 ; move up in Z
G90 ; absolute positioning
G0 X165.3899 F5000; move to correct X position
G91 ; relative positioning
G0 Z-5 ; move down in Z
G0 F1000 ; reset speed
; ************** Tool change sequence end ***********
G1 X3.2199 Y-2.4196 E4.0277
G1 X2.7901 Y-2.9048 E4.0277
G1 X2.288 Y-3.3147 E4.0277
G1 X1.7266 Y-3.6388 E4.0277
G1 X1.1206 Y-3.8687 E4.0277
G1 X0.4855 Y-3.9983 E4.0277
G1 X-0.1622 Y-4.0244 E4.0277
G1 X-0.8056 Y-3.9463 E4.0277
G1 X-1.4282 Y-3.7659 E4.0277
G1 X-2.0138 Y-3.4881 E4.0277
G1 X-2.5473 Y-3.1199 E4.0277
G1 X-3.0148 Y-2.6708 E4.0277
G1 X-3.4042 Y-2.1527 E4.0277
G1 X-3.7054 Y-1.5787 E4.0277
G1 X-3.9106 Y-0.9639 E4.0277
G1 X-4.0146 Y-0.3241 E4.0277
G1 X-4.0146 Y0.3241 E4.0277
G1 X-3.9106 Y0.9639 E4.0277
G1 X-3.7054 Y1.5787 E4.0277
G1 X-3.4042 Y2.1527 E4.0277
G1 X-3.0148 Y2.6708 E4.0277
G1 X-2.5473 Y3.1199 E4.0277
G1 X-2.0138 Y3.4881 E4.0277
G1 X-1.4282 Y3.7659 E4.0277
G1 X-0.8056 Y3.9463 E4.0277
G1 X-0.1622 Y4.0244 E4.0277
G1 X0.4855 Y3.9983 E4.0277
G1 X1.1206 Y3.8687 E4.0277
G1 X1.7266 Y3.6388 E4.0277
G1 X2.288 Y3.3147 E4.0277
G1 X2.7901 Y2.9048 E4.0277
G1 X3.2199 Y2.4196 E4.0277
G1 X3.5663 Y1.8718 E4.0277
G1 X3.8204 Y1.2754 E4.0277
G1 X3.9755 Y0.6461 E4.0277
G1 X4.0277 Y-0.0 E4.0277
G1 X3.9755 Y-0.6461 E4.0277
G1 X3.8204 Y-1.2754 E4.0277
G1 X3.5663 Y-1.8718 E4.0277
G1 X3.2199 Y-2.4196 E4.0277
; new layer
G1 Z1.0
; ************** Tool change sequence ***************
T1
M302 ; Allow cold extrusion
G0 Z5 ; move up in Z
G90 ; absolute positioning
G0 X168.6099 F5000; move to correct X position
G91 ; relative positioning
G0 Z-5 ; move down in Z
G0 F1000 ; reset speed
; ************** Tool change sequence end ***********
G1 X2.7901 Y-2.9048 E0.0
G1 X2.288 Y-3.3147 E0.0
G1 X1.7266 Y-3.6388 E0.0
G1 X1.1206 Y-3.8687 E0.0
G1 X0.4855 Y-3.9983 E0.0
G1 X-0.1622 Y-4.0244 E0.0
G1 X-0.8056 Y-3.9463 E0.0
G1 X-1.4282 Y-3.7659 E0.0
G1 X-2.0138 Y-3.4881 E0.0
G1 X-2.5473 Y-3.1199 E0.0
G1 X-3.0148 Y-2.6708 E0.0
G1 X-3.4042 Y-2.1527 E0.0
G1 X-3.7054 Y-1.5787 E0.0
G1 X-3.9106 Y-0.9639 E0.0
G1 X-4.0146 Y-0.3241 E0.0
G1 X-4.0146 Y0.3241 E0.0
G1 X-3.9106 Y0.9639 E0.0
G1 X-3.7054 Y1.5787 E0.0
G1 X-3.4042 Y2.1527 E0.0
G1 X-3.0148 Y2.6708 E0.0
G1 X-2.5473 Y3.1199 E0.0
G1 X-2.0138 Y3.4881 E0.0
G1 X-1.4282 Y3.7659 E0.0
G1 X-0.8056 Y3.9463 E0.0
G1 X-0.1622 Y4.0244 E0.0
G1 X0.4855 Y3.9983 E0.0
G1 X1.1206 Y3.8687 E0.0
G1 X1.7266 Y3.6388 E0.0
G1 X2.288 Y3.3147 E0.0
G1 X2.7901 Y2.9048 E0.0
G1 X3.2199 Y2.4196 E0.0
G1 X3.5663 Y1.8718 E0.0
G1 X3.8204 Y1.2754 E0.0
G1 X3.9755 Y0.6461 E0.0
G1 X4.0277 Y-0.0 E0.0
G1 X3.9755 Y-0.6461 E0.0
G1 X3.8204 Y-1.2754 E0.0
G1 X3.5663 Y-1.8718 E0.0
G1 X3.2199 Y-2.4196 E0.0
G1 X2.7901 Y-2.9048 E0.0
G1 Z1.0
; ************** Tool change sequence ***************
T0
M302 ; Allow cold extrusion
G0 Z5 ; move up in Z
G90 ; absolute positioning
G0 X171.3999 F5000; move to correct X position
G91 ; relative positioning
G0 Z-5 ; move down in Z
G0 F1000 ; reset speed
; ************** Tool change sequence end ***********
G1 X2.288 Y-3.3147 E4.0277
G1 X1.7266 Y-3.6388 E4.0277
G1 X1.1206 Y-3.8687 E4.0277
G1 X0.4855 Y-3.9983 E4.0277
G1 X-0.1622 Y-4.0244 E4.0277
G1 X-0.8056 Y-3.9463 E4.0277
G1 X-1.4282 Y-3.7659 E4.0277
G1 X-2.0138 Y-3.4881 E4.0277
G1 X-2.5473 Y-3.1199 E4.0277
G1 X-3.0148 Y-2.6708 E4.0277
G1 X-3.4042 Y-2.1527 E4.0277
G1 X-3.7054 Y-1.5787 E4.0277
G1 X-3.9106 Y-0.9639 E4.0277
G1 X-4.0146 Y-0.3241 E4.0277
G1 X-4.0146 Y0.3241 E4.0277
G1 X-3.9106 Y0.9639 E4.0277
G1 X-3.7054 Y1.5787 E4.0277
G1 X-3.4042 Y2.1527 E4.0277
G1 X-3.0148 Y2.6708 E4.0277
G1 X-2.5473 Y3.1199 E4.0277
G1 X-2.0138 Y3.4881 E4.0277
G1 X-1.4282 Y3.7659 E4.0277
G1 X-0.8056 Y3.9463 E4.0277
G1 X-0.1622 Y4.0244 E4.0277
G1 X0.4855 Y3.9983 E4.0277
G1 X1.1206 Y3.8687 E4.0277
G1 X1.7266 Y3.6388 E4.0277
G1 X2.288 Y3.3147 E4.0277
G1 X2.7901 Y2.9048 E4.0277
G1 X3.2199 Y2.4196 E4.0277
G1 X3.5663 Y1.8718 E4.0277
G1 X3.8204 Y1.2754 E4.0277
G1 X3.9755 Y0.6461 E4.0277
G1 X4.0277 Y-0.0 E4.0277
G1 X3.9755 Y-0.6461 E4.0277
G1 X3.8204 Y-1.2754 E4.0277
G1 X3.5663 Y-1.8718 E4.0277
G1 X3.2199 Y-2.4196 E4.0277
G1 X2.7901 Y-2.9048 E4.0277
G1 X2.288 Y-3.3147 E4.0277
; new layer
G1 Z1.0
; ************** Tool change sequence ***************
T1
M302 ; Allow cold extrusion
G0 Z5 ; move up in Z
G90 ; absolute positioning
G0 X173.6879 F5000; move to correct X position
G91 ; relative positioning
G0 Z-5 ; move down in Z
G0 F1000 ; reset speed
; ************** Tool change sequence end ***********
G1 X1.7266 Y-3.6388 E0.0
G1 X1.1206 Y-3.8687 E0.0
G1 X0.4855 Y-3.9983 E0.0
G1 X-0.1622 Y-4.0244 E0.0
G1 X-0.8056 Y-3.9463 E0.0
G1 X-1.4282 Y-3.7659 E0.0
G1 X-2.0138 Y-3.4881 E0.0
G1 X-2.5473 Y-3.1199 E0.0
G1 X-3.0148 Y-2.6708 E0.0
G1 X-3.4042 Y-2.1527 E0.0
G1 X-3.7054 Y-1.5787 E0.0
G1 X-3.9106 Y-0.9639 E0.0
G1 X-4.0146 Y-0.3241 E0.0
G1 X-4.0146 Y0.3241 E0.0
G1 X-3.9106 Y0.9639 E0.0
G1 X-3.7054 Y1.5787 E0.0
G1 X-3.4042 Y2.1527 E0.0
G1 X-3.0148 Y2.6708 E0.0
G1 X-2.5473 Y3.1199 E0.0
G1 X-2.0138 Y3.4881 E0.0
G1 X-1.4282 Y3.7659 E0.0
G1 X-0.8056 Y3.9463 E0.0
G1 X-0.1622 Y4.0244 E0.0
G1 X0.4855 Y3.9983 E0.0
G1 X1.1206 Y3.8687 E0.0
G1 X1.7266 Y3.6388 E0.0
G1 X2.288 Y3.3147 E0.0
G1 X2.7901 Y2.9048 E0.0
G1 X3.2199 Y2.4196 E0.0
G1 X3.5663 Y1.8718 E0.0
G1 X3.8204 Y1.2754 E0.0
G1 X3.9755 Y0.6461 E0.0
G1 X4.0277 Y-0.0 E0.0
G1 X3.9755 Y-0.6461 E0.0
G1 X3.8204 Y-1.2754 E0.0
G1 X3.5663 Y-1.8718 E0.0
G1 X3.2199 Y-2.4196 E0.0
G1 X2.7901 Y-2.9048 E0.0
G1 X2.288 Y-3.3147 E0.0
G1 X1.7266 Y-3.6388 E0.0
G1 Z1.0
; ************** Tool change sequence ***************
T0
M302 ; Allow cold extrusion
G0 Z5 ; move up in Z
G90 ; absolute positioning
G0 X175.4145 F5000; move to correct X position
G91 ; relative positioning
G0 Z-5 ; move down in Z
G0 F1000 ; reset speed
; ************** Tool change sequence end ***********
G1 X1.1206 Y-3.8687 E4.0277
G1 X0.4855 Y-3.9983 E4.0277
G1 X-0.1622 Y-4.0244 E4.0277
G1 X-0.8056 Y-3.9463 E4.0277
G1 X-1.4282 Y-3.7659 E4.0277
G1 X-2.0138 Y-3.4881 E4.0277
G1 X-2.5473 Y-3.1199 E4.0277
G1 X-3.0148 Y-2.6708 E4.0277
G1 X-3.4042 Y-2.1527 E4.0277
G1 X-3.7054 Y-1.5787 E4.0277
G1 X-3.9106 Y-0.9639 E4.0277
G1 X-4.0146 Y-0.3241 E4.0277
G1 X-4.0146 Y0.3241 E4.0277
G1 X-3.9106 Y0.9639 E4.0277
G1 X-3.7054 Y1.5787 E4.0277
G1 X-3.4042 Y2.1527 E4.0277
G1 X-3.0148 Y2.6708 E4.0277
G1 X-2.5473 Y3.1199 E4.0277
G1 X-2.0138 Y3.4881 E4.0277
G1 X-1.4282 Y3.7659 E4.0277
G1 X-0.8056 Y3.9463 E4.0277
G1 X-0.1622 Y4.0244 E4.0277
G1 X0.4855 Y3.9983 E4.0277
G1 X1.1206 Y3.8687 E4.0277
G1 X1.7266 Y3.6388 E4.0277
G1 X2.288 Y3.3147 E4.0277
G1 X2.7901 Y2.9048 E4.0277
G1 X3.2199 Y2.4196 E4.0277
G1 X3.5663 Y1.8718 E4.0277
G1 X3.8204 Y1.2754 E4.0277
G1 X3.9755 Y0.6461 E4.0277
G1 X4.0277 Y-0.0 E4.0277
G1 X3.9755 Y-0.6461 E4.0277
G1 X3.8204 Y-1.2754 E4.0277
G1 X3.5663 Y-1.8718 E4.0277
G1 X3.2199 Y-2.4196 E4.0277
G1 X2.7901 Y-2.9048 E4.0277
G1 X2.288 Y-3.3147 E4.0277
G1 X1.7266 Y-3.6388 E4.0277
G1 X1.1206 Y-3.8687 E4.0277
; new layer
G1 Z1.0
; ************** Tool change sequence ***************
T1
M302 ; Allow cold extrusion
G0 Z5 ; move up in Z
G90 ; absolute positioning
G0 X176.5351 F5000; move to correct X position
G91 ; relative positioning
G0 Z-5 ; move down in Z
G0 F1000 ; reset speed
; ************** Tool change sequence end ***********
G1 X0.4855 Y-3.9983 E0.0
G1 X-0.1622 Y-4.0244 E0.0
G1 X-0.8056 Y-3.9463 E0.0
G1 X-1.4282 Y-3.7659 E0.0
G1 X-2.0138 Y-3.4881 E0.0
G1 X-2.5473 Y-3.1199 E0.0
G1 X-3.0148 Y-2.6708 E0.0
G1 X-3.4042 Y-2.1527 E0.0
G1 X-3.7054 Y-1.5787 E0.0
G1 X-3.9106 Y-0.9639 E0.0
G1 X-4.0146 Y-0.3241 E0.0
G1 X-4.0146 Y0.3241 E0.0
G1 X-3.9106 Y0.9639 E0.0
G1 X-3.7054 Y1.5787 E0.0
G1 X-3.4042 Y2.1527 E0.0
G1 X-3.0148 Y2.6708 E0.0
G1 X-2.5473 Y3.1199 E0.0
G1 X-2.0138 Y3.4881 E0.0
G1 X-1.4282 Y3.7659 E0.0
G1 X-0.8056 Y3.9463 E0.0
G1 X-0.1622 Y4.0244 E0.0
G1 X0.4855 Y3.9983 E0.0
G1 X1.1206 Y3.8687 E0.0
G1 X1.7266 Y3.6388 E0.0
G1 X2.288 Y3.3147 E0.0
G1 X2.7901 Y2.9048 E0.0
G1 X3.2199 Y2.4196 E0.0
G1 X3.5663 Y1.8718 E0.0
G1 X3.8204 Y1.2754 E0.0
G1 X3.9755 Y0.6461 E0.0
G1 X4.0277 Y-0.0 E0.0
G1 X3.9755 Y-0.6461 E0.0
G1 X3.8204 Y-1.2754 E0.0
G1 X3.5663 Y-1.8718 E0.0
G1 X3.2199 Y-2.4196 E0.0
G1 X2.7901 Y-2.9048 E0.0
G1 X2.288 Y-3.3147 E0.0
G1 X1.7266 Y-3.6388 E0.0
G1 X1.1206 Y-3.8687 E0.0
G1 X0.4855 Y-3.9983 E0.0
G1 Z1.0
; ************** Tool change sequence ***************
T0
M302 ; Allow cold extrusion
G0 Z5 ; move up in Z
G90 ; absolute positioning
G0 X177.0206 F5000; move to correct X position
G91 ; relative positioning
G0 Z-5 ; move down in Z
G0 F1000 ; reset speed
; ************** Tool change sequence end ***********
G1 X-0.1622 Y-4.0244 E4.0277
G1 X-0.8056 Y-3.9463 E4.0277
G1 X-1.4282 Y-3.7659 E4.0277
G1 X-2.0138 Y-3.4881 E4.0277
G1 X-2.5473 Y-3.1199 E4.0277
G1 X-3.0148 Y-2.6708 E4.0277
G1 X-3.4042 Y-2.1527 E4.0277
G1 X-3.7054 Y-1.5787 E4.0277
G1 X-3.9106 Y-0.9639 E4.0277
G1 X-4.0146 Y-0.3241 E4.0277
G1 X-4.0146 Y0.3241 E4.0277
G1 X-3.9106 Y0.9639 E4.0277
G1 X-3.7054 Y1.5787 E4.0277
G1 X-3.4042 Y2.1527 E4.0277
G1 X-3.0148 Y2.6708 E4.0277
G1 X-2.5473 Y3.1199 E4.0277
G1 X-2.0138 Y3.4881 E4.0277
G1 X-1.4282 Y3.7659 E4.0277
G1 X-0.8056 Y3.9463 E4.0277
G1 X-0.1622 Y4.0244 E4.0277
G1 X0.4855 Y3.9983 E4.0277
G1 X1.1206 Y3.8687 E4.0277
G1 X1.7266 Y3.6388 E4.0277
G1 X2.288 Y3.3147 E4.0277
G1 X2.7901 Y2.9048 E4.0277
G1 X3.2199 Y2.4196 E4.0277
G1 X3.5663 Y1.8718 E4.0277
G1 X3.8204 Y1.2754 E4.0277
G1 X3.9755 Y0.6461 E4.0277
G1 X4.0277 Y-0.0 E4.0277
G1 X3.9755 Y-0.6461 E4.0277
G1 X3.8204 Y-1.2754 E4.0277
G1 X3.5663 Y-1.8718 E4.0277
G1 X3.2199 Y-2.4196 E4.0277
G1 X2.7901 Y-2.9048 E4.0277
G1 X2.288 Y-3.3147 E4.0277
G1 X1.7266 Y-3.6388 E4.0277
G1 X1.1206 Y-3.8687 E4.0277
G1 X0.4855 Y-3.9983 E4.0277
G1 X-0.1622 Y-4.0244 E4.0277
; new layer
G1 Z1.0
; ************** Tool change sequence ***************
T1
M302 ; Allow cold extrusion
G0 Z5 ; move up in Z
G90 ; absolute positioning
G0 X176.8584 F5000; move to correct X position
G91 ; relative positioning
G0 Z-5 ; move down in Z
G0 F1000 ; reset speed
; ************** Tool change sequence end ***********
G1 X-0.8056 Y-3.9463 E0.0
G1 X-1.4282 Y-3.7659 E0.0
G1 X-2.0138 Y-3.4881 E0.0
G1 X-2.5473 Y-3.1199 E0.0
G1 X-3.0148 Y-2.6708 E0.0
G1 X-3.4042 Y-2.1527 E0.0
G1 X-3.7054 Y-1.5787 E0.0
G1 X-3.9106 Y-0.9639 E0.0
G1 X-4.0146 Y-0.3241 E0.0
G1 X-4.0146 Y0.3241 E0.0
G1 X-3.9106 Y0.9639 E0.0
G1 X-3.7054 Y1.5787 E0.0
G1 X-3.4042 Y2.1527 E0.0
G1 X-3.0148 Y2.6708 E0.0
G1 X-2.5473 Y3.1199 E0.0
G1 X-2.0138 Y3.4881 E0.0
G1 X-1.4282 Y3.7659 E0.0
G1 X-0.8056 Y3.9463 E0.0
G1 X-0.1622 Y4.0244 E0.0
G1 X0.4855 Y3.9983 E0.0
G1 X1.1206 Y3.8687 E0.0
G1 X1.7266 Y3.6388 E0.0
G1 X2.288 Y3.3147 E0.0
G1 X2.7901 Y2.9048 E0.0
G1 X3.2199 Y2.4196 E0.0
G1 X3.5663 Y1.8718 E0.0
G1 X3.8204 Y1.2754 E0.0
G1 X3.9755 Y0.6461 E0.0
G1 X4.0277 Y-0.0 E0.0
G1 X3.9755 Y-0.6461 E0.0
G1 X3.8204 Y-1.2754 E0.0
G1 X3.5663 Y-1.8718 E0.0
G1 X3.2199 Y-2.4196 E0.0
G1 X2.7901 Y-2.9048 E0.0
G1 X2.288 Y-3.3147 E0.0
G1 X1.7266 Y-3.6388 E0.0
G1 X1.1206 Y-3.8687 E0.0
G1 X0.4855 Y-3.9983 E0.0
G1 X-0.1622 Y-4.0244 E0.0
G1 X-0.8056 Y-3.9463 E0.0
G1 Z1.0
; ************** Tool change sequence ***************
T0
M302 ; Allow cold extrusion
G0 Z5 ; move up in Z
G90 ; absolute positioning
G0 X176.0528 F5000; move to correct X position
G91 ; relative positioning
G0 Z-5 ; move down in Z
G0 F1000 ; reset speed
; ************** Tool change sequence end ***********
G1 X-1.4282 Y-3.7659 E4.0277
G1 X-2.0138 Y-3.4881 E4.0277
G1 X-2.5473 Y-3.1199 E4.0277
G1 X-3.0148 Y-2.6708 E4.0277
G1 X-3.4042 Y-2.1527 E4.0277
G1 X-3.7054 Y-1.5787 E4.0277
G1 X-3.9106 Y-0.9639 E4.0277
G1 X-4.0146 Y-0.3241 E4.0277
G1 X-4.0146 Y0.3241 E4.0277
G1 X-3.9106 Y0.9639 E4.0277
G1 X-3.7054 Y1.5787 E4.0277
G1 X-3.4042 Y2.1527 E4.0277
G1 X-3.0148 Y2.6708 E4.0277
G1 X-2.5473 Y3.1199 E4.0277
G1 X-2.0138 Y3.4881 E4.0277
G1 X-1.4282 Y3.7659 E4.0277
G1 X-0.8056 Y3.9463 E4.0277
G1 X-0.1622 Y4.0244 E4.0277
G1 X0.4855 Y3.9983 E4.0277
G1 X1.1206 Y3.8687 E4.0277
G1 X1.7266 Y3.6388 E4.0277
G1 X2.288 Y3.3147 E4.0277
G1 X2.7901 Y2.9048 E4.0277
G1 X3.2199 Y2.4196 E4.0277
G1 X3.5663 Y1.8718 E4.0277
G1 X3.8204 Y1.2754 E4.0277
G1 X3.9755 Y0.6461 E4.0277
G1 X4.0277 Y-0.0 E4.0277
G1 X3.9755 Y-0.6461 E4.0277
G1 X3.8204 Y-1.2754 E4.0277
G1 X3.5663 Y-1.8718 E4.0277
G1 X3.2199 Y-2.4196 E4.0277
G1 X2.7901 Y-2.9048 E4.0277
G1 X2.288 Y-3.3147 E4.0277
G1 X1.7266 Y-3.6388 E4.0277
G1 X1.1206 Y-3.8687 E4.0277
G1 X0.4855 Y-3.9983 E4.0277
G1 X-0.1622 Y-4.0244 E4.0277
G1 X-0.8056 Y-3.9463 E4.0277
G1 X-1.4282 Y-3.7659 E4.0277
; new layer
G1 Z1.0
; ************** Tool change sequence ***************
T1
M302 ; Allow cold extrusion
G0 Z5 ; move up in Z
G90 ; absolute positioning
G0 X174.6245 F5000; move to correct X position
G91 ; relative positioning
G0 Z-5 ; move down in Z
G0 F1000 ; reset speed
; ************** Tool change sequence end ***********
G1 X-2.0138 Y-3.4881 E0.0
G1 X-2.5473 Y-3.1199 E0.0
G1 X-3.0148 Y-2.6708 E0.0
G1 X-3.4042 Y-2.1527 E0.0
G1 X-3.7054 Y-1.5787 E0.0
G1 X-3.9106 Y-0.9639 E0.0
G1 X-4.0146 Y-0.3241 E0.0
G1 X-4.0146 Y0.3241 E0.0
G1 X-3.9106 Y0.9639 E0.0
G1 X-3.7054 Y1.5787 E0.0
G1 X-3.4042 Y2.1527 E0.0
G1 X-3.0148 Y2.6708 E0.0
G1 X-2.5473 Y3.1199 E0.0
G1 X-2.0138 Y3.4881 E0.0
G1 X-1.4282 Y3.7659 E0.0
G1 X-0.8056 Y3.9463 E0.0
G1 X-0.1622 Y4.0244 E0.0
G1 X0.4855 Y3.9983 E0.0
G1 X1.1206 Y3.8687 E0.0
G1 X1.7266 Y3.6388 E0.0
G1 X2.288 Y3.3147 E0.0
G1 X2.7901 Y2.9048 E0.0
G1 X3.2199 Y2.4196 E0.0
G1 X3.5663 Y1.8718 E0.0
G1 X3.8204 Y1.2754 E0.0
G1 X3.9755 Y0.6461 E0.0
G1 X4.0277 Y-0.0 E0.0
G1 X3.9755 Y-0.6461 E0.0
G1 X3.8204 Y-1.2754 E0.0
G1 X3.5663 Y-1.8718 E0.0
G1 X3.2199 Y-2.4196 E0.0
G1 X2.7901 Y-2.9048 E0.0
G1 X2.288 Y-3.3147 E0.0
G1 X1.7266 Y-3.6388 E0.0
G1 X1.1206 Y-3.8687 E0.0
G1 X0.4855 Y-3.9983 E0.0
G1 X-0.1622 Y-4.0244 E0.0
G1 X-0.8056 Y-3.9463 E0.0
G1 X-1.4282 Y-3.7659 E0.0
G1 X-2.0138 Y-3.4881 E0.0
G1 Z1.0
; ************** Tool change sequence ***************
T0
M302 ; Allow cold extrusion
G0 Z5 ; move up in Z
G90 ; absolute positioning
G0 X172.6107 F5000; move to correct X position
G91 ; relative positioning
G0 Z-5 ; move down in Z
G0 F1000 ; reset speed
; ************** Tool change sequence end ***********
G1 X-2.5473 Y-3.1199 E4.0277
G1 X-3.0148 Y-2.6708 E4.0277
G1 X-3.4042 Y-2.1527 E4.0277
G1 X-3.7054 Y-1.5787 E4.0277
G1 X-3.9106 Y-0.9639 E4.0277
G1 X-4.0146 Y-0.3241 E4.0277
G1 X-4.0146 Y0.3241 E4.0277
G1 X-3.9106 Y0.9639 E4.0277
G1 X-3.7054 Y1.5787 E4.0277
G1 X-3.4042 Y2.1527 E4.0277
G1 X-3.0148 Y2.6708 E4.0277
G1 X-2.5473 Y3.1199 E4.0277
G1 X-2.0138 Y3.4881 E4.0277
G1 X-1.4282 Y3.7659 E4.0277
G1 X-0.8056 Y3.9463 E4.0277
G1 X-0.1622 Y4.0244 E4.0277
G1 X0.4855 Y3.9983 E4.0277
G1 X1.1206 Y3.8687 E4.0277
G1 X1.7266 Y3.6388 E4.0277
G1 X2.288 Y3.3147 E4.0277
G1 X2.7901 Y2.9048 E4.0277
G1 X3.2199 Y2.4196 E4.0277
G1 X3.5663 Y1.8718 E4.0277
G1 X3.8204 Y1.2754 E4.0277
G1 X3.9755 Y0.6461 E4.0277
G1 X4.0277 Y-0.0 E4.0277
G1 X3.9755 Y-0.6461 E4.0277
G1 X3.8204 Y-1.2754 E4.0277
G1 X3.5663 Y-1.8718 E4.0277
G1 X3.2199 Y-2.4196 E4.0277
G1 X2.7901 Y-2.9048 E4.0277
G1 X2.288 Y-3.3147 E4.0277
G1 X1.7266 Y-3.6388 E4.0277
G1 X1.1206 Y-3.8687 E4.0277
G1 X0.4855 Y-3.9983 E4.0277
G1 X-0.1622 Y-4.0244 E4.0277
G1 X-0.8056 Y-3.9463 E4.0277
G1 X-1.4282 Y-3.7659 E4.0277
G1 X-2.0138 Y-3.4881 E4.0277
G1 X-2.5473 Y-3.1199 E4.0277
; new layer
G1 Z1.0
; ************** Tool change sequence ***************
T1
M302 ; Allow cold extrusion
G0 Z5 ; move up in Z
G90 ; absolute positioning
G0 X170.0634 F5000; move to correct X position
G91 ; relative positioning
G0 Z-5 ; move down in Z
G0 F1000 ; reset speed
; ************** Tool change sequence end ***********
G1 X-3.0148 Y-2.6708 E0.0
G1 X-3.4042 Y-2.1527 E0.0
G1 X-3.7054 Y-1.5787 E0.0
G1 X-3.9106 Y-0.9639 E0.0
G1 X-4.0146 Y-0.3241 E0.0
G1 X-4.0146 Y0.3241 E0.0
G1 X-3.9106 Y0.9639 E0.0
G1 X-3.7054 Y1.5787 E0.0
G1 X-3.4042 Y2.1527 E0.0
G1 X-3.0148 Y2.6708 E0.0
G1 X-2.5473 Y3.1199 E0.0
G1 X-2.0138 Y3.4881 E0.0
G1 X-1.4282 Y3.7659 E0.0
G1 X-0.8056 Y3.9463 E0.0
G1 X-0.1622 Y4.0244 E0.0
G1 X0.4855 Y3.9983 E0.0
G1 X1.1206 Y3.8687 E0.0
G1 X1.7266 Y3.6388 E0.0
G1 X2.288 Y3.3147 E0.0
G1 X2.7901 Y2.9048 E0.0
G1 X3.2199 Y2.4196 E0.0
G1 X3.5663 Y1.8718 E0.0
G1 X3.8204 Y1.2754 E0.0
G1 X3.9755 Y0.6461 E0.0
G1 X4.0277 Y-0.0 E0.0
G1 X3.9755 Y-0.6461 E0.0
G1 X3.8204 Y-1.2754 E0.0
G1 X3.5663 Y-1.8718 E0.0
G1 X3.2199 Y-2.4196 E0.0
G1 X2.7901 Y-2.9048 E0.0
G1 X2.288 Y-3.3147 E0.0
G1 X1.7266 Y-3.6388 E0.0
G1 X1.1206 Y-3.8687 E0.0
G1 X0.4855 Y-3.9983 E0.0
G1 X-0.1622 Y-4.0244 E0.0
G1 X-0.8056 Y-3.9463 E0.0
G1 X-1.4282 Y-3.7659 E0.0
G1 X-2.0138 Y-3.4881 E0.0
G1 X-2.5473 Y-3.1199 E0.0
G1 X-3.0148 Y-2.6708 E0.0
G1 Z1.0
; ************** Tool change sequence ***************
T0
M302 ; Allow cold extrusion
G0 Z5 ; move up in Z
G90 ; absolute positioning
G0 X167.0487 F5000; move to correct X position
G91 ; relative positioning
G0 Z-5 ; move down in Z
G0 F1000 ; reset speed
; ************** Tool change sequence end ***********
G1 X-3.4042 Y-2.1527 E4.0277
G1 X-3.7054 Y-1.5787 E4.0277
G1 X-3.9106 Y-0.9639 E4.0277
G1 X-4.0146 Y-0.3241 E4.0277
G1 X-4.0146 Y0.3241 E4.0277
G1 X-3.9106 Y0.9639 E4.0277
G1 X-3.7054 Y1.5787 E4.0277
G1 X-3.4042 Y2.1527 E4.0277
G1 X-3.0148 Y2.6708 E4.0277
G1 X-2.5473 Y3.1199 E4.0277
G1 X-2.0138 Y3.4881 E4.0277
G1 X-1.4282 Y3.7659 E4.0277
G1 X-0.8056 Y3.9463 E4.0277
G1 X-0.1622 Y4.0244 E4.0277
G1 X0.4855 Y3.9983 E4.0277
G1 X1.1206 Y3.8687 E4.0277
G1 X1.7266 Y3.6388 E4.0277
G1 X2.288 Y3.3147 E4.0277
G1 X2.7901 Y2.9048 E4.0277
G1 X3.2199 Y2.4196 E4.0277
G1 X3.5663 Y1.8718 E4.0277
G1 X3.8204 Y1.2754 E4.0277
G1 X3.9755 Y0.6461 E4.0277
G1 X4.0277 Y-0.0 E4.0277
G1 X3.9755 Y-0.6461 E4.0277
G1 X3.8204 Y-1.2754 E4.0277
G1 X3.5663 Y-1.8718 E4.0277
G1 X3.2199 Y-2.4196 E4.0277
G1 X2.7901 Y-2.9048 E4.0277
G1 X2.288 Y-3.3147 E4.0277
G1 X1.7266 Y-3.6388 E4.0277
G1 X1.1206 Y-3.8687 E4.0277
G1 X0.4855 Y-3.9983 E4.0277
G1 X-0.1622 Y-4.0244 E4.0277
G1 X-0.8056 Y-3.9463 E4.0277
G1 X-1.4282 Y-3.7659 E4.0277
G1 X-2.0138 Y-3.4881 E4.0277
G1 X-2.5473 Y-3.1199 E4.0277
G1 X-3.0148 Y-2.6708 E4.0277
G1 X-3.4042 Y-2.1527 E4.0277
; new layer
G1 Z1.0
; ************** Tool change sequence ***************
T1
M302 ; Allow cold extrusion
G0 Z5 ; move up in Z
G90 ; absolute positioning
