; *************************************************
; *************************************************
; ******* File generated by Extruder Turtle *******
; ******* written by Leah Buechley and  ***********
; ******* and Franklin Pezutti-Dyer ***************
; ******* Hand and Machine Lab, UNM, 2022 *********
; *************************************************
; *************************************************
; *************** Printer parameters **************
; Printer: 3D Potter Super
; Nozzle size: 3.0
; Extrude width: 3.4
; Layer height: 2.2
; Extrude rate: 3.0
; Speed: 1000
; *************** 3D Potter initialization **************
M82                             ; Absolute extrusion mode
G28                             ; Home all axes
G92 E0                          ; Reset Extruder
G90 							; Absolute coordinates for X,Y,Z   
; M208 X0 Y0 Z0 S1              ; Set axis minima
; M208 X415 Y405 Z500 S0        ; Set axis maxima 
G1 X202.5 Y202.5 Z25 F10000 	; Go to the starting position (center of bed) 25mm above print
G1 F20000 E2000                 ; Prime Extruder, Extrude 2000mm of clay
G1 X202.5 Y202.5 Z0 F1000 		; Go to the starting position more slowly
M83                             ; Relative extrusion
G91                     		; Relative coordinates for X,Y,Z axes
G1 E5                 			; Extrude 5mm of clay
G1 F1000
; *************** End printer initialization **************
G1 X15.000000 Y0.000000 Z0.000000 E45.000000
G1 X0.000000 Y-0.261799 Z0.000000 E0.785398
G1 X-0.004569 Y-0.261760 Z0.000000 E0.785398
G1 X-0.009137 Y-0.261640 Z0.000000 E0.785398
G1 X-0.013702 Y-0.261441 Z0.000000 E0.785398
G1 X-0.018262 Y-0.261162 Z0.000000 E0.785398
G1 X-0.022817 Y-0.260803 Z0.000000 E0.785398
G1 X-0.027365 Y-0.260365 Z0.000000 E0.785398
G1 X-0.031905 Y-0.259848 Z0.000000 E0.785398
G1 X-0.036435 Y-0.259252 Z0.000000 E0.785398
G1 X-0.040954 Y-0.258576 Z0.000000 E0.785398
G1 X-0.045461 Y-0.257822 Z0.000000 E0.785398
G1 X-0.049954 Y-0.256989 Z0.000000 E0.785398
G1 X-0.054431 Y-0.256078 Z0.000000 E0.785398
G1 X-0.058892 Y-0.255089 Z0.000000 E0.785398
G1 X-0.063335 Y-0.254023 Z0.000000 E0.785398
G1 X-0.067759 Y-0.252879 Z0.000000 E0.785398
G1 X-0.072162 Y-0.251658 Z0.000000 E0.785398
G1 X-0.076543 Y-0.250360 Z0.000000 E0.785398
G1 X-0.080900 Y-0.248986 Z0.000000 E0.785398
G1 X-0.085234 Y-0.247536 Z0.000000 E0.785398
G1 X-0.089541 Y-0.246011 Z0.000000 E0.785398
G1 X-0.093821 Y-0.244411 Z0.000000 E0.785398
G1 X-0.098072 Y-0.242736 Z0.000000 E0.785398
G1 X-0.102293 Y-0.240988 Z0.000000 E0.785398
G1 X-0.106483 Y-0.239166 Z0.000000 E0.785398
G1 X-0.110641 Y-0.237271 Z0.000000 E0.785398
G1 X-0.114765 Y-0.235304 Z0.000000 E0.785398
G1 X-0.118854 Y-0.233265 Z0.000000 E0.785398
G1 X-0.122907 Y-0.231155 Z0.000000 E0.785398
G1 X-0.126923 Y-0.228975 Z0.000000 E0.785398
G1 X-0.130900 Y-0.226725 Z0.000000 E0.785398
G1 X-0.134837 Y-0.224406 Z0.000000 E0.785398
G1 X-0.138733 Y-0.222018 Z0.000000 E0.785398
G1 X-0.142586 Y-0.219563 Z0.000000 E0.785398
G1 X-0.146396 Y-0.217042 Z0.000000 E0.785398
G1 X-0.150162 Y-0.214454 Z0.000000 E0.785398
G1 X-0.153882 Y-0.211800 Z0.000000 E0.785398
G1 X-0.157555 Y-0.209082 Z0.000000 E0.785398
G1 X-0.161180 Y-0.206301 Z0.000000 E0.785398
G1 X-0.164756 Y-0.203456 Z0.000000 E0.785398
G1 X-0.168281 Y-0.200550 Z0.000000 E0.785398
G1 X-0.171756 Y-0.197583 Z0.000000 E0.785398
G1 X-0.175178 Y-0.194555 Z0.000000 E0.785398
G1 X-0.178547 Y-0.191468 Z0.000000 E0.785398
G1 X-0.181861 Y-0.188323 Z0.000000 E0.785398
G1 X-0.185120 Y-0.185120 Z0.000000 E0.785398
G1 X-0.188323 Y-0.181861 Z0.000000 E0.785398
G1 X-0.191468 Y-0.178547 Z0.000000 E0.785398
G1 X-0.194555 Y-0.175178 Z0.000000 E0.785398
G1 X-0.197583 Y-0.171756 Z0.000000 E0.785398
G1 X-0.200550 Y-0.168281 Z0.000000 E0.785398
G1 X-0.203456 Y-0.164756 Z0.000000 E0.785398
G1 X-0.206301 Y-0.161180 Z0.000000 E0.785398
G1 X-0.209082 Y-0.157555 Z0.000000 E0.785398
G1 X-0.211800 Y-0.153882 Z0.000000 E0.785398
G1 X-0.214454 Y-0.150162 Z0.000000 E0.785398
G1 X-0.217042 Y-0.146396 Z0.000000 E0.785398
G1 X-0.219563 Y-0.142586 Z0.000000 E0.785398
G1 X-0.222018 Y-0.138733 Z0.000000 E0.785398
G1 X-0.224406 Y-0.134837 Z0.000000 E0.785398
G1 X-0.226725 Y-0.130900 Z0.000000 E0.785398
G1 X-0.228975 Y-0.126923 Z0.000000 E0.785398
G1 X-0.231155 Y-0.122907 Z0.000000 E0.785398
G1 X-0.233265 Y-0.118854 Z0.000000 E0.785398
G1 X-0.235304 Y-0.114765 Z0.000000 E0.785398
G1 X-0.237271 Y-0.110641 Z0.000000 E0.785398
G1 X-0.239166 Y-0.106483 Z0.000000 E0.785398
G1 X-0.240988 Y-0.102293 Z0.000000 E0.785398
G1 X-0.242736 Y-0.098072 Z0.000000 E0.785398
G1 X-0.244411 Y-0.093821 Z0.000000 E0.785398
G1 X-0.246011 Y-0.089541 Z0.000000 E0.785398
G1 X-0.247536 Y-0.085234 Z0.000000 E0.785398
G1 X-0.248986 Y-0.080900 Z0.000000 E0.785398
G1 X-0.250360 Y-0.076543 Z0.000000 E0.785398
G1 X-0.251658 Y-0.072162 Z0.000000 E0.785398
G1 X-0.252879 Y-0.067759 Z0.000000 E0.785398
G1 X-0.254023 Y-0.063335 Z0.000000 E0.785398
G1 X-0.255089 Y-0.058892 Z0.000000 E0.785398
G1 X-0.256078 Y-0.054431 Z0.000000 E0.785398
G1 X-0.256989 Y-0.049954 Z0.000000 E0.785398
G1 X-0.257822 Y-0.045461 Z0.000000 E0.785398
G1 X-0.258576 Y-0.040954 Z0.000000 E0.785398
G1 X-0.259252 Y-0.036435 Z0.000000 E0.785398
G1 X-0.259848 Y-0.031905 Z0.000000 E0.785398
G1 X-0.260365 Y-0.027365 Z0.000000 E0.785398
G1 X-0.260803 Y-0.022817 Z0.000000 E0.785398
G1 X-0.261162 Y-0.018262 Z0.000000 E0.785398
G1 X-0.261441 Y-0.013702 Z0.000000 E0.785398
G1 X-0.261640 Y-0.009137 Z0.000000 E0.785398
G1 X-0.261760 Y-0.004569 Z0.000000 E0.785398
G1 X-0.261799 Y-0.000000 Z0.000000 E0.785398
G1 X-0.261760 Y0.004569 Z0.000000 E0.785398
G1 X-0.261640 Y0.009137 Z0.000000 E0.785398
G1 X-0.261441 Y0.013702 Z0.000000 E0.785398
G1 X-0.261162 Y0.018262 Z0.000000 E0.785398
G1 X-0.260803 Y0.022817 Z0.000000 E0.785398
G1 X-0.260365 Y0.027365 Z0.000000 E0.785398
G1 X-0.259848 Y0.031905 Z0.000000 E0.785398
G1 X-0.259252 Y0.036435 Z0.000000 E0.785398
G1 X-0.258576 Y0.040954 Z0.000000 E0.785398
G1 X-0.257822 Y0.045461 Z0.000000 E0.785398
G1 X-0.256989 Y0.049954 Z0.000000 E0.785398
G1 X-0.256078 Y0.054431 Z0.000000 E0.785398
G1 X-0.255089 Y0.058892 Z0.000000 E0.785398
G1 X-0.254023 Y0.063335 Z0.000000 E0.785398
G1 X-0.252879 Y0.067759 Z0.000000 E0.785398
G1 X-0.251658 Y0.072162 Z0.000000 E0.785398
G1 X-0.250360 Y0.076543 Z0.000000 E0.785398
G1 X-0.248986 Y0.080900 Z0.000000 E0.785398
G1 X-0.247536 Y0.085234 Z0.000000 E0.785398
G1 X-0.246011 Y0.089541 Z0.000000 E0.785398
G1 X-0.244411 Y0.093821 Z0.000000 E0.785398
G1 X-0.242736 Y0.098072 Z0.000000 E0.785398
G1 X-0.240988 Y0.102293 Z0.000000 E0.785398
G1 X-0.239166 Y0.106483 Z0.000000 E0.785398
G1 X-0.237271 Y0.110641 Z0.000000 E0.785398
G1 X-0.235304 Y0.114765 Z0.000000 E0.785398
G1 X-0.233265 Y0.118854 Z0.000000 E0.785398
G1 X-0.231155 Y0.122907 Z0.000000 E0.785398
G1 X-0.228975 Y0.126923 Z0.000000 E0.785398
G1 X-0.226725 Y0.130900 Z0.000000 E0.785398
G1 X-0.224406 Y0.134837 Z0.000000 E0.785398
G1 X-0.222018 Y0.138733 Z0.000000 E0.785398
G1 X-0.219563 Y0.142586 Z0.000000 E0.785398
G1 X-0.217042 Y0.146396 Z0.000000 E0.785398
G1 X-0.214454 Y0.150162 Z0.000000 E0.785398
G1 X-0.211800 Y0.153882 Z0.000000 E0.785398
G1 X-0.209082 Y0.157555 Z0.000000 E0.785398
G1 X-0.206301 Y0.161180 Z0.000000 E0.785398
G1 X-0.203456 Y0.164756 Z0.000000 E0.785398
G1 X-0.200550 Y0.168281 Z0.000000 E0.785398
G1 X-0.197583 Y0.171756 Z0.000000 E0.785398
G1 X-0.194555 Y0.175178 Z0.000000 E0.785398
G1 X-0.191468 Y0.178547 Z0.000000 E0.785398
G1 X-0.188323 Y0.181861 Z0.000000 E0.785398
G1 X-0.185120 Y0.185120 Z0.000000 E0.785398
G1 X-0.181861 Y0.188323 Z0.000000 E0.785398
G1 X-0.178547 Y0.191468 Z0.000000 E0.785398
G1 X-0.175178 Y0.194555 Z0.000000 E0.785398
G1 X-0.171756 Y0.197583 Z0.000000 E0.785398
G1 X-0.168281 Y0.200550 Z0.000000 E0.785398
G1 X-0.164756 Y0.203456 Z0.000000 E0.785398
G1 X-0.161180 Y0.206301 Z0.000000 E0.785398
G1 X-0.157555 Y0.209082 Z0.000000 E0.785398
G1 X-0.153882 Y0.211800 Z0.000000 E0.785398
G1 X-0.150162 Y0.214454 Z0.000000 E0.785398
G1 X-0.146396 Y0.217042 Z0.000000 E0.785398
G1 X-0.142586 Y0.219563 Z0.000000 E0.785398
G1 X-0.138733 Y0.222018 Z0.000000 E0.785398
G1 X-0.134837 Y0.224406 Z0.000000 E0.785398
G1 X-0.130900 Y0.226725 Z0.000000 E0.785398
G1 X-0.126923 Y0.228975 Z0.000000 E0.785398
G1 X-0.122907 Y0.231155 Z0.000000 E0.785398
G1 X-0.118854 Y0.233265 Z0.000000 E0.785398
G1 X-0.114765 Y0.235304 Z0.000000 E0.785398
G1 X-0.110641 Y0.237271 Z0.000000 E0.785398
G1 X-0.106483 Y0.239166 Z0.000000 E0.785398
G1 X-0.102293 Y0.240988 Z0.000000 E0.785398
G1 X-0.098072 Y0.242736 Z0.000000 E0.785398
G1 X-0.093821 Y0.244411 Z0.000000 E0.785398
G1 X-0.089541 Y0.246011 Z0.000000 E0.785398
G1 X-0.085234 Y0.247536 Z0.000000 E0.785398
G1 X-0.080900 Y0.248986 Z0.000000 E0.785398
G1 X-0.076543 Y0.250360 Z0.000000 E0.785398
G1 X-0.072162 Y0.251658 Z0.000000 E0.785398
G1 X-0.067759 Y0.252879 Z0.000000 E0.785398
G1 X-0.063335 Y0.254023 Z0.000000 E0.785398
G1 X-0.058892 Y0.255089 Z0.000000 E0.785398
G1 X-0.054431 Y0.256078 Z0.000000 E0.785398
G1 X-0.049954 Y0.256989 Z0.000000 E0.785398
G1 X-0.045461 Y0.257822 Z0.000000 E0.785398
G1 X-0.040954 Y0.258576 Z0.000000 E0.785398
G1 X-0.036435 Y0.259252 Z0.000000 E0.785398
G1 X-0.031905 Y0.259848 Z0.000000 E0.785398
G1 X-0.027365 Y0.260365 Z0.000000 E0.785398
G1 X-0.022817 Y0.260803 Z0.000000 E0.785398
G1 X-0.018262 Y0.261162 Z0.000000 E0.785398
G1 X-0.013702 Y0.261441 Z0.000000 E0.785398
G1 X-0.009137 Y0.261640 Z0.000000 E0.785398
G1 X-0.004569 Y0.261760 Z0.000000 E0.785398
G1 X-0.000000 Y0.261799 Z0.000000 E0.785398
G1 X0.004569 Y0.261760 Z0.000000 E0.785398
G1 X0.009137 Y0.261640 Z0.000000 E0.785398
G1 X0.013702 Y0.261441 Z0.000000 E0.785398
G1 X0.018262 Y0.261162 Z0.000000 E0.785398
G1 X0.022817 Y0.260803 Z0.000000 E0.785398
G1 X0.027365 Y0.260365 Z0.000000 E0.785398
G1 X0.031905 Y0.259848 Z0.000000 E0.785398
G1 X0.036435 Y0.259252 Z0.000000 E0.785398
G1 X0.040954 Y0.258576 Z0.000000 E0.785398
G1 X0.045461 Y0.257822 Z0.000000 E0.785398
G1 X0.049954 Y0.256989 Z0.000000 E0.785398
G1 X0.054431 Y0.256078 Z0.000000 E0.785398
G1 X0.058892 Y0.255089 Z0.000000 E0.785398
G1 X0.063335 Y0.254023 Z0.000000 E0.785398
G1 X0.067759 Y0.252879 Z0.000000 E0.785398
G1 X0.072162 Y0.251658 Z0.000000 E0.785398
G1 X0.076543 Y0.250360 Z0.000000 E0.785398
G1 X0.080900 Y0.248986 Z0.000000 E0.785398
G1 X0.085234 Y0.247536 Z0.000000 E0.785398
G1 X0.089541 Y0.246011 Z0.000000 E0.785398
G1 X0.093821 Y0.244411 Z0.000000 E0.785398
G1 X0.098072 Y0.242736 Z0.000000 E0.785398
G1 X0.102293 Y0.240988 Z0.000000 E0.785398
G1 X0.106483 Y0.239166 Z0.000000 E0.785398
G1 X0.110641 Y0.237271 Z0.000000 E0.785398
G1 X0.114765 Y0.235304 Z0.000000 E0.785398
G1 X0.118854 Y0.233265 Z0.000000 E0.785398
G1 X0.122907 Y0.231155 Z0.000000 E0.785398
G1 X0.126923 Y0.228975 Z0.000000 E0.785398
G1 X0.130900 Y0.226725 Z0.000000 E0.785398
G1 X0.134837 Y0.224406 Z0.000000 E0.785398
G1 X0.138733 Y0.222018 Z0.000000 E0.785398
G1 X0.142586 Y0.219563 Z0.000000 E0.785398
G1 X0.146396 Y0.217042 Z0.000000 E0.785398
G1 X0.150162 Y0.214454 Z0.000000 E0.785398
G1 X0.153882 Y0.211800 Z0.000000 E0.785398
G1 X0.157555 Y0.209082 Z0.000000 E0.785398
G1 X0.161180 Y0.206301 Z0.000000 E0.785398
G1 X0.164756 Y0.203456 Z0.000000 E0.785398
G1 X0.168281 Y0.200550 Z0.000000 E0.785398
G1 X0.171756 Y0.197583 Z0.000000 E0.785398
G1 X0.175178 Y0.194555 Z0.000000 E0.785398
G1 X0.178547 Y0.191468 Z0.000000 E0.785398
G1 X0.181861 Y0.188323 Z0.000000 E0.785398
G1 X0.185120 Y0.185120 Z0.000000 E0.785398
G1 X0.188323 Y0.181861 Z0.000000 E0.785398
G1 X0.191468 Y0.178547 Z0.000000 E0.785398
G1 X0.194555 Y0.175178 Z0.000000 E0.785398
G1 X0.197583 Y0.171756 Z0.000000 E0.785398
G1 X0.200550 Y0.168281 Z0.000000 E0.785398
G1 X0.203456 Y0.164756 Z0.000000 E0.785398
G1 X0.206301 Y0.161180 Z0.000000 E0.785398
G1 X0.209082 Y0.157555 Z0.000000 E0.785398
G1 X0.211800 Y0.153882 Z0.000000 E0.785398
G1 X0.214454 Y0.150162 Z0.000000 E0.785398
G1 X0.217042 Y0.146396 Z0.000000 E0.785398
G1 X0.219563 Y0.142586 Z0.000000 E0.785398
G1 X0.222018 Y0.138733 Z0.000000 E0.785398
G1 X0.224406 Y0.134837 Z0.000000 E0.785398
G1 X0.226725 Y0.130900 Z0.000000 E0.785398
G1 X0.228975 Y0.126923 Z0.000000 E0.785398
G1 X0.231155 Y0.122907 Z0.000000 E0.785398
G1 X0.233265 Y0.118854 Z0.000000 E0.785398
G1 X0.235304 Y0.114765 Z0.000000 E0.785398
G1 X0.237271 Y0.110641 Z0.000000 E0.785398
G1 X0.239166 Y0.106483 Z0.000000 E0.785398
G1 X0.240988 Y0.102293 Z0.000000 E0.785398
G1 X0.242736 Y0.098072 Z0.000000 E0.785398
G1 X0.244411 Y0.093821 Z0.000000 E0.785398
G1 X0.246011 Y0.089541 Z0.000000 E0.785398
G1 X0.247536 Y0.085234 Z0.000000 E0.785398
G1 X0.248986 Y0.080900 Z0.000000 E0.785398
G1 X0.250360 Y0.076543 Z0.000000 E0.785398
G1 X0.251658 Y0.072162 Z0.000000 E0.785398
G1 X0.252879 Y0.067759 Z0.000000 E0.785398
G1 X0.254023 Y0.063335 Z0.000000 E0.785398
G1 X0.255089 Y0.058892 Z0.000000 E0.785398
G1 X0.256078 Y0.054431 Z0.000000 E0.785398
G1 X0.256989 Y0.049954 Z0.000000 E0.785398
G1 X0.257822 Y0.045461 Z0.000000 E0.785398
G1 X0.258576 Y0.040954 Z0.000000 E0.785398
G1 X0.259252 Y0.036435 Z0.000000 E0.785398
G1 X0.259848 Y0.031905 Z0.000000 E0.785398
G1 X0.260365 Y0.027365 Z0.000000 E0.785398
G1 X0.260803 Y0.022817 Z0.000000 E0.785398
G1 X0.261162 Y0.018262 Z0.000000 E0.785398
G1 X0.261441 Y0.013702 Z0.000000 E0.785398
G1 X0.261640 Y0.009137 Z0.000000 E0.785398
G1 X0.261760 Y0.004569 Z0.000000 E0.785398
G1 X0.261799 Y0.000000 Z0.000000 E0.785398
G1 X0.261760 Y-0.004569 Z0.000000 E0.785398
G1 X0.261640 Y-0.009137 Z0.000000 E0.785398
G1 X0.261441 Y-0.013702 Z0.000000 E0.785398
G1 X0.261162 Y-0.018262 Z0.000000 E0.785398
G1 X0.260803 Y-0.022817 Z0.000000 E0.785398
G1 X0.260365 Y-0.027365 Z0.000000 E0.785398
G1 X0.259848 Y-0.031905 Z0.000000 E0.785398
G1 X0.259252 Y-0.036435 Z0.000000 E0.785398
G1 X0.258576 Y-0.040954 Z0.000000 E0.785398
G1 X0.257822 Y-0.045461 Z0.000000 E0.785398
G1 X0.256989 Y-0.049954 Z0.000000 E0.785398
G1 X0.256078 Y-0.054431 Z0.000000 E0.785398
G1 X0.255089 Y-0.058892 Z0.000000 E0.785398
G1 X0.254023 Y-0.063335 Z0.000000 E0.785398
G1 X0.252879 Y-0.067759 Z0.000000 E0.785398
G1 X0.251658 Y-0.072162 Z0.000000 E0.785398
G1 X0.250360 Y-0.076543 Z0.000000 E0.785398
G1 X0.248986 Y-0.080900 Z0.000000 E0.785398
G1 X0.247536 Y-0.085234 Z0.000000 E0.785398
G1 X0.246011 Y-0.089541 Z0.000000 E0.785398
G1 X0.244411 Y-0.093821 Z0.000000 E0.785398
G1 X0.242736 Y-0.098072 Z0.000000 E0.785398
G1 X0.240988 Y-0.102293 Z0.000000 E0.785398
G1 X0.239166 Y-0.106483 Z0.000000 E0.785398
G1 X0.237271 Y-0.110641 Z0.000000 E0.785398
G1 X0.235304 Y-0.114765 Z0.000000 E0.785398
G1 X0.233265 Y-0.118854 Z0.000000 E0.785398
G1 X0.231155 Y-0.122907 Z0.000000 E0.785398
G1 X0.228975 Y-0.126923 Z0.000000 E0.785398
G1 X0.226725 Y-0.130900 Z0.000000 E0.785398
G1 X0.224406 Y-0.134837 Z0.000000 E0.785398
G1 X0.222018 Y-0.138733 Z0.000000 E0.785398
G1 X0.219563 Y-0.142586 Z0.000000 E0.785398
G1 X0.217042 Y-0.146396 Z0.000000 E0.785398
G1 X0.214454 Y-0.150162 Z0.000000 E0.785398
G1 X0.211800 Y-0.153882 Z0.000000 E0.785398
G1 X0.209082 Y-0.157555 Z0.000000 E0.785398
G1 X0.206301 Y-0.161180 Z0.000000 E0.785398
G1 X0.203456 Y-0.164756 Z0.000000 E0.785398
G1 X0.200550 Y-0.168281 Z0.000000 E0.785398
G1 X0.197583 Y-0.171756 Z0.000000 E0.785398
G1 X0.194555 Y-0.175178 Z0.000000 E0.785398
G1 X0.191468 Y-0.178547 Z0.000000 E0.785398
G1 X0.188323 Y-0.181861 Z0.000000 E0.785398
G1 X0.185120 Y-0.185120 Z0.000000 E0.785398
G1 X0.181861 Y-0.188323 Z0.000000 E0.785398
G1 X0.178547 Y-0.191468 Z0.000000 E0.785398
G1 X0.175178 Y-0.194555 Z0.000000 E0.785398
G1 X0.171756 Y-0.197583 Z0.000000 E0.785398
G1 X0.168281 Y-0.200550 Z0.000000 E0.785398
G1 X0.164756 Y-0.203456 Z0.000000 E0.785398
G1 X0.161180 Y-0.206301 Z0.000000 E0.785398
G1 X0.157555 Y-0.209082 Z0.000000 E0.785398
G1 X0.153882 Y-0.211800 Z0.000000 E0.785398
G1 X0.150162 Y-0.214454 Z0.000000 E0.785398
G1 X0.146396 Y-0.217042 Z0.000000 E0.785398
G1 X0.142586 Y-0.219563 Z0.000000 E0.785398
G1 X0.138733 Y-0.222018 Z0.000000 E0.785398
G1 X0.134837 Y-0.224406 Z0.000000 E0.785398
G1 X0.130900 Y-0.226725 Z0.000000 E0.785398
G1 X0.126923 Y-0.228975 Z0.000000 E0.785398
G1 X0.122907 Y-0.231155 Z0.000000 E0.785398
G1 X0.118854 Y-0.233265 Z0.000000 E0.785398
G1 X0.114765 Y-0.235304 Z0.000000 E0.785398
G1 X0.110641 Y-0.237271 Z0.000000 E0.785398
G1 X0.106483 Y-0.239166 Z0.000000 E0.785398
G1 X0.102293 Y-0.240988 Z0.000000 E0.785398
G1 X0.098072 Y-0.242736 Z0.000000 E0.785398
G1 X0.093821 Y-0.244411 Z0.000000 E0.785398
G1 X0.089541 Y-0.246011 Z0.000000 E0.785398
G1 X0.085234 Y-0.247536 Z0.000000 E0.785398
G1 X0.080900 Y-0.248986 Z0.000000 E0.785398
G1 X0.076543 Y-0.250360 Z0.000000 E0.785398
G1 X0.072162 Y-0.251658 Z0.000000 E0.785398
G1 X0.067759 Y-0.252879 Z0.000000 E0.785398
G1 X0.063335 Y-0.254023 Z0.000000 E0.785398
G1 X0.058892 Y-0.255089 Z0.000000 E0.785398
G1 X0.054431 Y-0.256078 Z0.000000 E0.785398
G1 X0.049954 Y-0.256989 Z0.000000 E0.785398
G1 X0.045461 Y-0.257822 Z0.000000 E0.785398
G1 X0.040954 Y-0.258576 Z0.000000 E0.785398
G1 X0.036435 Y-0.259252 Z0.000000 E0.785398
G1 X0.031905 Y-0.259848 Z0.000000 E0.785398
G1 X0.027365 Y-0.260365 Z0.000000 E0.785398
G1 X0.022817 Y-0.260803 Z0.000000 E0.785398
G1 X0.018262 Y-0.261162 Z0.000000 E0.785398
G1 X0.013702 Y-0.261441 Z0.000000 E0.785398
G1 X0.009137 Y-0.261640 Z0.000000 E0.785398
G1 X0.004569 Y-0.261760 Z0.000000 E0.785398
G1 Z2.200000
G1 X0.000000 Y-0.261799 Z0.000000 E0.785398
G1 X-0.004569 Y-0.261760 Z0.000000 E0.785398
G1 X-0.009137 Y-0.261640 Z0.000000 E0.785398
G1 X-0.013702 Y-0.261441 Z0.000000 E0.785398
G1 X-0.018262 Y-0.261162 Z0.000000 E0.785398
G1 X-0.022817 Y-0.260803 Z0.000000 E0.785398
G1 X-0.027365 Y-0.260365 Z0.000000 E0.785398
G1 X-0.031905 Y-0.259848 Z0.000000 E0.785398
G1 X-0.036435 Y-0.259252 Z0.000000 E0.785398
G1 X-0.040954 Y-0.258576 Z0.000000 E0.785398
G1 X-0.045461 Y-0.257822 Z0.000000 E0.785398
G1 X-0.049954 Y-0.256989 Z0.000000 E0.785398
G1 X-0.054431 Y-0.256078 Z0.000000 E0.785398
G1 X-0.058892 Y-0.255089 Z0.000000 E0.785398
G1 X-0.063335 Y-0.254023 Z0.000000 E0.785398
G1 X-0.067759 Y-0.252879 Z0.000000 E0.785398
G1 X-0.072162 Y-0.251658 Z0.000000 E0.785398
G1 X-0.076543 Y-0.250360 Z0.000000 E0.785398
G1 X-0.080900 Y-0.248986 Z0.000000 E0.785398
G1 X-0.085234 Y-0.247536 Z0.000000 E0.785398
G1 X-0.089541 Y-0.246011 Z0.000000 E0.785398
G1 X-0.093821 Y-0.244411 Z0.000000 E0.785398
G1 X-0.098072 Y-0.242736 Z0.000000 E0.785398
G1 X-0.102293 Y-0.240988 Z0.000000 E0.785398
G1 X-0.106483 Y-0.239166 Z0.000000 E0.785398
G1 X-0.110641 Y-0.237271 Z0.000000 E0.785398
G1 X-0.114765 Y-0.235304 Z0.000000 E0.785398
G1 X-0.118854 Y-0.233265 Z0.000000 E0.785398
G1 X-0.122907 Y-0.231155 Z0.000000 E0.785398
G1 X-0.126923 Y-0.228975 Z0.000000 E0.785398
G1 X-0.130900 Y-0.226725 Z0.000000 E0.785398
G1 X-0.134837 Y-0.224406 Z0.000000 E0.785398
G1 X-0.138733 Y-0.222018 Z0.000000 E0.785398
G1 X-0.142586 Y-0.219563 Z0.000000 E0.785398
G1 X-0.146396 Y-0.217042 Z0.000000 E0.785398
G1 X-0.150162 Y-0.214454 Z0.000000 E0.785398
G1 X-0.153882 Y-0.211800 Z0.000000 E0.785398
G1 X-0.157555 Y-0.209082 Z0.000000 E0.785398
G1 X-0.161180 Y-0.206301 Z0.000000 E0.785398
G1 X-0.164756 Y-0.203456 Z0.000000 E0.785398
G1 X-0.168281 Y-0.200550 Z0.000000 E0.785398
G1 X-0.171756 Y-0.197583 Z0.000000 E0.785398
G1 X-0.175178 Y-0.194555 Z0.000000 E0.785398
G1 X-0.178547 Y-0.191468 Z0.000000 E0.785398
G1 X-0.181861 Y-0.188323 Z0.000000 E0.785398
G1 X-0.185120 Y-0.185120 Z0.000000 E0.785398
G1 X-0.188323 Y-0.181861 Z0.000000 E0.785398
G1 X-0.191468 Y-0.178547 Z0.000000 E0.785398
G1 X-0.194555 Y-0.175178 Z0.000000 E0.785398
G1 X-0.197583 Y-0.171756 Z0.000000 E0.785398
G1 X-0.200550 Y-0.168281 Z0.000000 E0.785398
G1 X-0.203456 Y-0.164756 Z0.000000 E0.785398
G1 X-0.206301 Y-0.161180 Z0.000000 E0.785398
G1 X-0.209082 Y-0.157555 Z0.000000 E0.785398
G1 X-0.211800 Y-0.153882 Z0.000000 E0.785398
G1 X-0.214454 Y-0.150162 Z0.000000 E0.785398
G1 X-0.217042 Y-0.146396 Z0.000000 E0.785398
G1 X-0.219563 Y-0.142586 Z0.000000 E0.785398
G1 X-0.222018 Y-0.138733 Z0.000000 E0.785398
G1 X-0.224406 Y-0.134837 Z0.000000 E0.785398
G1 X-0.226725 Y-0.130900 Z0.000000 E0.785398
G1 X-0.228975 Y-0.126923 Z0.000000 E0.785398
G1 X-0.231155 Y-0.122907 Z0.000000 E0.785398
G1 X-0.233265 Y-0.118854 Z0.000000 E0.785398
G1 X-0.235304 Y-0.114765 Z0.000000 E0.785398
G1 X-0.237271 Y-0.110641 Z0.000000 E0.785398
G1 X-0.239166 Y-0.106483 Z0.000000 E0.785398
G1 X-0.240988 Y-0.102293 Z0.000000 E0.785398
G1 X-0.242736 Y-0.098072 Z0.000000 E0.785398
G1 X-0.244411 Y-0.093821 Z0.000000 E0.785398
G1 X-0.246011 Y-0.089541 Z0.000000 E0.785398
G1 X-0.247536 Y-0.085234 Z0.000000 E0.785398
G1 X-0.248986 Y-0.080900 Z0.000000 E0.785398
G1 X-0.250360 Y-0.076543 Z0.000000 E0.785398
G1 X-0.251658 Y-0.072162 Z0.000000 E0.785398
G1 X-0.252879 Y-0.067759 Z0.000000 E0.785398
G1 X-0.254023 Y-0.063335 Z0.000000 E0.785398
G1 X-0.255089 Y-0.058892 Z0.000000 E0.785398
G1 X-0.256078 Y-0.054431 Z0.000000 E0.785398
G1 X-0.256989 Y-0.049954 Z0.000000 E0.785398
G1 X-0.257822 Y-0.045461 Z0.000000 E0.785398
G1 X-0.258576 Y-0.040954 Z0.000000 E0.785398
G1 X-0.259252 Y-0.036435 Z0.000000 E0.785398
G1 X-0.259848 Y-0.031905 Z0.000000 E0.785398
G1 X-0.260365 Y-0.027365 Z0.000000 E0.785398
G1 X-0.260803 Y-0.022817 Z0.000000 E0.785398
G1 X-0.261162 Y-0.018262 Z0.000000 E0.785398
G1 X-0.261441 Y-0.013702 Z0.000000 E0.785398
G1 X-0.261640 Y-0.009137 Z0.000000 E0.785398
G1 X-0.261760 Y-0.004569 Z0.000000 E0.785398
G1 X-0.261799 Y-0.000000 Z0.000000 E0.785398
G1 X-0.261760 Y0.004569 Z0.000000 E0.785398
G1 X-0.261640 Y0.009137 Z0.000000 E0.785398
G1 X-0.261441 Y0.013702 Z0.000000 E0.785398
G1 X-0.261162 Y0.018262 Z0.000000 E0.785398
G1 X-0.260803 Y0.022817 Z0.000000 E0.785398
G1 X-0.260365 Y0.027365 Z0.000000 E0.785398
G1 X-0.259848 Y0.031905 Z0.000000 E0.785398
G1 X-0.259252 Y0.036435 Z0.000000 E0.785398
G1 X-0.258576 Y0.040954 Z0.000000 E0.785398
G1 X-0.257822 Y0.045461 Z0.000000 E0.785398
G1 X-0.256989 Y0.049954 Z0.000000 E0.785398
G1 X-0.256078 Y0.054431 Z0.000000 E0.785398
G1 X-0.255089 Y0.058892 Z0.000000 E0.785398
G1 X-0.254023 Y0.063335 Z0.000000 E0.785398
G1 X-0.252879 Y0.067759 Z0.000000 E0.785398
G1 X-0.251658 Y0.072162 Z0.000000 E0.785398
G1 X-0.250360 Y0.076543 Z0.000000 E0.785398
G1 X-0.248986 Y0.080900 Z0.000000 E0.785398
G1 X-0.247536 Y0.085234 Z0.000000 E0.785398
G1 X-0.246011 Y0.089541 Z0.000000 E0.785398
G1 X-0.244411 Y0.093821 Z0.000000 E0.785398
G1 X-0.242736 Y0.098072 Z0.000000 E0.785398
G1 X-0.240988 Y0.102293 Z0.000000 E0.785398
G1 X-0.239166 Y0.106483 Z0.000000 E0.785398
G1 X-0.237271 Y0.110641 Z0.000000 E0.785398
G1 X-0.235304 Y0.114765 Z0.000000 E0.785398
G1 X-0.233265 Y0.118854 Z0.000000 E0.785398
G1 X-0.231155 Y0.122907 Z0.000000 E0.785398
G1 X-0.228975 Y0.126923 Z0.000000 E0.785398
G1 X-0.226725 Y0.130900 Z0.000000 E0.785398
G1 X-0.224406 Y0.134837 Z0.000000 E0.785398
G1 X-0.222018 Y0.138733 Z0.000000 E0.785398
G1 X-0.219563 Y0.142586 Z0.000000 E0.785398
G1 X-0.217042 Y0.146396 Z0.000000 E0.785398
G1 X-0.214454 Y0.150162 Z0.000000 E0.785398
G1 X-0.211800 Y0.153882 Z0.000000 E0.785398
G1 X-0.209082 Y0.157555 Z0.000000 E0.785398
G1 X-0.206301 Y0.161180 Z0.000000 E0.785398
G1 X-0.203456 Y0.164756 Z0.000000 E0.785398
G1 X-0.200550 Y0.168281 Z0.000000 E0.785398
G1 X-0.197583 Y0.171756 Z0.000000 E0.785398
G1 X-0.194555 Y0.175178 Z0.000000 E0.785398
G1 X-0.191468 Y0.178547 Z0.000000 E0.785398
G1 X-0.188323 Y0.181861 Z0.000000 E0.785398
G1 X-0.185120 Y0.185120 Z0.000000 E0.785398
G1 X-0.181861 Y0.188323 Z0.000000 E0.785398
G1 X-0.178547 Y0.191468 Z0.000000 E0.785398
G1 X-0.175178 Y0.194555 Z0.000000 E0.785398
G1 X-0.171756 Y0.197583 Z0.000000 E0.785398
G1 X-0.168281 Y0.200550 Z0.000000 E0.785398
G1 X-0.164756 Y0.203456 Z0.000000 E0.785398
G1 X-0.161180 Y0.206301 Z0.000000 E0.785398
G1 X-0.157555 Y0.209082 Z0.000000 E0.785398
G1 X-0.153882 Y0.211800 Z0.000000 E0.785398
G1 X-0.150162 Y0.214454 Z0.000000 E0.785398
G1 X-0.146396 Y0.217042 Z0.000000 E0.785398
G1 X-0.142586 Y0.219563 Z0.000000 E0.785398
G1 X-0.138733 Y0.222018 Z0.000000 E0.785398
G1 X-0.134837 Y0.224406 Z0.000000 E0.785398
G1 X-0.130900 Y0.226725 Z0.000000 E0.785398
G1 X-0.126923 Y0.228975 Z0.000000 E0.785398
G1 X-0.122907 Y0.231155 Z0.000000 E0.785398
G1 X-0.118854 Y0.233265 Z0.000000 E0.785398
G1 X-0.114765 Y0.235304 Z0.000000 E0.785398
G1 X-0.110641 Y0.237271 Z0.000000 E0.785398
G1 X-0.106483 Y0.239166 Z0.000000 E0.785398
G1 X-0.102293 Y0.240988 Z0.000000 E0.785398
G1 X-0.098072 Y0.242736 Z0.000000 E0.785398
G1 X-0.093821 Y0.244411 Z0.000000 E0.785398
G1 X-0.089541 Y0.246011 Z0.000000 E0.785398
G1 X-0.085234 Y0.247536 Z0.000000 E0.785398
G1 X-0.080900 Y0.248986 Z0.000000 E0.785398
G1 X-0.076543 Y0.250360 Z0.000000 E0.785398
G1 X-0.072162 Y0.251658 Z0.000000 E0.785398
G1 X-0.067759 Y0.252879 Z0.000000 E0.785398
G1 X-0.063335 Y0.254023 Z0.000000 E0.785398
G1 X-0.058892 Y0.255089 Z0.000000 E0.785398
G1 X-0.054431 Y0.256078 Z0.000000 E0.785398
G1 X-0.049954 Y0.256989 Z0.000000 E0.785398
G1 X-0.045461 Y0.257822 Z0.000000 E0.785398
G1 X-0.040954 Y0.258576 Z0.000000 E0.785398
G1 X-0.036435 Y0.259252 Z0.000000 E0.785398
G1 X-0.031905 Y0.259848 Z0.000000 E0.785398
G1 X-0.027365 Y0.260365 Z0.000000 E0.785398
G1 X-0.022817 Y0.260803 Z0.000000 E0.785398
G1 X-0.018262 Y0.261162 Z0.000000 E0.785398
G1 X-0.013702 Y0.261441 Z0.000000 E0.785398
G1 X-0.009137 Y0.261640 Z0.000000 E0.785398
G1 X-0.004569 Y0.261760 Z0.000000 E0.785398
G1 X-0.000000 Y0.261799 Z0.000000 E0.785398
G1 X0.004569 Y0.261760 Z0.000000 E0.785398
G1 X0.009137 Y0.261640 Z0.000000 E0.785398
G1 X0.013702 Y0.261441 Z0.000000 E0.785398
G1 X0.018262 Y0.261162 Z0.000000 E0.785398
G1 X0.022817 Y0.260803 Z0.000000 E0.785398
G1 X0.027365 Y0.260365 Z0.000000 E0.785398
G1 X0.031905 Y0.259848 Z0.000000 E0.785398
G1 X0.036435 Y0.259252 Z0.000000 E0.785398
G1 X0.040954 Y0.258576 Z0.000000 E0.785398
G1 X0.045461 Y0.257822 Z0.000000 E0.785398
G1 X0.049954 Y0.256989 Z0.000000 E0.785398
G1 X0.054431 Y0.256078 Z0.000000 E0.785398
G1 X0.058892 Y0.255089 Z0.000000 E0.785398
G1 X0.063335 Y0.254023 Z0.000000 E0.785398
G1 X0.067759 Y0.252879 Z0.000000 E0.785398
G1 X0.072162 Y0.251658 Z0.000000 E0.785398
G1 X0.076543 Y0.250360 Z0.000000 E0.785398
G1 X0.080900 Y0.248986 Z0.000000 E0.785398
G1 X0.085234 Y0.247536 Z0.000000 E0.785398
G1 X0.089541 Y0.246011 Z0.000000 E0.785398
G1 X0.093821 Y0.244411 Z0.000000 E0.785398
G1 X0.098072 Y0.242736 Z0.000000 E0.785398
G1 X0.102293 Y0.240988 Z0.000000 E0.785398
G1 X0.106483 Y0.239166 Z0.000000 E0.785398
G1 X0.110641 Y0.237271 Z0.000000 E0.785398
G1 X0.114765 Y0.235304 Z0.000000 E0.785398
G1 X0.118854 Y0.233265 Z0.000000 E0.785398
G1 X0.122907 Y0.231155 Z0.000000 E0.785398
G1 X0.126923 Y0.228975 Z0.000000 E0.785398
G1 X0.130900 Y0.226725 Z0.000000 E0.785398
G1 X0.134837 Y0.224406 Z0.000000 E0.785398
G1 X0.138733 Y0.222018 Z0.000000 E0.785398
G1 X0.142586 Y0.219563 Z0.000000 E0.785398
G1 X0.146396 Y0.217042 Z0.000000 E0.785398
G1 X0.150162 Y0.214454 Z0.000000 E0.785398
G1 X0.153882 Y0.211800 Z0.000000 E0.785398
G1 X0.157555 Y0.209082 Z0.000000 E0.785398
G1 X0.161180 Y0.206301 Z0.000000 E0.785398
G1 X0.164756 Y0.203456 Z0.000000 E0.785398
G1 X0.168281 Y0.200550 Z0.000000 E0.785398
G1 X0.171756 Y0.197583 Z0.000000 E0.785398
G1 X0.175178 Y0.194555 Z0.000000 E0.785398
G1 X0.178547 Y0.191468 Z0.000000 E0.785398
G1 X0.181861 Y0.188323 Z0.000000 E0.785398
G1 X0.185120 Y0.185120 Z0.000000 E0.785398
G1 X0.188323 Y0.181861 Z0.000000 E0.785398
G1 X0.191468 Y0.178547 Z0.000000 E0.785398
G1 X0.194555 Y0.175178 Z0.000000 E0.785398
G1 X0.197583 Y0.171756 Z0.000000 E0.785398
G1 X0.200550 Y0.168281 Z0.000000 E0.785398
G1 X0.203456 Y0.164756 Z0.000000 E0.785398
G1 X0.206301 Y0.161180 Z0.000000 E0.785398
G1 X0.209082 Y0.157555 Z0.000000 E0.785398
G1 X0.211800 Y0.153882 Z0.000000 E0.785398
G1 X0.214454 Y0.150162 Z0.000000 E0.785398
G1 X0.217042 Y0.146396 Z0.000000 E0.785398
G1 X0.219563 Y0.142586 Z0.000000 E0.785398
G1 X0.222018 Y0.138733 Z0.000000 E0.785398
G1 X0.224406 Y0.134837 Z0.000000 E0.785398
G1 X0.226725 Y0.130900 Z0.000000 E0.785398
G1 X0.228975 Y0.126923 Z0.000000 E0.785398
G1 X0.231155 Y0.122907 Z0.000000 E0.785398
G1 X0.233265 Y0.118854 Z0.000000 E0.785398
G1 X0.235304 Y0.114765 Z0.000000 E0.785398
G1 X0.237271 Y0.110641 Z0.000000 E0.785398
G1 X0.239166 Y0.106483 Z0.000000 E0.785398
G1 X0.240988 Y0.102293 Z0.000000 E0.785398
G1 X0.242736 Y0.098072 Z0.000000 E0.785398
G1 X0.244411 Y0.093821 Z0.000000 E0.785398
G1 X0.246011 Y0.089541 Z0.000000 E0.785398
G1 X0.247536 Y0.085234 Z0.000000 E0.785398
G1 X0.248986 Y0.080900 Z0.000000 E0.785398
G1 X0.250360 Y0.076543 Z0.000000 E0.785398
G1 X0.251658 Y0.072162 Z0.000000 E0.785398
G1 X0.252879 Y0.067759 Z0.000000 E0.785398
G1 X0.254023 Y0.063335 Z0.000000 E0.785398
G1 X0.255089 Y0.058892 Z0.000000 E0.785398
G1 X0.256078 Y0.054431 Z0.000000 E0.785398
G1 X0.256989 Y0.049954 Z0.000000 E0.785398
G1 X0.257822 Y0.045461 Z0.000000 E0.785398
G1 X0.258576 Y0.040954 Z0.000000 E0.785398
G1 X0.259252 Y0.036435 Z0.000000 E0.785398
G1 X0.259848 Y0.031905 Z0.000000 E0.785398
G1 X0.260365 Y0.027365 Z0.000000 E0.785398
G1 X0.260803 Y0.022817 Z0.000000 E0.785398
G1 X0.261162 Y0.018262 Z0.000000 E0.785398
G1 X0.261441 Y0.013702 Z0.000000 E0.785398
G1 X0.261640 Y0.009137 Z0.000000 E0.785398
G1 X0.261760 Y0.004569 Z0.000000 E0.785398
G1 X0.261799 Y0.000000 Z0.000000 E0.785398
G1 X0.261760 Y-0.004569 Z0.000000 E0.785398
G1 X0.261640 Y-0.009137 Z0.000000 E0.785398
G1 X0.261441 Y-0.013702 Z0.000000 E0.785398
G1 X0.261162 Y-0.018262 Z0.000000 E0.785398
G1 X0.260803 Y-0.022817 Z0.000000 E0.785398
G1 X0.260365 Y-0.027365 Z0.000000 E0.785398
G1 X0.259848 Y-0.031905 Z0.000000 E0.785398
G1 X0.259252 Y-0.036435 Z0.000000 E0.785398
G1 X0.258576 Y-0.040954 Z0.000000 E0.785398
G1 X0.257822 Y-0.045461 Z0.000000 E0.785398
G1 X0.256989 Y-0.049954 Z0.000000 E0.785398
G1 X0.256078 Y-0.054431 Z0.000000 E0.785398
G1 X0.255089 Y-0.058892 Z0.000000 E0.785398
G1 X0.254023 Y-0.063335 Z0.000000 E0.785398
G1 X0.252879 Y-0.067759 Z0.000000 E0.785398
G1 X0.251658 Y-0.072162 Z0.000000 E0.785398
G1 X0.250360 Y-0.076543 Z0.000000 E0.785398
G1 X0.248986 Y-0.080900 Z0.000000 E0.785398
G1 X0.247536 Y-0.085234 Z0.000000 E0.785398
G1 X0.246011 Y-0.089541 Z0.000000 E0.785398
G1 X0.244411 Y-0.093821 Z0.000000 E0.785398
G1 X0.242736 Y-0.098072 Z0.000000 E0.785398
G1 X0.240988 Y-0.102293 Z0.000000 E0.785398
G1 X0.239166 Y-0.106483 Z0.000000 E0.785398
G1 X0.237271 Y-0.110641 Z0.000000 E0.785398
G1 X0.235304 Y-0.114765 Z0.000000 E0.785398
G1 X0.233265 Y-0.118854 Z0.000000 E0.785398
G1 X0.231155 Y-0.122907 Z0.000000 E0.785398
G1 X0.228975 Y-0.126923 Z0.000000 E0.785398
G1 X0.226725 Y-0.130900 Z0.000000 E0.785398
G1 X0.224406 Y-0.134837 Z0.000000 E0.785398
G1 X0.222018 Y-0.138733 Z0.000000 E0.785398
G1 X0.219563 Y-0.142586 Z0.000000 E0.785398
G1 X0.217042 Y-0.146396 Z0.000000 E0.785398
G1 X0.214454 Y-0.150162 Z0.000000 E0.785398
G1 X0.211800 Y-0.153882 Z0.000000 E0.785398
G1 X0.209082 Y-0.157555 Z0.000000 E0.785398
G1 X0.206301 Y-0.161180 Z0.000000 E0.785398
G1 X0.203456 Y-0.164756 Z0.000000 E0.785398
G1 X0.200550 Y-0.168281 Z0.000000 E0.785398
G1 X0.197583 Y-0.171756 Z0.000000 E0.785398
G1 X0.194555 Y-0.175178 Z0.000000 E0.785398
G1 X0.191468 Y-0.178547 Z0.000000 E0.785398
G1 X0.188323 Y-0.181861 Z0.000000 E0.785398
G1 X0.185120 Y-0.185120 Z0.000000 E0.785398
G1 X0.181861 Y-0.188323 Z0.000000 E0.785398
G1 X0.178547 Y-0.191468 Z0.000000 E0.785398
G1 X0.175178 Y-0.194555 Z0.000000 E0.785398
G1 X0.171756 Y-0.197583 Z0.000000 E0.785398
G1 X0.168281 Y-0.200550 Z0.000000 E0.785398
G1 X0.164756 Y-0.203456 Z0.000000 E0.785398
G1 X0.161180 Y-0.206301 Z0.000000 E0.785398
G1 X0.157555 Y-0.209082 Z0.000000 E0.785398
G1 X0.153882 Y-0.211800 Z0.000000 E0.785398
G1 X0.150162 Y-0.214454 Z0.000000 E0.785398
G1 X0.146396 Y-0.217042 Z0.000000 E0.785398
G1 X0.142586 Y-0.219563 Z0.000000 E0.785398
G1 X0.138733 Y-0.222018 Z0.000000 E0.785398
G1 X0.134837 Y-0.224406 Z0.000000 E0.785398
G1 X0.130900 Y-0.226725 Z0.000000 E0.785398
G1 X0.126923 Y-0.228975 Z0.000000 E0.785398
G1 X0.122907 Y-0.231155 Z0.000000 E0.785398
G1 X0.118854 Y-0.233265 Z0.000000 E0.785398
G1 X0.114765 Y-0.235304 Z0.000000 E0.785398
G1 X0.110641 Y-0.237271 Z0.000000 E0.785398
G1 X0.106483 Y-0.239166 Z0.000000 E0.785398
G1 X0.102293 Y-0.240988 Z0.000000 E0.785398
G1 X0.098072 Y-0.242736 Z0.000000 E0.785398
G1 X0.093821 Y-0.244411 Z0.000000 E0.785398
G1 X0.089541 Y-0.246011 Z0.000000 E0.785398
G1 X0.085234 Y-0.247536 Z0.000000 E0.785398
G1 X0.080900 Y-0.248986 Z0.000000 E0.785398
G1 X0.076543 Y-0.250360 Z0.000000 E0.785398
G1 X0.072162 Y-0.251658 Z0.000000 E0.785398
G1 X0.067759 Y-0.252879 Z0.000000 E0.785398
G1 X0.063335 Y-0.254023 Z0.000000 E0.785398
G1 X0.058892 Y-0.255089 Z0.000000 E0.785398
G1 X0.054431 Y-0.256078 Z0.000000 E0.785398
G1 X0.049954 Y-0.256989 Z0.000000 E0.785398
G1 X0.045461 Y-0.257822 Z0.000000 E0.785398
G1 X0.040954 Y-0.258576 Z0.000000 E0.785398
G1 X0.036435 Y-0.259252 Z0.000000 E0.785398
G1 X0.031905 Y-0.259848 Z0.000000 E0.785398
G1 X0.027365 Y-0.260365 Z0.000000 E0.785398
G1 X0.022817 Y-0.260803 Z0.000000 E0.785398
G1 X0.018262 Y-0.261162 Z0.000000 E0.785398
G1 X0.013702 Y-0.261441 Z0.000000 E0.785398
G1 X0.009137 Y-0.261640 Z0.000000 E0.785398
G1 X0.004569 Y-0.261760 Z0.000000 E0.785398
G1 Z2.200000
G1 X0.000000 Y-0.261799 Z0.000000 E0.785398
G1 X-0.004569 Y-0.261760 Z0.000000 E0.785398
G1 X-0.009137 Y-0.261640 Z0.000000 E0.785398
G1 X-0.013702 Y-0.261441 Z0.000000 E0.785398
G1 X-0.018262 Y-0.261162 Z0.000000 E0.785398
G1 X-0.022817 Y-0.260803 Z0.000000 E0.785398
G1 X-0.027365 Y-0.260365 Z0.000000 E0.785398
G1 X-0.031905 Y-0.259848 Z0.000000 E0.785398
G1 X-0.036435 Y-0.259252 Z0.000000 E0.785398
G1 X-0.040954 Y-0.258576 Z0.000000 E0.785398
G1 X-0.045461 Y-0.257822 Z0.000000 E0.785398
G1 X-0.049954 Y-0.256989 Z0.000000 E0.785398
G1 X-0.054431 Y-0.256078 Z0.000000 E0.785398
G1 X-0.058892 Y-0.255089 Z0.000000 E0.785398
G1 X-0.063335 Y-0.254023 Z0.000000 E0.785398
G1 X-0.067759 Y-0.252879 Z0.000000 E0.785398
G1 X-0.072162 Y-0.251658 Z0.000000 E0.785398
G1 X-0.076543 Y-0.250360 Z0.000000 E0.785398
G1 X-0.080900 Y-0.248986 Z0.000000 E0.785398
G1 X-0.085234 Y-0.247536 Z0.000000 E0.785398
G1 X-0.089541 Y-0.246011 Z0.000000 E0.785398
G1 X-0.093821 Y-0.244411 Z0.000000 E0.785398
G1 X-0.098072 Y-0.242736 Z0.000000 E0.785398
G1 X-0.102293 Y-0.240988 Z0.000000 E0.785398
G1 X-0.106483 Y-0.239166 Z0.000000 E0.785398
G1 X-0.110641 Y-0.237271 Z0.000000 E0.785398
G1 X-0.114765 Y-0.235304 Z0.000000 E0.785398
G1 X-0.118854 Y-0.233265 Z0.000000 E0.785398
G1 X-0.122907 Y-0.231155 Z0.000000 E0.785398
G1 X-0.126923 Y-0.228975 Z0.000000 E0.785398
G1 X-0.130900 Y-0.226725 Z0.000000 E0.785398
G1 X-0.134837 Y-0.224406 Z0.000000 E0.785398
G1 X-0.138733 Y-0.222018 Z0.000000 E0.785398
G1 X-0.142586 Y-0.219563 Z0.000000 E0.785398
G1 X-0.146396 Y-0.217042 Z0.000000 E0.785398
G1 X-0.150162 Y-0.214454 Z0.000000 E0.785398
G1 X-0.153882 Y-0.211800 Z0.000000 E0.785398
G1 X-0.157555 Y-0.209082 Z0.000000 E0.785398
G1 X-0.161180 Y-0.206301 Z0.000000 E0.785398
G1 X-0.164756 Y-0.203456 Z0.000000 E0.785398
G1 X-0.168281 Y-0.200550 Z0.000000 E0.785398
G1 X-0.171756 Y-0.197583 Z0.000000 E0.785398
G1 X-0.175178 Y-0.194555 Z0.000000 E0.785398
G1 X-0.178547 Y-0.191468 Z0.000000 E0.785398
G1 X-0.181861 Y-0.188323 Z0.000000 E0.785398
G1 X-0.185120 Y-0.185120 Z0.000000 E0.785398
G1 X-0.188323 Y-0.181861 Z0.000000 E0.785398
G1 X-0.191468 Y-0.178547 Z0.000000 E0.785398
G1 X-0.194555 Y-0.175178 Z0.000000 E0.785398
G1 X-0.197583 Y-0.171756 Z0.000000 E0.785398
G1 X-0.200550 Y-0.168281 Z0.000000 E0.785398
G1 X-0.203456 Y-0.164756 Z0.000000 E0.785398
G1 X-0.206301 Y-0.161180 Z0.000000 E0.785398
G1 X-0.209082 Y-0.157555 Z0.000000 E0.785398
G1 X-0.211800 Y-0.153882 Z0.000000 E0.785398
G1 X-0.214454 Y-0.150162 Z0.000000 E0.785398
G1 X-0.217042 Y-0.146396 Z0.000000 E0.785398
G1 X-0.219563 Y-0.142586 Z0.000000 E0.785398
G1 X-0.222018 Y-0.138733 Z0.000000 E0.785398
G1 X-0.224406 Y-0.134837 Z0.000000 E0.785398
G1 X-0.226725 Y-0.130900 Z0.000000 E0.785398
G1 X-0.228975 Y-0.126923 Z0.000000 E0.785398
G1 X-0.231155 Y-0.122907 Z0.000000 E0.785398
G1 X-0.233265 Y-0.118854 Z0.000000 E0.785398
G1 X-0.235304 Y-0.114765 Z0.000000 E0.785398
G1 X-0.237271 Y-0.110641 Z0.000000 E0.785398
G1 X-0.239166 Y-0.106483 Z0.000000 E0.785398
G1 X-0.240988 Y-0.102293 Z0.000000 E0.785398
G1 X-0.242736 Y-0.098072 Z0.000000 E0.785398
G1 X-0.244411 Y-0.093821 Z0.000000 E0.785398
G1 X-0.246011 Y-0.089541 Z0.000000 E0.785398
G1 X-0.247536 Y-0.085234 Z0.000000 E0.785398
G1 X-0.248986 Y-0.080900 Z0.000000 E0.785398
G1 X-0.250360 Y-0.076543 Z0.000000 E0.785398
G1 X-0.251658 Y-0.072162 Z0.000000 E0.785398
G1 X-0.252879 Y-0.067759 Z0.000000 E0.785398
G1 X-0.254023 Y-0.063335 Z0.000000 E0.785398
G1 X-0.255089 Y-0.058892 Z0.000000 E0.785398
G1 X-0.256078 Y-0.054431 Z0.000000 E0.785398
G1 X-0.256989 Y-0.049954 Z0.000000 E0.785398
G1 X-0.257822 Y-0.045461 Z0.000000 E0.785398
G1 X-0.258576 Y-0.040954 Z0.000000 E0.785398
G1 X-0.259252 Y-0.036435 Z0.000000 E0.785398
G1 X-0.259848 Y-0.031905 Z0.000000 E0.785398
G1 X-0.260365 Y-0.027365 Z0.000000 E0.785398
G1 X-0.260803 Y-0.022817 Z0.000000 E0.785398
G1 X-0.261162 Y-0.018262 Z0.000000 E0.785398
G1 X-0.261441 Y-0.013702 Z0.000000 E0.785398
G1 X-0.261640 Y-0.009137 Z0.000000 E0.785398
G1 X-0.261760 Y-0.004569 Z0.000000 E0.785398
G1 X-0.261799 Y-0.000000 Z0.000000 E0.785398
G1 X-0.261760 Y0.004569 Z0.000000 E0.785398
G1 X-0.261640 Y0.009137 Z0.000000 E0.785398
G1 X-0.261441 Y0.013702 Z0.000000 E0.785398
G1 X-0.261162 Y0.018262 Z0.000000 E0.785398
G1 X-0.260803 Y0.022817 Z0.000000 E0.785398
G1 X-0.260365 Y0.027365 Z0.000000 E0.785398
G1 X-0.259848 Y0.031905 Z0.000000 E0.785398
G1 X-0.259252 Y0.036435 Z0.000000 E0.785398
G1 X-0.258576 Y0.040954 Z0.000000 E0.785398
G1 X-0.257822 Y0.045461 Z0.000000 E0.785398
G1 X-0.256989 Y0.049954 Z0.000000 E0.785398
G1 X-0.256078 Y0.054431 Z0.000000 E0.785398
G1 X-0.255089 Y0.058892 Z0.000000 E0.785398
G1 X-0.254023 Y0.063335 Z0.000000 E0.785398
G1 X-0.252879 Y0.067759 Z0.000000 E0.785398
G1 X-0.251658 Y0.072162 Z0.000000 E0.785398
G1 X-0.250360 Y0.076543 Z0.000000 E0.785398
G1 X-0.248986 Y0.080900 Z0.000000 E0.785398
G1 X-0.247536 Y0.085234 Z0.000000 E0.785398
G1 X-0.246011 Y0.089541 Z0.000000 E0.785398
G1 X-0.244411 Y0.093821 Z0.000000 E0.785398
G1 X-0.242736 Y0.098072 Z0.000000 E0.785398
G1 X-0.240988 Y0.102293 Z0.000000 E0.785398
G1 X-0.239166 Y0.106483 Z0.000000 E0.785398
G1 X-0.237271 Y0.110641 Z0.000000 E0.785398
G1 X-0.235304 Y0.114765 Z0.000000 E0.785398
G1 X-0.233265 Y0.118854 Z0.000000 E0.785398
G1 X-0.231155 Y0.122907 Z0.000000 E0.785398
G1 X-0.228975 Y0.126923 Z0.000000 E0.785398
G1 X-0.226725 Y0.130900 Z0.000000 E0.785398
G1 X-0.224406 Y0.134837 Z0.000000 E0.785398
G1 X-0.222018 Y0.138733 Z0.000000 E0.785398
G1 X-0.219563 Y0.142586 Z0.000000 E0.785398
G1 X-0.217042 Y0.146396 Z0.000000 E0.785398
G1 X-0.214454 Y0.150162 Z0.000000 E0.785398
G1 X-0.211800 Y0.153882 Z0.000000 E0.785398
G1 X-0.209082 Y0.157555 Z0.000000 E0.785398
G1 X-0.206301 Y0.161180 Z0.000000 E0.785398
G1 X-0.203456 Y0.164756 Z0.000000 E0.785398
G1 X-0.200550 Y0.168281 Z0.000000 E0.785398
G1 X-0.197583 Y0.171756 Z0.000000 E0.785398
G1 X-0.194555 Y0.175178 Z0.000000 E0.785398
G1 X-0.191468 Y0.178547 Z0.000000 E0.785398
G1 X-0.188323 Y0.181861 Z0.000000 E0.785398
G1 X-0.185120 Y0.185120 Z0.000000 E0.785398
G1 X-0.181861 Y0.188323 Z0.000000 E0.785398
G1 X-0.178547 Y0.191468 Z0.000000 E0.785398
G1 X-0.175178 Y0.194555 Z0.000000 E0.785398
G1 X-0.171756 Y0.197583 Z0.000000 E0.785398
G1 X-0.168281 Y0.200550 Z0.000000 E0.785398
G1 X-0.164756 Y0.203456 Z0.000000 E0.785398
G1 X-0.161180 Y0.206301 Z0.000000 E0.785398
G1 X-0.157555 Y0.209082 Z0.000000 E0.785398
G1 X-0.153882 Y0.211800 Z0.000000 E0.785398
G1 X-0.150162 Y0.214454 Z0.000000 E0.785398
G1 X-0.146396 Y0.217042 Z0.000000 E0.785398
G1 X-0.142586 Y0.219563 Z0.000000 E0.785398
G1 X-0.138733 Y0.222018 Z0.000000 E0.785398
G1 X-0.134837 Y0.224406 Z0.000000 E0.785398
G1 X-0.130900 Y0.226725 Z0.000000 E0.785398
G1 X-0.126923 Y0.228975 Z0.000000 E0.785398
G1 X-0.122907 Y0.231155 Z0.000000 E0.785398
G1 X-0.118854 Y0.233265 Z0.000000 E0.785398
G1 X-0.114765 Y0.235304 Z0.000000 E0.785398
G1 X-0.110641 Y0.237271 Z0.000000 E0.785398
G1 X-0.106483 Y0.239166 Z0.000000 E0.785398
G1 X-0.102293 Y0.240988 Z0.000000 E0.785398
G1 X-0.098072 Y0.242736 Z0.000000 E0.785398
G1 X-0.093821 Y0.244411 Z0.000000 E0.785398
G1 X-0.089541 Y0.246011 Z0.000000 E0.785398
G1 X-0.085234 Y0.247536 Z0.000000 E0.785398
G1 X-0.080900 Y0.248986 Z0.000000 E0.785398
G1 X-0.076543 Y0.250360 Z0.000000 E0.785398
G1 X-0.072162 Y0.251658 Z0.000000 E0.785398
G1 X-0.067759 Y0.252879 Z0.000000 E0.785398
G1 X-0.063335 Y0.254023 Z0.000000 E0.785398
G1 X-0.058892 Y0.255089 Z0.000000 E0.785398
G1 X-0.054431 Y0.256078 Z0.000000 E0.785398
G1 X-0.049954 Y0.256989 Z0.000000 E0.785398
G1 X-0.045461 Y0.257822 Z0.000000 E0.785398
G1 X-0.040954 Y0.258576 Z0.000000 E0.785398
G1 X-0.036435 Y0.259252 Z0.000000 E0.785398
G1 X-0.031905 Y0.259848 Z0.000000 E0.785398
G1 X-0.027365 Y0.260365 Z0.000000 E0.785398
G1 X-0.022817 Y0.260803 Z0.000000 E0.785398
G1 X-0.018262 Y0.261162 Z0.000000 E0.785398
G1 X-0.013702 Y0.261441 Z0.000000 E0.785398
G1 X-0.009137 Y0.261640 Z0.000000 E0.785398
G1 X-0.004569 Y0.261760 Z0.000000 E0.785398
G1 X-0.000000 Y0.261799 Z0.000000 E0.785398
G1 X0.004569 Y0.261760 Z0.000000 E0.785398
G1 X0.009137 Y0.261640 Z0.000000 E0.785398
G1 X0.013702 Y0.261441 Z0.000000 E0.785398
G1 X0.018262 Y0.261162 Z0.000000 E0.785398
G1 X0.022817 Y0.260803 Z0.000000 E0.785398
G1 X0.027365 Y0.260365 Z0.000000 E0.785398
G1 X0.031905 Y0.259848 Z0.000000 E0.785398
G1 X0.036435 Y0.259252 Z0.000000 E0.785398
G1 X0.040954 Y0.258576 Z0.000000 E0.785398
G1 X0.045461 Y0.257822 Z0.000000 E0.785398
G1 X0.049954 Y0.256989 Z0.000000 E0.785398
G1 X0.054431 Y0.256078 Z0.000000 E0.785398
G1 X0.058892 Y0.255089 Z0.000000 E0.785398
G1 X0.063335 Y0.254023 Z0.000000 E0.785398
G1 X0.067759 Y0.252879 Z0.000000 E0.785398
G1 X0.072162 Y0.251658 Z0.000000 E0.785398
G1 X0.076543 Y0.250360 Z0.000000 E0.785398
G1 X0.080900 Y0.248986 Z0.000000 E0.785398
G1 X0.085234 Y0.247536 Z0.000000 E0.785398
G1 X0.089541 Y0.246011 Z0.000000 E0.785398
G1 X0.093821 Y0.244411 Z0.000000 E0.785398
G1 X0.098072 Y0.242736 Z0.000000 E0.785398
G1 X0.102293 Y0.240988 Z0.000000 E0.785398
G1 X0.106483 Y0.239166 Z0.000000 E0.785398
G1 X0.110641 Y0.237271 Z0.000000 E0.785398
G1 X0.114765 Y0.235304 Z0.000000 E0.785398
G1 X0.118854 Y0.233265 Z0.000000 E0.785398
G1 X0.122907 Y0.231155 Z0.000000 E0.785398
G1 X0.126923 Y0.228975 Z0.000000 E0.785398
G1 X0.130900 Y0.226725 Z0.000000 E0.785398
G1 X0.134837 Y0.224406 Z0.000000 E0.785398
G1 X0.138733 Y0.222018 Z0.000000 E0.785398
G1 X0.142586 Y0.219563 Z0.000000 E0.785398
G1 X0.146396 Y0.217042 Z0.000000 E0.785398
G1 X0.150162 Y0.214454 Z0.000000 E0.785398
G1 X0.153882 Y0.211800 Z0.000000 E0.785398
G1 X0.157555 Y0.209082 Z0.000000 E0.785398
G1 X0.161180 Y0.206301 Z0.000000 E0.785398
G1 X0.164756 Y0.203456 Z0.000000 E0.785398
G1 X0.168281 Y0.200550 Z0.000000 E0.785398
G1 X0.171756 Y0.197583 Z0.000000 E0.785398
G1 X0.175178 Y0.194555 Z0.000000 E0.785398
G1 X0.178547 Y0.191468 Z0.000000 E0.785398
G1 X0.181861 Y0.188323 Z0.000000 E0.785398
G1 X0.185120 Y0.185120 Z0.000000 E0.785398
G1 X0.188323 Y0.181861 Z0.000000 E0.785398
G1 X0.191468 Y0.178547 Z0.000000 E0.785398
G1 X0.194555 Y0.175178 Z0.000000 E0.785398
G1 X0.197583 Y0.171756 Z0.000000 E0.785398
G1 X0.200550 Y0.168281 Z0.000000 E0.785398
G1 X0.203456 Y0.164756 Z0.000000 E0.785398
G1 X0.206301 Y0.161180 Z0.000000 E0.785398
G1 X0.209082 Y0.157555 Z0.000000 E0.785398
G1 X0.211800 Y0.153882 Z0.000000 E0.785398
G1 X0.214454 Y0.150162 Z0.000000 E0.785398
G1 X0.217042 Y0.146396 Z0.000000 E0.785398
G1 X0.219563 Y0.142586 Z0.000000 E0.785398
G1 X0.222018 Y0.138733 Z0.000000 E0.785398
G1 X0.224406 Y0.134837 Z0.000000 E0.785398
G1 X0.226725 Y0.130900 Z0.000000 E0.785398
G1 X0.228975 Y0.126923 Z0.000000 E0.785398
G1 X0.231155 Y0.122907 Z0.000000 E0.785398
G1 X0.233265 Y0.118854 Z0.000000 E0.785398
G1 X0.235304 Y0.114765 Z0.000000 E0.785398
G1 X0.237271 Y0.110641 Z0.000000 E0.785398
G1 X0.239166 Y0.106483 Z0.000000 E0.785398
G1 X0.240988 Y0.102293 Z0.000000 E0.785398
G1 X0.242736 Y0.098072 Z0.000000 E0.785398
G1 X0.244411 Y0.093821 Z0.000000 E0.785398
G1 X0.246011 Y0.089541 Z0.000000 E0.785398
G1 X0.247536 Y0.085234 Z0.000000 E0.785398
G1 X0.248986 Y0.080900 Z0.000000 E0.785398
G1 X0.250360 Y0.076543 Z0.000000 E0.785398
G1 X0.251658 Y0.072162 Z0.000000 E0.785398
G1 X0.252879 Y0.067759 Z0.000000 E0.785398
G1 X0.254023 Y0.063335 Z0.000000 E0.785398
G1 X0.255089 Y0.058892 Z0.000000 E0.785398
G1 X0.256078 Y0.054431 Z0.000000 E0.785398
G1 X0.256989 Y0.049954 Z0.000000 E0.785398
G1 X0.257822 Y0.045461 Z0.000000 E0.785398
G1 X0.258576 Y0.040954 Z0.000000 E0.785398
G1 X0.259252 Y0.036435 Z0.000000 E0.785398
G1 X0.259848 Y0.031905 Z0.000000 E0.785398
G1 X0.260365 Y0.027365 Z0.000000 E0.785398
G1 X0.260803 Y0.022817 Z0.000000 E0.785398
G1 X0.261162 Y0.018262 Z0.000000 E0.785398
G1 X0.261441 Y0.013702 Z0.000000 E0.785398
G1 X0.261640 Y0.009137 Z0.000000 E0.785398
G1 X0.261760 Y0.004569 Z0.000000 E0.785398
G1 X0.261799 Y0.000000 Z0.000000 E0.785398
G1 X0.261760 Y-0.004569 Z0.000000 E0.785398
G1 X0.261640 Y-0.009137 Z0.000000 E0.785398
G1 X0.261441 Y-0.013702 Z0.000000 E0.785398
G1 X0.261162 Y-0.018262 Z0.000000 E0.785398
G1 X0.260803 Y-0.022817 Z0.000000 E0.785398
G1 X0.260365 Y-0.027365 Z0.000000 E0.785398
G1 X0.259848 Y-0.031905 Z0.000000 E0.785398
G1 X0.259252 Y-0.036435 Z0.000000 E0.785398
G1 X0.258576 Y-0.040954 Z0.000000 E0.785398
G1 X0.257822 Y-0.045461 Z0.000000 E0.785398
G1 X0.256989 Y-0.049954 Z0.000000 E0.785398
G1 X0.256078 Y-0.054431 Z0.000000 E0.785398
G1 X0.255089 Y-0.058892 Z0.000000 E0.785398
G1 X0.254023 Y-0.063335 Z0.000000 E0.785398
G1 X0.252879 Y-0.067759 Z0.000000 E0.785398
G1 X0.251658 Y-0.072162 Z0.000000 E0.785398
G1 X0.250360 Y-0.076543 Z0.000000 E0.785398
G1 X0.248986 Y-0.080900 Z0.000000 E0.785398
G1 X0.247536 Y-0.085234 Z0.000000 E0.785398
G1 X0.246011 Y-0.089541 Z0.000000 E0.785398
G1 X0.244411 Y-0.093821 Z0.000000 E0.785398
G1 X0.242736 Y-0.098072 Z0.000000 E0.785398
G1 X0.240988 Y-0.102293 Z0.000000 E0.785398
G1 X0.239166 Y-0.106483 Z0.000000 E0.785398
G1 X0.237271 Y-0.110641 Z0.000000 E0.785398
G1 X0.235304 Y-0.114765 Z0.000000 E0.785398
G1 X0.233265 Y-0.118854 Z0.000000 E0.785398
G1 X0.231155 Y-0.122907 Z0.000000 E0.785398
G1 X0.228975 Y-0.126923 Z0.000000 E0.785398
G1 X0.226725 Y-0.130900 Z0.000000 E0.785398
G1 X0.224406 Y-0.134837 Z0.000000 E0.785398
G1 X0.222018 Y-0.138733 Z0.000000 E0.785398
G1 X0.219563 Y-0.142586 Z0.000000 E0.785398
G1 X0.217042 Y-0.146396 Z0.000000 E0.785398
G1 X0.214454 Y-0.150162 Z0.000000 E0.785398
G1 X0.211800 Y-0.153882 Z0.000000 E0.785398
G1 X0.209082 Y-0.157555 Z0.000000 E0.785398
G1 X0.206301 Y-0.161180 Z0.000000 E0.785398
G1 X0.203456 Y-0.164756 Z0.000000 E0.785398
G1 X0.200550 Y-0.168281 Z0.000000 E0.785398
G1 X0.197583 Y-0.171756 Z0.000000 E0.785398
G1 X0.194555 Y-0.175178 Z0.000000 E0.785398
G1 X0.191468 Y-0.178547 Z0.000000 E0.785398
G1 X0.188323 Y-0.181861 Z0.000000 E0.785398
G1 X0.185120 Y-0.185120 Z0.000000 E0.785398
G1 X0.181861 Y-0.188323 Z0.000000 E0.785398
G1 X0.178547 Y-0.191468 Z0.000000 E0.785398
G1 X0.175178 Y-0.194555 Z0.000000 E0.785398
G1 X0.171756 Y-0.197583 Z0.000000 E0.785398
G1 X0.168281 Y-0.200550 Z0.000000 E0.785398
G1 X0.164756 Y-0.203456 Z0.000000 E0.785398
G1 X0.161180 Y-0.206301 Z0.000000 E0.785398
G1 X0.157555 Y-0.209082 Z0.000000 E0.785398
G1 X0.153882 Y-0.211800 Z0.000000 E0.785398
G1 X0.150162 Y-0.214454 Z0.000000 E0.785398
G1 X0.146396 Y-0.217042 Z0.000000 E0.785398
G1 X0.142586 Y-0.219563 Z0.000000 E0.785398
G1 X0.138733 Y-0.222018 Z0.000000 E0.785398
G1 X0.134837 Y-0.224406 Z0.000000 E0.785398
G1 X0.130900 Y-0.226725 Z0.000000 E0.785398
G1 X0.126923 Y-0.228975 Z0.000000 E0.785398
G1 X0.122907 Y-0.231155 Z0.000000 E0.785398
G1 X0.118854 Y-0.233265 Z0.000000 E0.785398
G1 X0.114765 Y-0.235304 Z0.000000 E0.785398
G1 X0.110641 Y-0.237271 Z0.000000 E0.785398
G1 X0.106483 Y-0.239166 Z0.000000 E0.785398
G1 X0.102293 Y-0.240988 Z0.000000 E0.785398
G1 X0.098072 Y-0.242736 Z0.000000 E0.785398
G1 X0.093821 Y-0.244411 Z0.000000 E0.785398
G1 X0.089541 Y-0.246011 Z0.000000 E0.785398
G1 X0.085234 Y-0.247536 Z0.000000 E0.785398
G1 X0.080900 Y-0.248986 Z0.000000 E0.785398
G1 X0.076543 Y-0.250360 Z0.000000 E0.785398
G1 X0.072162 Y-0.251658 Z0.000000 E0.785398
G1 X0.067759 Y-0.252879 Z0.000000 E0.785398
G1 X0.063335 Y-0.254023 Z0.000000 E0.785398
G1 X0.058892 Y-0.255089 Z0.000000 E0.785398
G1 X0.054431 Y-0.256078 Z0.000000 E0.785398
G1 X0.049954 Y-0.256989 Z0.000000 E0.785398
G1 X0.045461 Y-0.257822 Z0.000000 E0.785398
G1 X0.040954 Y-0.258576 Z0.000000 E0.785398
G1 X0.036435 Y-0.259252 Z0.000000 E0.785398
G1 X0.031905 Y-0.259848 Z0.000000 E0.785398
G1 X0.027365 Y-0.260365 Z0.000000 E0.785398
G1 X0.022817 Y-0.260803 Z0.000000 E0.785398
G1 X0.018262 Y-0.261162 Z0.000000 E0.785398
G1 X0.013702 Y-0.261441 Z0.000000 E0.785398
G1 X0.009137 Y-0.261640 Z0.000000 E0.785398
G1 X0.004569 Y-0.261760 Z0.000000 E0.785398
G1 Z2.200000
G1 X0.000000 Y-0.261799 Z0.000000 E0.785398
G1 X-0.004569 Y-0.261760 Z0.000000 E0.785398
G1 X-0.009137 Y-0.261640 Z0.000000 E0.785398
G1 X-0.013702 Y-0.261441 Z0.000000 E0.785398
G1 X-0.018262 Y-0.261162 Z0.000000 E0.785398
G1 X-0.022817 Y-0.260803 Z0.000000 E0.785398
G1 X-0.027365 Y-0.260365 Z0.000000 E0.785398
G1 X-0.031905 Y-0.259848 Z0.000000 E0.785398
G1 X-0.036435 Y-0.259252 Z0.000000 E0.785398
G1 X-0.040954 Y-0.258576 Z0.000000 E0.785398
G1 X-0.045461 Y-0.257822 Z0.000000 E0.785398
G1 X-0.049954 Y-0.256989 Z0.000000 E0.785398
G1 X-0.054431 Y-0.256078 Z0.000000 E0.785398
G1 X-0.058892 Y-0.255089 Z0.000000 E0.785398
G1 X-0.063335 Y-0.254023 Z0.000000 E0.785398
G1 X-0.067759 Y-0.252879 Z0.000000 E0.785398
G1 X-0.072162 Y-0.251658 Z0.000000 E0.785398
G1 X-0.076543 Y-0.250360 Z0.000000 E0.785398
G1 X-0.080900 Y-0.248986 Z0.000000 E0.785398
G1 X-0.085234 Y-0.247536 Z0.000000 E0.785398
G1 X-0.089541 Y-0.246011 Z0.000000 E0.785398
G1 X-0.093821 Y-0.244411 Z0.000000 E0.785398
G1 X-0.098072 Y-0.242736 Z0.000000 E0.785398
G1 X-0.102293 Y-0.240988 Z0.000000 E0.785398
G1 X-0.106483 Y-0.239166 Z0.000000 E0.785398
G1 X-0.110641 Y-0.237271 Z0.000000 E0.785398
G1 X-0.114765 Y-0.235304 Z0.000000 E0.785398
G1 X-0.118854 Y-0.233265 Z0.000000 E0.785398
G1 X-0.122907 Y-0.231155 Z0.000000 E0.785398
G1 X-0.126923 Y-0.228975 Z0.000000 E0.785398
G1 X-0.130900 Y-0.226725 Z0.000000 E0.785398
G1 X-0.134837 Y-0.224406 Z0.000000 E0.785398
G1 X-0.138733 Y-0.222018 Z0.000000 E0.785398
G1 X-0.142586 Y-0.219563 Z0.000000 E0.785398
G1 X-0.146396 Y-0.217042 Z0.000000 E0.785398
G1 X-0.150162 Y-0.214454 Z0.000000 E0.785398
G1 X-0.153882 Y-0.211800 Z0.000000 E0.785398
G1 X-0.157555 Y-0.209082 Z0.000000 E0.785398
G1 X-0.161180 Y-0.206301 Z0.000000 E0.785398
G1 X-0.164756 Y-0.203456 Z0.000000 E0.785398
G1 X-0.168281 Y-0.200550 Z0.000000 E0.785398
G1 X-0.171756 Y-0.197583 Z0.000000 E0.785398
G1 X-0.175178 Y-0.194555 Z0.000000 E0.785398
G1 X-0.178547 Y-0.191468 Z0.000000 E0.785398
G1 X-0.181861 Y-0.188323 Z0.000000 E0.785398
G1 X-0.185120 Y-0.185120 Z0.000000 E0.785398
G1 X-0.188323 Y-0.181861 Z0.000000 E0.785398
G1 X-0.191468 Y-0.178547 Z0.000000 E0.785398
G1 X-0.194555 Y-0.175178 Z0.000000 E0.785398
G1 X-0.197583 Y-0.171756 Z0.000000 E0.785398
G1 X-0.200550 Y-0.168281 Z0.000000 E0.785398
G1 X-0.203456 Y-0.164756 Z0.000000 E0.785398
G1 X-0.206301 Y-0.161180 Z0.000000 E0.785398
G1 X-0.209082 Y-0.157555 Z0.000000 E0.785398
G1 X-0.211800 Y-0.153882 Z0.000000 E0.785398
G1 X-0.214454 Y-0.150162 Z0.000000 E0.785398
G1 X-0.217042 Y-0.146396 Z0.000000 E0.785398
G1 X-0.219563 Y-0.142586 Z0.000000 E0.785398
G1 X-0.222018 Y-0.138733 Z0.000000 E0.785398
G1 X-0.224406 Y-0.134837 Z0.000000 E0.785398
G1 X-0.226725 Y-0.130900 Z0.000000 E0.785398
G1 X-0.228975 Y-0.126923 Z0.000000 E0.785398
G1 X-0.231155 Y-0.122907 Z0.000000 E0.785398
G1 X-0.233265 Y-0.118854 Z0.000000 E0.785398
G1 X-0.235304 Y-0.114765 Z0.000000 E0.785398
G1 X-0.237271 Y-0.110641 Z0.000000 E0.785398
G1 X-0.239166 Y-0.106483 Z0.000000 E0.785398
G1 X-0.240988 Y-0.102293 Z0.000000 E0.785398
G1 X-0.242736 Y-0.098072 Z0.000000 E0.785398
G1 X-0.244411 Y-0.093821 Z0.000000 E0.785398
G1 X-0.246011 Y-0.089541 Z0.000000 E0.785398
G1 X-0.247536 Y-0.085234 Z0.000000 E0.785398
G1 X-0.248986 Y-0.080900 Z0.000000 E0.785398
G1 X-0.250360 Y-0.076543 Z0.000000 E0.785398
G1 X-0.251658 Y-0.072162 Z0.000000 E0.785398
G1 X-0.252879 Y-0.067759 Z0.000000 E0.785398
G1 X-0.254023 Y-0.063335 Z0.000000 E0.785398
G1 X-0.255089 Y-0.058892 Z0.000000 E0.785398
G1 X-0.256078 Y-0.054431 Z0.000000 E0.785398
G1 X-0.256989 Y-0.049954 Z0.000000 E0.785398
G1 X-0.257822 Y-0.045461 Z0.000000 E0.785398
G1 X-0.258576 Y-0.040954 Z0.000000 E0.785398
G1 X-0.259252 Y-0.036435 Z0.000000 E0.785398
G1 X-0.259848 Y-0.031905 Z0.000000 E0.785398
G1 X-0.260365 Y-0.027365 Z0.000000 E0.785398
G1 X-0.260803 Y-0.022817 Z0.000000 E0.785398
G1 X-0.261162 Y-0.018262 Z0.000000 E0.785398
G1 X-0.261441 Y-0.013702 Z0.000000 E0.785398
G1 X-0.261640 Y-0.009137 Z0.000000 E0.785398
G1 X-0.261760 Y-0.004569 Z0.000000 E0.785398
G1 X-0.261799 Y-0.000000 Z0.000000 E0.785398
G1 X-0.261760 Y0.004569 Z0.000000 E0.785398
G1 X-0.261640 Y0.009137 Z0.000000 E0.785398
G1 X-0.261441 Y0.013702 Z0.000000 E0.785398
G1 X-0.261162 Y0.018262 Z0.000000 E0.785398
G1 X-0.260803 Y0.022817 Z0.000000 E0.785398
G1 X-0.260365 Y0.027365 Z0.000000 E0.785398
G1 X-0.259848 Y0.031905 Z0.000000 E0.785398
G1 X-0.259252 Y0.036435 Z0.000000 E0.785398
G1 X-0.258576 Y0.040954 Z0.000000 E0.785398
G1 X-0.257822 Y0.045461 Z0.000000 E0.785398
G1 X-0.256989 Y0.049954 Z0.000000 E0.785398
G1 X-0.256078 Y0.054431 Z0.000000 E0.785398
G1 X-0.255089 Y0.058892 Z0.000000 E0.785398
G1 X-0.254023 Y0.063335 Z0.000000 E0.785398
G1 X-0.252879 Y0.067759 Z0.000000 E0.785398
G1 X-0.251658 Y0.072162 Z0.000000 E0.785398
G1 X-0.250360 Y0.076543 Z0.000000 E0.785398
G1 X-0.248986 Y0.080900 Z0.000000 E0.785398
G1 X-0.247536 Y0.085234 Z0.000000 E0.785398
G1 X-0.246011 Y0.089541 Z0.000000 E0.785398
G1 X-0.244411 Y0.093821 Z0.000000 E0.785398
G1 X-0.242736 Y0.098072 Z0.000000 E0.785398
G1 X-0.240988 Y0.102293 Z0.000000 E0.785398
G1 X-0.239166 Y0.106483 Z0.000000 E0.785398
G1 X-0.237271 Y0.110641 Z0.000000 E0.785398
G1 X-0.235304 Y0.114765 Z0.000000 E0.785398
G1 X-0.233265 Y0.118854 Z0.000000 E0.785398
G1 X-0.231155 Y0.122907 Z0.000000 E0.785398
G1 X-0.228975 Y0.126923 Z0.000000 E0.785398
G1 X-0.226725 Y0.130900 Z0.000000 E0.785398
G1 X-0.224406 Y0.134837 Z0.000000 E0.785398
G1 X-0.222018 Y0.138733 Z0.000000 E0.785398
G1 X-0.219563 Y0.142586 Z0.000000 E0.785398
G1 X-0.217042 Y0.146396 Z0.000000 E0.785398
G1 X-0.214454 Y0.150162 Z0.000000 E0.785398
G1 X-0.211800 Y0.153882 Z0.000000 E0.785398
G1 X-0.209082 Y0.157555 Z0.000000 E0.785398
G1 X-0.206301 Y0.161180 Z0.000000 E0.785398
G1 X-0.203456 Y0.164756 Z0.000000 E0.785398
G1 X-0.200550 Y0.168281 Z0.000000 E0.785398
G1 X-0.197583 Y0.171756 Z0.000000 E0.785398
G1 X-0.194555 Y0.175178 Z0.000000 E0.785398
G1 X-0.191468 Y0.178547 Z0.000000 E0.785398
G1 X-0.188323 Y0.181861 Z0.000000 E0.785398
G1 X-0.185120 Y0.185120 Z0.000000 E0.785398
G1 X-0.181861 Y0.188323 Z0.000000 E0.785398
G1 X-0.178547 Y0.191468 Z0.000000 E0.785398
G1 X-0.175178 Y0.194555 Z0.000000 E0.785398
G1 X-0.171756 Y0.197583 Z0.000000 E0.785398
G1 X-0.168281 Y0.200550 Z0.000000 E0.785398
G1 X-0.164756 Y0.203456 Z0.000000 E0.785398
G1 X-0.161180 Y0.206301 Z0.000000 E0.785398
G1 X-0.157555 Y0.209082 Z0.000000 E0.785398
G1 X-0.153882 Y0.211800 Z0.000000 E0.785398
G1 X-0.150162 Y0.214454 Z0.000000 E0.785398
G1 X-0.146396 Y0.217042 Z0.000000 E0.785398
G1 X-0.142586 Y0.219563 Z0.000000 E0.785398
G1 X-0.138733 Y0.222018 Z0.000000 E0.785398
G1 X-0.134837 Y0.224406 Z0.000000 E0.785398
G1 X-0.130900 Y0.226725 Z0.000000 E0.785398
G1 X-0.126923 Y0.228975 Z0.000000 E0.785398
G1 X-0.122907 Y0.231155 Z0.000000 E0.785398
G1 X-0.118854 Y0.233265 Z0.000000 E0.785398
G1 X-0.114765 Y0.235304 Z0.000000 E0.785398
G1 X-0.110641 Y0.237271 Z0.000000 E0.785398
G1 X-0.106483 Y0.239166 Z0.000000 E0.785398
G1 X-0.102293 Y0.240988 Z0.000000 E0.785398
G1 X-0.098072 Y0.242736 Z0.000000 E0.785398
G1 X-0.093821 Y0.244411 Z0.000000 E0.785398
G1 X-0.089541 Y0.246011 Z0.000000 E0.785398
G1 X-0.085234 Y0.247536 Z0.000000 E0.785398
G1 X-0.080900 Y0.248986 Z0.000000 E0.785398
G1 X-0.076543 Y0.250360 Z0.000000 E0.785398
G1 X-0.072162 Y0.251658 Z0.000000 E0.785398
G1 X-0.067759 Y0.252879 Z0.000000 E0.785398
G1 X-0.063335 Y0.254023 Z0.000000 E0.785398
G1 X-0.058892 Y0.255089 Z0.000000 E0.785398
G1 X-0.054431 Y0.256078 Z0.000000 E0.785398
G1 X-0.049954 Y0.256989 Z0.000000 E0.785398
G1 X-0.045461 Y0.257822 Z0.000000 E0.785398
G1 X-0.040954 Y0.258576 Z0.000000 E0.785398
G1 X-0.036435 Y0.259252 Z0.000000 E0.785398
G1 X-0.031905 Y0.259848 Z0.000000 E0.785398
G1 X-0.027365 Y0.260365 Z0.000000 E0.785398
G1 X-0.022817 Y0.260803 Z0.000000 E0.785398
G1 X-0.018262 Y0.261162 Z0.000000 E0.785398
G1 X-0.013702 Y0.261441 Z0.000000 E0.785398
G1 X-0.009137 Y0.261640 Z0.000000 E0.785398
G1 X-0.004569 Y0.261760 Z0.000000 E0.785398
G1 X-0.000000 Y0.261799 Z0.000000 E0.785398
G1 X0.004569 Y0.261760 Z0.000000 E0.785398
G1 X0.009137 Y0.261640 Z0.000000 E0.785398
G1 X0.013702 Y0.261441 Z0.000000 E0.785398
G1 X0.018262 Y0.261162 Z0.000000 E0.785398
G1 X0.022817 Y0.260803 Z0.000000 E0.785398
G1 X0.027365 Y0.260365 Z0.000000 E0.785398
G1 X0.031905 Y0.259848 Z0.000000 E0.785398
G1 X0.036435 Y0.259252 Z0.000000 E0.785398
G1 X0.040954 Y0.258576 Z0.000000 E0.785398
G1 X0.045461 Y0.257822 Z0.000000 E0.785398
G1 X0.049954 Y0.256989 Z0.000000 E0.785398
G1 X0.054431 Y0.256078 Z0.000000 E0.785398
G1 X0.058892 Y0.255089 Z0.000000 E0.785398
G1 X0.063335 Y0.254023 Z0.000000 E0.785398
G1 X0.067759 Y0.252879 Z0.000000 E0.785398
G1 X0.072162 Y0.251658 Z0.000000 E0.785398
G1 X0.076543 Y0.250360 Z0.000000 E0.785398
G1 X0.080900 Y0.248986 Z0.000000 E0.785398
G1 X0.085234 Y0.247536 Z0.000000 E0.785398
G1 X0.089541 Y0.246011 Z0.000000 E0.785398
G1 X0.093821 Y0.244411 Z0.000000 E0.785398
G1 X0.098072 Y0.242736 Z0.000000 E0.785398
G1 X0.102293 Y0.240988 Z0.000000 E0.785398
G1 X0.106483 Y0.239166 Z0.000000 E0.785398
G1 X0.110641 Y0.237271 Z0.000000 E0.785398
G1 X0.114765 Y0.235304 Z0.000000 E0.785398
G1 X0.118854 Y0.233265 Z0.000000 E0.785398
G1 X0.122907 Y0.231155 Z0.000000 E0.785398
G1 X0.126923 Y0.228975 Z0.000000 E0.785398
G1 X0.130900 Y0.226725 Z0.000000 E0.785398
G1 X0.134837 Y0.224406 Z0.000000 E0.785398
G1 X0.138733 Y0.222018 Z0.000000 E0.785398
G1 X0.142586 Y0.219563 Z0.000000 E0.785398
G1 X0.146396 Y0.217042 Z0.000000 E0.785398
G1 X0.150162 Y0.214454 Z0.000000 E0.785398
G1 X0.153882 Y0.211800 Z0.000000 E0.785398
G1 X0.157555 Y0.209082 Z0.000000 E0.785398
G1 X0.161180 Y0.206301 Z0.000000 E0.785398
G1 X0.164756 Y0.203456 Z0.000000 E0.785398
G1 X0.168281 Y0.200550 Z0.000000 E0.785398
G1 X0.171756 Y0.197583 Z0.000000 E0.785398
G1 X0.175178 Y0.194555 Z0.000000 E0.785398
G1 X0.178547 Y0.191468 Z0.000000 E0.785398
G1 X0.181861 Y0.188323 Z0.000000 E0.785398
G1 X0.185120 Y0.185120 Z0.000000 E0.785398
G1 X0.188323 Y0.181861 Z0.000000 E0.785398
G1 X0.191468 Y0.178547 Z0.000000 E0.785398
G1 X0.194555 Y0.175178 Z0.000000 E0.785398
G1 X0.197583 Y0.171756 Z0.000000 E0.785398
G1 X0.200550 Y0.168281 Z0.000000 E0.785398
G1 X0.203456 Y0.164756 Z0.000000 E0.785398
G1 X0.206301 Y0.161180 Z0.000000 E0.785398
G1 X0.209082 Y0.157555 Z0.000000 E0.785398
G1 X0.211800 Y0.153882 Z0.000000 E0.785398
G1 X0.214454 Y0.150162 Z0.000000 E0.785398
G1 X0.217042 Y0.146396 Z0.000000 E0.785398
G1 X0.219563 Y0.142586 Z0.000000 E0.785398
G1 X0.222018 Y0.138733 Z0.000000 E0.785398
G1 X0.224406 Y0.134837 Z0.000000 E0.785398
G1 X0.226725 Y0.130900 Z0.000000 E0.785398
G1 X0.228975 Y0.126923 Z0.000000 E0.785398
G1 X0.231155 Y0.122907 Z0.000000 E0.785398
G1 X0.233265 Y0.118854 Z0.000000 E0.785398
G1 X0.235304 Y0.114765 Z0.000000 E0.785398
G1 X0.237271 Y0.110641 Z0.000000 E0.785398
G1 X0.239166 Y0.106483 Z0.000000 E0.785398
G1 X0.240988 Y0.102293 Z0.000000 E0.785398
G1 X0.242736 Y0.098072 Z0.000000 E0.785398
G1 X0.244411 Y0.093821 Z0.000000 E0.785398
G1 X0.246011 Y0.089541 Z0.000000 E0.785398
G1 X0.247536 Y0.085234 Z0.000000 E0.785398
G1 X0.248986 Y0.080900 Z0.000000 E0.785398
G1 X0.250360 Y0.076543 Z0.000000 E0.785398
G1 X0.251658 Y0.072162 Z0.000000 E0.785398
G1 X0.252879 Y0.067759 Z0.000000 E0.785398
G1 X0.254023 Y0.063335 Z0.000000 E0.785398
G1 X0.255089 Y0.058892 Z0.000000 E0.785398
G1 X0.256078 Y0.054431 Z0.000000 E0.785398
G1 X0.256989 Y0.049954 Z0.000000 E0.785398
G1 X0.257822 Y0.045461 Z0.000000 E0.785398
G1 X0.258576 Y0.040954 Z0.000000 E0.785398
G1 X0.259252 Y0.036435 Z0.000000 E0.785398
G1 X0.259848 Y0.031905 Z0.000000 E0.785398
G1 X0.260365 Y0.027365 Z0.000000 E0.785398
G1 X0.260803 Y0.022817 Z0.000000 E0.785398
G1 X0.261162 Y0.018262 Z0.000000 E0.785398
G1 X0.261441 Y0.013702 Z0.000000 E0.785398
G1 X0.261640 Y0.009137 Z0.000000 E0.785398
G1 X0.261760 Y0.004569 Z0.000000 E0.785398
G1 X0.261799 Y0.000000 Z0.000000 E0.785398
G1 X0.261760 Y-0.004569 Z0.000000 E0.785398
G1 X0.261640 Y-0.009137 Z0.000000 E0.785398
G1 X0.261441 Y-0.013702 Z0.000000 E0.785398
G1 X0.261162 Y-0.018262 Z0.000000 E0.785398
G1 X0.260803 Y-0.022817 Z0.000000 E0.785398
G1 X0.260365 Y-0.027365 Z0.000000 E0.785398
G1 X0.259848 Y-0.031905 Z0.000000 E0.785398
G1 X0.259252 Y-0.036435 Z0.000000 E0.785398
G1 X0.258576 Y-0.040954 Z0.000000 E0.785398
G1 X0.257822 Y-0.045461 Z0.000000 E0.785398
G1 X0.256989 Y-0.049954 Z0.000000 E0.785398
G1 X0.256078 Y-0.054431 Z0.000000 E0.785398
G1 X0.255089 Y-0.058892 Z0.000000 E0.785398
G1 X0.254023 Y-0.063335 Z0.000000 E0.785398
G1 X0.252879 Y-0.067759 Z0.000000 E0.785398
G1 X0.251658 Y-0.072162 Z0.000000 E0.785398
G1 X0.250360 Y-0.076543 Z0.000000 E0.785398
G1 X0.248986 Y-0.080900 Z0.000000 E0.785398
G1 X0.247536 Y-0.085234 Z0.000000 E0.785398
G1 X0.246011 Y-0.089541 Z0.000000 E0.785398
G1 X0.244411 Y-0.093821 Z0.000000 E0.785398
G1 X0.242736 Y-0.098072 Z0.000000 E0.785398
G1 X0.240988 Y-0.102293 Z0.000000 E0.785398
G1 X0.239166 Y-0.106483 Z0.000000 E0.785398
G1 X0.237271 Y-0.110641 Z0.000000 E0.785398
G1 X0.235304 Y-0.114765 Z0.000000 E0.785398
G1 X0.233265 Y-0.118854 Z0.000000 E0.785398
G1 X0.231155 Y-0.122907 Z0.000000 E0.785398
G1 X0.228975 Y-0.126923 Z0.000000 E0.785398
G1 X0.226725 Y-0.130900 Z0.000000 E0.785398
G1 X0.224406 Y-0.134837 Z0.000000 E0.785398
G1 X0.222018 Y-0.138733 Z0.000000 E0.785398
G1 X0.219563 Y-0.142586 Z0.000000 E0.785398
G1 X0.217042 Y-0.146396 Z0.000000 E0.785398
G1 X0.214454 Y-0.150162 Z0.000000 E0.785398
G1 X0.211800 Y-0.153882 Z0.000000 E0.785398
G1 X0.209082 Y-0.157555 Z0.000000 E0.785398
G1 X0.206301 Y-0.161180 Z0.000000 E0.785398
G1 X0.203456 Y-0.164756 Z0.000000 E0.785398
G1 X0.200550 Y-0.168281 Z0.000000 E0.785398
G1 X0.197583 Y-0.171756 Z0.000000 E0.785398
G1 X0.194555 Y-0.175178 Z0.000000 E0.785398
G1 X0.191468 Y-0.178547 Z0.000000 E0.785398
G1 X0.188323 Y-0.181861 Z0.000000 E0.785398
G1 X0.185120 Y-0.185120 Z0.000000 E0.785398
G1 X0.181861 Y-0.188323 Z0.000000 E0.785398
G1 X0.178547 Y-0.191468 Z0.000000 E0.785398
G1 X0.175178 Y-0.194555 Z0.000000 E0.785398
G1 X0.171756 Y-0.197583 Z0.000000 E0.785398
G1 X0.168281 Y-0.200550 Z0.000000 E0.785398
G1 X0.164756 Y-0.203456 Z0.000000 E0.785398
G1 X0.161180 Y-0.206301 Z0.000000 E0.785398
G1 X0.157555 Y-0.209082 Z0.000000 E0.785398
G1 X0.153882 Y-0.211800 Z0.000000 E0.785398
G1 X0.150162 Y-0.214454 Z0.000000 E0.785398
G1 X0.146396 Y-0.217042 Z0.000000 E0.785398
G1 X0.142586 Y-0.219563 Z0.000000 E0.785398
G1 X0.138733 Y-0.222018 Z0.000000 E0.785398
G1 X0.134837 Y-0.224406 Z0.000000 E0.785398
G1 X0.130900 Y-0.226725 Z0.000000 E0.785398
G1 X0.126923 Y-0.228975 Z0.000000 E0.785398
G1 X0.122907 Y-0.231155 Z0.000000 E0.785398
G1 X0.118854 Y-0.233265 Z0.000000 E0.785398
G1 X0.114765 Y-0.235304 Z0.000000 E0.785398
G1 X0.110641 Y-0.237271 Z0.000000 E0.785398
G1 X0.106483 Y-0.239166 Z0.000000 E0.785398
G1 X0.102293 Y-0.240988 Z0.000000 E0.785398
G1 X0.098072 Y-0.242736 Z0.000000 E0.785398
G1 X0.093821 Y-0.244411 Z0.000000 E0.785398
G1 X0.089541 Y-0.246011 Z0.000000 E0.785398
G1 X0.085234 Y-0.247536 Z0.000000 E0.785398
G1 X0.080900 Y-0.248986 Z0.000000 E0.785398
G1 X0.076543 Y-0.250360 Z0.000000 E0.785398
G1 X0.072162 Y-0.251658 Z0.000000 E0.785398
G1 X0.067759 Y-0.252879 Z0.000000 E0.785398
G1 X0.063335 Y-0.254023 Z0.000000 E0.785398
G1 X0.058892 Y-0.255089 Z0.000000 E0.785398
G1 X0.054431 Y-0.256078 Z0.000000 E0.785398
G1 X0.049954 Y-0.256989 Z0.000000 E0.785398
G1 X0.045461 Y-0.257822 Z0.000000 E0.785398
G1 X0.040954 Y-0.258576 Z0.000000 E0.785398
G1 X0.036435 Y-0.259252 Z0.000000 E0.785398
G1 X0.031905 Y-0.259848 Z0.000000 E0.785398
G1 X0.027365 Y-0.260365 Z0.000000 E0.785398
G1 X0.022817 Y-0.260803 Z0.000000 E0.785398
G1 X0.018262 Y-0.261162 Z0.000000 E0.785398
G1 X0.013702 Y-0.261441 Z0.000000 E0.785398
G1 X0.009137 Y-0.261640 Z0.000000 E0.785398
G1 X0.004569 Y-0.261760 Z0.000000 E0.785398
G1 Z2.200000
G1 X0.000000 Y-0.261799 Z0.000000 E0.785398
G1 X-0.004569 Y-0.261760 Z0.000000 E0.785398
G1 X-0.009137 Y-0.261640 Z0.000000 E0.785398
G1 X-0.013702 Y-0.261441 Z0.000000 E0.785398
G1 X-0.018262 Y-0.261162 Z0.000000 E0.785398
G1 X-0.022817 Y-0.260803 Z0.000000 E0.785398
G1 X-0.027365 Y-0.260365 Z0.000000 E0.785398
G1 X-0.031905 Y-0.259848 Z0.000000 E0.785398
G1 X-0.036435 Y-0.259252 Z0.000000 E0.785398
G1 X-0.040954 Y-0.258576 Z0.000000 E0.785398
G1 X-0.045461 Y-0.257822 Z0.000000 E0.785398
G1 X-0.049954 Y-0.256989 Z0.000000 E0.785398
G1 X-0.054431 Y-0.256078 Z0.000000 E0.785398
G1 X-0.058892 Y-0.255089 Z0.000000 E0.785398
G1 X-0.063335 Y-0.254023 Z0.000000 E0.785398
G1 X-0.067759 Y-0.252879 Z0.000000 E0.785398
G1 X-0.072162 Y-0.251658 Z0.000000 E0.785398
G1 X-0.076543 Y-0.250360 Z0.000000 E0.785398
G1 X-0.080900 Y-0.248986 Z0.000000 E0.785398
G1 X-0.085234 Y-0.247536 Z0.000000 E0.785398
G1 X-0.089541 Y-0.246011 Z0.000000 E0.785398
G1 X-0.093821 Y-0.244411 Z0.000000 E0.785398
G1 X-0.098072 Y-0.242736 Z0.000000 E0.785398
G1 X-0.102293 Y-0.240988 Z0.000000 E0.785398
G1 X-0.106483 Y-0.239166 Z0.000000 E0.785398
G1 X-0.110641 Y-0.237271 Z0.000000 E0.785398
G1 X-0.114765 Y-0.235304 Z0.000000 E0.785398
G1 X-0.118854 Y-0.233265 Z0.000000 E0.785398
G1 X-0.122907 Y-0.231155 Z0.000000 E0.785398
G1 X-0.126923 Y-0.228975 Z0.000000 E0.785398
G1 X-0.130900 Y-0.226725 Z0.000000 E0.785398
G1 X-0.134837 Y-0.224406 Z0.000000 E0.785398
G1 X-0.138733 Y-0.222018 Z0.000000 E0.785398
G1 X-0.142586 Y-0.219563 Z0.000000 E0.785398
G1 X-0.146396 Y-0.217042 Z0.000000 E0.785398
G1 X-0.150162 Y-0.214454 Z0.000000 E0.785398
G1 X-0.153882 Y-0.211800 Z0.000000 E0.785398
G1 X-0.157555 Y-0.209082 Z0.000000 E0.785398
G1 X-0.161180 Y-0.206301 Z0.000000 E0.785398
G1 X-0.164756 Y-0.203456 Z0.000000 E0.785398
G1 X-0.168281 Y-0.200550 Z0.000000 E0.785398
G1 X-0.171756 Y-0.197583 Z0.000000 E0.785398
G1 X-0.175178 Y-0.194555 Z0.000000 E0.785398
G1 X-0.178547 Y-0.191468 Z0.000000 E0.785398
G1 X-0.181861 Y-0.188323 Z0.000000 E0.785398
G1 X-0.185120 Y-0.185120 Z0.000000 E0.785398
G1 X-0.188323 Y-0.181861 Z0.000000 E0.785398
G1 X-0.191468 Y-0.178547 Z0.000000 E0.785398
G1 X-0.194555 Y-0.175178 Z0.000000 E0.785398
G1 X-0.197583 Y-0.171756 Z0.000000 E0.785398
G1 X-0.200550 Y-0.168281 Z0.000000 E0.785398
G1 X-0.203456 Y-0.164756 Z0.000000 E0.785398
G1 X-0.206301 Y-0.161180 Z0.000000 E0.785398
G1 X-0.209082 Y-0.157555 Z0.000000 E0.785398
G1 X-0.211800 Y-0.153882 Z0.000000 E0.785398
G1 X-0.214454 Y-0.150162 Z0.000000 E0.785398
G1 X-0.217042 Y-0.146396 Z0.000000 E0.785398
G1 X-0.219563 Y-0.142586 Z0.000000 E0.785398
G1 X-0.222018 Y-0.138733 Z0.000000 E0.785398
G1 X-0.224406 Y-0.134837 Z0.000000 E0.785398
G1 X-0.226725 Y-0.130900 Z0.000000 E0.785398
G1 X-0.228975 Y-0.126923 Z0.000000 E0.785398
G1 X-0.231155 Y-0.122907 Z0.000000 E0.785398
G1 X-0.233265 Y-0.118854 Z0.000000 E0.785398
G1 X-0.235304 Y-0.114765 Z0.000000 E0.785398
G1 X-0.237271 Y-0.110641 Z0.000000 E0.785398
G1 X-0.239166 Y-0.106483 Z0.000000 E0.785398
G1 X-0.240988 Y-0.102293 Z0.000000 E0.785398
G1 X-0.242736 Y-0.098072 Z0.000000 E0.785398
G1 X-0.244411 Y-0.093821 Z0.000000 E0.785398
G1 X-0.246011 Y-0.089541 Z0.000000 E0.785398
G1 X-0.247536 Y-0.085234 Z0.000000 E0.785398
G1 X-0.248986 Y-0.080900 Z0.000000 E0.785398
G1 X-0.250360 Y-0.076543 Z0.000000 E0.785398
G1 X-0.251658 Y-0.072162 Z0.000000 E0.785398
G1 X-0.252879 Y-0.067759 Z0.000000 E0.785398
G1 X-0.254023 Y-0.063335 Z0.000000 E0.785398
G1 X-0.255089 Y-0.058892 Z0.000000 E0.785398
G1 X-0.256078 Y-0.054431 Z0.000000 E0.785398
G1 X-0.256989 Y-0.049954 Z0.000000 E0.785398
G1 X-0.257822 Y-0.045461 Z0.000000 E0.785398
G1 X-0.258576 Y-0.040954 Z0.000000 E0.785398
G1 X-0.259252 Y-0.036435 Z0.000000 E0.785398
G1 X-0.259848 Y-0.031905 Z0.000000 E0.785398
G1 X-0.260365 Y-0.027365 Z0.000000 E0.785398
G1 X-0.260803 Y-0.022817 Z0.000000 E0.785398
G1 X-0.261162 Y-0.018262 Z0.000000 E0.785398
G1 X-0.261441 Y-0.013702 Z0.000000 E0.785398
G1 X-0.261640 Y-0.009137 Z0.000000 E0.785398
G1 X-0.261760 Y-0.004569 Z0.000000 E0.785398
G1 X-0.261799 Y-0.000000 Z0.000000 E0.785398
G1 X-0.261760 Y0.004569 Z0.000000 E0.785398
G1 X-0.261640 Y0.009137 Z0.000000 E0.785398
G1 X-0.261441 Y0.013702 Z0.000000 E0.785398
G1 X-0.261162 Y0.018262 Z0.000000 E0.785398
G1 X-0.260803 Y0.022817 Z0.000000 E0.785398
G1 X-0.260365 Y0.027365 Z0.000000 E0.785398
G1 X-0.259848 Y0.031905 Z0.000000 E0.785398
G1 X-0.259252 Y0.036435 Z0.000000 E0.785398
G1 X-0.258576 Y0.040954 Z0.000000 E0.785398
G1 X-0.257822 Y0.045461 Z0.000000 E0.785398
G1 X-0.256989 Y0.049954 Z0.000000 E0.785398
G1 X-0.256078 Y0.054431 Z0.000000 E0.785398
G1 X-0.255089 Y0.058892 Z0.000000 E0.785398
G1 X-0.254023 Y0.063335 Z0.000000 E0.785398
G1 X-0.252879 Y0.067759 Z0.000000 E0.785398
G1 X-0.251658 Y0.072162 Z0.000000 E0.785398
G1 X-0.250360 Y0.076543 Z0.000000 E0.785398
G1 X-0.248986 Y0.080900 Z0.000000 E0.785398
G1 X-0.247536 Y0.085234 Z0.000000 E0.785398
G1 X-0.246011 Y0.089541 Z0.000000 E0.785398
G1 X-0.244411 Y0.093821 Z0.000000 E0.785398
G1 X-0.242736 Y0.098072 Z0.000000 E0.785398
G1 X-0.240988 Y0.102293 Z0.000000 E0.785398
G1 X-0.239166 Y0.106483 Z0.000000 E0.785398
G1 X-0.237271 Y0.110641 Z0.000000 E0.785398
G1 X-0.235304 Y0.114765 Z0.000000 E0.785398
G1 X-0.233265 Y0.118854 Z0.000000 E0.785398
G1 X-0.231155 Y0.122907 Z0.000000 E0.785398
G1 X-0.228975 Y0.126923 Z0.000000 E0.785398
G1 X-0.226725 Y0.130900 Z0.000000 E0.785398
G1 X-0.224406 Y0.134837 Z0.000000 E0.785398
G1 X-0.222018 Y0.138733 Z0.000000 E0.785398
G1 X-0.219563 Y0.142586 Z0.000000 E0.785398
G1 X-0.217042 Y0.146396 Z0.000000 E0.785398
G1 X-0.214454 Y0.150162 Z0.000000 E0.785398
G1 X-0.211800 Y0.153882 Z0.000000 E0.785398
G1 X-0.209082 Y0.157555 Z0.000000 E0.785398
G1 X-0.206301 Y0.161180 Z0.000000 E0.785398
G1 X-0.203456 Y0.164756 Z0.000000 E0.785398
G1 X-0.200550 Y0.168281 Z0.000000 E0.785398
G1 X-0.197583 Y0.171756 Z0.000000 E0.785398
G1 X-0.194555 Y0.175178 Z0.000000 E0.785398
G1 X-0.191468 Y0.178547 Z0.000000 E0.785398
G1 X-0.188323 Y0.181861 Z0.000000 E0.785398
G1 X-0.185120 Y0.185120 Z0.000000 E0.785398
G1 X-0.181861 Y0.188323 Z0.000000 E0.785398
G1 X-0.178547 Y0.191468 Z0.000000 E0.785398
G1 X-0.175178 Y0.194555 Z0.000000 E0.785398
G1 X-0.171756 Y0.197583 Z0.000000 E0.785398
G1 X-0.168281 Y0.200550 Z0.000000 E0.785398
G1 X-0.164756 Y0.203456 Z0.000000 E0.785398
G1 X-0.161180 Y0.206301 Z0.000000 E0.785398
G1 X-0.157555 Y0.209082 Z0.000000 E0.785398
G1 X-0.153882 Y0.211800 Z0.000000 E0.785398
G1 X-0.150162 Y0.214454 Z0.000000 E0.785398
G1 X-0.146396 Y0.217042 Z0.000000 E0.785398
G1 X-0.142586 Y0.219563 Z0.000000 E0.785398
G1 X-0.138733 Y0.222018 Z0.000000 E0.785398
G1 X-0.134837 Y0.224406 Z0.000000 E0.785398
G1 X-0.130900 Y0.226725 Z0.000000 E0.785398
G1 X-0.126923 Y0.228975 Z0.000000 E0.785398
G1 X-0.122907 Y0.231155 Z0.000000 E0.785398
G1 X-0.118854 Y0.233265 Z0.000000 E0.785398
G1 X-0.114765 Y0.235304 Z0.000000 E0.785398
G1 X-0.110641 Y0.237271 Z0.000000 E0.785398
G1 X-0.106483 Y0.239166 Z0.000000 E0.785398
G1 X-0.102293 Y0.240988 Z0.000000 E0.785398
G1 X-0.098072 Y0.242736 Z0.000000 E0.785398
G1 X-0.093821 Y0.244411 Z0.000000 E0.785398
G1 X-0.089541 Y0.246011 Z0.000000 E0.785398
G1 X-0.085234 Y0.247536 Z0.000000 E0.785398
G1 X-0.080900 Y0.248986 Z0.000000 E0.785398
G1 X-0.076543 Y0.250360 Z0.000000 E0.785398
G1 X-0.072162 Y0.251658 Z0.000000 E0.785398
G1 X-0.067759 Y0.252879 Z0.000000 E0.785398
G1 X-0.063335 Y0.254023 Z0.000000 E0.785398
G1 X-0.058892 Y0.255089 Z0.000000 E0.785398
G1 X-0.054431 Y0.256078 Z0.000000 E0.785398
G1 X-0.049954 Y0.256989 Z0.000000 E0.785398
G1 X-0.045461 Y0.257822 Z0.000000 E0.785398
G1 X-0.040954 Y0.258576 Z0.000000 E0.785398
G1 X-0.036435 Y0.259252 Z0.000000 E0.785398
G1 X-0.031905 Y0.259848 Z0.000000 E0.785398
G1 X-0.027365 Y0.260365 Z0.000000 E0.785398
G1 X-0.022817 Y0.260803 Z0.000000 E0.785398
G1 X-0.018262 Y0.261162 Z0.000000 E0.785398
G1 X-0.013702 Y0.261441 Z0.000000 E0.785398
G1 X-0.009137 Y0.261640 Z0.000000 E0.785398
G1 X-0.004569 Y0.261760 Z0.000000 E0.785398
G1 X-0.000000 Y0.261799 Z0.000000 E0.785398
G1 X0.004569 Y0.261760 Z0.000000 E0.785398
G1 X0.009137 Y0.261640 Z0.000000 E0.785398
G1 X0.013702 Y0.261441 Z0.000000 E0.785398
G1 X0.018262 Y0.261162 Z0.000000 E0.785398
G1 X0.022817 Y0.260803 Z0.000000 E0.785398
G1 X0.027365 Y0.260365 Z0.000000 E0.785398
G1 X0.031905 Y0.259848 Z0.000000 E0.785398
G1 X0.036435 Y0.259252 Z0.000000 E0.785398
G1 X0.040954 Y0.258576 Z0.000000 E0.785398
G1 X0.045461 Y0.257822 Z0.000000 E0.785398
G1 X0.049954 Y0.256989 Z0.000000 E0.785398
G1 X0.054431 Y0.256078 Z0.000000 E0.785398
G1 X0.058892 Y0.255089 Z0.000000 E0.785398
G1 X0.063335 Y0.254023 Z0.000000 E0.785398
G1 X0.067759 Y0.252879 Z0.000000 E0.785398
G1 X0.072162 Y0.251658 Z0.000000 E0.785398
G1 X0.076543 Y0.250360 Z0.000000 E0.785398
G1 X0.080900 Y0.248986 Z0.000000 E0.785398
G1 X0.085234 Y0.247536 Z0.000000 E0.785398
G1 X0.089541 Y0.246011 Z0.000000 E0.785398
G1 X0.093821 Y0.244411 Z0.000000 E0.785398
G1 X0.098072 Y0.242736 Z0.000000 E0.785398
G1 X0.102293 Y0.240988 Z0.000000 E0.785398
G1 X0.106483 Y0.239166 Z0.000000 E0.785398
G1 X0.110641 Y0.237271 Z0.000000 E0.785398
G1 X0.114765 Y0.235304 Z0.000000 E0.785398
G1 X0.118854 Y0.233265 Z0.000000 E0.785398
G1 X0.122907 Y0.231155 Z0.000000 E0.785398
G1 X0.126923 Y0.228975 Z0.000000 E0.785398
G1 X0.130900 Y0.226725 Z0.000000 E0.785398
G1 X0.134837 Y0.224406 Z0.000000 E0.785398
G1 X0.138733 Y0.222018 Z0.000000 E0.785398
G1 X0.142586 Y0.219563 Z0.000000 E0.785398
G1 X0.146396 Y0.217042 Z0.000000 E0.785398
G1 X0.150162 Y0.214454 Z0.000000 E0.785398
G1 X0.153882 Y0.211800 Z0.000000 E0.785398
G1 X0.157555 Y0.209082 Z0.000000 E0.785398
G1 X0.161180 Y0.206301 Z0.000000 E0.785398
G1 X0.164756 Y0.203456 Z0.000000 E0.785398
G1 X0.168281 Y0.200550 Z0.000000 E0.785398
G1 X0.171756 Y0.197583 Z0.000000 E0.785398
G1 X0.175178 Y0.194555 Z0.000000 E0.785398
G1 X0.178547 Y0.191468 Z0.000000 E0.785398
G1 X0.181861 Y0.188323 Z0.000000 E0.785398
G1 X0.185120 Y0.185120 Z0.000000 E0.785398
G1 X0.188323 Y0.181861 Z0.000000 E0.785398
G1 X0.191468 Y0.178547 Z0.000000 E0.785398
G1 X0.194555 Y0.175178 Z0.000000 E0.785398
G1 X0.197583 Y0.171756 Z0.000000 E0.785398
G1 X0.200550 Y0.168281 Z0.000000 E0.785398
G1 X0.203456 Y0.164756 Z0.000000 E0.785398
G1 X0.206301 Y0.161180 Z0.000000 E0.785398
G1 X0.209082 Y0.157555 Z0.000000 E0.785398
G1 X0.211800 Y0.153882 Z0.000000 E0.785398
G1 X0.214454 Y0.150162 Z0.000000 E0.785398
G1 X0.217042 Y0.146396 Z0.000000 E0.785398
G1 X0.219563 Y0.142586 Z0.000000 E0.785398
G1 X0.222018 Y0.138733 Z0.000000 E0.785398
G1 X0.224406 Y0.134837 Z0.000000 E0.785398
G1 X0.226725 Y0.130900 Z0.000000 E0.785398
G1 X0.228975 Y0.126923 Z0.000000 E0.785398
G1 X0.231155 Y0.122907 Z0.000000 E0.785398
G1 X0.233265 Y0.118854 Z0.000000 E0.785398
G1 X0.235304 Y0.114765 Z0.000000 E0.785398
G1 X0.237271 Y0.110641 Z0.000000 E0.785398
G1 X0.239166 Y0.106483 Z0.000000 E0.785398
G1 X0.240988 Y0.102293 Z0.000000 E0.785398
G1 X0.242736 Y0.098072 Z0.000000 E0.785398
G1 X0.244411 Y0.093821 Z0.000000 E0.785398
G1 X0.246011 Y0.089541 Z0.000000 E0.785398
G1 X0.247536 Y0.085234 Z0.000000 E0.785398
G1 X0.248986 Y0.080900 Z0.000000 E0.785398
G1 X0.250360 Y0.076543 Z0.000000 E0.785398
G1 X0.251658 Y0.072162 Z0.000000 E0.785398
G1 X0.252879 Y0.067759 Z0.000000 E0.785398
G1 X0.254023 Y0.063335 Z0.000000 E0.785398
G1 X0.255089 Y0.058892 Z0.000000 E0.785398
G1 X0.256078 Y0.054431 Z0.000000 E0.785398
G1 X0.256989 Y0.049954 Z0.000000 E0.785398
G1 X0.257822 Y0.045461 Z0.000000 E0.785398
G1 X0.258576 Y0.040954 Z0.000000 E0.785398
G1 X0.259252 Y0.036435 Z0.000000 E0.785398
G1 X0.259848 Y0.031905 Z0.000000 E0.785398
G1 X0.260365 Y0.027365 Z0.000000 E0.785398
G1 X0.260803 Y0.022817 Z0.000000 E0.785398
G1 X0.261162 Y0.018262 Z0.000000 E0.785398
G1 X0.261441 Y0.013702 Z0.000000 E0.785398
G1 X0.261640 Y0.009137 Z0.000000 E0.785398
G1 X0.261760 Y0.004569 Z0.000000 E0.785398
G1 X0.261799 Y0.000000 Z0.000000 E0.785398
G1 X0.261760 Y-0.004569 Z0.000000 E0.785398
G1 X0.261640 Y-0.009137 Z0.000000 E0.785398
G1 X0.261441 Y-0.013702 Z0.000000 E0.785398
G1 X0.261162 Y-0.018262 Z0.000000 E0.785398
G1 X0.260803 Y-0.022817 Z0.000000 E0.785398
G1 X0.260365 Y-0.027365 Z0.000000 E0.785398
G1 X0.259848 Y-0.031905 Z0.000000 E0.785398
G1 X0.259252 Y-0.036435 Z0.000000 E0.785398
G1 X0.258576 Y-0.040954 Z0.000000 E0.785398
G1 X0.257822 Y-0.045461 Z0.000000 E0.785398
G1 X0.256989 Y-0.049954 Z0.000000 E0.785398
G1 X0.256078 Y-0.054431 Z0.000000 E0.785398
G1 X0.255089 Y-0.058892 Z0.000000 E0.785398
G1 X0.254023 Y-0.063335 Z0.000000 E0.785398
G1 X0.252879 Y-0.067759 Z0.000000 E0.785398
G1 X0.251658 Y-0.072162 Z0.000000 E0.785398
G1 X0.250360 Y-0.076543 Z0.000000 E0.785398
G1 X0.248986 Y-0.080900 Z0.000000 E0.785398
G1 X0.247536 Y-0.085234 Z0.000000 E0.785398
G1 X0.246011 Y-0.089541 Z0.000000 E0.785398
G1 X0.244411 Y-0.093821 Z0.000000 E0.785398
G1 X0.242736 Y-0.098072 Z0.000000 E0.785398
G1 X0.240988 Y-0.102293 Z0.000000 E0.785398
G1 X0.239166 Y-0.106483 Z0.000000 E0.785398
G1 X0.237271 Y-0.110641 Z0.000000 E0.785398
G1 X0.235304 Y-0.114765 Z0.000000 E0.785398
G1 X0.233265 Y-0.118854 Z0.000000 E0.785398
G1 X0.231155 Y-0.122907 Z0.000000 E0.785398
G1 X0.228975 Y-0.126923 Z0.000000 E0.785398
G1 X0.226725 Y-0.130900 Z0.000000 E0.785398
G1 X0.224406 Y-0.134837 Z0.000000 E0.785398
G1 X0.222018 Y-0.138733 Z0.000000 E0.785398
G1 X0.219563 Y-0.142586 Z0.000000 E0.785398
G1 X0.217042 Y-0.146396 Z0.000000 E0.785398
G1 X0.214454 Y-0.150162 Z0.000000 E0.785398
G1 X0.211800 Y-0.153882 Z0.000000 E0.785398
G1 X0.209082 Y-0.157555 Z0.000000 E0.785398
G1 X0.206301 Y-0.161180 Z0.000000 E0.785398
G1 X0.203456 Y-0.164756 Z0.000000 E0.785398
G1 X0.200550 Y-0.168281 Z0.000000 E0.785398
G1 X0.197583 Y-0.171756 Z0.000000 E0.785398
G1 X0.194555 Y-0.175178 Z0.000000 E0.785398
G1 X0.191468 Y-0.178547 Z0.000000 E0.785398
G1 X0.188323 Y-0.181861 Z0.000000 E0.785398
G1 X0.185120 Y-0.185120 Z0.000000 E0.785398
G1 X0.181861 Y-0.188323 Z0.000000 E0.785398
G1 X0.178547 Y-0.191468 Z0.000000 E0.785398
G1 X0.175178 Y-0.194555 Z0.000000 E0.785398
G1 X0.171756 Y-0.197583 Z0.000000 E0.785398
G1 X0.168281 Y-0.200550 Z0.000000 E0.785398
G1 X0.164756 Y-0.203456 Z0.000000 E0.785398
G1 X0.161180 Y-0.206301 Z0.000000 E0.785398
G1 X0.157555 Y-0.209082 Z0.000000 E0.785398
G1 X0.153882 Y-0.211800 Z0.000000 E0.785398
G1 X0.150162 Y-0.214454 Z0.000000 E0.785398
G1 X0.146396 Y-0.217042 Z0.000000 E0.785398
G1 X0.142586 Y-0.219563 Z0.000000 E0.785398
G1 X0.138733 Y-0.222018 Z0.000000 E0.785398
G1 X0.134837 Y-0.224406 Z0.000000 E0.785398
G1 X0.130900 Y-0.226725 Z0.000000 E0.785398
G1 X0.126923 Y-0.228975 Z0.000000 E0.785398
G1 X0.122907 Y-0.231155 Z0.000000 E0.785398
G1 X0.118854 Y-0.233265 Z0.000000 E0.785398
G1 X0.114765 Y-0.235304 Z0.000000 E0.785398
G1 X0.110641 Y-0.237271 Z0.000000 E0.785398
G1 X0.106483 Y-0.239166 Z0.000000 E0.785398
G1 X0.102293 Y-0.240988 Z0.000000 E0.785398
G1 X0.098072 Y-0.242736 Z0.000000 E0.785398
G1 X0.093821 Y-0.244411 Z0.000000 E0.785398
G1 X0.089541 Y-0.246011 Z0.000000 E0.785398
G1 X0.085234 Y-0.247536 Z0.000000 E0.785398
G1 X0.080900 Y-0.248986 Z0.000000 E0.785398
G1 X0.076543 Y-0.250360 Z0.000000 E0.785398
G1 X0.072162 Y-0.251658 Z0.000000 E0.785398
G1 X0.067759 Y-0.252879 Z0.000000 E0.785398
G1 X0.063335 Y-0.254023 Z0.000000 E0.785398
G1 X0.058892 Y-0.255089 Z0.000000 E0.785398
G1 X0.054431 Y-0.256078 Z0.000000 E0.785398
G1 X0.049954 Y-0.256989 Z0.000000 E0.785398
G1 X0.045461 Y-0.257822 Z0.000000 E0.785398
G1 X0.040954 Y-0.258576 Z0.000000 E0.785398
G1 X0.036435 Y-0.259252 Z0.000000 E0.785398
G1 X0.031905 Y-0.259848 Z0.000000 E0.785398
G1 X0.027365 Y-0.260365 Z0.000000 E0.785398
G1 X0.022817 Y-0.260803 Z0.000000 E0.785398
G1 X0.018262 Y-0.261162 Z0.000000 E0.785398
G1 X0.013702 Y-0.261441 Z0.000000 E0.785398
G1 X0.009137 Y-0.261640 Z0.000000 E0.785398
G1 X0.004569 Y-0.261760 Z0.000000 E0.785398
G1 Z2.200000
G1 X0.000000 Y-0.261799 Z0.000000 E0.785398
G1 X-0.004569 Y-0.261760 Z0.000000 E0.785398
G1 X-0.009137 Y-0.261640 Z0.000000 E0.785398
G1 X-0.013702 Y-0.261441 Z0.000000 E0.785398
G1 X-0.018262 Y-0.261162 Z0.000000 E0.785398
G1 X-0.022817 Y-0.260803 Z0.000000 E0.785398
G1 X-0.027365 Y-0.260365 Z0.000000 E0.785398
G1 X-0.031905 Y-0.259848 Z0.000000 E0.785398
G1 X-0.036435 Y-0.259252 Z0.000000 E0.785398
G1 X-0.040954 Y-0.258576 Z0.000000 E0.785398
G1 X-0.045461 Y-0.257822 Z0.000000 E0.785398
G1 X-0.049954 Y-0.256989 Z0.000000 E0.785398
G1 X-0.054431 Y-0.256078 Z0.000000 E0.785398
G1 X-0.058892 Y-0.255089 Z0.000000 E0.785398
G1 X-0.063335 Y-0.254023 Z0.000000 E0.785398
G1 X-0.067759 Y-0.252879 Z0.000000 E0.785398
G1 X-0.072162 Y-0.251658 Z0.000000 E0.785398
G1 X-0.076543 Y-0.250360 Z0.000000 E0.785398
G1 X-0.080900 Y-0.248986 Z0.000000 E0.785398
G1 X-0.085234 Y-0.247536 Z0.000000 E0.785398
G1 X-0.089541 Y-0.246011 Z0.000000 E0.785398
G1 X-0.093821 Y-0.244411 Z0.000000 E0.785398
G1 X-0.098072 Y-0.242736 Z0.000000 E0.785398
G1 X-0.102293 Y-0.240988 Z0.000000 E0.785398
G1 X-0.106483 Y-0.239166 Z0.000000 E0.785398
G1 X-0.110641 Y-0.237271 Z0.000000 E0.785398
G1 X-0.114765 Y-0.235304 Z0.000000 E0.785398
G1 X-0.118854 Y-0.233265 Z0.000000 E0.785398
G1 X-0.122907 Y-0.231155 Z0.000000 E0.785398
G1 X-0.126923 Y-0.228975 Z0.000000 E0.785398
G1 X-0.130900 Y-0.226725 Z0.000000 E0.785398
G1 X-0.134837 Y-0.224406 Z0.000000 E0.785398
G1 X-0.138733 Y-0.222018 Z0.000000 E0.785398
G1 X-0.142586 Y-0.219563 Z0.000000 E0.785398
G1 X-0.146396 Y-0.217042 Z0.000000 E0.785398
G1 X-0.150162 Y-0.214454 Z0.000000 E0.785398
G1 X-0.153882 Y-0.211800 Z0.000000 E0.785398
G1 X-0.157555 Y-0.209082 Z0.000000 E0.785398
G1 X-0.161180 Y-0.206301 Z0.000000 E0.785398
G1 X-0.164756 Y-0.203456 Z0.000000 E0.785398
G1 X-0.168281 Y-0.200550 Z0.000000 E0.785398
G1 X-0.171756 Y-0.197583 Z0.000000 E0.785398
G1 X-0.175178 Y-0.194555 Z0.000000 E0.785398
G1 X-0.178547 Y-0.191468 Z0.000000 E0.785398
G1 X-0.181861 Y-0.188323 Z0.000000 E0.785398
G1 X-0.185120 Y-0.185120 Z0.000000 E0.785398
G1 X-0.188323 Y-0.181861 Z0.000000 E0.785398
G1 X-0.191468 Y-0.178547 Z0.000000 E0.785398
G1 X-0.194555 Y-0.175178 Z0.000000 E0.785398
G1 X-0.197583 Y-0.171756 Z0.000000 E0.785398
G1 X-0.200550 Y-0.168281 Z0.000000 E0.785398
G1 X-0.203456 Y-0.164756 Z0.000000 E0.785398
G1 X-0.206301 Y-0.161180 Z0.000000 E0.785398
G1 X-0.209082 Y-0.157555 Z0.000000 E0.785398
G1 X-0.211800 Y-0.153882 Z0.000000 E0.785398
G1 X-0.214454 Y-0.150162 Z0.000000 E0.785398
G1 X-0.217042 Y-0.146396 Z0.000000 E0.785398
G1 X-0.219563 Y-0.142586 Z0.000000 E0.785398
G1 X-0.222018 Y-0.138733 Z0.000000 E0.785398
G1 X-0.224406 Y-0.134837 Z0.000000 E0.785398
G1 X-0.226725 Y-0.130900 Z0.000000 E0.785398
G1 X-0.228975 Y-0.126923 Z0.000000 E0.785398
G1 X-0.231155 Y-0.122907 Z0.000000 E0.785398
G1 X-0.233265 Y-0.118854 Z0.000000 E0.785398
G1 X-0.235304 Y-0.114765 Z0.000000 E0.785398
G1 X-0.237271 Y-0.110641 Z0.000000 E0.785398
G1 X-0.239166 Y-0.106483 Z0.000000 E0.785398
G1 X-0.240988 Y-0.102293 Z0.000000 E0.785398
G1 X-0.242736 Y-0.098072 Z0.000000 E0.785398
G1 X-0.244411 Y-0.093821 Z0.000000 E0.785398
G1 X-0.246011 Y-0.089541 Z0.000000 E0.785398
G1 X-0.247536 Y-0.085234 Z0.000000 E0.785398
G1 X-0.248986 Y-0.080900 Z0.000000 E0.785398
G1 X-0.250360 Y-0.076543 Z0.000000 E0.785398
G1 X-0.251658 Y-0.072162 Z0.000000 E0.785398
G1 X-0.252879 Y-0.067759 Z0.000000 E0.785398
G1 X-0.254023 Y-0.063335 Z0.000000 E0.785398
G1 X-0.255089 Y-0.058892 Z0.000000 E0.785398
G1 X-0.256078 Y-0.054431 Z0.000000 E0.785398
G1 X-0.256989 Y-0.049954 Z0.000000 E0.785398
G1 X-0.257822 Y-0.045461 Z0.000000 E0.785398
G1 X-0.258576 Y-0.040954 Z0.000000 E0.785398
G1 X-0.259252 Y-0.036435 Z0.000000 E0.785398
G1 X-0.259848 Y-0.031905 Z0.000000 E0.785398
G1 X-0.260365 Y-0.027365 Z0.000000 E0.785398
G1 X-0.260803 Y-0.022817 Z0.000000 E0.785398
G1 X-0.261162 Y-0.018262 Z0.000000 E0.785398
G1 X-0.261441 Y-0.013702 Z0.000000 E0.785398
G1 X-0.261640 Y-0.009137 Z0.000000 E0.785398
G1 X-0.261760 Y-0.004569 Z0.000000 E0.785398
G1 X-0.261799 Y-0.000000 Z0.000000 E0.785398
G1 X-0.261760 Y0.004569 Z0.000000 E0.785398
G1 X-0.261640 Y0.009137 Z0.000000 E0.785398
G1 X-0.261441 Y0.013702 Z0.000000 E0.785398
G1 X-0.261162 Y0.018262 Z0.000000 E0.785398
G1 X-0.260803 Y0.022817 Z0.000000 E0.785398
G1 X-0.260365 Y0.027365 Z0.000000 E0.785398
G1 X-0.259848 Y0.031905 Z0.000000 E0.785398
G1 X-0.259252 Y0.036435 Z0.000000 E0.785398
G1 X-0.258576 Y0.040954 Z0.000000 E0.785398
G1 X-0.257822 Y0.045461 Z0.000000 E0.785398
G1 X-0.256989 Y0.049954 Z0.000000 E0.785398
G1 X-0.256078 Y0.054431 Z0.000000 E0.785398
G1 X-0.255089 Y0.058892 Z0.000000 E0.785398
G1 X-0.254023 Y0.063335 Z0.000000 E0.785398
G1 X-0.252879 Y0.067759 Z0.000000 E0.785398
G1 X-0.251658 Y0.072162 Z0.000000 E0.785398
G1 X-0.250360 Y0.076543 Z0.000000 E0.785398
G1 X-0.248986 Y0.080900 Z0.000000 E0.785398
G1 X-0.247536 Y0.085234 Z0.000000 E0.785398
G1 X-0.246011 Y0.089541 Z0.000000 E0.785398
G1 X-0.244411 Y0.093821 Z0.000000 E0.785398
G1 X-0.242736 Y0.098072 Z0.000000 E0.785398
G1 X-0.240988 Y0.102293 Z0.000000 E0.785398
G1 X-0.239166 Y0.106483 Z0.000000 E0.785398
G1 X-0.237271 Y0.110641 Z0.000000 E0.785398
G1 X-0.235304 Y0.114765 Z0.000000 E0.785398
G1 X-0.233265 Y0.118854 Z0.000000 E0.785398
G1 X-0.231155 Y0.122907 Z0.000000 E0.785398
G1 X-0.228975 Y0.126923 Z0.000000 E0.785398
G1 X-0.226725 Y0.130900 Z0.000000 E0.785398
G1 X-0.224406 Y0.134837 Z0.000000 E0.785398
G1 X-0.222018 Y0.138733 Z0.000000 E0.785398
G1 X-0.219563 Y0.142586 Z0.000000 E0.785398
G1 X-0.217042 Y0.146396 Z0.000000 E0.785398
G1 X-0.214454 Y0.150162 Z0.000000 E0.785398
G1 X-0.211800 Y0.153882 Z0.000000 E0.785398
G1 X-0.209082 Y0.157555 Z0.000000 E0.785398
G1 X-0.206301 Y0.161180 Z0.000000 E0.785398
G1 X-0.203456 Y0.164756 Z0.000000 E0.785398
G1 X-0.200550 Y0.168281 Z0.000000 E0.785398
G1 X-0.197583 Y0.171756 Z0.000000 E0.785398
G1 X-0.194555 Y0.175178 Z0.000000 E0.785398
G1 X-0.191468 Y0.178547 Z0.000000 E0.785398
G1 X-0.188323 Y0.181861 Z0.000000 E0.785398
G1 X-0.185120 Y0.185120 Z0.000000 E0.785398
G1 X-0.181861 Y0.188323 Z0.000000 E0.785398
G1 X-0.178547 Y0.191468 Z0.000000 E0.785398
G1 X-0.175178 Y0.194555 Z0.000000 E0.785398
G1 X-0.171756 Y0.197583 Z0.000000 E0.785398
G1 X-0.168281 Y0.200550 Z0.000000 E0.785398
G1 X-0.164756 Y0.203456 Z0.000000 E0.785398
G1 X-0.161180 Y0.206301 Z0.000000 E0.785398
G1 X-0.157555 Y0.209082 Z0.000000 E0.785398
G1 X-0.153882 Y0.211800 Z0.000000 E0.785398
G1 X-0.150162 Y0.214454 Z0.000000 E0.785398
G1 X-0.146396 Y0.217042 Z0.000000 E0.785398
G1 X-0.142586 Y0.219563 Z0.000000 E0.785398
G1 X-0.138733 Y0.222018 Z0.000000 E0.785398
G1 X-0.134837 Y0.224406 Z0.000000 E0.785398
G1 X-0.130900 Y0.226725 Z0.000000 E0.785398
G1 X-0.126923 Y0.228975 Z0.000000 E0.785398
G1 X-0.122907 Y0.231155 Z0.000000 E0.785398
G1 X-0.118854 Y0.233265 Z0.000000 E0.785398
G1 X-0.114765 Y0.235304 Z0.000000 E0.785398
G1 X-0.110641 Y0.237271 Z0.000000 E0.785398
G1 X-0.106483 Y0.239166 Z0.000000 E0.785398
G1 X-0.102293 Y0.240988 Z0.000000 E0.785398
G1 X-0.098072 Y0.242736 Z0.000000 E0.785398
G1 X-0.093821 Y0.244411 Z0.000000 E0.785398
G1 X-0.089541 Y0.246011 Z0.000000 E0.785398
G1 X-0.085234 Y0.247536 Z0.000000 E0.785398
G1 X-0.080900 Y0.248986 Z0.000000 E0.785398
G1 X-0.076543 Y0.250360 Z0.000000 E0.785398
G1 X-0.072162 Y0.251658 Z0.000000 E0.785398
G1 X-0.067759 Y0.252879 Z0.000000 E0.785398
G1 X-0.063335 Y0.254023 Z0.000000 E0.785398
G1 X-0.058892 Y0.255089 Z0.000000 E0.785398
G1 X-0.054431 Y0.256078 Z0.000000 E0.785398
G1 X-0.049954 Y0.256989 Z0.000000 E0.785398
G1 X-0.045461 Y0.257822 Z0.000000 E0.785398
G1 X-0.040954 Y0.258576 Z0.000000 E0.785398
G1 X-0.036435 Y0.259252 Z0.000000 E0.785398
G1 X-0.031905 Y0.259848 Z0.000000 E0.785398
G1 X-0.027365 Y0.260365 Z0.000000 E0.785398
G1 X-0.022817 Y0.260803 Z0.000000 E0.785398
G1 X-0.018262 Y0.261162 Z0.000000 E0.785398
G1 X-0.013702 Y0.261441 Z0.000000 E0.785398
G1 X-0.009137 Y0.261640 Z0.000000 E0.785398
G1 X-0.004569 Y0.261760 Z0.000000 E0.785398
G1 X-0.000000 Y0.261799 Z0.000000 E0.785398
G1 X0.004569 Y0.261760 Z0.000000 E0.785398
G1 X0.009137 Y0.261640 Z0.000000 E0.785398
G1 X0.013702 Y0.261441 Z0.000000 E0.785398
G1 X0.018262 Y0.261162 Z0.000000 E0.785398
G1 X0.022817 Y0.260803 Z0.000000 E0.785398
G1 X0.027365 Y0.260365 Z0.000000 E0.785398
G1 X0.031905 Y0.259848 Z0.000000 E0.785398
G1 X0.036435 Y0.259252 Z0.000000 E0.785398
G1 X0.040954 Y0.258576 Z0.000000 E0.785398
G1 X0.045461 Y0.257822 Z0.000000 E0.785398
G1 X0.049954 Y0.256989 Z0.000000 E0.785398
G1 X0.054431 Y0.256078 Z0.000000 E0.785398
G1 X0.058892 Y0.255089 Z0.000000 E0.785398
G1 X0.063335 Y0.254023 Z0.000000 E0.785398
G1 X0.067759 Y0.252879 Z0.000000 E0.785398
G1 X0.072162 Y0.251658 Z0.000000 E0.785398
G1 X0.076543 Y0.250360 Z0.000000 E0.785398
G1 X0.080900 Y0.248986 Z0.000000 E0.785398
G1 X0.085234 Y0.247536 Z0.000000 E0.785398
G1 X0.089541 Y0.246011 Z0.000000 E0.785398
G1 X0.093821 Y0.244411 Z0.000000 E0.785398
G1 X0.098072 Y0.242736 Z0.000000 E0.785398
G1 X0.102293 Y0.240988 Z0.000000 E0.785398
G1 X0.106483 Y0.239166 Z0.000000 E0.785398
G1 X0.110641 Y0.237271 Z0.000000 E0.785398
G1 X0.114765 Y0.235304 Z0.000000 E0.785398
G1 X0.118854 Y0.233265 Z0.000000 E0.785398
G1 X0.122907 Y0.231155 Z0.000000 E0.785398
G1 X0.126923 Y0.228975 Z0.000000 E0.785398
G1 X0.130900 Y0.226725 Z0.000000 E0.785398
G1 X0.134837 Y0.224406 Z0.000000 E0.785398
G1 X0.138733 Y0.222018 Z0.000000 E0.785398
G1 X0.142586 Y0.219563 Z0.000000 E0.785398
G1 X0.146396 Y0.217042 Z0.000000 E0.785398
G1 X0.150162 Y0.214454 Z0.000000 E0.785398
G1 X0.153882 Y0.211800 Z0.000000 E0.785398
G1 X0.157555 Y0.209082 Z0.000000 E0.785398
G1 X0.161180 Y0.206301 Z0.000000 E0.785398
G1 X0.164756 Y0.203456 Z0.000000 E0.785398
G1 X0.168281 Y0.200550 Z0.000000 E0.785398
G1 X0.171756 Y0.197583 Z0.000000 E0.785398
G1 X0.175178 Y0.194555 Z0.000000 E0.785398
G1 X0.178547 Y0.191468 Z0.000000 E0.785398
G1 X0.181861 Y0.188323 Z0.000000 E0.785398
G1 X0.185120 Y0.185120 Z0.000000 E0.785398
G1 X0.188323 Y0.181861 Z0.000000 E0.785398
G1 X0.191468 Y0.178547 Z0.000000 E0.785398
G1 X0.194555 Y0.175178 Z0.000000 E0.785398
G1 X0.197583 Y0.171756 Z0.000000 E0.785398
G1 X0.200550 Y0.168281 Z0.000000 E0.785398
G1 X0.203456 Y0.164756 Z0.000000 E0.785398
G1 X0.206301 Y0.161180 Z0.000000 E0.785398
G1 X0.209082 Y0.157555 Z0.000000 E0.785398
G1 X0.211800 Y0.153882 Z0.000000 E0.785398
G1 X0.214454 Y0.150162 Z0.000000 E0.785398
G1 X0.217042 Y0.146396 Z0.000000 E0.785398
G1 X0.219563 Y0.142586 Z0.000000 E0.785398
G1 X0.222018 Y0.138733 Z0.000000 E0.785398
G1 X0.224406 Y0.134837 Z0.000000 E0.785398
G1 X0.226725 Y0.130900 Z0.000000 E0.785398
G1 X0.228975 Y0.126923 Z0.000000 E0.785398
G1 X0.231155 Y0.122907 Z0.000000 E0.785398
G1 X0.233265 Y0.118854 Z0.000000 E0.785398
G1 X0.235304 Y0.114765 Z0.000000 E0.785398
G1 X0.237271 Y0.110641 Z0.000000 E0.785398
G1 X0.239166 Y0.106483 Z0.000000 E0.785398
G1 X0.240988 Y0.102293 Z0.000000 E0.785398
G1 X0.242736 Y0.098072 Z0.000000 E0.785398
G1 X0.244411 Y0.093821 Z0.000000 E0.785398
G1 X0.246011 Y0.089541 Z0.000000 E0.785398
G1 X0.247536 Y0.085234 Z0.000000 E0.785398
G1 X0.248986 Y0.080900 Z0.000000 E0.785398
G1 X0.250360 Y0.076543 Z0.000000 E0.785398
G1 X0.251658 Y0.072162 Z0.000000 E0.785398
G1 X0.252879 Y0.067759 Z0.000000 E0.785398
G1 X0.254023 Y0.063335 Z0.000000 E0.785398
G1 X0.255089 Y0.058892 Z0.000000 E0.785398
G1 X0.256078 Y0.054431 Z0.000000 E0.785398
G1 X0.256989 Y0.049954 Z0.000000 E0.785398
G1 X0.257822 Y0.045461 Z0.000000 E0.785398
G1 X0.258576 Y0.040954 Z0.000000 E0.785398
G1 X0.259252 Y0.036435 Z0.000000 E0.785398
G1 X0.259848 Y0.031905 Z0.000000 E0.785398
G1 X0.260365 Y0.027365 Z0.000000 E0.785398
G1 X0.260803 Y0.022817 Z0.000000 E0.785398
G1 X0.261162 Y0.018262 Z0.000000 E0.785398
G1 X0.261441 Y0.013702 Z0.000000 E0.785398
G1 X0.261640 Y0.009137 Z0.000000 E0.785398
G1 X0.261760 Y0.004569 Z0.000000 E0.785398
G1 X0.261799 Y0.000000 Z0.000000 E0.785398
G1 X0.261760 Y-0.004569 Z0.000000 E0.785398
G1 X0.261640 Y-0.009137 Z0.000000 E0.785398
G1 X0.261441 Y-0.013702 Z0.000000 E0.785398
G1 X0.261162 Y-0.018262 Z0.000000 E0.785398
G1 X0.260803 Y-0.022817 Z0.000000 E0.785398
G1 X0.260365 Y-0.027365 Z0.000000 E0.785398
G1 X0.259848 Y-0.031905 Z0.000000 E0.785398
G1 X0.259252 Y-0.036435 Z0.000000 E0.785398
G1 X0.258576 Y-0.040954 Z0.000000 E0.785398
G1 X0.257822 Y-0.045461 Z0.000000 E0.785398
G1 X0.256989 Y-0.049954 Z0.000000 E0.785398
G1 X0.256078 Y-0.054431 Z0.000000 E0.785398
G1 X0.255089 Y-0.058892 Z0.000000 E0.785398
G1 X0.254023 Y-0.063335 Z0.000000 E0.785398
G1 X0.252879 Y-0.067759 Z0.000000 E0.785398
G1 X0.251658 Y-0.072162 Z0.000000 E0.785398
G1 X0.250360 Y-0.076543 Z0.000000 E0.785398
G1 X0.248986 Y-0.080900 Z0.000000 E0.785398
G1 X0.247536 Y-0.085234 Z0.000000 E0.785398
G1 X0.246011 Y-0.089541 Z0.000000 E0.785398
G1 X0.244411 Y-0.093821 Z0.000000 E0.785398
G1 X0.242736 Y-0.098072 Z0.000000 E0.785398
G1 X0.240988 Y-0.102293 Z0.000000 E0.785398
G1 X0.239166 Y-0.106483 Z0.000000 E0.785398
G1 X0.237271 Y-0.110641 Z0.000000 E0.785398
G1 X0.235304 Y-0.114765 Z0.000000 E0.785398
G1 X0.233265 Y-0.118854 Z0.000000 E0.785398
G1 X0.231155 Y-0.122907 Z0.000000 E0.785398
G1 X0.228975 Y-0.126923 Z0.000000 E0.785398
G1 X0.226725 Y-0.130900 Z0.000000 E0.785398
G1 X0.224406 Y-0.134837 Z0.000000 E0.785398
G1 X0.222018 Y-0.138733 Z0.000000 E0.785398
G1 X0.219563 Y-0.142586 Z0.000000 E0.785398
G1 X0.217042 Y-0.146396 Z0.000000 E0.785398
G1 X0.214454 Y-0.150162 Z0.000000 E0.785398
G1 X0.211800 Y-0.153882 Z0.000000 E0.785398
G1 X0.209082 Y-0.157555 Z0.000000 E0.785398
G1 X0.206301 Y-0.161180 Z0.000000 E0.785398
G1 X0.203456 Y-0.164756 Z0.000000 E0.785398
G1 X0.200550 Y-0.168281 Z0.000000 E0.785398
G1 X0.197583 Y-0.171756 Z0.000000 E0.785398
G1 X0.194555 Y-0.175178 Z0.000000 E0.785398
G1 X0.191468 Y-0.178547 Z0.000000 E0.785398
G1 X0.188323 Y-0.181861 Z0.000000 E0.785398
G1 X0.185120 Y-0.185120 Z0.000000 E0.785398
G1 X0.181861 Y-0.188323 Z0.000000 E0.785398
G1 X0.178547 Y-0.191468 Z0.000000 E0.785398
G1 X0.175178 Y-0.194555 Z0.000000 E0.785398
G1 X0.171756 Y-0.197583 Z0.000000 E0.785398
G1 X0.168281 Y-0.200550 Z0.000000 E0.785398
G1 X0.164756 Y-0.203456 Z0.000000 E0.785398
G1 X0.161180 Y-0.206301 Z0.000000 E0.785398
G1 X0.157555 Y-0.209082 Z0.000000 E0.785398
G1 X0.153882 Y-0.211800 Z0.000000 E0.785398
G1 X0.150162 Y-0.214454 Z0.000000 E0.785398
G1 X0.146396 Y-0.217042 Z0.000000 E0.785398
G1 X0.142586 Y-0.219563 Z0.000000 E0.785398
G1 X0.138733 Y-0.222018 Z0.000000 E0.785398
G1 X0.134837 Y-0.224406 Z0.000000 E0.785398
G1 X0.130900 Y-0.226725 Z0.000000 E0.785398
G1 X0.126923 Y-0.228975 Z0.000000 E0.785398
G1 X0.122907 Y-0.231155 Z0.000000 E0.785398
G1 X0.118854 Y-0.233265 Z0.000000 E0.785398
G1 X0.114765 Y-0.235304 Z0.000000 E0.785398
G1 X0.110641 Y-0.237271 Z0.000000 E0.785398
G1 X0.106483 Y-0.239166 Z0.000000 E0.785398
G1 X0.102293 Y-0.240988 Z0.000000 E0.785398
G1 X0.098072 Y-0.242736 Z0.000000 E0.785398
G1 X0.093821 Y-0.244411 Z0.000000 E0.785398
G1 X0.089541 Y-0.246011 Z0.000000 E0.785398
G1 X0.085234 Y-0.247536 Z0.000000 E0.785398
G1 X0.080900 Y-0.248986 Z0.000000 E0.785398
G1 X0.076543 Y-0.250360 Z0.000000 E0.785398
G1 X0.072162 Y-0.251658 Z0.000000 E0.785398
G1 X0.067759 Y-0.252879 Z0.000000 E0.785398
G1 X0.063335 Y-0.254023 Z0.000000 E0.785398
G1 X0.058892 Y-0.255089 Z0.000000 E0.785398
G1 X0.054431 Y-0.256078 Z0.000000 E0.785398
G1 X0.049954 Y-0.256989 Z0.000000 E0.785398
G1 X0.045461 Y-0.257822 Z0.000000 E0.785398
G1 X0.040954 Y-0.258576 Z0.000000 E0.785398
G1 X0.036435 Y-0.259252 Z0.000000 E0.785398
G1 X0.031905 Y-0.259848 Z0.000000 E0.785398
G1 X0.027365 Y-0.260365 Z0.000000 E0.785398
G1 X0.022817 Y-0.260803 Z0.000000 E0.785398
G1 X0.018262 Y-0.261162 Z0.000000 E0.785398
G1 X0.013702 Y-0.261441 Z0.000000 E0.785398
G1 X0.009137 Y-0.261640 Z0.000000 E0.785398
G1 X0.004569 Y-0.261760 Z0.000000 E0.785398
G1 Z2.200000
G1 X0.000000 Y-0.261799 Z0.000000 E0.785398
G1 X-0.004569 Y-0.261760 Z0.000000 E0.785398
G1 X-0.009137 Y-0.261640 Z0.000000 E0.785398
G1 X-0.013702 Y-0.261441 Z0.000000 E0.785398
G1 X-0.018262 Y-0.261162 Z0.000000 E0.785398
G1 X-0.022817 Y-0.260803 Z0.000000 E0.785398
G1 X-0.027365 Y-0.260365 Z0.000000 E0.785398
G1 X-0.031905 Y-0.259848 Z0.000000 E0.785398
G1 X-0.036435 Y-0.259252 Z0.000000 E0.785398
G1 X-0.040954 Y-0.258576 Z0.000000 E0.785398
G1 X-0.045461 Y-0.257822 Z0.000000 E0.785398
G1 X-0.049954 Y-0.256989 Z0.000000 E0.785398
G1 X-0.054431 Y-0.256078 Z0.000000 E0.785398
G1 X-0.058892 Y-0.255089 Z0.000000 E0.785398
G1 X-0.063335 Y-0.254023 Z0.000000 E0.785398
G1 X-0.067759 Y-0.252879 Z0.000000 E0.785398
G1 X-0.072162 Y-0.251658 Z0.000000 E0.785398
G1 X-0.076543 Y-0.250360 Z0.000000 E0.785398
G1 X-0.080900 Y-0.248986 Z0.000000 E0.785398
G1 X-0.085234 Y-0.247536 Z0.000000 E0.785398
G1 X-0.089541 Y-0.246011 Z0.000000 E0.785398
G1 X-0.093821 Y-0.244411 Z0.000000 E0.785398
G1 X-0.098072 Y-0.242736 Z0.000000 E0.785398
G1 X-0.102293 Y-0.240988 Z0.000000 E0.785398
G1 X-0.106483 Y-0.239166 Z0.000000 E0.785398
G1 X-0.110641 Y-0.237271 Z0.000000 E0.785398
G1 X-0.114765 Y-0.235304 Z0.000000 E0.785398
G1 X-0.118854 Y-0.233265 Z0.000000 E0.785398
G1 X-0.122907 Y-0.231155 Z0.000000 E0.785398
G1 X-0.126923 Y-0.228975 Z0.000000 E0.785398
G1 X-0.130900 Y-0.226725 Z0.000000 E0.785398
G1 X-0.134837 Y-0.224406 Z0.000000 E0.785398
G1 X-0.138733 Y-0.222018 Z0.000000 E0.785398
G1 X-0.142586 Y-0.219563 Z0.000000 E0.785398
G1 X-0.146396 Y-0.217042 Z0.000000 E0.785398
G1 X-0.150162 Y-0.214454 Z0.000000 E0.785398
G1 X-0.153882 Y-0.211800 Z0.000000 E0.785398
G1 X-0.157555 Y-0.209082 Z0.000000 E0.785398
G1 X-0.161180 Y-0.206301 Z0.000000 E0.785398
G1 X-0.164756 Y-0.203456 Z0.000000 E0.785398
G1 X-0.168281 Y-0.200550 Z0.000000 E0.785398
G1 X-0.171756 Y-0.197583 Z0.000000 E0.785398
G1 X-0.175178 Y-0.194555 Z0.000000 E0.785398
G1 X-0.178547 Y-0.191468 Z0.000000 E0.785398
G1 X-0.181861 Y-0.188323 Z0.000000 E0.785398
G1 X-0.185120 Y-0.185120 Z0.000000 E0.785398
G1 X-0.188323 Y-0.181861 Z0.000000 E0.785398
G1 X-0.191468 Y-0.178547 Z0.000000 E0.785398
G1 X-0.194555 Y-0.175178 Z0.000000 E0.785398
G1 X-0.197583 Y-0.171756 Z0.000000 E0.785398
G1 X-0.200550 Y-0.168281 Z0.000000 E0.785398
G1 X-0.203456 Y-0.164756 Z0.000000 E0.785398
G1 X-0.206301 Y-0.161180 Z0.000000 E0.785398
G1 X-0.209082 Y-0.157555 Z0.000000 E0.785398
G1 X-0.211800 Y-0.153882 Z0.000000 E0.785398
G1 X-0.214454 Y-0.150162 Z0.000000 E0.785398
G1 X-0.217042 Y-0.146396 Z0.000000 E0.785398
G1 X-0.219563 Y-0.142586 Z0.000000 E0.785398
G1 X-0.222018 Y-0.138733 Z0.000000 E0.785398
G1 X-0.224406 Y-0.134837 Z0.000000 E0.785398
G1 X-0.226725 Y-0.130900 Z0.000000 E0.785398
G1 X-0.228975 Y-0.126923 Z0.000000 E0.785398
G1 X-0.231155 Y-0.122907 Z0.000000 E0.785398
G1 X-0.233265 Y-0.118854 Z0.000000 E0.785398
G1 X-0.235304 Y-0.114765 Z0.000000 E0.785398
G1 X-0.237271 Y-0.110641 Z0.000000 E0.785398
G1 X-0.239166 Y-0.106483 Z0.000000 E0.785398
G1 X-0.240988 Y-0.102293 Z0.000000 E0.785398
G1 X-0.242736 Y-0.098072 Z0.000000 E0.785398
G1 X-0.244411 Y-0.093821 Z0.000000 E0.785398
G1 X-0.246011 Y-0.089541 Z0.000000 E0.785398
G1 X-0.247536 Y-0.085234 Z0.000000 E0.785398
G1 X-0.248986 Y-0.080900 Z0.000000 E0.785398
G1 X-0.250360 Y-0.076543 Z0.000000 E0.785398
G1 X-0.251658 Y-0.072162 Z0.000000 E0.785398
G1 X-0.252879 Y-0.067759 Z0.000000 E0.785398
