;FLAVOR:Marlin
;TIME:1381
;Filament used: 50.3049m
;Layer height: 1.5
;MINX:154.356
;MINY:149.356
;MINZ:2
;MAXX:260.644
;MAXY:255.644
;MAXZ:110.835
;Generated with Cura_SteamEngine 4.13.1
M105
M109 S0
M82 ;absolute extrusion mode
G28 ;Home
G1 X207.5 Y202.5 Z20 F10000 ;Move X and Y to center, Z to 20mm high
G92 E0
G1 E3000 F40000 ; Prine Extruder
G92 E0
G92 E0
G92 E0
;LAYER_COUNT:73
;LAYER:0
M107
;MESH:Jeff_Suina1.stl
G0 F900 X201.633 Y196.968 Z2
;TYPE:WALL-INNER
G1 F1200 X201.86 Y196.867 E0.41318
G1 X201.982 Y196.622 E0.86834
G1 X202.714 Y196.098 E2.36542
G1 X202.825 Y195.929 E2.70166
G1 X203.063 Y195.875 E3.10752
G1 X203.233 Y195.658 E3.56594
G1 X204.053 Y195.287 E5.06269
G1 X204.195 Y195.143 E5.39901
G1 X204.44 Y195.135 E5.80667
G1 X204.648 Y194.96 E6.25871
G1 X205.531 Y194.751 E7.76772
G1 X205.69 Y194.642 E8.08831
G1 X205.925 Y194.682 E8.48473
G1 X206.174 Y194.55 E8.95341
G1 X207.087 Y194.515 E10.47285
G1 X207.261 Y194.441 E10.78729
G1 X207.494 Y194.53 E11.20208
G1 X207.752 Y194.443 E11.65487
G1 X208.646 Y194.588 E13.16103
G1 X208.841 Y194.547 E13.49241
G1 X209.057 Y194.683 E13.91689
G1 X209.323 Y194.646 E14.36351
G1 X210.162 Y194.963 E15.85504
G1 X210.367 Y194.961 E16.19597
G1 X210.538 Y195.122 E16.58655
G1 X210.818 Y195.154 E17.05523
G1 X211.594 Y195.629 E18.56829
G1 X211.781 Y195.664 E18.88467
G1 X211.925 Y195.867 E19.29857
G1 X212.187 Y195.94 E19.75088
G1 X212.846 Y196.558 E21.25331
G1 X213.032 Y196.633 E21.58683
G1 X213.133 Y196.86 E22.00001
G1 X213.378 Y196.982 E22.45516
G1 X213.902 Y197.714 E23.95224
G1 X214.071 Y197.825 E24.28849
G1 X214.125 Y198.063 E24.69434
G1 X214.342 Y198.233 E25.15277
G1 X214.713 Y199.053 E26.64951
G1 X214.857 Y199.195 E26.98584
G1 X214.865 Y199.44 E27.39349
G1 X215.04 Y199.648 E27.84554
G1 X215.249 Y200.531 E29.35455
G1 X215.358 Y200.69 E29.67513
G1 X215.318 Y200.925 E30.07156
G1 X215.45 Y201.174 E30.54023
G1 X215.485 Y202.087 E32.05967
G1 X215.559 Y202.261 E32.37412
G1 X215.47 Y202.494 E32.78891
G1 X215.557 Y202.752 E33.2417
G1 X215.412 Y203.646 E34.74785
G1 X215.453 Y203.841 E35.07923
G1 X215.317 Y204.057 E35.50371
G1 X215.354 Y204.321 E35.94704
G1 X215.037 Y205.162 E37.44168
G1 X215.039 Y205.367 E37.78261
G1 X214.878 Y205.538 E38.1732
G1 X214.846 Y205.818 E38.64187
G1 X214.371 Y206.594 E40.15493
G1 X214.336 Y206.781 E40.47132
G1 X214.133 Y206.925 E40.88522
G1 X214.06 Y207.187 E41.33752
G1 X213.442 Y207.846 E42.83995
G1 X213.367 Y208.032 E43.17347
G1 X213.14 Y208.133 E43.58665
G1 X213.018 Y208.378 E44.04181
G1 X212.286 Y208.902 E45.53888
G1 X212.175 Y209.071 E45.87513
G1 X211.937 Y209.125 E46.28099
G1 X211.767 Y209.342 E46.73941
G1 X210.947 Y209.713 E48.23616
G1 X210.805 Y209.857 E48.57248
G1 X210.56 Y209.865 E48.98013
G1 X210.352 Y210.04 E49.43218
G1 X209.469 Y210.249 E50.94119
G1 X209.31 Y210.358 E51.26177
G1 X209.075 Y210.318 E51.6582
G1 X208.826 Y210.45 E52.12688
G1 X207.913 Y210.485 E53.64632
G1 X207.739 Y210.559 E53.96076
G1 X207.506 Y210.47 E54.37555
G1 X207.248 Y210.557 E54.82834
G1 X206.354 Y210.412 E56.3345
G1 X206.159 Y210.453 E56.66587
G1 X205.943 Y210.317 E57.09036
G1 X205.677 Y210.354 E57.53697
G1 X204.838 Y210.037 E59.02851
G1 X204.633 Y210.039 E59.36944
G1 X204.462 Y209.878 E59.76002
G1 X204.182 Y209.846 E60.2287
G1 X203.406 Y209.371 E61.74176
G1 X203.219 Y209.336 E62.05814
G1 X203.075 Y209.133 E62.47204
G1 X202.813 Y209.06 E62.92435
G1 X202.154 Y208.442 E64.42677
G1 X201.968 Y208.367 E64.76029
G1 X201.867 Y208.14 E65.17348
G1 X201.622 Y208.018 E65.62863
G1 X201.098 Y207.286 E67.12571
G1 X200.929 Y207.175 E67.46196
G1 X200.875 Y206.937 E67.86781
G1 X200.658 Y206.767 E68.32624
G1 X200.287 Y205.947 E69.82298
G1 X200.143 Y205.805 E70.1593
G1 X200.135 Y205.558 E70.57028
G1 X199.959 Y205.351 E71.02213
G1 X199.753 Y204.469 E72.52838
G1 X199.643 Y204.308 E72.85265
G1 X199.683 Y204.075 E73.2458
G1 X199.55 Y203.825 E73.71672
G1 X199.515 Y202.913 E75.2345
G1 X199.441 Y202.739 E75.54895
G1 X199.53 Y202.506 E75.96373
G1 X199.443 Y202.248 E76.41653
G1 X199.588 Y201.354 E77.92268
G1 X199.547 Y201.159 E78.25406
G1 X199.683 Y200.943 E78.67854
G1 X199.646 Y200.677 E79.12516
G1 X199.963 Y199.838 E80.61669
G1 X199.961 Y199.633 E80.95762
G1 X200.122 Y199.462 E81.34821
G1 X200.154 Y199.182 E81.81688
G1 X200.629 Y198.406 E83.32994
G1 X200.664 Y198.219 E83.64633
G1 X200.867 Y198.075 E84.06023
G1 X200.94 Y197.813 E84.51253
G1 X201.558 Y197.154 E86.01496
G1 X201.633 Y196.968 E86.34848
G0 F900 X201.492 Y196.484
;TYPE:WALL-OUTER
G1 X201.589 Y196.289 E87.07286
G1 X202.347 Y195.746 E90.17411
G1 X202.517 Y195.487 E91.20454
G1 X202.779 Y195.427 E92.09851
G1 X202.915 Y195.254 E92.83043
G1 X203.762 Y194.87 E95.92356
G1 X203.979 Y194.65 E96.95134
G1 X204.251 Y194.641 E97.85651
G1 X204.419 Y194.5 E98.586
G1 X205.326 Y194.286 E101.68552
G1 X205.576 Y194.116 E102.69106
G1 X205.841 Y194.161 E103.58507
G1 X206.042 Y194.054 E104.34242
G1 X206.976 Y194.019 E107.4511
G1 X207.251 Y193.902 E108.44509
G1 X207.505 Y193.999 E109.34941
G1 X207.712 Y193.93 E110.07513
G1 X208.635 Y194.08 E113.18532
G1 X208.936 Y194.017 E114.20814
G1 X209.169 Y194.163 E115.12268
G1 X209.382 Y194.134 E115.83765
G1 X210.252 Y194.462 E118.9301
G1 X210.563 Y194.46 E119.96451
G1 X210.759 Y194.644 E120.85866
G1 X210.983 Y194.669 E121.60831
G1 X211.777 Y195.155 E124.7046
G1 X212.072 Y195.211 E125.7033
G1 X212.23 Y195.433 E126.60959
G1 X212.439 Y195.491 E127.33099
G1 X213.12 Y196.129 E130.43473
G1 X213.405 Y196.244 E131.4569
G1 X213.516 Y196.492 E132.36061
G1 X213.711 Y196.589 E133.08499
G1 X214.254 Y197.347 E136.18624
G1 X214.513 Y197.517 E137.21667
G1 X214.573 Y197.779 E138.11064
G1 X214.746 Y197.915 E138.84255
G1 X215.13 Y198.762 E141.93568
G1 X215.35 Y198.979 E142.96346
G1 X215.359 Y199.251 E143.86863
G1 X215.5 Y199.419 E144.59812
G1 X215.714 Y200.326 E147.69765
G1 X215.884 Y200.576 E148.70318
G1 X215.839 Y200.841 E149.5972
G1 X215.946 Y201.042 E150.35455
G1 X215.981 Y201.976 E153.46323
G1 X216.098 Y202.251 E154.45722
G1 X216.001 Y202.505 E155.36153
G1 X216.07 Y202.712 E156.08726
G1 X215.92 Y203.635 E159.19745
G1 X215.983 Y203.936 E160.22027
G1 X215.837 Y204.169 E161.1348
G1 X215.866 Y204.379 E161.83989
G1 X215.538 Y205.251 E164.93857
G1 X215.54 Y205.563 E165.97631
G1 X215.356 Y205.759 E166.87045
G1 X215.331 Y205.983 E167.62011
G1 X214.845 Y206.777 E170.71639
G1 X214.789 Y207.072 E171.71509
G1 X214.567 Y207.23 E172.62138
G1 X214.509 Y207.439 E173.34279
G1 X213.871 Y208.12 E176.44652
G1 X213.756 Y208.405 E177.46869
G1 X213.508 Y208.516 E178.3724
G1 X213.411 Y208.711 E179.09678
G1 X212.653 Y209.254 E182.19803
G1 X212.483 Y209.513 E183.22846
G1 X212.221 Y209.573 E184.12243
G1 X212.085 Y209.746 E184.85434
G1 X211.238 Y210.13 E187.94747
G1 X211.021 Y210.35 E188.97526
G1 X210.749 Y210.359 E189.88043
G1 X210.581 Y210.5 E190.60992
G1 X209.674 Y210.714 E193.70944
G1 X209.424 Y210.884 E194.71498
G1 X209.159 Y210.839 E195.60899
G1 X208.958 Y210.946 E196.36634
G1 X208.024 Y210.981 E199.47502
G1 X207.749 Y211.098 E200.46901
G1 X207.495 Y211.001 E201.37333
G1 X207.288 Y211.07 E202.09905
G1 X206.365 Y210.92 E205.20924
G1 X206.064 Y210.983 E206.23206
G1 X205.831 Y210.837 E207.14659
G1 X205.618 Y210.866 E207.86157
G1 X204.748 Y210.538 E210.95402
G1 X204.437 Y210.54 E211.98843
G1 X204.241 Y210.356 E212.88258
G1 X204.017 Y210.331 E213.63223
G1 X203.223 Y209.845 E216.72852
G1 X202.928 Y209.789 E217.72722
G1 X202.77 Y209.567 E218.6335
G1 X202.561 Y209.509 E219.35491
G1 X201.88 Y208.871 E222.45865
G1 X201.595 Y208.756 E223.48082
G1 X201.484 Y208.508 E224.38452
G1 X201.289 Y208.411 E225.10891
G1 X200.746 Y207.653 E228.21016
G1 X200.487 Y207.483 E229.24059
G1 X200.427 Y207.221 E230.13456
G1 X200.254 Y207.085 E230.86647
G1 X199.87 Y206.238 E233.9596
G1 X199.65 Y206.021 E234.98738
G1 X199.641 Y205.749 E235.89255
G1 X199.5 Y205.583 E236.61696
G1 X199.287 Y204.674 E239.7222
G1 X199.116 Y204.423 E240.73236
G1 X199.161 Y204.159 E241.62309
G1 X199.054 Y203.958 E242.38044
G1 X199.019 Y203.024 E245.48912
G1 X198.902 Y202.749 E246.48311
G1 X198.999 Y202.495 E247.38743
G1 X198.93 Y202.288 E248.11315
G1 X199.08 Y201.365 E251.22334
G1 X199.017 Y201.064 E252.24616
G1 X199.163 Y200.831 E253.16069
G1 X199.134 Y200.618 E253.87567
G1 X199.462 Y199.748 E256.96812
G1 X199.46 Y199.437 E258.00253
G1 X199.644 Y199.241 E258.89668
G1 X199.669 Y199.017 E259.64633
G1 X200.155 Y198.223 E262.74262
G1 X200.211 Y197.928 E263.74132
G1 X200.433 Y197.77 E264.6476
G1 X200.491 Y197.561 E265.36901
G1 X201.129 Y196.88 E268.47275
G1 X201.244 Y196.595 E269.49492
G1 X201.492 Y196.484 E270.39862
G0 X201.561 Y196.556
G0 X203.543 Y197.952
;TYPE:SKIN
G1 X203.839 Y197.74 E271.60958
G1 X204.194 Y197.66 E272.81993
G1 X204.499 Y197.268 E274.47189
G1 X204.844 Y197.113 E275.72985
G1 X205.195 Y197.101 E276.89796
G1 X205.568 Y196.787 E278.51963
G1 X205.93 Y196.701 E279.75716
G1 X206.26 Y196.757 E280.87043
G1 X206.707 Y196.52 E282.5532
G1 X207.091 Y196.506 E283.83124
G1 X207.452 Y196.643 E285.11549
G1 X207.921 Y196.486 E286.76047
G1 X208.278 Y196.544 E287.96343
G1 X208.612 Y196.755 E289.27742
G1 X209.094 Y196.687 E290.89643
G1 X209.432 Y196.815 E292.09854
G1 X209.654 Y197.024 E293.11264
G1 X210.156 Y197.082 E294.79341
G1 X210.494 Y197.289 E296.11167
G1 X210.711 Y197.595 E297.35937
G1 X211.181 Y197.726 E298.98218
G1 X211.452 Y197.98 E300.21755
G1 X211.607 Y198.324 E301.47248
G1 X212.048 Y198.543 E303.11016
G1 X212.26 Y198.839 E304.32112
G1 X212.34 Y199.194 E305.53146
G1 X212.732 Y199.499 E307.18342
G1 X212.887 Y199.844 E308.44138
G1 X212.899 Y200.195 E309.6095
G1 X213.213 Y200.568 E311.23116
G1 X213.299 Y200.93 E312.46869
G1 X213.243 Y201.26 E313.58197
G1 X213.48 Y201.707 E315.26474
G1 X213.494 Y202.091 E316.54278
G1 X213.357 Y202.452 E317.82702
G1 X213.514 Y202.92 E319.46885
G1 X213.455 Y203.28 E320.68219
G1 X213.246 Y203.614 E321.99264
G1 X213.313 Y204.092 E323.59802
G1 X213.185 Y204.432 E324.80635
G1 X212.976 Y204.654 E325.82045
G1 X212.918 Y205.156 E327.50122
G1 X212.711 Y205.494 E328.81948
G1 X212.405 Y205.711 E330.06718
G1 X212.274 Y206.181 E331.68999
G1 X212.02 Y206.452 E332.92536
G1 X211.676 Y206.607 E334.18029
G1 X211.457 Y207.048 E335.81797
G1 X211.161 Y207.26 E337.02893
G1 X210.806 Y207.34 E338.23927
G1 X210.501 Y207.732 E339.89123
G1 X210.156 Y207.887 E341.14919
G1 X209.805 Y207.899 E342.31731
G1 X209.432 Y208.213 E343.93897
G1 X209.07 Y208.299 E345.1765
G1 X208.74 Y208.243 E346.28977
G1 X208.293 Y208.48 E347.97255
G1 X207.909 Y208.494 E349.25058
G1 X207.548 Y208.357 E350.53483
G1 X207.079 Y208.514 E352.17981
G1 X206.722 Y208.456 E353.38277
G1 X206.388 Y208.245 E354.69676
G1 X205.906 Y208.313 E356.31578
G1 X205.568 Y208.185 E357.51788
G1 X205.346 Y207.976 E358.53199
G1 X204.844 Y207.918 E360.21275
G1 X204.506 Y207.711 E361.53102
G1 X204.289 Y207.405 E362.77872
G1 X203.819 Y207.274 E364.40153
G1 X203.548 Y207.02 E365.63689
G1 X203.393 Y206.676 E366.89182
G1 X202.952 Y206.457 E368.5295
G1 X202.74 Y206.161 E369.74046
G1 X202.66 Y205.806 E370.95081
G1 X202.268 Y205.501 E372.60276
G1 X202.113 Y205.156 E373.86073
G1 X202.101 Y204.799 E375.04878
G1 X201.788 Y204.429 E376.66068
G1 X201.703 Y204.069 E377.89097
G1 X201.759 Y203.741 E378.99768
G1 X201.52 Y203.292 E380.68945
G1 X201.506 Y202.909 E381.96417
G1 X201.643 Y202.548 E383.24841
G1 X201.486 Y202.079 E384.89339
G1 X201.544 Y201.722 E386.09635
G1 X201.755 Y201.388 E387.41034
G1 X201.687 Y200.906 E389.02936
G1 X201.815 Y200.568 E390.23146
G1 X202.024 Y200.346 E391.24557
G1 X202.082 Y199.844 E392.92633
G1 X202.289 Y199.506 E394.2446
G1 X202.595 Y199.289 E395.4923
G1 X202.726 Y198.819 E397.11511
G1 X202.98 Y198.548 E398.35048
G1 X203.324 Y198.393 E399.60541
G1 X203.543 Y197.952 E401.24308
G0 X203.688 Y203.732
G1 X203.978 Y204.074 E402.73447
G1 X203.99 Y204.433 E403.92918
G1 X204.363 Y204.723 E405.50062
G1 X204.442 Y205.073 E406.69401
G1 X204.846 Y205.275 E408.19633
G1 X205.007 Y205.632 E409.49888
G1 X205.447 Y205.754 E411.01753
G1 X205.695 Y206.103 E412.44154
G1 X206.156 Y206.156 E413.98493
G1 X203.694 Y203.694 E425.56542
G1 X203.74 Y203.421 E426.48622
G1 X203.508 Y202.986 E428.12595
G1 X203.66 Y202.588 E429.54296
G1 X203.515 Y202.157 E431.05542
G1 X203.732 Y201.813 E432.40819
G1 X203.669 Y201.368 E433.90303
G1 X203.838 Y201.189 E434.72181
G1 X203.856 Y201.028 E435.26063
G1 X208.956 Y206.127 E459.24711
G1 X209.082 Y206.021 E459.79477
G1 X209.433 Y206.009 E460.96288
G1 X209.722 Y205.637 E462.52966
G1 X210.074 Y205.557 E463.73027
G1 X210.275 Y205.152 E465.23408
G1 X210.632 Y204.992 E466.53526
G1 X210.636 Y204.979 E466.5805
G1 X205.067 Y199.41 E492.77537
G1 X205.275 Y199.362 E493.48536
G1 X205.565 Y198.99 E495.05418
G1 X205.916 Y198.978 E496.2223
G1 X206.263 Y198.684 E497.73498
G1 X206.579 Y198.738 E498.80123
G1 X207 Y198.515 E500.38579
G1 X207.011 Y198.508 E500.42916
G1 X207.41 Y198.66 E501.84927
G1 X207.842 Y198.515 E503.36488
G1 X208.185 Y198.733 E504.71663
G1 X208.63 Y198.67 E506.21146
G1 X208.809 Y198.839 E507.03024
G1 X209.302 Y198.895 E508.68051
G1 X209.551 Y199.245 E510.10915
G1 X209.992 Y199.367 E511.63102
G1 X210.152 Y199.723 E512.92917
G1 X210.555 Y199.925 E514.42851
G1 X210.636 Y200.275 E515.62338
G1 X211.009 Y200.565 E517.19483
G1 X211.021 Y200.916 E518.36294
G1 X211.314 Y201.263 E519.87347
G1 X211.26 Y201.579 E520.93972
G1 X211.489 Y202.011 E522.56595
G1 X211.338 Y202.412 E523.99111
G1 X211.484 Y202.846 E525.51409
G1 X211.425 Y202.94
G1 X207 Y198.515 E546.32793
;MESH:NONMESH
G0 F600 X207 Y198.515 Z3.5
G0 F900 X204.701 Y199.696
;TIME_ELAPSED:31.641303
;LAYER:1
;TYPE:WALL-INNER
;MESH:Jeff_Suina1.stl
G1 F1200 X205.172 Y199.314 E547.08432
G1 X205.296 Y199.206 E547.28941
G1 X205.85 Y198.915 E548.06992
G1 X205.977 Y198.842 E548.25262
G1 X206.571 Y198.667 E549.02497
G1 X206.695 Y198.625 E549.18826
G1 X207.33 Y198.56 E549.98441
G1 X207.467 Y198.543 E550.15659
G1 X208.116 Y198.604 E550.96963
G1 X208.491 Y198.687 E551.44867
G1 X208.98 Y198.825 E552.0824
G1 X209.166 Y198.932 E552.35004
G1 X209.656 Y199.179 E553.03445
G1 X210.175 Y199.599 E553.86718
G1 X210.301 Y199.697 E554.06627
G1 X210.695 Y200.181 E554.84468
G1 X210.768 Y200.265 E554.98348
G1 X211.093 Y200.865 E555.83457
G1 X211.158 Y200.979 E555.99824
G1 X211.334 Y201.572 E556.76975
G1 X211.377 Y201.7 E556.93817
G1 X211.44 Y202.329 E557.72662
G1 X211.458 Y202.468 E557.90144
G1 X211.397 Y203.117 E558.71447
G1 X211.312 Y203.495 E559.19771
G1 X211.174 Y203.982 E559.82904
G1 X211.068 Y204.168 E560.09605
G1 X210.824 Y204.651 E560.77098
G1 X210.346 Y205.252 E561.72876
G1 X209.82 Y205.692 E562.58409
G1 X209.7 Y205.796 E562.78215
G1 X209.15 Y206.085 E563.55708
G1 X209.022 Y206.158 E563.74086
G1 X208.43 Y206.333 E564.51082
G1 X208.306 Y206.375 E564.67411
G1 X207.67 Y206.44 E565.4715
G1 X207.533 Y206.457 E565.64368
G1 X206.884 Y206.396 E566.45672
G1 X206.51 Y206.313 E566.93454
G1 X206.016 Y206.173 E567.57495
G1 X205.832 Y206.068 E567.83918
G1 X205.351 Y205.825 E568.51133
G1 X204.841 Y205.412 E569.32984
G1 X204.733 Y205.328 E569.50049
G1 X204.309 Y204.819 E570.32675
G1 X204.203 Y204.698 E570.52739
G1 X203.916 Y204.15 E571.29895
G1 X203.842 Y204.021 E571.48444
G1 X203.667 Y203.428 E572.2556
G1 X203.623 Y203.296 E572.42914
G1 X203.561 Y202.675 E573.20754
G1 X203.543 Y202.532 E573.3873
G1 X203.604 Y201.878 E574.20655
G1 X203.687 Y201.508 E574.6795
G1 X203.827 Y201.014 E575.31991
G1 X203.931 Y200.831 E575.58244
G1 X204.174 Y200.353 E576.25124
G1 X204.594 Y199.835 E577.08301
G1 X204.701 Y199.696 E577.30179
G0 F900 X203.023 Y198.596
G1 F1200 X203.258 Y198.29 E577.78302
G1 X203.887 Y197.781 E578.79223
G1 X204.16 Y197.544 E579.24314
G1 X204.888 Y197.161 E580.26914
G1 X205.187 Y196.99 E580.69875
G1 X205.969 Y196.759 E581.71576
G1 X206.27 Y196.658 E582.11176
G1 X207.103 Y196.573 E583.15612
G1 X207.434 Y196.531 E583.57227
G1 X208.278 Y196.61 E584.62955
G1 X208.597 Y196.632 E585.02837
G1 X209.048 Y196.766 E585.61519
G1 X209.76 Y196.967 E586.53794
G1 X210.116 Y197.171 E587.0497
G1 X210.748 Y197.491 E587.93325
G1 X211.416 Y198.03 E589.00382
G1 X211.709 Y198.257 E589.46611
G1 X212.227 Y198.895 E590.49111
G1 X212.422 Y199.12 E590.86247
G1 X212.839 Y199.889 E591.95355
G1 X213.009 Y200.184 E592.37821
