;FLAVOR:Marlin
;TIME:4668
;Filament used: 172.807m
;Layer height: 1.5
;MINX:107.289
;MINY:102.285
;MINZ:2
;MAXX:307.709
;MAXY:302.704
;MAXZ:203.846
;Generated with Cura_SteamEngine 4.13.1
M105
M109 S0
M82 ;absolute extrusion mode
G28 ;Home
G1 X207.5 Y202.5 Z20 F10000 ;Move X and Y to center, Z to 20mm high
G92 E0
G1 E3000 F40000 ; Prine Extruder
G92 E0
G92 E0
G92 E0
;LAYER_COUNT:135
;LAYER:0
M107
;MESH:Jeff_Suina1.stl
G0 F900 X198.769 Y195.331 Z2
;TYPE:WALL-INNER
G1 F1200 X199.169 Y194.984 E0.88062
G1 X199.963 Y194.949 E2.20233
G1 X199.994 Y194.159 E3.51712
G1 X200.331 Y193.769 E4.37428
G1 X200.797 Y193.504 E5.26579
G1 X201.589 Y193.626 E6.59842
G1 X201.775 Y192.843 E7.93679
G1 X202.172 Y192.536 E8.77138
G1 X202.666 Y192.371 E9.63752
G1 X203.418 Y192.647 E10.96967
G1 X203.755 Y191.92 E12.30225
G1 X204.222 Y191.688 E13.16943
G1 X204.737 Y191.621 E14.0331
G1 X205.415 Y192.035 E15.3542
G1 X205.881 Y191.398 E16.66674
G1 X206.391 Y191.258 E17.54625
G1 X206.923 Y191.296 E18.43322
G1 X207.512 Y191.837 E19.76321
G1 X208.095 Y191.294 E21.08814
G1 X208.608 Y191.258 E21.94336
G1 X209.138 Y191.404 E22.85758
G1 X209.609 Y192.04 E24.17371
G1 X210.281 Y191.624 E25.48805
G1 X210.777 Y191.688 E26.31974
G1 X211.26 Y191.928 E27.21667
G1 X211.599 Y192.649 E28.54162
G1 X212.343 Y192.373 E29.86129
G1 X212.826 Y192.536 E30.70903
G1 X213.239 Y192.854 E31.57586
G1 X213.428 Y193.634 E32.91054
G1 X214.213 Y193.51 E34.23219
G1 X214.669 Y193.769 E35.1043
G1 X215.016 Y194.169 E35.98493
G1 X215.051 Y194.963 E37.30663
G1 X215.841 Y194.994 E38.62142
G1 X216.231 Y195.331 E39.47859
G1 X216.496 Y195.798 E40.37154
G1 X216.375 Y196.587 E41.69899
G1 X217.155 Y196.772 E43.03212
G1 X217.462 Y197.172 E43.87066
G1 X217.628 Y197.668 E44.74048
G1 X217.353 Y198.419 E46.0705
G1 X218.08 Y198.755 E47.40238
G1 X218.312 Y199.222 E48.26956
G1 X218.379 Y199.737 E49.13323
G1 X217.965 Y200.415 E50.45433
G1 X218.606 Y200.884 E51.77518
G1 X218.743 Y201.392 E52.65017
G1 X218.706 Y201.921 E53.53205
G1 X218.163 Y202.512 E54.86674
G1 X218.71 Y203.1 E56.20229
G1 X218.744 Y203.609 E57.05064
G1 X218.6 Y204.136 E57.95918
G1 X217.96 Y204.609 E59.28263
G1 X218.376 Y205.281 E60.59697
G1 X218.312 Y205.777 E61.42866
G1 X218.072 Y206.26 E62.32559
G1 X217.352 Y206.599 E63.64904
G1 X217.627 Y207.342 E64.96657
G1 X217.463 Y207.827 E65.81799
G1 X217.143 Y208.241 E66.68817
G1 X216.366 Y208.43 E68.018
G1 X216.49 Y209.213 E69.33636
G1 X216.231 Y209.669 E70.20848
G1 X215.831 Y210.016 E71.0891
G1 X215.037 Y210.051 E72.41081
G1 X215.006 Y210.841 E73.7256
G1 X214.669 Y211.231 E74.58276
G1 X214.202 Y211.496 E75.47571
G1 X213.413 Y211.375 E76.80316
G1 X213.228 Y212.155 E78.13629
G1 X212.828 Y212.462 E78.97483
G1 X212.332 Y212.628 E79.84465
G1 X211.581 Y212.353 E81.17467
G1 X211.245 Y213.08 E82.50656
G1 X210.778 Y213.312 E83.37374
G1 X210.263 Y213.379 E84.2374
G1 X209.585 Y212.965 E85.5585
G1 X209.116 Y213.606 E86.87936
G1 X208.611 Y213.743 E87.74953
G1 X208.079 Y213.706 E88.63639
G1 X207.488 Y213.163 E89.97108
G1 X206.9 Y213.71 E91.30662
G1 X206.393 Y213.743 E92.15155
G1 X205.867 Y213.601 E93.05761
G1 X205.391 Y212.96 E94.38537
G1 X204.719 Y213.376 E95.69971
G1 X204.223 Y213.312 E96.5314
G1 X203.74 Y213.072 E97.42833
G1 X203.401 Y212.352 E98.75177
G1 X202.658 Y212.627 E100.0693
G1 X202.173 Y212.463 E100.92073
G1 X201.759 Y212.143 E101.7909
G1 X201.57 Y211.366 E103.12074
G1 X200.787 Y211.49 E104.4391
G1 X200.331 Y211.231 E105.31121
G1 X199.984 Y210.831 E106.19184
G1 X199.949 Y210.037 E107.51355
G1 X199.159 Y210.006 E108.82833
G1 X198.769 Y209.669 E109.6855
G1 X198.504 Y209.203 E110.577
G1 X198.626 Y208.411 E111.90964
G1 X197.843 Y208.225 E113.24801
G1 X197.536 Y207.828 E114.08259
G1 X197.371 Y207.334 E114.94873
G1 X197.647 Y206.582 E116.28088
G1 X196.92 Y206.245 E117.61347
G1 X196.688 Y205.778 E118.48065
G1 X196.621 Y205.263 E119.34431
G1 X197.035 Y204.585 E120.66541
G1 X196.398 Y204.119 E121.97795
G1 X196.258 Y203.609 E122.85746
G1 X196.296 Y203.077 E123.74443
G1 X196.837 Y202.488 E125.07443
G1 X196.294 Y201.905 E126.39935
G1 X196.258 Y201.39 E127.25789
G1 X196.403 Y200.863 E128.16686
G1 X197.041 Y200.391 E129.48665
G1 X196.624 Y199.718 E130.80329
G1 X196.688 Y199.223 E131.63333
G1 X196.928 Y198.74 E132.53025
G1 X197.649 Y198.401 E133.8552
G1 X197.373 Y197.657 E135.17487
G1 X197.536 Y197.174 E136.02261
G1 X197.854 Y196.761 E136.88944
G1 X198.634 Y196.572 E138.22412
G1 X198.51 Y195.787 E139.54577
G1 X198.769 Y195.331 E140.41788
G0 F900 X198.376 Y195.01
;TYPE:WALL-OUTER
G1 X198.951 Y194.512 E142.94791
G1 X198.954 Y194.493 E143.01188
G1 X199.481 Y194.47 E144.76636
G1 X199.501 Y193.954 E146.48387
G1 X199.511 Y193.952 E146.51779
G1 X200.01 Y193.376 E149.0525
G1 X200.674 Y192.999 E151.59212
G1 X200.681 Y192.981 E151.65635
G1 X201.209 Y193.062 E153.43303
G1 X201.329 Y192.556 E155.16267
G1 X201.934 Y192.088 E157.70669
G1 X202.661 Y191.845 E160.2562
G1 X202.665 Y191.838 E160.28302
G1 X203.158 Y192.019 E162.02976
G1 X203.378 Y191.543 E163.77386
G1 X203.387 Y191.545 E163.80452
G1 X204.074 Y191.203 E166.35697
G1 X204.833 Y191.105 E168.90237
G1 X204.839 Y191.098 E168.93304
G1 X205.283 Y191.369 E170.66313
G1 X205.59 Y190.949 E172.39345
G1 X205.605 Y190.955 E172.44719
G1 X206.342 Y190.753 E174.98886
G1 X207.104 Y190.807 E177.52964
G1 X207.119 Y190.797 E177.5896
G1 X207.51 Y191.156 E179.35509
G1 X207.89 Y190.803 E181.08017
G1 X207.896 Y190.807 E181.10415
G1 X208.658 Y190.753 E183.64493
G1 X209.392 Y190.955 E186.17698
G1 X209.419 Y190.943 E186.27526
G1 X209.737 Y191.373 E188.05405
G1 X210.17 Y191.105 E189.74775
G1 X210.925 Y191.203 E192.27995
G1 X211.612 Y191.545 E194.8324
G1 X211.631 Y191.541 E194.89698
G1 X211.856 Y192.02 E196.65715
G1 X212.335 Y191.842 E198.35676
G1 X213.066 Y192.089 E200.92311
G1 X213.671 Y192.556 E203.4651
G1 X213.681 Y192.556 E203.49836
G1 X213.805 Y193.068 E205.25051
G1 X214.32 Y192.987 E206.98446
G1 X214.324 Y192.998 E207.02339
G1 X214.99 Y193.376 E209.57043
G1 X215.488 Y193.951 E212.10045
G1 X215.507 Y193.954 E212.16443
G1 X215.53 Y194.481 E213.91891
G1 X216.046 Y194.501 E215.63642
G1 X216.048 Y194.511 E215.67034
G1 X216.624 Y195.01 E218.20505
G1 X217.001 Y195.674 E220.74466
G1 X217.02 Y195.681 E220.81201
G1 X216.939 Y196.207 E222.58212
G1 X217.442 Y196.326 E224.30128
G1 X217.91 Y196.934 E226.8532
G1 X218.154 Y197.662 E229.40692
G1 X218.161 Y197.667 E229.43553
G1 X217.981 Y198.158 E231.17488
G1 X218.457 Y198.378 E232.91898
G1 X218.455 Y198.387 E232.94965
G1 X218.797 Y199.074 E235.5021
G1 X218.895 Y199.833 E238.0475
G1 X218.902 Y199.839 E238.07816
G1 X218.631 Y200.283 E239.80825
G1 X219.052 Y200.591 E241.54322
G1 X219.047 Y200.601 E241.58041
G1 X219.248 Y201.342 E244.13405
G1 X219.195 Y202.107 E246.68455
G1 X219.203 Y202.119 E246.73252
G1 X218.844 Y202.51 E248.49801
G1 X219.197 Y202.89 E250.22308
G1 X219.248 Y203.658 E252.78308
G1 X219.047 Y204.396 E255.32709
G1 X219.057 Y204.419 E255.41051
G1 X218.627 Y204.737 E257.1893
G1 X218.895 Y205.17 E258.883
G1 X218.797 Y205.925 E261.41521
G1 X218.455 Y206.612 E263.96765
G1 X218.459 Y206.631 E264.03223
G1 X217.98 Y206.856 E265.7924
G1 X218.157 Y207.334 E267.48773
G1 X217.91 Y208.067 E270.06039
G1 X217.443 Y208.671 E272.59975
G1 X217.443 Y208.683 E272.63966
G1 X216.932 Y208.807 E274.38858
G1 X217.013 Y209.32 E276.11596
G1 X217.002 Y209.324 E276.15489
G1 X216.624 Y209.99 E278.70193
G1 X216.049 Y210.488 E281.23195
G1 X216.046 Y210.507 E281.29593
G1 X215.519 Y210.53 E283.0504
G1 X215.499 Y211.046 E284.76792
G1 X215.489 Y211.048 E284.80183
G1 X214.99 Y211.624 E287.33655
G1 X214.326 Y212.001 E289.87616
G1 X214.319 Y212.02 E289.94351
G1 X213.793 Y211.939 E291.71361
G1 X213.674 Y212.442 E293.43278
G1 X213.066 Y212.91 E295.9847
G1 X212.338 Y213.154 E298.53842
G1 X212.333 Y213.161 E298.56703
G1 X211.842 Y212.981 E300.30638
G1 X211.622 Y213.457 E302.05048
G1 X211.613 Y213.455 E302.08114
G1 X210.926 Y213.797 E304.63359
G1 X210.167 Y213.895 E307.17899
G1 X210.161 Y213.902 E307.20966
G1 X209.717 Y213.631 E308.93975
G1 X209.409 Y214.052 E310.67472
G1 X209.397 Y214.047 E310.71796
G1 X208.658 Y214.248 E313.26518
G1 X207.893 Y214.195 E315.81568
G1 X207.881 Y214.203 E315.86365
G1 X207.49 Y213.844 E317.62914
G1 X207.11 Y214.197 E319.35421
G1 X206.342 Y214.248 E321.91421
G1 X205.601 Y214.047 E324.46785
G1 X205.581 Y214.056 E324.54079
G1 X205.263 Y213.627 E326.31691
G1 X204.83 Y213.895 E328.01061
G1 X204.075 Y213.797 E330.54282
G1 X203.388 Y213.455 E333.09527
G1 X203.369 Y213.459 E333.15985
G1 X203.144 Y212.98 E334.92002
G1 X202.666 Y213.157 E336.61535
G1 X201.933 Y212.91 E339.18801
G1 X201.329 Y212.443 E341.72736
G1 X201.317 Y212.443 E341.76727
G1 X201.193 Y211.932 E343.51619
G1 X200.68 Y212.013 E345.24357
G1 X200.676 Y212.002 E345.2825
G1 X200.01 Y211.624 E347.82954
G1 X199.512 Y211.049 E350.35956
G1 X199.493 Y211.046 E350.42354
G1 X199.47 Y210.519 E352.17802
G1 X198.954 Y210.499 E353.89553
G1 X198.952 Y210.489 E353.92945
G1 X198.376 Y209.99 E356.46416
G1 X197.999 Y209.326 E359.00377
G1 X197.981 Y209.319 E359.06801
G1 X198.062 Y208.791 E360.84469
G1 X197.556 Y208.671 E362.57433
G1 X197.088 Y208.066 E365.11835
G1 X196.845 Y207.339 E367.66786
G1 X196.838 Y207.335 E367.69468
G1 X197.019 Y206.842 E369.44142
G1 X196.543 Y206.622 E371.18552
G1 X196.545 Y206.613 E371.21618
G1 X196.203 Y205.926 E373.76863
G1 X196.105 Y205.167 E376.31403
G1 X196.098 Y205.161 E376.3447
G1 X196.369 Y204.717 E378.07479
G1 X195.948 Y204.409 E379.80976
G1 X195.955 Y204.393 E379.86785
G1 X195.753 Y203.658 E382.40311
G1 X195.807 Y202.896 E384.94389
G1 X195.797 Y202.881 E385.00385
G1 X196.156 Y202.49 E386.76934
G1 X195.803 Y202.11 E388.49441
G1 X195.807 Y202.104 E388.51839
G1 X195.753 Y201.342 E391.05917
G1 X195.955 Y200.605 E393.60085
G1 X195.944 Y200.58 E393.69169
G1 X196.373 Y200.263 E395.46583
G1 X196.105 Y199.83 E397.15953
G1 X196.203 Y199.075 E399.69174
G1 X196.545 Y198.388 E402.24419
G1 X196.541 Y198.369 E402.30877
G1 X197.02 Y198.144 E404.06893
G1 X196.842 Y197.665 E405.76854
G1 X197.089 Y196.934 E408.3349
G1 X197.556 Y196.329 E410.87688
G1 X197.556 Y196.319 E410.91014
G1 X198.068 Y196.195 E412.66229
G1 X197.987 Y195.68 E414.39625
G1 X197.998 Y195.676 E414.43518
G1 X198.376 Y195.01 E416.98222
G0 X198.846 Y195.394
G0 X200.702 Y196.909
;TYPE:SKIN
G1 X201.88 Y196.857 E420.90408
G1 X201.925 Y195.691 E424.7851
G1 X203.101 Y195.873 E428.74305
G1 X203.368 Y194.748 E432.58876
G1 X204.453 Y195.146 E436.43261
G1 X204.946 Y194.081 E440.33593
G1 X205.94 Y194.688 E444.20968
G1 X206.637 Y193.735 E448.13665
G1 X207.521 Y194.548 E452.13123
G1 X208.39 Y193.739 E456.08015
G1 X209.1 Y194.697 E460.04615
G1 X210.078 Y194.09 E463.87459
G1 X210.576 Y195.15 E467.76986
G1 X211.651 Y194.752 E471.58251
G1 X211.926 Y195.886 E475.46353
G1 X213.091 Y195.702 E479.38636
G1 X213.143 Y196.88 E483.30822
G1 X214.31 Y196.925 E487.19257
G1 X214.13 Y198.099 E491.14294
G1 X215.253 Y198.366 E494.98217
G1 X214.854 Y199.456 E498.84278
G1 X215.918 Y199.948 E502.74169
G1 X215.312 Y200.94 E506.60802
G1 X216.264 Y201.637 E510.53232
G1 X215.453 Y202.52 E514.51994
G1 X216.262 Y203.39 E518.4713
G1 X215.303 Y204.098 E522.43602
G1 X215.91 Y205.078 E526.2701
G1 X214.852 Y205.577 E530.16078
G1 X215.251 Y206.653 E533.9777
G1 X214.114 Y206.93 E537.86998
G1 X214.297 Y208.091 E541.77916
G1 X213.12 Y208.143 E545.6977
G1 X213.075 Y209.31 E549.58204
G1 X211.901 Y209.13 E553.53241
G1 X211.634 Y210.253 E557.37164
G1 X210.544 Y209.854 E561.23225
G1 X210.052 Y210.918 E565.13116
G1 X209.06 Y210.312 E568.9975
G1 X208.363 Y211.265 E572.92447
G1 X207.48 Y210.453 E576.91435
G1 X206.609 Y211.263 E580.87041
G1 X205.898 Y210.305 E584.83839
G1 X204.922 Y210.91 E588.65766
G1 X204.423 Y209.852 E592.54834
G1 X203.347 Y210.251 E596.36526
G1 X203.07 Y209.114 E600.25754
G1 X201.909 Y209.297 E604.16672
G1 X201.857 Y208.12 E608.08526
G1 X200.691 Y208.075 E611.96628
G1 X200.873 Y206.899 E615.92423
G1 X199.748 Y206.632 E619.76994
G1 X200.146 Y205.547 E623.61379
G1 X199.081 Y205.054 E627.51711
G1 X199.688 Y204.06 E631.39086
G1 X198.735 Y203.363 E635.31783
G1 X199.548 Y202.479 E639.31241
G1 X198.739 Y201.61 E643.26133
G1 X199.697 Y200.901 E647.22535
G1 X199.091 Y199.922 E651.05486
G1 X200.15 Y199.424 E654.94713
G1 X199.752 Y198.349 E658.75977
G1 X200.886 Y198.074 E662.64079
G1 X200.702 Y196.909 E666.56363
G0 X203.712 Y207.088
G1 X204.185 Y207.013 E668.15649
G1 X203.687 Y206.516 E670.49658
G1 X203.677 Y206.287 E671.25896
G1 X202.894 Y206.257
G1 X203.449 Y206.277 E673.1061
G1 X202.965 Y205.794 E675.38033
G1 X203.018 Y205.454 E676.52483
G1 X202.502 Y205.331
G1 X202.269 Y205.275 E677.32186
G0 X204.502 Y206.964
G1 X204.62 Y207.448 E678.97881
G1 X204.688 Y207.726
G1 X204.84 Y207.668 E679.51992
G1 X205.398 Y207.463 E681.49711
G1 X205.732 Y208.171 E684.10081
G1 X206.382 Y207.768 E686.64453
G1 X206.869 Y208.425 E689.36458
G1 X207.472 Y207.864 E692.10391
G1 X208.083 Y208.427 E694.86729
G1 X208.229 Y208.229 E695.68551
G1 X201.747 Y201.747 E726.17485
G1 X202.233 Y201.387 E728.18646
G1 X201.828 Y200.734 E730.74216
G1 X202.537 Y200.4 E733.34887
G1 X202.275 Y199.693 E735.85663
G1 X202.474 Y199.645 E736.53749
G1 X210.333 Y207.504 E773.50382
G1 X210.456 Y206.987 E775.27136
G1 X211.257 Y207.109 E777.96622
G1 X211.287 Y206.321 E780.58902
G1 X211.949 Y206.292 E782.79295
G1 X203.733 Y198.076 E821.4385
G1 X203.741 Y197.893 E822.04774
G1 X204.544 Y198.018 E824.75069
G1 X204.722 Y197.269 E827.31126
G1 X205.439 Y197.531 E829.85024
G1 X205.622 Y197.137 E831.29514
G1 X212.887 Y204.401 E865.46512
G1 X213.173 Y204.268 E866.51419
G1 X212.765 Y203.609 E869.0921
G1 X213.42 Y203.126 E871.7989
G1 X212.864 Y202.528 E874.51473
G1 X213.332 Y202.018 E876.81696
G1 X208.005 Y196.691 E901.87353
G1 X208.128 Y196.577 E902.43132
G1 X208.614 Y197.234 E905.1494
G1 X209.265 Y196.83 E907.69769
G1 X209.598 Y197.538 E910.29997
G1 X210.306 Y197.275 E912.81201
G1 X210.49 Y198.035 E915.41281
G1 X211.286 Y197.91 E918.09276
G1 X211.32 Y198.711 E920.7593
G1 X212.109 Y198.742 E923.38555
G1 X211.986 Y199.542 E926.07762
G1 X212.733 Y199.72 E928.63172
G1 X212.467 Y200.446 E931.20338
G1 X213.184 Y200.778 E933.83138
G1 X212.778 Y201.44 E936.4143
G1 X213.426 Y201.915 E939.08658
;MESH:NONMESH
G0 F600 X213.426 Y201.915 Z3.5
G0 F900 X200.079 Y194.212
G0 X199.826 Y193.992
;TIME_ELAPSED:41.385327
;LAYER:1
;TYPE:WALL-INNER
;MESH:Jeff_Suina1.stl
G1 F1200 X201.617 Y192.671 E941.86231
G1 X201.623 Y192.662 E941.8758
G1 X203.668 Y191.701 E944.69403
G1 X205.821 Y191.166 E947.46103
G1 X205.825 Y191.163 E947.46727
G1 X208.083 Y191.055 E950.28679
G1 X210.304 Y191.389 E953.08809
G1 X212.392 Y192.14 E955.85569
G1 X212.401 Y192.14 E955.86692
G1 X214.347 Y193.312 E958.70027
G1 X216.008 Y194.826 E961.50344
G1 X217.329 Y196.617 E964.27917
G1 X217.338 Y196.623 E964.29266
G1 X218.299 Y198.668 E967.11089
G1 X218.834 Y200.821 E969.8779
G1 X218.837 Y200.825 E969.88413
G1 X218.944 Y203.084 E972.70484
G1 X218.612 Y205.301 E975.50084
G1 X217.86 Y207.392 E978.27238
G1 X217.86 Y207.401 E978.28361
G1 X216.688 Y209.347 E981.11696
G1 X215.173 Y211.009 E983.92189
G1 X213.388 Y212.326 E986.68864
G1 X213.383 Y212.334 E986.7004
G1 X211.336 Y213.293 E989.51983
G1 X211.33 Y213.299 E989.53042
G1 X209.174 Y213.834 E992.30105
G1 X209.169 Y213.838 E992.30904
G1 X206.929 Y213.943 E995.10596
G1 X206.922 Y213.946 E995.11546
G1 X204.701 Y213.613 E997.91657
G1 X202.608 Y212.86 E1000.69088
G1 X202.6 Y212.86 E1000.70086
G1 X200.652 Y211.686 E1003.53764
G1 X198.993 Y210.173 E1006.33812
G1 X197.672 Y208.386 E1009.10984
G1 X197.663 Y208.38 E1009.12333
G1 X196.702 Y206.334 E1011.94269
G1 X196.166 Y204.174 E1014.71847
G1 X196.162 Y204.169 E1014.72646
G1 X196.057 Y201.926 E1017.52711
G1 X196.055 Y201.921 E1017.53383
G1 X196.389 Y199.701 E1020.3339
G1 X196.388 Y199.696 E1020.34026
G1 X197.14 Y197.613 E1023.10241
G1 X197.14 Y197.598 E1023.12112
G1 X198.31 Y195.656 E1025.94892
G1 X199.826 Y193.992 E1028.75653
G0 F900 X198.1 Y192.918
G1 F1200 X198.177 Y192.723 E1029.01802
G1 X200.138 Y191.277 E1032.05693
G1 X200.257 Y191.094 E1032.32919
G1 X202.493 Y190.043 E1035.41077
G1 X202.634 Y189.897 E1035.66393
G1 X204.988 Y189.312 E1038.68927
G1 X205.163 Y189.192 E1038.95393
