;FLAVOR:Marlin
;TIME:3543
;Filament used: 88.7192m
;Layer height: 1.5
;MINX:107.289
;MINY:102.285
;MINZ:2
;MAXX:307.709
;MAXY:302.704
;MAXZ:203.846
;Generated with Cura_SteamEngine 4.13.1
M105
M109 S0
M82 ;absolute extrusion mode
G28 ;Home
G1 X207.5 Y202.5 Z20 F10000 ;Move X and Y to center, Z to 20mm high
G92 E0
G1 E3000 F40000 ; Prine Extruder
G92 E0
G92 E0
G92 E0
;LAYER_COUNT:135
;LAYER:0
M107
;MESH:Jeff_Suina1.stl
G0 F900 X198.769 Y195.331 Z2
;TYPE:WALL-INNER
G1 F1200 X199.169 Y194.984 E0.88062
G1 X199.963 Y194.949 E2.20233
G1 X199.994 Y194.159 E3.51712
G1 X200.331 Y193.769 E4.37428
G1 X200.797 Y193.504 E5.26579
G1 X201.589 Y193.626 E6.59842
G1 X201.775 Y192.843 E7.93679
G1 X202.172 Y192.536 E8.77138
G1 X202.666 Y192.371 E9.63752
G1 X203.418 Y192.647 E10.96967
G1 X203.755 Y191.92 E12.30225
G1 X204.222 Y191.688 E13.16943
G1 X204.737 Y191.621 E14.0331
G1 X205.415 Y192.035 E15.3542
G1 X205.881 Y191.398 E16.66674
G1 X206.391 Y191.258 E17.54625
G1 X206.923 Y191.296 E18.43322
G1 X207.512 Y191.837 E19.76321
G1 X208.095 Y191.294 E21.08814
G1 X208.608 Y191.258 E21.94336
G1 X209.138 Y191.404 E22.85758
G1 X209.609 Y192.04 E24.17371
G1 X210.281 Y191.624 E25.48805
G1 X210.777 Y191.688 E26.31974
G1 X211.26 Y191.928 E27.21667
G1 X211.599 Y192.649 E28.54162
G1 X212.343 Y192.373 E29.86129
G1 X212.826 Y192.536 E30.70903
G1 X213.239 Y192.854 E31.57586
G1 X213.428 Y193.634 E32.91054
G1 X214.213 Y193.51 E34.23219
G1 X214.669 Y193.769 E35.1043
G1 X215.016 Y194.169 E35.98493
G1 X215.051 Y194.963 E37.30663
G1 X215.841 Y194.994 E38.62142
G1 X216.231 Y195.331 E39.47859
G1 X216.496 Y195.798 E40.37154
G1 X216.375 Y196.587 E41.69899
G1 X217.155 Y196.772 E43.03212
G1 X217.462 Y197.172 E43.87066
G1 X217.628 Y197.668 E44.74048
G1 X217.353 Y198.419 E46.0705
G1 X218.08 Y198.755 E47.40238
G1 X218.312 Y199.222 E48.26956
G1 X218.379 Y199.737 E49.13323
G1 X217.965 Y200.415 E50.45433
G1 X218.606 Y200.884 E51.77518
G1 X218.743 Y201.392 E52.65017
G1 X218.706 Y201.921 E53.53205
G1 X218.163 Y202.512 E54.86674
G1 X218.71 Y203.1 E56.20229
G1 X218.744 Y203.609 E57.05064
G1 X218.6 Y204.136 E57.95918
G1 X217.96 Y204.609 E59.28263
G1 X218.376 Y205.281 E60.59697
G1 X218.312 Y205.777 E61.42866
G1 X218.072 Y206.26 E62.32559
G1 X217.352 Y206.599 E63.64904
G1 X217.627 Y207.342 E64.96657
G1 X217.463 Y207.827 E65.81799
G1 X217.143 Y208.241 E66.68817
G1 X216.366 Y208.43 E68.018
G1 X216.49 Y209.213 E69.33636
G1 X216.231 Y209.669 E70.20848
G1 X215.831 Y210.016 E71.0891
G1 X215.037 Y210.051 E72.41081
G1 X215.006 Y210.841 E73.7256
G1 X214.669 Y211.231 E74.58276
G1 X214.202 Y211.496 E75.47571
G1 X213.413 Y211.375 E76.80316
G1 X213.228 Y212.155 E78.13629
G1 X212.828 Y212.462 E78.97483
G1 X212.332 Y212.628 E79.84465
G1 X211.581 Y212.353 E81.17467
G1 X211.245 Y213.08 E82.50656
G1 X210.778 Y213.312 E83.37374
G1 X210.263 Y213.379 E84.2374
G1 X209.585 Y212.965 E85.5585
G1 X209.116 Y213.606 E86.87936
G1 X208.611 Y213.743 E87.74953
G1 X208.079 Y213.706 E88.63639
G1 X207.488 Y213.163 E89.97108
G1 X206.9 Y213.71 E91.30662
G1 X206.393 Y213.743 E92.15155
G1 X205.867 Y213.601 E93.05761
G1 X205.391 Y212.96 E94.38537
G1 X204.719 Y213.376 E95.69971
G1 X204.223 Y213.312 E96.5314
G1 X203.74 Y213.072 E97.42833
G1 X203.401 Y212.352 E98.75177
G1 X202.658 Y212.627 E100.0693
G1 X202.173 Y212.463 E100.92073
G1 X201.759 Y212.143 E101.7909
G1 X201.57 Y211.366 E103.12074
G1 X200.787 Y211.49 E104.4391
G1 X200.331 Y211.231 E105.31121
G1 X199.984 Y210.831 E106.19184
G1 X199.949 Y210.037 E107.51355
G1 X199.159 Y210.006 E108.82833
G1 X198.769 Y209.669 E109.6855
G1 X198.504 Y209.203 E110.577
G1 X198.626 Y208.411 E111.90964
G1 X197.843 Y208.225 E113.24801
G1 X197.536 Y207.828 E114.08259
G1 X197.371 Y207.334 E114.94873
G1 X197.647 Y206.582 E116.28088
G1 X196.92 Y206.245 E117.61347
G1 X196.688 Y205.778 E118.48065
G1 X196.621 Y205.263 E119.34431
G1 X197.035 Y204.585 E120.66541
G1 X196.398 Y204.119 E121.97795
G1 X196.258 Y203.609 E122.85746
G1 X196.296 Y203.077 E123.74443
G1 X196.837 Y202.488 E125.07443
G1 X196.294 Y201.905 E126.39935
G1 X196.258 Y201.39 E127.25789
G1 X196.403 Y200.863 E128.16686
G1 X197.041 Y200.391 E129.48665
G1 X196.624 Y199.718 E130.80329
G1 X196.688 Y199.223 E131.63333
G1 X196.928 Y198.74 E132.53025
G1 X197.649 Y198.401 E133.8552
G1 X197.373 Y197.657 E135.17487
G1 X197.536 Y197.174 E136.02261
G1 X197.854 Y196.761 E136.88944
G1 X198.634 Y196.572 E138.22412
G1 X198.51 Y195.787 E139.54577
G1 X198.769 Y195.331 E140.41788
G0 F900 X198.376 Y195.01
;TYPE:WALL-OUTER
G1 F1200 X198.951 Y194.512 E141.68289
G1 X198.954 Y194.493 E141.71488
G1 X199.481 Y194.47 E142.59212
G1 X199.501 Y193.954 E143.45088
G1 X199.511 Y193.952 E143.46784
G1 X200.01 Y193.376 E144.73519
G1 X200.674 Y192.999 E146.005
G1 X200.681 Y192.981 E146.03712
G1 X201.209 Y193.062 E146.92546
G1 X201.329 Y192.556 E147.79028
G1 X201.934 Y192.088 E149.06229
G1 X202.661 Y191.845 E150.33704
G1 X202.665 Y191.838 E150.35045
G1 X203.158 Y192.019 E151.22382
G1 X203.378 Y191.543 E152.09587
G1 X203.387 Y191.545 E152.1112
G1 X204.074 Y191.203 E153.38743
G1 X204.833 Y191.105 E154.66013
G1 X204.839 Y191.098 E154.67546
G1 X205.283 Y191.369 E155.54051
G1 X205.59 Y190.949 E156.40567
G1 X205.605 Y190.955 E156.43254
G1 X206.342 Y190.753 E157.70337
G1 X207.104 Y190.807 E158.97376
G1 X207.119 Y190.797 E159.00374
G1 X207.51 Y191.156 E159.88649
G1 X207.89 Y190.803 E160.74903
G1 X207.896 Y190.807 E160.76102
G1 X208.658 Y190.753 E162.03141
G1 X209.392 Y190.955 E163.29743
G1 X209.419 Y190.943 E163.34657
G1 X209.737 Y191.373 E164.23597
G1 X210.17 Y191.105 E165.08282
G1 X210.925 Y191.203 E166.34892
G1 X211.612 Y191.545 E167.62514
G1 X211.631 Y191.541 E167.65743
G1 X211.856 Y192.02 E168.53752
G1 X212.335 Y191.842 E169.38732
G1 X213.066 Y192.089 E170.6705
G1 X213.671 Y192.556 E171.94149
G1 X213.681 Y192.556 E171.95812
G1 X213.805 Y193.068 E172.8342
G1 X214.32 Y192.987 E173.70117
G1 X214.324 Y192.998 E173.72064
G1 X214.99 Y193.376 E174.99416
G1 X215.488 Y193.951 E176.25917
G1 X215.507 Y193.954 E176.29116
G1 X215.53 Y194.481 E177.1684
G1 X216.046 Y194.501 E178.02715
G1 X216.048 Y194.511 E178.04411
G1 X216.624 Y195.01 E179.31147
G1 X217.001 Y195.674 E180.58127
G1 X217.02 Y195.681 E180.61495
G1 X216.939 Y196.207 E181.5
G1 X217.442 Y196.326 E182.35958
G1 X217.91 Y196.934 E183.63554
G1 X218.154 Y197.662 E184.9124
G1 X218.161 Y197.667 E184.92671
G1 X217.981 Y198.158 E185.79638
G1 X218.457 Y198.378 E186.66843
G1 X218.455 Y198.387 E186.68377
G1 X218.797 Y199.074 E187.95999
G1 X218.895 Y199.833 E189.23269
G1 X218.902 Y199.839 E189.24802
G1 X218.631 Y200.283 E190.11307
G1 X219.052 Y200.591 E190.98055
G1 X219.047 Y200.601 E190.99915
G1 X219.248 Y201.342 E192.27597
G1 X219.195 Y202.107 E193.55122
G1 X219.203 Y202.119 E193.5752
G1 X218.844 Y202.51 E194.45795
G1 X219.197 Y202.89 E195.32048
G1 X219.248 Y203.658 E196.60048
G1 X219.047 Y204.396 E197.87249
G1 X219.057 Y204.419 E197.9142
G1 X218.627 Y204.737 E198.80359
G1 X218.895 Y205.17 E199.65044
G1 X218.797 Y205.925 E200.91654
G1 X218.455 Y206.612 E202.19277
G1 X218.459 Y206.631 E202.22506
G1 X217.98 Y206.856 E203.10514
G1 X218.157 Y207.334 E203.95281
G1 X217.91 Y208.067 E205.23914
G1 X217.443 Y208.671 E206.50882
G1 X217.443 Y208.683 E206.52877
G1 X216.932 Y208.807 E207.40323
G1 X217.013 Y209.32 E208.26692
G1 X217.002 Y209.324 E208.28639
G1 X216.624 Y209.99 E209.55991
G1 X216.049 Y210.488 E210.82492
G1 X216.046 Y210.507 E210.85691
G1 X215.519 Y210.53 E211.73414
G1 X215.499 Y211.046 E212.5929
G1 X215.489 Y211.048 E212.60986
G1 X214.99 Y211.624 E213.87722
G1 X214.326 Y212.001 E215.14702
G1 X214.319 Y212.02 E215.1807
G1 X213.793 Y211.939 E216.06575
G1 X213.674 Y212.442 E216.92533
G1 X213.066 Y212.91 E218.20129
G1 X212.338 Y213.154 E219.47815
G1 X212.333 Y213.161 E219.49246
G1 X211.842 Y212.981 E220.36213
G1 X211.622 Y213.457 E221.23418
G1 X211.613 Y213.455 E221.24951
G1 X210.926 Y213.797 E222.52574
G1 X210.167 Y213.895 E223.79844
G1 X210.161 Y213.902 E223.81377
G1 X209.717 Y213.631 E224.67882
G1 X209.409 Y214.052 E225.5463
G1 X209.397 Y214.047 E225.56792
G1 X208.658 Y214.248 E226.84153
G1 X207.893 Y214.195 E228.11678
G1 X207.881 Y214.203 E228.14076
G1 X207.49 Y213.844 E229.02351
G1 X207.11 Y214.197 E229.88605
G1 X206.342 Y214.248 E231.16605
G1 X205.601 Y214.047 E232.44287
G1 X205.581 Y214.056 E232.47934
G1 X205.263 Y213.627 E233.3674
G1 X204.83 Y213.895 E234.21425
G1 X204.075 Y213.797 E235.48035
G1 X203.388 Y213.455 E236.75658
G1 X203.369 Y213.459 E236.78887
G1 X203.144 Y212.98 E237.66895
G1 X202.666 Y213.157 E238.51662
G1 X201.933 Y212.91 E239.80295
G1 X201.329 Y212.443 E241.07262
G1 X201.317 Y212.443 E241.09258
G1 X201.193 Y211.932 E241.96704
G1 X200.68 Y212.013 E242.83073
G1 X200.676 Y212.002 E242.85019
G1 X200.01 Y211.624 E244.12371
G1 X199.512 Y211.049 E245.38872
G1 X199.493 Y211.046 E245.42071
G1 X199.47 Y210.519 E246.29795
G1 X198.954 Y210.499 E247.15671
G1 X198.952 Y210.489 E247.17367
G1 X198.376 Y209.99 E248.44102
G1 X197.999 Y209.326 E249.71083
G1 X197.981 Y209.319 E249.74295
G1 X198.062 Y208.791 E250.63129
G1 X197.556 Y208.671 E251.49611
G1 X197.088 Y208.066 E252.76812
G1 X196.845 Y207.339 E254.04287
G1 X196.838 Y207.335 E254.05628
G1 X197.019 Y206.842 E254.92965
G1 X196.543 Y206.622 E255.8017
G1 X196.545 Y206.613 E255.81703
G1 X196.203 Y205.926 E257.09326
G1 X196.105 Y205.167 E258.36596
G1 X196.098 Y205.161 E258.38129
G1 X196.369 Y204.717 E259.24634
G1 X195.948 Y204.409 E260.11382
G1 X195.955 Y204.393 E260.14287
G1 X195.753 Y203.658 E261.4105
G1 X195.807 Y202.896 E262.68089
G1 X195.797 Y202.881 E262.71087
G1 X196.156 Y202.49 E263.59361
G1 X195.803 Y202.11 E264.45615
G1 X195.807 Y202.104 E264.46814
G1 X195.753 Y201.342 E265.73853
G1 X195.955 Y200.605 E267.00937
G1 X195.944 Y200.58 E267.05479
G1 X196.373 Y200.263 E267.94186
G1 X196.105 Y199.83 E268.78871
G1 X196.203 Y199.075 E270.05481
G1 X196.545 Y198.388 E271.33104
G1 X196.541 Y198.369 E271.36333
G1 X197.02 Y198.144 E272.24341
G1 X196.842 Y197.665 E273.09321
G1 X197.089 Y196.934 E274.37639
G1 X197.556 Y196.329 E275.64738
G1 X197.556 Y196.319 E275.66401
G1 X198.068 Y196.195 E276.54009
G1 X197.987 Y195.68 E277.40707
G1 X197.998 Y195.676 E277.42653
G1 X198.376 Y195.01 E278.70005
G0 F900 X198.846 Y195.394
G0 X200.702 Y196.909
;TYPE:SKIN
G1 X201.88 Y196.857 E282.62191
G1 X201.925 Y195.691 E286.50293
G1 X203.101 Y195.873 E290.46089
G1 X203.368 Y194.748 E294.30659
G1 X204.453 Y195.146 E298.15044
G1 X204.946 Y194.081 E302.05376
G1 X205.94 Y194.688 E305.92751
G1 X206.637 Y193.735 E309.85449
G1 X207.521 Y194.548 E313.84906
G1 X208.39 Y193.739 E317.79798
G1 X209.1 Y194.697 E321.76399
G1 X210.078 Y194.09 E325.59242
G1 X210.576 Y195.15 E329.4877
G1 X211.651 Y194.752 E333.30034
G1 X211.926 Y195.886 E337.18136
G1 X213.091 Y195.702 E341.1042
G1 X213.143 Y196.88 E345.02606
G1 X214.31 Y196.925 E348.9104
G1 X214.13 Y198.099 E352.86077
G1 X215.253 Y198.366 E356.7
G1 X214.854 Y199.456 E360.56061
G1 X215.918 Y199.948 E364.45952
G1 X215.312 Y200.94 E368.32586
G1 X216.264 Y201.637 E372.25015
G1 X215.453 Y202.52 E376.23777
G1 X216.262 Y203.39 E380.18913
G1 X215.303 Y204.098 E384.15385
G1 X215.91 Y205.078 E387.98794
G1 X214.852 Y205.577 E391.87861
G1 X215.251 Y206.653 E395.69553
G1 X214.114 Y206.93 E399.58782
G1 X214.297 Y208.091 E403.49699
G1 X213.12 Y208.143 E407.41553
G1 X213.075 Y209.31 E411.29987
G1 X211.901 Y209.13 E415.25024
G1 X211.634 Y210.253 E419.08947
G1 X210.544 Y209.854 E422.95009
G1 X210.052 Y210.918 E426.84899
G1 X209.06 Y210.312 E430.71533
G1 X208.363 Y211.265 E434.64231
G1 X207.48 Y210.453 E438.63218
G1 X206.609 Y211.263 E442.58824
G1 X205.898 Y210.305 E446.55622
G1 X204.922 Y210.91 E450.3755
G1 X204.423 Y209.852 E454.26617
G1 X203.347 Y210.251 E458.08309
G1 X203.07 Y209.114 E461.97538
G1 X201.909 Y209.297 E465.88455
G1 X201.857 Y208.12 E469.80309
G1 X200.691 Y208.075 E473.68411
G1 X200.873 Y206.899 E477.64207
G1 X199.748 Y206.632 E481.48777
G1 X200.146 Y205.547 E485.33162
G1 X199.081 Y205.054 E489.23494
G1 X199.688 Y204.06 E493.10869
G1 X198.735 Y203.363 E497.03567
G1 X199.548 Y202.479 E501.03024
G1 X198.739 Y201.61 E504.97916
G1 X199.697 Y200.901 E508.94319
G1 X199.091 Y199.922 E512.77269
G1 X200.15 Y199.424 E516.66496
G1 X199.752 Y198.349 E520.47761
G1 X200.886 Y198.074 E524.35863
G1 X200.702 Y196.909 E528.28146
G0 X203.712 Y207.088
G1 X204.185 Y207.013 E529.87432
G1 X203.687 Y206.516 E532.21441
G1 X203.677 Y206.287 E532.97679
G1 X202.894 Y206.257
G1 X203.449 Y206.277 E534.82393
G1 X202.965 Y205.794 E537.09817
G1 X203.018 Y205.454 E538.24267
G1 X202.502 Y205.331
G1 X202.269 Y205.275 E539.0397
G0 X204.502 Y206.964
G1 X204.62 Y207.448 E540.69664
G1 X204.688 Y207.726
G1 X204.84 Y207.668 E541.23775
G1 X205.398 Y207.463 E543.21495
G1 X205.732 Y208.171 E545.81865
G1 X206.382 Y207.768 E548.36236
G1 X206.869 Y208.425 E551.08242
G1 X207.472 Y207.864 E553.82175
G1 X208.083 Y208.427 E556.58512
G1 X208.229 Y208.229 E557.40335
G1 X201.747 Y201.747 E587.89269
G1 X202.233 Y201.387 E589.9043
G1 X201.828 Y200.734 E592.46
G1 X202.537 Y200.4 E595.0667
G1 X202.275 Y199.693 E597.57446
G1 X202.474 Y199.645 E598.25532
G1 X210.333 Y207.504 E635.22165
G1 X210.456 Y206.987 E636.98919
G1 X211.257 Y207.109 E639.68406
G1 X211.287 Y206.321 E642.30685
G1 X211.949 Y206.292 E644.51078
G1 X203.733 Y198.076 E683.15633
G1 X203.741 Y197.893 E683.76557
G1 X204.544 Y198.018 E686.46853
G1 X204.722 Y197.269 E689.02909
G1 X205.439 Y197.531 E691.56807
G1 X205.622 Y197.137 E693.01297
G1 X212.887 Y204.401 E727.18295
G1 X213.173 Y204.268 E728.23202
G1 X212.765 Y203.609 E730.80994
G1 X213.42 Y203.126 E733.51674
G1 X212.864 Y202.528 E736.23256
G1 X213.332 Y202.018 E738.53479
G1 X208.005 Y196.691 E763.59137
G1 X208.128 Y196.577 E764.14915
G1 X208.614 Y197.234 E766.86723
G1 X209.265 Y196.83 E769.41552
G1 X209.598 Y197.538 E772.0178
G1 X210.306 Y197.275 E774.52984
G1 X210.49 Y198.035 E777.13064
G1 X211.286 Y197.91 E779.81059
G1 X211.32 Y198.711 E782.47713
G1 X212.109 Y198.742 E785.10338
G1 X211.986 Y199.542 E787.79546
G1 X212.733 Y199.72 E790.34955
G1 X212.467 Y200.446 E792.92121
G1 X213.184 Y200.778 E795.54921
G1 X212.778 Y201.44 E798.13213
G1 X213.426 Y201.915 E800.80441
;MESH:NONMESH
G0 F600 X213.426 Y201.915 Z3.5
G0 F900 X200.079 Y194.212
G0 X199.826 Y193.992
;TIME_ELAPSED:40.022767
;LAYER:1
;TYPE:WALL-INNER
;MESH:Jeff_Suina1.stl
G1 F1200 X201.617 Y192.671 E803.58014
G1 X201.623 Y192.662 E803.59363
G1 X203.668 Y191.701 E806.41186
G1 X205.821 Y191.166 E809.17887
G1 X205.825 Y191.163 E809.1851
G1 X208.083 Y191.055 E812.00463
G1 X210.304 Y191.389 E814.80593
G1 X212.392 Y192.14 E817.57353
G1 X212.401 Y192.14 E817.58475
G1 X214.347 Y193.312 E820.41811
G1 X216.008 Y194.826 E823.22127
G1 X217.329 Y196.617 E825.997
G1 X217.338 Y196.623 E826.0105
G1 X218.299 Y198.668 E828.82872
G1 X218.834 Y200.821 E831.59573
G1 X218.837 Y200.825 E831.60197
G1 X218.944 Y203.084 E834.42267
G1 X218.612 Y205.301 E837.21867
G1 X217.86 Y207.392 E839.99021
G1 X217.86 Y207.401 E840.00144
G1 X216.688 Y209.347 E842.83479
G1 X215.173 Y211.009 E845.63972
G1 X213.388 Y212.326 E848.40647
G1 X213.383 Y212.334 E848.41824
G1 X211.336 Y213.293 E851.23767
G1 X211.33 Y213.299 E851.24825
G1 X209.174 Y213.834 E854.01888
G1 X209.169 Y213.838 E854.02687
G1 X206.929 Y213.943 E856.82379
G1 X206.922 Y213.946 E856.83329
G1 X204.701 Y213.613 E859.63441
G1 X202.608 Y212.86 E862.40872
G1 X202.6 Y212.86 E862.41869
G1 X200.652 Y211.686 E865.25547
G1 X198.993 Y210.173 E868.05596
G1 X197.672 Y208.386 E870.82767
G1 X197.663 Y208.38 E870.84117
G1 X196.702 Y206.334 E873.66052
G1 X196.166 Y204.174 E876.4363
G1 X196.162 Y204.169 E876.44429
G1 X196.057 Y201.926 E879.24495
G1 X196.055 Y201.921 E879.25166
G1 X196.389 Y199.701 E882.05173
G1 X196.388 Y199.696 E882.05809
G1 X197.14 Y197.613 E884.82025
G1 X197.14 Y197.598 E884.83895
G1 X198.31 Y195.656 E887.66675
G1 X199.826 Y193.992 E890.47436
G0 F900 X198.1 Y192.918
G1 F1200 X198.177 Y192.723 E890.73585
G1 X200.138 Y191.277 E893.77476
G1 X200.257 Y191.094 E894.04703
G1 X202.493 Y190.043 E897.1286
G1 X202.634 Y189.897 E897.38176
G1 X204.988 Y189.312 E900.4071
G1 X205.163 Y189.192 E900.67176
